(G-CODE GENERATED BY FLATCAM v8.991 - www.flatcam.org - Version Date: 2019/12/27)

(Name: 001_Sequencer_iso1)
(Type: G-code from Geometry)
(Units: MM)

(Created on Sunday, 01 March 2020 at 22:31)

(TOOL DIAMETER: 0.331 mm)
(Feedrate: 320.0 mm/min)
(Feedrate_Z: 60.0 mm/min)
(Feedrate rapids 1500.0 mm/min)

(Z_Cut: -0.2001 mm)
(Z_Move: 2.0 mm)
(Z Toolchange: 15.0 mm)
(X,Y Toolchange: 0.0000, 0.0000 mm)
(Z Start: None mm)
(Z End: 15.0 mm)
(Steps per circle: 64)
(Preprocessor Geometry: default)

(X range:    3.6580 ...  147.4911  mm)
(Y range:    3.7961 ...   97.0907  mm)

(Spindle Speed: None RPM)
G21
G90
G94

M03 S3000


G01 F320.00
G00 Z2.0000

M03
G00 X11.5396 Y5.3686
G01 F60.00
G01 Z-0.2001
G01 F320.00
G01 X11.4937 Y5.3179
G01 X11.4834 Y5.3054
G01 X11.4388 Y5.2453
G01 X11.4298 Y5.2318
G01 X11.3914 Y5.1677
G01 X11.3837 Y5.1533
G01 X11.3517 Y5.0857
G01 X11.3455 Y5.0707
G01 X11.3203 Y5.0003
G01 X11.3156 Y4.9848
G01 X11.2974 Y4.9123
G01 X11.2943 Y4.8963
G01 X11.2833 Y4.8224
G01 X11.2817 Y4.8062
G01 X11.2780 Y4.7315
G01 X11.2780 Y4.7153
G01 X11.2817 Y4.6406
G01 X11.2833 Y4.6244
G01 X11.2943 Y4.5504
G01 X11.2974 Y4.5345
G01 X11.3156 Y4.4620
G01 X11.3203 Y4.4464
G01 X11.3455 Y4.3760
G01 X11.3517 Y4.3610
G01 X11.3837 Y4.2934
G01 X11.3914 Y4.2791
G01 X11.4298 Y4.2150
G01 X11.4388 Y4.2015
G01 X11.4834 Y4.1414
G01 X11.4937 Y4.1288
G01 X11.5439 Y4.0734
G01 X11.5554 Y4.0619
G01 X11.6108 Y4.0117
G01 X11.6233 Y4.0014
G01 X11.6834 Y3.9569
G01 X11.6969 Y3.9479
G01 X11.7611 Y3.9094
G01 X11.7754 Y3.9018
G01 X11.8430 Y3.8698
G01 X11.8580 Y3.8636
G01 X11.9284 Y3.8384
G01 X11.9439 Y3.8337
G01 X12.0165 Y3.8155
G01 X12.0324 Y3.8123
G01 X12.1064 Y3.8013
G01 X12.1225 Y3.7998
G01 X12.1972 Y3.7961
G01 X12.2135 Y3.7961
G01 X12.2881 Y3.7998
G01 X12.3043 Y3.8013
G01 X12.3783 Y3.8123
G01 X12.3942 Y3.8155
G01 X12.4667 Y3.8337
G01 X12.4823 Y3.8384
G01 X12.5527 Y3.8636
G01 X12.5677 Y3.8698
G01 X12.6353 Y3.9018
G01 X12.6496 Y3.9094
G01 X12.7138 Y3.9479
G01 X12.7273 Y3.9569
G01 X12.7873 Y4.0014
G01 X12.7999 Y4.0117
G01 X12.8553 Y4.0619
G01 X12.8668 Y4.0734
G01 X12.9170 Y4.1288
G01 X12.9273 Y4.1414
G01 X12.9718 Y4.2015
G01 X12.9809 Y4.2150
G01 X13.0193 Y4.2791
G01 X13.0270 Y4.2934
G01 X13.0589 Y4.3610
G01 X13.0652 Y4.3760
G01 X13.0904 Y4.4464
G01 X13.0951 Y4.4620
G01 X13.1132 Y4.5345
G01 X13.1164 Y4.5504
G01 X13.1274 Y4.6244
G01 X13.1290 Y4.6406
G01 X13.1326 Y4.7153
G01 X13.1326 Y4.7315
G01 X13.1290 Y4.8062
G01 X13.1274 Y4.8224
G01 X13.1164 Y4.8963
G01 X13.1132 Y4.9123
G01 X13.0951 Y4.9848
G01 X13.0904 Y5.0003
G01 X13.0652 Y5.0707
G01 X13.0589 Y5.0857
G01 X13.0270 Y5.1533
G01 X13.0193 Y5.1677
G01 X12.9809 Y5.2318
G01 X12.9718 Y5.2453
G01 X12.9273 Y5.3054
G01 X12.9170 Y5.3179
G01 X12.8711 Y5.3686
G01 X12.8709 Y25.0515
G01 X12.8685 Y25.1005
G01 X12.8669 Y25.1167
G01 X12.8597 Y25.1653
G01 X12.8565 Y25.1812
G01 X12.8446 Y25.2288
G01 X12.8399 Y25.2444
G01 X12.8233 Y25.2906
G01 X12.8171 Y25.3056
G01 X12.7961 Y25.3500
G01 X12.7885 Y25.3643
G01 X12.7632 Y25.4064
G01 X12.7542 Y25.4199
G01 X12.7250 Y25.4593
G01 X12.7147 Y25.4719
G01 X12.6817 Y25.5083
G01 X12.6702 Y25.5197
G01 X12.6338 Y25.5527
G01 X12.6213 Y25.5630
G01 X12.5818 Y25.5923
G01 X12.5683 Y25.6013
G01 X12.5262 Y25.6265
G01 X12.5119 Y25.6342
G01 X12.4675 Y25.6552
G01 X12.4525 Y25.6614
G01 X12.4063 Y25.6779
G01 X12.3908 Y25.6826
G01 X12.3431 Y25.6946
G01 X12.3272 Y25.6977
G01 X12.2787 Y25.7049
G01 X12.2625 Y25.7065
G01 X12.2053 Y25.7091
G01 X10.3311 Y25.7091
G01 X10.3311 Y42.1576
G01 X13.5975 Y42.1576
G01 X13.6195 Y42.1414
G01 X13.6330 Y42.1323
G01 X13.6885 Y42.0990
G01 X13.7029 Y42.0914
G01 X13.7615 Y42.0636
G01 X13.7765 Y42.0574
G01 X13.8375 Y42.0356
G01 X13.8530 Y42.0309
G01 X13.9159 Y42.0151
G01 X13.9318 Y42.0120
G01 X13.9959 Y42.0025
G01 X14.0121 Y42.0009
G01 X14.0849 Y41.9975
G01 X15.4057 Y41.9975
G01 X15.4786 Y42.0009
G01 X15.4948 Y42.0025
G01 X15.5589 Y42.0120
G01 X15.5748 Y42.0151
G01 X15.6377 Y42.0309
G01 X15.6532 Y42.0356
G01 X15.7142 Y42.0574
G01 X15.7292 Y42.0636
G01 X15.7878 Y42.0914
G01 X15.8021 Y42.0990
G01 X15.8577 Y42.1323
G01 X15.8712 Y42.1414
G01 X15.9233 Y42.1800
G01 X15.9358 Y42.1903
G01 X15.9839 Y42.2338
G01 X15.9953 Y42.2453
G01 X16.0389 Y42.2933
G01 X16.0492 Y42.3058
G01 X16.0878 Y42.3579
G01 X16.0968 Y42.3714
G01 X16.1301 Y42.4270
G01 X16.1378 Y42.4413
G01 X16.1655 Y42.4999
G01 X16.1717 Y42.5149
G01 X16.1935 Y42.5759
G01 X16.1982 Y42.5915
G01 X16.2140 Y42.6543
G01 X16.2172 Y42.6703
G01 X16.2267 Y42.7344
G01 X16.2283 Y42.7505
G01 X16.2314 Y42.8153
G01 X16.2314 Y42.8315
G01 X16.2283 Y42.8962
G01 X16.2267 Y42.9124
G01 X16.2172 Y42.9765
G01 X16.2140 Y42.9924
G01 X16.1982 Y43.0553
G01 X16.1935 Y43.0708
G01 X16.1717 Y43.1319
G01 X16.1655 Y43.1469
G01 X16.1378 Y43.2055
G01 X16.1301 Y43.2198
G01 X16.0968 Y43.2754
G01 X16.0878 Y43.2889
G01 X16.0492 Y43.3409
G01 X16.0389 Y43.3535
G01 X15.9953 Y43.4015
G01 X15.9839 Y43.4130
G01 X15.9358 Y43.4565
G01 X15.9233 Y43.4668
G01 X15.8712 Y43.5054
G01 X15.8577 Y43.5144
G01 X15.8021 Y43.5478
G01 X15.7878 Y43.5554
G01 X15.7292 Y43.5831
G01 X15.7142 Y43.5893
G01 X15.6532 Y43.6112
G01 X15.6377 Y43.6159
G01 X15.5748 Y43.6316
G01 X15.5589 Y43.6348
G01 X15.4948 Y43.6443
G01 X15.4786 Y43.6459
G01 X15.4057 Y43.6493
G01 X14.0849 Y43.6493
G01 X14.0121 Y43.6459
G01 X13.9959 Y43.6443
G01 X13.9318 Y43.6348
G01 X13.9159 Y43.6316
G01 X13.8530 Y43.6159
G01 X13.8375 Y43.6112
G01 X13.7765 Y43.5893
G01 X13.7615 Y43.5831
G01 X13.7029 Y43.5554
G01 X13.6885 Y43.5478
G01 X13.6330 Y43.5144
G01 X13.6195 Y43.5054
G01 X13.5975 Y43.4891
G01 X9.6653 Y43.4891
G01 X9.6082 Y43.4865
G01 X9.5920 Y43.4849
G01 X9.5435 Y43.4777
G01 X9.5275 Y43.4746
G01 X9.4799 Y43.4626
G01 X9.4644 Y43.4579
G01 X9.4181 Y43.4414
G01 X9.4031 Y43.4352
G01 X9.3878 Y43.4279
G01 X9.3588 Y43.4142
G01 X9.3444 Y43.4065
G01 X9.3023 Y43.3813
G01 X9.2888 Y43.3723
G01 X9.2494 Y43.3430
G01 X9.2368 Y43.3327
G01 X9.2005 Y43.2997
G01 X9.1890 Y43.2883
G01 X9.1560 Y43.2519
G01 X9.1457 Y43.2393
G01 X9.1165 Y43.1999
G01 X9.1074 Y43.1864
G01 X9.0822 Y43.1443
G01 X9.0746 Y43.1300
G01 X9.0536 Y43.0856
G01 X9.0473 Y43.0706
G01 X9.0308 Y43.0244
G01 X9.0261 Y43.0088
G01 X9.0142 Y42.9612
G01 X9.0110 Y42.9453
G01 X9.0038 Y42.8967
G01 X9.0022 Y42.8805
G01 X8.9996 Y42.8234
G01 X8.9996 Y25.0434
G01 X9.0022 Y24.9862
G01 X9.0038 Y24.9701
G01 X9.0110 Y24.9215
G01 X9.0142 Y24.9056
G01 X9.0261 Y24.8580
G01 X9.0308 Y24.8424
G01 X9.0473 Y24.7962
G01 X9.0536 Y24.7812
G01 X9.0746 Y24.7368
G01 X9.0822 Y24.7225
G01 X9.1074 Y24.6804
G01 X9.1165 Y24.6669
G01 X9.1457 Y24.6274
G01 X9.1560 Y24.6149
G01 X9.1890 Y24.5785
G01 X9.2005 Y24.5670
G01 X9.2368 Y24.5341
G01 X9.2494 Y24.5238
G01 X9.2888 Y24.4945
G01 X9.3023 Y24.4855
G01 X9.3444 Y24.4603
G01 X9.3588 Y24.4526
G01 X9.4031 Y24.4316
G01 X9.4181 Y24.4254
G01 X9.4644 Y24.4089
G01 X9.4799 Y24.4041
G01 X9.5275 Y24.3922
G01 X9.5435 Y24.3890
G01 X9.5920 Y24.3818
G01 X9.6082 Y24.3802
G01 X9.6653 Y24.3776
G01 X11.5396 Y24.3776
G01 X11.5396 Y5.3686
G00 Z2.0000
G00 X14.0796 Y5.3686
G01 F60.00
G01 Z-0.2001
G01 F320.00
G01 X14.0337 Y5.3179
G01 X14.0234 Y5.3054
G01 X13.9788 Y5.2453
G01 X13.9698 Y5.2318
G01 X13.9314 Y5.1677
G01 X13.9237 Y5.1533
G01 X13.8917 Y5.0857
G01 X13.8855 Y5.0707
G01 X13.8603 Y5.0003
G01 X13.8556 Y4.9848
G01 X13.8374 Y4.9123
G01 X13.8343 Y4.8963
G01 X13.8233 Y4.8224
G01 X13.8217 Y4.8062
G01 X13.8180 Y4.7315
G01 X13.8180 Y4.7153
G01 X13.8217 Y4.6406
G01 X13.8233 Y4.6244
G01 X13.8343 Y4.5504
G01 X13.8374 Y4.5345
G01 X13.8556 Y4.4620
G01 X13.8603 Y4.4464
G01 X13.8855 Y4.3760
G01 X13.8917 Y4.3610
G01 X13.9237 Y4.2934
G01 X13.9314 Y4.2791
G01 X13.9698 Y4.2150
G01 X13.9788 Y4.2015
G01 X14.0234 Y4.1414
G01 X14.0337 Y4.1288
G01 X14.0839 Y4.0734
G01 X14.0954 Y4.0619
G01 X14.1508 Y4.0117
G01 X14.1633 Y4.0014
G01 X14.2234 Y3.9569
G01 X14.2369 Y3.9479
G01 X14.3011 Y3.9094
G01 X14.3154 Y3.9018
G01 X14.3830 Y3.8698
G01 X14.3980 Y3.8636
G01 X14.4684 Y3.8384
G01 X14.4839 Y3.8337
G01 X14.5565 Y3.8155
G01 X14.5724 Y3.8123
G01 X14.6464 Y3.8013
G01 X14.6625 Y3.7998
G01 X14.7372 Y3.7961
G01 X14.7535 Y3.7961
G01 X14.8281 Y3.7998
G01 X14.8443 Y3.8013
G01 X14.9183 Y3.8123
G01 X14.9342 Y3.8155
G01 X15.0067 Y3.8337
G01 X15.0223 Y3.8384
G01 X15.0927 Y3.8636
G01 X15.1077 Y3.8698
G01 X15.1753 Y3.9018
G01 X15.1896 Y3.9094
G01 X15.2538 Y3.9479
G01 X15.2673 Y3.9569
G01 X15.3273 Y4.0014
G01 X15.3399 Y4.0117
G01 X15.3953 Y4.0619
G01 X15.4068 Y4.0734
G01 X15.4570 Y4.1288
G01 X15.4673 Y4.1414
G01 X15.5118 Y4.2015
G01 X15.5209 Y4.2150
G01 X15.5593 Y4.2791
G01 X15.5670 Y4.2934
G01 X15.5989 Y4.3610
G01 X15.6052 Y4.3760
G01 X15.6304 Y4.4464
G01 X15.6351 Y4.4620
G01 X15.6532 Y4.5345
G01 X15.6564 Y4.5504
G01 X15.6674 Y4.6244
G01 X15.6690 Y4.6406
G01 X15.6726 Y4.7153
G01 X15.6726 Y4.7315
G01 X15.6690 Y4.8062
G01 X15.6674 Y4.8224
G01 X15.6564 Y4.8963
G01 X15.6532 Y4.9123
G01 X15.6351 Y4.9848
G01 X15.6304 Y5.0003
G01 X15.6052 Y5.0707
G01 X15.5989 Y5.0857
G01 X15.5670 Y5.1533
G01 X15.5593 Y5.1677
G01 X15.5209 Y5.2318
G01 X15.5118 Y5.2453
G01 X15.4673 Y5.3054
G01 X15.4570 Y5.3179
G01 X15.4111 Y5.3686
G01 X15.4111 Y24.3776
G01 X125.8396 Y24.3776
G01 X125.8396 Y14.8834
G01 X125.8422 Y14.8262
G01 X125.8438 Y14.8101
G01 X125.8510 Y14.7615
G01 X125.8542 Y14.7456
G01 X125.8661 Y14.6980
G01 X125.8708 Y14.6824
G01 X125.8873 Y14.6362
G01 X125.8936 Y14.6212
G01 X125.9146 Y14.5768
G01 X125.9222 Y14.5625
G01 X125.9474 Y14.5204
G01 X125.9565 Y14.5069
G01 X125.9857 Y14.4674
G01 X125.9960 Y14.4549
G01 X126.0290 Y14.4185
G01 X126.0405 Y14.4070
G01 X126.0768 Y14.3741
G01 X126.0894 Y14.3638
G01 X126.1288 Y14.3345
G01 X126.1423 Y14.3255
G01 X126.1844 Y14.3003
G01 X126.1988 Y14.2926
G01 X126.2431 Y14.2716
G01 X126.2581 Y14.2654
G01 X126.3044 Y14.2489
G01 X126.3199 Y14.2441
G01 X126.3675 Y14.2322
G01 X126.3835 Y14.2290
G01 X126.4320 Y14.2218
G01 X126.4482 Y14.2202
G01 X126.5053 Y14.2176
G01 X128.2196 Y14.2176
G01 X128.2228 Y14.1501
G01 X128.2244 Y14.1340
G01 X128.2339 Y14.0699
G01 X128.2371 Y14.0539
G01 X128.2528 Y13.9911
G01 X128.2576 Y13.9755
G01 X128.2794 Y13.9145
G01 X128.2856 Y13.8995
G01 X128.3133 Y13.8409
G01 X128.3210 Y13.8266
G01 X128.3543 Y13.7710
G01 X128.3633 Y13.7575
G01 X128.3796 Y13.7355
G01 X128.3796 Y12.3434
G01 X128.3822 Y12.2862
G01 X128.3838 Y12.2701
G01 X128.3910 Y12.2215
G01 X128.3942 Y12.2056
G01 X128.4061 Y12.1580
G01 X128.4108 Y12.1424
G01 X128.4273 Y12.0962
G01 X128.4336 Y12.0812
G01 X128.4546 Y12.0368
G01 X128.4622 Y12.0225
G01 X128.4874 Y11.9804
G01 X128.4965 Y11.9669
G01 X128.5257 Y11.9274
G01 X128.5360 Y11.9149
G01 X128.5690 Y11.8785
G01 X128.5805 Y11.8670
G01 X128.6168 Y11.8341
G01 X128.6294 Y11.8238
G01 X128.6688 Y11.7945
G01 X128.6823 Y11.7855
G01 X128.7244 Y11.7603
G01 X128.7388 Y11.7526
G01 X128.7831 Y11.7316
G01 X128.7981 Y11.7254
G01 X128.8444 Y11.7089
G01 X128.8599 Y11.7041
G01 X128.9075 Y11.6922
G01 X128.9235 Y11.6890
G01 X128.9720 Y11.6818
G01 X128.9882 Y11.6802
G01 X129.0453 Y11.6776
G01 X136.6653 Y11.6776
G01 X136.7225 Y11.6802
G01 X136.7387 Y11.6818
G01 X136.7872 Y11.6890
G01 X136.8031 Y11.6922
G01 X136.8508 Y11.7041
G01 X136.8663 Y11.7089
G01 X136.9125 Y11.7254
G01 X136.9275 Y11.7316
G01 X136.9719 Y11.7526
G01 X136.9862 Y11.7603
G01 X137.0283 Y11.7855
G01 X137.0418 Y11.7945
G01 X137.0813 Y11.8238
G01 X137.0938 Y11.8341
G01 X137.1302 Y11.8670
G01 X137.1417 Y11.8785
G01 X137.1747 Y11.9149
G01 X137.1850 Y11.9274
G01 X137.2142 Y11.9669
G01 X137.2232 Y11.9804
G01 X137.2485 Y12.0225
G01 X137.2561 Y12.0368
G01 X137.2771 Y12.0812
G01 X137.2833 Y12.0962
G01 X137.2999 Y12.1424
G01 X137.3046 Y12.1580
G01 X137.3165 Y12.2056
G01 X137.3197 Y12.2215
G01 X137.3269 Y12.2701
G01 X137.3285 Y12.2862
G01 X137.3311 Y12.3434
G01 X137.3311 Y16.7576
G01 X146.8253 Y16.7576
G01 X146.8825 Y16.7602
G01 X146.8987 Y16.7618
G01 X146.9472 Y16.7690
G01 X146.9631 Y16.7722
G01 X147.0108 Y16.7841
G01 X147.0263 Y16.7889
G01 X147.0725 Y16.8054
G01 X147.0875 Y16.8116
G01 X147.1319 Y16.8326
G01 X147.1462 Y16.8403
G01 X147.1883 Y16.8655
G01 X147.2018 Y16.8745
G01 X147.2413 Y16.9038
G01 X147.2538 Y16.9141
G01 X147.2902 Y16.9470
G01 X147.3017 Y16.9585
G01 X147.3347 Y16.9949
G01 X147.3450 Y17.0074
G01 X147.3742 Y17.0469
G01 X147.3832 Y17.0604
G01 X147.4085 Y17.1025
G01 X147.4161 Y17.1168
G01 X147.4371 Y17.1612
G01 X147.4433 Y17.1762
G01 X147.4599 Y17.2224
G01 X147.4646 Y17.2380
G01 X147.4765 Y17.2856
G01 X147.4797 Y17.3015
G01 X147.4869 Y17.3501
G01 X147.4885 Y17.3662
G01 X147.4911 Y17.4234
G01 X147.4911 Y60.6034
G01 X147.4885 Y60.6605
G01 X147.4869 Y60.6767
G01 X147.4797 Y60.7253
G01 X147.4765 Y60.7412
G01 X147.4646 Y60.7888
G01 X147.4599 Y60.8044
G01 X147.4433 Y60.8506
G01 X147.4371 Y60.8656
G01 X147.4161 Y60.9100
G01 X147.4085 Y60.9243
G01 X147.3832 Y60.9664
G01 X147.3742 Y60.9799
G01 X147.3450 Y61.0193
G01 X147.3347 Y61.0319
G01 X147.3017 Y61.0683
G01 X147.2902 Y61.0797
G01 X147.2538 Y61.1127
G01 X147.2413 Y61.1230
G01 X147.2018 Y61.1523
G01 X147.1883 Y61.1613
G01 X147.1462 Y61.1865
G01 X147.1319 Y61.1942
G01 X147.0875 Y61.2152
G01 X147.0725 Y61.2214
G01 X147.0263 Y61.2379
G01 X147.0108 Y61.2426
G01 X146.9631 Y61.2546
G01 X146.9472 Y61.2577
G01 X146.8987 Y61.2649
G01 X146.8825 Y61.2665
G01 X146.8335 Y61.2689
G01 X135.2732 Y61.2691
G01 X135.2512 Y61.2854
G01 X135.2377 Y61.2944
G01 X135.1821 Y61.3278
G01 X135.1678 Y61.3354
G01 X135.1092 Y61.3631
G01 X135.0942 Y61.3693
G01 X135.0332 Y61.3912
G01 X135.0177 Y61.3959
G01 X134.9548 Y61.4116
G01 X134.9389 Y61.4148
G01 X134.8748 Y61.4243
G01 X134.8586 Y61.4259
G01 X134.7857 Y61.4293
G01 X133.4649 Y61.4293
G01 X133.3921 Y61.4259
G01 X133.3759 Y61.4243
G01 X133.3118 Y61.4148
G01 X133.2959 Y61.4116
G01 X133.2330 Y61.3959
G01 X133.2175 Y61.3912
G01 X133.1565 Y61.3693
G01 X133.1415 Y61.3631
G01 X133.0829 Y61.3354
G01 X133.0685 Y61.3278
G01 X133.0130 Y61.2944
G01 X132.9995 Y61.2854
G01 X132.9474 Y61.2468
G01 X132.9348 Y61.2365
G01 X132.8868 Y61.1930
G01 X132.8753 Y61.1815
G01 X132.8318 Y61.1335
G01 X132.8215 Y61.1209
G01 X132.7829 Y61.0689
G01 X132.7739 Y61.0554
G01 X132.7406 Y60.9998
G01 X132.7329 Y60.9855
G01 X132.7052 Y60.9269
G01 X132.6990 Y60.9119
G01 X132.6772 Y60.8508
G01 X132.6724 Y60.8353
G01 X132.6567 Y60.7724
G01 X132.6535 Y60.7565
G01 X132.6440 Y60.6924
G01 X132.6424 Y60.6762
G01 X132.6392 Y60.6115
G01 X132.6392 Y60.5953
G01 X132.6424 Y60.5305
G01 X132.6440 Y60.5144
G01 X132.6535 Y60.4503
G01 X132.6567 Y60.4343
G01 X132.6724 Y60.3715
G01 X132.6772 Y60.3559
G01 X132.6990 Y60.2949
G01 X132.7052 Y60.2799
G01 X132.7329 Y60.2213
G01 X132.7406 Y60.2070
G01 X132.7739 Y60.1514
G01 X132.7829 Y60.1379
G01 X132.8215 Y60.0858
G01 X132.8318 Y60.0733
G01 X132.8753 Y60.0253
G01 X132.8868 Y60.0138
G01 X132.9348 Y59.9703
G01 X132.9474 Y59.9600
G01 X132.9995 Y59.9214
G01 X133.0130 Y59.9123
G01 X133.0685 Y59.8790
G01 X133.0829 Y59.8714
G01 X133.1415 Y59.8436
G01 X133.1565 Y59.8374
G01 X133.2175 Y59.8156
G01 X133.2330 Y59.8109
G01 X133.2959 Y59.7951
G01 X133.3118 Y59.7920
G01 X133.3759 Y59.7825
G01 X133.3921 Y59.7809
G01 X133.4649 Y59.7775
G01 X134.7857 Y59.7775
G01 X134.8586 Y59.7809
G01 X134.8748 Y59.7825
G01 X134.9389 Y59.7920
G01 X134.9548 Y59.7951
G01 X135.0177 Y59.8109
G01 X135.0332 Y59.8156
G01 X135.0942 Y59.8374
G01 X135.1092 Y59.8436
G01 X135.1678 Y59.8714
G01 X135.1821 Y59.8790
G01 X135.2377 Y59.9123
G01 X135.2512 Y59.9214
G01 X135.2732 Y59.9376
G01 X146.1596 Y59.9376
G01 X146.1596 Y18.0891
G01 X136.6653 Y18.0891
G01 X136.6082 Y18.0865
G01 X136.5920 Y18.0849
G01 X136.5435 Y18.0777
G01 X136.5275 Y18.0746
G01 X136.4799 Y18.0626
G01 X136.4644 Y18.0579
G01 X136.4181 Y18.0414
G01 X136.4031 Y18.0352
G01 X136.3588 Y18.0142
G01 X136.3444 Y18.0065
G01 X136.3023 Y17.9813
G01 X136.2888 Y17.9723
G01 X136.2494 Y17.9430
G01 X136.2368 Y17.9327
G01 X136.2005 Y17.8997
G01 X136.1890 Y17.8883
G01 X136.1560 Y17.8519
G01 X136.1457 Y17.8393
G01 X136.1165 Y17.7999
G01 X136.1074 Y17.7864
G01 X136.0822 Y17.7443
G01 X136.0746 Y17.7300
G01 X136.0536 Y17.6856
G01 X136.0473 Y17.6706
G01 X136.0308 Y17.6244
G01 X136.0261 Y17.6088
G01 X136.0142 Y17.5612
G01 X136.0110 Y17.5453
G01 X136.0038 Y17.4967
G01 X136.0022 Y17.4805
G01 X135.9996 Y17.4234
G01 X135.9996 Y13.0091
G01 X129.7111 Y13.0091
G01 X129.7111 Y13.7355
G01 X129.7274 Y13.7575
G01 X129.7364 Y13.7710
G01 X129.7697 Y13.8266
G01 X129.7774 Y13.8409
G01 X129.8051 Y13.8995
G01 X129.8113 Y13.9145
G01 X129.8331 Y13.9755
G01 X129.8378 Y13.9911
G01 X129.8536 Y14.0539
G01 X129.8568 Y14.0699
G01 X129.8663 Y14.1340
G01 X129.8679 Y14.1501
G01 X129.8712 Y14.2230
G01 X129.8712 Y15.5438
G01 X129.8679 Y15.6166
G01 X129.8663 Y15.6328
G01 X129.8568 Y15.6969
G01 X129.8536 Y15.7128
G01 X129.8378 Y15.7757
G01 X129.8331 Y15.7912
G01 X129.8113 Y15.8523
G01 X129.8051 Y15.8673
G01 X129.7774 Y15.9259
G01 X129.7697 Y15.9402
G01 X129.7364 Y15.9958
G01 X129.7274 Y16.0093
G01 X129.6888 Y16.0613
G01 X129.6785 Y16.0739
G01 X129.6349 Y16.1219
G01 X129.6235 Y16.1334
G01 X129.5754 Y16.1769
G01 X129.5629 Y16.1872
G01 X129.5108 Y16.2258
G01 X129.4973 Y16.2348
G01 X129.4417 Y16.2682
G01 X129.4274 Y16.2758
G01 X129.3688 Y16.3035
G01 X129.3538 Y16.3097
G01 X129.2928 Y16.3316
G01 X129.2773 Y16.3363
G01 X129.2144 Y16.3520
G01 X129.1985 Y16.3552
G01 X129.1344 Y16.3647
G01 X129.1182 Y16.3663
G01 X129.0535 Y16.3695
G01 X129.0372 Y16.3695
G01 X128.9725 Y16.3663
G01 X128.9563 Y16.3647
G01 X128.8922 Y16.3552
G01 X128.8763 Y16.3520
G01 X128.8134 Y16.3363
G01 X128.7979 Y16.3316
G01 X128.7369 Y16.3097
G01 X128.7219 Y16.3035
G01 X128.6633 Y16.2758
G01 X128.6489 Y16.2682
G01 X128.5934 Y16.2348
G01 X128.5799 Y16.2258
G01 X128.5278 Y16.1872
G01 X128.5152 Y16.1769
G01 X128.4672 Y16.1334
G01 X128.4557 Y16.1219
G01 X128.4122 Y16.0739
G01 X128.4019 Y16.0613
G01 X128.3633 Y16.0093
G01 X128.3543 Y15.9958
G01 X128.3210 Y15.9402
G01 X128.3133 Y15.9259
G01 X128.2856 Y15.8673
G01 X128.2794 Y15.8523
G01 X128.2576 Y15.7912
G01 X128.2528 Y15.7757
G01 X128.2371 Y15.7128
G01 X128.2339 Y15.6969
G01 X128.2244 Y15.6328
G01 X128.2228 Y15.6166
G01 X128.2196 Y15.5491
G01 X127.1711 Y15.5491
G01 X127.1711 Y25.0434
G01 X127.1685 Y25.1005
G01 X127.1669 Y25.1167
G01 X127.1597 Y25.1653
G01 X127.1565 Y25.1812
G01 X127.1446 Y25.2288
G01 X127.1399 Y25.2444
G01 X127.1233 Y25.2906
G01 X127.1171 Y25.3056
G01 X127.0961 Y25.3500
G01 X127.0885 Y25.3643
G01 X127.0632 Y25.4064
G01 X127.0542 Y25.4199
G01 X127.0250 Y25.4593
G01 X127.0147 Y25.4719
G01 X126.9817 Y25.5083
G01 X126.9702 Y25.5197
G01 X126.9338 Y25.5527
G01 X126.9213 Y25.5630
G01 X126.8818 Y25.5923
G01 X126.8683 Y25.6013
G01 X126.8262 Y25.6265
G01 X126.8119 Y25.6342
G01 X126.7675 Y25.6552
G01 X126.7525 Y25.6614
G01 X126.7063 Y25.6779
G01 X126.6908 Y25.6826
G01 X126.6431 Y25.6946
G01 X126.6272 Y25.6977
G01 X126.5787 Y25.7049
G01 X126.5625 Y25.7065
G01 X126.5053 Y25.7091
G01 X14.7453 Y25.7091
G01 X14.6882 Y25.7065
G01 X14.6720 Y25.7049
G01 X14.6235 Y25.6977
G01 X14.6075 Y25.6946
G01 X14.5599 Y25.6826
G01 X14.5444 Y25.6779
G01 X14.4981 Y25.6614
G01 X14.4831 Y25.6552
G01 X14.4388 Y25.6342
G01 X14.4244 Y25.6265
G01 X14.3823 Y25.6013
G01 X14.3688 Y25.5923
G01 X14.3294 Y25.5630
G01 X14.3168 Y25.5527
G01 X14.2805 Y25.5197
G01 X14.2690 Y25.5083
G01 X14.2360 Y25.4719
G01 X14.2257 Y25.4593
G01 X14.1965 Y25.4199
G01 X14.1874 Y25.4064
G01 X14.1622 Y25.3643
G01 X14.1546 Y25.3500
G01 X14.1336 Y25.3056
G01 X14.1273 Y25.2906
G01 X14.1108 Y25.2444
G01 X14.1061 Y25.2288
G01 X14.0942 Y25.1812
G01 X14.0910 Y25.1653
G01 X14.0838 Y25.1167
G01 X14.0822 Y25.1005
G01 X14.0798 Y25.0515
G01 X14.0796 Y5.3686
G00 Z2.0000
G00 X25.2800 Y9.8115
G01 F60.00
G01 Z-0.2001
G01 F320.00
G01 X25.2800 Y9.7953
G01 X25.2897 Y9.5992
G01 X25.2913 Y9.5831
G01 X25.3201 Y9.3889
G01 X25.3232 Y9.3730
G01 X25.3709 Y9.1826
G01 X25.3756 Y9.1671
G01 X25.4418 Y8.9823
G01 X25.4480 Y8.9673
G01 X25.5319 Y8.7898
G01 X25.5395 Y8.7755
G01 X25.6405 Y8.6072
G01 X25.6495 Y8.5937
G01 X25.7664 Y8.4360
G01 X25.7767 Y8.4235
G01 X25.9085 Y8.2780
G01 X25.9200 Y8.2665
G01 X26.0654 Y8.1347
G01 X26.0780 Y8.1244
G01 X26.2356 Y8.0075
G01 X26.2491 Y7.9985
G01 X26.4175 Y7.8976
G01 X26.4318 Y7.8899
G01 X26.6092 Y7.8060
G01 X26.6242 Y7.7998
G01 X26.8090 Y7.7337
G01 X26.8246 Y7.7290
G01 X27.0149 Y7.6813
G01 X27.0309 Y7.6781
G01 X27.2250 Y7.6493
G01 X27.2412 Y7.6477
G01 X27.4372 Y7.6381
G01 X27.4535 Y7.6381
G01 X27.6495 Y7.6477
G01 X27.6657 Y7.6493
G01 X27.8598 Y7.6781
G01 X27.8757 Y7.6813
G01 X28.0661 Y7.7290
G01 X28.0817 Y7.7337
G01 X28.2665 Y7.7998
G01 X28.2815 Y7.8060
G01 X28.4589 Y7.8899
G01 X28.4732 Y7.8976
G01 X28.6416 Y7.9985
G01 X28.6551 Y8.0075
G01 X28.8127 Y8.1244
G01 X28.8253 Y8.1347
G01 X28.9707 Y8.2665
G01 X28.9822 Y8.2780
G01 X29.1140 Y8.4235
G01 X29.1243 Y8.4360
G01 X29.2412 Y8.5937
G01 X29.2502 Y8.6072
G01 X29.3511 Y8.7755
G01 X29.3588 Y8.7898
G01 X29.4427 Y8.9673
G01 X29.4489 Y8.9823
G01 X29.5150 Y9.1671
G01 X29.5198 Y9.1826
G01 X29.5674 Y9.3730
G01 X29.5706 Y9.3889
G01 X29.5994 Y9.5831
G01 X29.6010 Y9.5992
G01 X29.6106 Y9.7953
G01 X29.6106 Y9.8115
G01 X29.6010 Y10.0075
G01 X29.5994 Y10.0237
G01 X29.5706 Y10.2178
G01 X29.5674 Y10.2338
G01 X29.5198 Y10.4242
G01 X29.5150 Y10.4397
G01 X29.4489 Y10.6245
G01 X29.4427 Y10.6395
G01 X29.3588 Y10.8169
G01 X29.3511 Y10.8313
G01 X29.2502 Y10.9996
G01 X29.2412 Y11.0131
G01 X29.1243 Y11.1708
G01 X29.1140 Y11.1833
G01 X28.9822 Y11.3287
G01 X28.9707 Y11.3402
G01 X28.8253 Y11.4720
G01 X28.8127 Y11.4823
G01 X28.6551 Y11.5992
G01 X28.6416 Y11.6083
G01 X28.4732 Y11.7092
G01 X28.4589 Y11.7168
G01 X28.2815 Y11.8007
G01 X28.2665 Y11.8070
G01 X28.0817 Y11.8731
G01 X28.0661 Y11.8778
G01 X27.8757 Y11.9255
G01 X27.8598 Y11.9287
G01 X27.6657 Y11.9575
G01 X27.6495 Y11.9590
G01 X27.4535 Y11.9687
G01 X27.4372 Y11.9687
G01 X27.2412 Y11.9590
G01 X27.2250 Y11.9575
G01 X27.0309 Y11.9287
G01 X27.0149 Y11.9255
G01 X26.8246 Y11.8778
G01 X26.8090 Y11.8731
G01 X26.6242 Y11.8070
G01 X26.6092 Y11.8007
G01 X26.4318 Y11.7168
G01 X26.4175 Y11.7092
G01 X26.2491 Y11.6083
G01 X26.2356 Y11.5992
G01 X26.0780 Y11.4823
G01 X26.0654 Y11.4720
G01 X25.9200 Y11.3402
G01 X25.9085 Y11.3287
G01 X25.7767 Y11.1833
G01 X25.7664 Y11.1708
G01 X25.6495 Y11.0131
G01 X25.6405 Y10.9996
G01 X25.5395 Y10.8313
G01 X25.5319 Y10.8169
G01 X25.4480 Y10.6395
G01 X25.4418 Y10.6245
G01 X25.3756 Y10.4397
G01 X25.3709 Y10.4242
G01 X25.3232 Y10.2338
G01 X25.3201 Y10.2178
G01 X25.2913 Y10.0237
G01 X25.2897 Y10.0075
G01 X25.2800 Y9.8115
G00 Z2.0000
G00 X17.9305 Y21.8376
G01 F60.00
G01 Z-0.2001
G01 F320.00
G01 X123.2996 Y21.8376
G01 X123.2996 Y9.8034
G01 X123.3022 Y9.7462
G01 X123.3038 Y9.7301
G01 X123.3110 Y9.6815
G01 X123.3142 Y9.6656
G01 X123.3261 Y9.6180
G01 X123.3308 Y9.6024
G01 X123.3473 Y9.5562
G01 X123.3536 Y9.5412
G01 X123.3746 Y9.4968
G01 X123.3822 Y9.4825
G01 X123.4074 Y9.4404
G01 X123.4165 Y9.4269
G01 X123.4457 Y9.3874
G01 X123.4560 Y9.3749
G01 X123.4890 Y9.3385
G01 X123.5005 Y9.3270
G01 X123.5368 Y9.2941
G01 X123.5494 Y9.2838
G01 X123.5888 Y9.2545
G01 X123.6023 Y9.2455
G01 X123.6444 Y9.2203
G01 X123.6588 Y9.2126
G01 X123.7031 Y9.1916
G01 X123.7181 Y9.1854
G01 X123.7644 Y9.1689
G01 X123.7799 Y9.1641
G01 X123.8275 Y9.1522
G01 X123.8435 Y9.1490
G01 X123.8920 Y9.1418
G01 X123.9082 Y9.1402
G01 X123.9653 Y9.1376
G01 X139.2135 Y9.1378
G01 X139.2625 Y9.1402
G01 X139.2787 Y9.1418
G01 X139.3272 Y9.1490
G01 X139.3431 Y9.1522
G01 X139.3908 Y9.1641
G01 X139.4063 Y9.1689
G01 X139.4525 Y9.1854
G01 X139.4675 Y9.1916
G01 X139.5119 Y9.2126
G01 X139.5262 Y9.2203
G01 X139.5683 Y9.2455
G01 X139.5818 Y9.2545
G01 X139.6213 Y9.2838
G01 X139.6338 Y9.2941
G01 X139.6702 Y9.3270
G01 X139.6817 Y9.3385
G01 X139.7147 Y9.3749
G01 X139.7250 Y9.3874
G01 X139.7542 Y9.4269
G01 X139.7632 Y9.4404
G01 X139.7885 Y9.4825
G01 X139.7961 Y9.4968
G01 X139.8171 Y9.5412
G01 X139.8233 Y9.5562
G01 X139.8399 Y9.6024
G01 X139.8446 Y9.6180
G01 X139.8565 Y9.6656
G01 X139.8597 Y9.6815
G01 X139.8669 Y9.7301
G01 X139.8685 Y9.7462
G01 X139.8711 Y9.8034
G01 X139.8711 Y13.7355
G01 X139.8874 Y13.7575
G01 X139.8964 Y13.7710
G01 X139.9297 Y13.8266
G01 X139.9374 Y13.8409
G01 X139.9651 Y13.8995
G01 X139.9713 Y13.9145
G01 X139.9931 Y13.9755
G01 X139.9978 Y13.9911
G01 X140.0136 Y14.0539
G01 X140.0168 Y14.0699
G01 X140.0263 Y14.1340
G01 X140.0279 Y14.1501
G01 X140.0312 Y14.2230
G01 X140.0312 Y15.5438
G01 X140.0279 Y15.6166
G01 X140.0263 Y15.6328
G01 X140.0168 Y15.6969
G01 X140.0136 Y15.7128
G01 X139.9978 Y15.7757
G01 X139.9931 Y15.7912
G01 X139.9713 Y15.8523
G01 X139.9651 Y15.8673
G01 X139.9374 Y15.9259
G01 X139.9297 Y15.9402
G01 X139.8964 Y15.9958
G01 X139.8874 Y16.0093
G01 X139.8488 Y16.0613
G01 X139.8385 Y16.0739
G01 X139.7949 Y16.1219
G01 X139.7835 Y16.1334
G01 X139.7354 Y16.1769
G01 X139.7229 Y16.1872
G01 X139.6708 Y16.2258
G01 X139.6573 Y16.2348
G01 X139.6017 Y16.2682
G01 X139.5874 Y16.2758
G01 X139.5288 Y16.3035
G01 X139.5138 Y16.3097
G01 X139.4528 Y16.3316
G01 X139.4373 Y16.3363
G01 X139.3744 Y16.3520
G01 X139.3585 Y16.3552
G01 X139.2944 Y16.3647
G01 X139.2782 Y16.3663
G01 X139.2135 Y16.3695
G01 X139.1972 Y16.3695
G01 X139.1325 Y16.3663
G01 X139.1163 Y16.3647
G01 X139.0522 Y16.3552
G01 X139.0363 Y16.3520
G01 X138.9734 Y16.3363
G01 X138.9579 Y16.3316
G01 X138.8969 Y16.3097
G01 X138.8819 Y16.3035
G01 X138.8233 Y16.2758
G01 X138.8089 Y16.2682
G01 X138.7534 Y16.2348
G01 X138.7399 Y16.2258
G01 X138.6878 Y16.1872
G01 X138.6752 Y16.1769
G01 X138.6272 Y16.1334
G01 X138.6157 Y16.1219
G01 X138.5722 Y16.0739
G01 X138.5619 Y16.0613
G01 X138.5233 Y16.0093
G01 X138.5143 Y15.9958
G01 X138.4810 Y15.9402
G01 X138.4733 Y15.9259
G01 X138.4456 Y15.8673
G01 X138.4394 Y15.8523
G01 X138.4176 Y15.7912
G01 X138.4128 Y15.7757
G01 X138.3971 Y15.7128
G01 X138.3939 Y15.6969
G01 X138.3844 Y15.6328
G01 X138.3828 Y15.6166
G01 X138.3794 Y15.5438
G01 X138.3794 Y14.2230
G01 X138.3828 Y14.1501
G01 X138.3844 Y14.1340
G01 X138.3939 Y14.0699
G01 X138.3971 Y14.0539
G01 X138.4128 Y13.9911
G01 X138.4176 Y13.9755
G01 X138.4394 Y13.9145
G01 X138.4456 Y13.8995
G01 X138.4733 Y13.8409
G01 X138.4810 Y13.8266
G01 X138.5143 Y13.7710
G01 X138.5233 Y13.7575
G01 X138.5396 Y13.7355
G01 X138.5396 Y10.4691
G01 X124.6311 Y10.4691
G01 X124.6309 Y22.5115
G01 X124.6285 Y22.5605
G01 X124.6269 Y22.5767
G01 X124.6197 Y22.6253
G01 X124.6165 Y22.6412
G01 X124.6046 Y22.6888
G01 X124.5999 Y22.7044
G01 X124.5833 Y22.7506
G01 X124.5771 Y22.7656
G01 X124.5561 Y22.8100
G01 X124.5485 Y22.8243
G01 X124.5232 Y22.8664
G01 X124.5142 Y22.8799
G01 X124.4850 Y22.9193
G01 X124.4747 Y22.9319
G01 X124.4417 Y22.9683
G01 X124.4302 Y22.9797
G01 X124.3938 Y23.0127
G01 X124.3813 Y23.0230
G01 X124.3418 Y23.0523
G01 X124.3283 Y23.0613
G01 X124.2862 Y23.0865
G01 X124.2719 Y23.0942
G01 X124.2275 Y23.1152
G01 X124.2125 Y23.1214
G01 X124.1663 Y23.1379
G01 X124.1508 Y23.1426
G01 X124.1031 Y23.1546
G01 X124.0872 Y23.1577
G01 X124.0387 Y23.1649
G01 X124.0225 Y23.1665
G01 X123.9653 Y23.1691
G01 X17.9305 Y23.1691
G01 X17.8799 Y23.2150
G01 X17.8673 Y23.2253
G01 X17.8073 Y23.2699
G01 X17.7938 Y23.2789
G01 X17.7296 Y23.3174
G01 X17.7153 Y23.3250
G01 X17.6477 Y23.3570
G01 X17.6327 Y23.3632
G01 X17.5623 Y23.3884
G01 X17.5467 Y23.3931
G01 X17.4742 Y23.4113
G01 X17.4583 Y23.4144
G01 X17.3843 Y23.4254
G01 X17.3681 Y23.4270
G01 X17.2935 Y23.4307
G01 X17.2772 Y23.4307
G01 X17.2025 Y23.4270
G01 X17.1864 Y23.4254
G01 X17.1124 Y23.4144
G01 X17.0965 Y23.4113
G01 X17.0239 Y23.3931
G01 X17.0084 Y23.3884
G01 X16.9380 Y23.3632
G01 X16.9230 Y23.3570
G01 X16.8554 Y23.3250
G01 X16.8411 Y23.3174
G01 X16.7769 Y23.2789
G01 X16.7634 Y23.2699
G01 X16.7033 Y23.2253
G01 X16.6908 Y23.2150
G01 X16.6354 Y23.1648
G01 X16.6239 Y23.1533
G01 X16.5737 Y23.0979
G01 X16.5634 Y23.0854
G01 X16.5188 Y23.0253
G01 X16.5098 Y23.0118
G01 X16.4714 Y22.9477
G01 X16.4637 Y22.9333
G01 X16.4317 Y22.8657
G01 X16.4255 Y22.8507
G01 X16.4003 Y22.7803
G01 X16.3956 Y22.7648
G01 X16.3774 Y22.6923
G01 X16.3743 Y22.6763
G01 X16.3633 Y22.6024
G01 X16.3617 Y22.5862
G01 X16.3580 Y22.5115
G01 X16.3580 Y22.4953
G01 X16.3617 Y22.4206
G01 X16.3633 Y22.4044
G01 X16.3743 Y22.3304
G01 X16.3774 Y22.3145
G01 X16.3956 Y22.2420
G01 X16.4003 Y22.2264
G01 X16.4255 Y22.1560
G01 X16.4317 Y22.1410
G01 X16.4637 Y22.0734
G01 X16.4714 Y22.0591
G01 X16.5098 Y21.9950
G01 X16.5188 Y21.9815
G01 X16.5634 Y21.9214
G01 X16.5737 Y21.9088
G01 X16.6239 Y21.8534
G01 X16.6354 Y21.8419
G01 X16.6908 Y21.7917
G01 X16.7033 Y21.7814
G01 X16.7634 Y21.7369
G01 X16.7769 Y21.7279
G01 X16.8411 Y21.6894
G01 X16.8554 Y21.6818
G01 X16.9230 Y21.6498
G01 X16.9380 Y21.6436
G01 X17.0084 Y21.6184
G01 X17.0239 Y21.6137
G01 X17.0965 Y21.5955
G01 X17.1124 Y21.5923
G01 X17.1864 Y21.5813
G01 X17.2025 Y21.5798
G01 X17.2772 Y21.5761
G01 X17.2935 Y21.5761
G01 X17.3681 Y21.5798
G01 X17.3843 Y21.5813
G01 X17.4583 Y21.5923
G01 X17.4742 Y21.5955
G01 X17.5467 Y21.6137
G01 X17.5623 Y21.6184
G01 X17.6327 Y21.6436
G01 X17.6477 Y21.6498
G01 X17.7153 Y21.6818
G01 X17.7296 Y21.6894
G01 X17.7938 Y21.7279
G01 X17.8073 Y21.7369
G01 X17.8673 Y21.7814
G01 X17.8799 Y21.7917
G01 X17.9305 Y21.8376
G00 Z2.0000
G00 X14.0796 Y29.4782
G01 F60.00
G01 Z-0.2001
G01 F320.00
G01 X14.0796 Y27.5834
G01 X14.0822 Y27.5262
G01 X14.0838 Y27.5101
G01 X14.0910 Y27.4615
G01 X14.0942 Y27.4456
G01 X14.1061 Y27.3980
G01 X14.1108 Y27.3824
G01 X14.1273 Y27.3362
G01 X14.1336 Y27.3212
G01 X14.1546 Y27.2768
G01 X14.1622 Y27.2625
G01 X14.1874 Y27.2204
G01 X14.1965 Y27.2069
G01 X14.2257 Y27.1674
G01 X14.2360 Y27.1549
G01 X14.2690 Y27.1185
G01 X14.2805 Y27.1070
G01 X14.3168 Y27.0741
G01 X14.3294 Y27.0638
G01 X14.3688 Y27.0345
G01 X14.3823 Y27.0255
G01 X14.4244 Y27.0003
G01 X14.4388 Y26.9926
G01 X14.4831 Y26.9716
G01 X14.4981 Y26.9654
G01 X14.5444 Y26.9489
G01 X14.5599 Y26.9441
G01 X14.6075 Y26.9322
G01 X14.6235 Y26.9290
G01 X14.6720 Y26.9218
G01 X14.6882 Y26.9202
G01 X14.7453 Y26.9176
G01 X130.9196 Y26.9176
G01 X130.9196 Y21.1112
G01 X130.9033 Y21.0893
G01 X130.8943 Y21.0758
G01 X130.8610 Y21.0202
G01 X130.8533 Y21.0059
G01 X130.8256 Y20.9473
G01 X130.8194 Y20.9323
G01 X130.7976 Y20.8712
G01 X130.7928 Y20.8557
G01 X130.7771 Y20.7928
G01 X130.7739 Y20.7769
G01 X130.7644 Y20.7128
G01 X130.7628 Y20.6966
G01 X130.7594 Y20.6238
G01 X130.7594 Y19.3030
G01 X130.7628 Y19.2301
G01 X130.7644 Y19.2140
G01 X130.7739 Y19.1499
G01 X130.7771 Y19.1339
G01 X130.7928 Y19.0711
G01 X130.7976 Y19.0555
G01 X130.8194 Y18.9945
G01 X130.8256 Y18.9795
G01 X130.8533 Y18.9209
G01 X130.8610 Y18.9066
G01 X130.8943 Y18.8510
G01 X130.9033 Y18.8375
G01 X130.9419 Y18.7854
G01 X130.9522 Y18.7729
G01 X130.9957 Y18.7249
G01 X131.0072 Y18.7134
G01 X131.0552 Y18.6699
G01 X131.0678 Y18.6596
G01 X131.1199 Y18.6210
G01 X131.1334 Y18.6119
G01 X131.1889 Y18.5786
G01 X131.2033 Y18.5710
G01 X131.2619 Y18.5432
G01 X131.2769 Y18.5370
G01 X131.3379 Y18.5152
G01 X131.3534 Y18.5105
G01 X131.4163 Y18.4947
G01 X131.4322 Y18.4916
G01 X131.4963 Y18.4821
G01 X131.5125 Y18.4805
G01 X131.5772 Y18.4773
G01 X131.5935 Y18.4773
G01 X131.6582 Y18.4805
G01 X131.6744 Y18.4821
G01 X131.7385 Y18.4916
G01 X131.7544 Y18.4947
G01 X131.8173 Y18.5105
G01 X131.8328 Y18.5152
G01 X131.8938 Y18.5370
G01 X131.9088 Y18.5432
G01 X131.9674 Y18.5710
G01 X131.9817 Y18.5786
G01 X132.0373 Y18.6119
G01 X132.0508 Y18.6210
G01 X132.1029 Y18.6596
G01 X132.1154 Y18.6699
G01 X132.1635 Y18.7134
G01 X132.1749 Y18.7249
G01 X132.2185 Y18.7729
G01 X132.2288 Y18.7854
G01 X132.2674 Y18.8375
G01 X132.2764 Y18.8510
G01 X132.3097 Y18.9066
G01 X132.3174 Y18.9209
G01 X132.3451 Y18.9795
G01 X132.3513 Y18.9945
G01 X132.3731 Y19.0555
G01 X132.3778 Y19.0711
G01 X132.3936 Y19.1339
G01 X132.3968 Y19.1499
G01 X132.4063 Y19.2140
G01 X132.4079 Y19.2301
G01 X132.4112 Y19.3030
G01 X132.4112 Y20.6238
G01 X132.4079 Y20.6966
G01 X132.4063 Y20.7128
G01 X132.3968 Y20.7769
G01 X132.3936 Y20.7928
G01 X132.3778 Y20.8557
G01 X132.3731 Y20.8712
G01 X132.3513 Y20.9323
G01 X132.3451 Y20.9473
G01 X132.3174 Y21.0059
G01 X132.3097 Y21.0202
G01 X132.2764 Y21.0758
G01 X132.2674 Y21.0893
G01 X132.2511 Y21.1112
G01 X132.2511 Y26.9176
G01 X141.7535 Y26.9178
G01 X141.8025 Y26.9202
G01 X141.8187 Y26.9218
G01 X141.8672 Y26.9290
G01 X141.8831 Y26.9322
G01 X141.9308 Y26.9441
G01 X141.9463 Y26.9489
G01 X141.9925 Y26.9654
G01 X142.0075 Y26.9716
G01 X142.0519 Y26.9926
G01 X142.0662 Y27.0003
G01 X142.1083 Y27.0255
G01 X142.1218 Y27.0345
G01 X142.1613 Y27.0638
G01 X142.1738 Y27.0741
G01 X142.2102 Y27.1070
G01 X142.2217 Y27.1185
G01 X142.2547 Y27.1549
G01 X142.2650 Y27.1674
G01 X142.2942 Y27.2069
G01 X142.3032 Y27.2204
G01 X142.3285 Y27.2625
G01 X142.3361 Y27.2768
G01 X142.3571 Y27.3212
G01 X142.3633 Y27.3362
G01 X142.3799 Y27.3824
G01 X142.3846 Y27.3980
G01 X142.3965 Y27.4456
G01 X142.3997 Y27.4615
G01 X142.4069 Y27.5101
G01 X142.4085 Y27.5262
G01 X142.4111 Y27.5834
G01 X142.4111 Y42.1576
G01 X143.1375 Y42.1576
G01 X143.1595 Y42.1414
G01 X143.1730 Y42.1323
G01 X143.2285 Y42.0990
G01 X143.2429 Y42.0914
G01 X143.3015 Y42.0636
G01 X143.3165 Y42.0574
G01 X143.3775 Y42.0356
G01 X143.3930 Y42.0309
G01 X143.4559 Y42.0151
G01 X143.4718 Y42.0120
G01 X143.5359 Y42.0025
G01 X143.5521 Y42.0009
G01 X143.6249 Y41.9975
G01 X144.9457 Y41.9975
G01 X145.0186 Y42.0009
G01 X145.0348 Y42.0025
G01 X145.0989 Y42.0120
G01 X145.1148 Y42.0151
G01 X145.1777 Y42.0309
G01 X145.1932 Y42.0356
G01 X145.2542 Y42.0574
G01 X145.2692 Y42.0636
G01 X145.3278 Y42.0914
G01 X145.3421 Y42.0990
G01 X145.3977 Y42.1323
G01 X145.4112 Y42.1414
G01 X145.4633 Y42.1800
G01 X145.4758 Y42.1903
G01 X145.5239 Y42.2338
G01 X145.5353 Y42.2453
G01 X145.5789 Y42.2933
G01 X145.5892 Y42.3058
G01 X145.6278 Y42.3579
G01 X145.6368 Y42.3714
G01 X145.6701 Y42.4270
G01 X145.6778 Y42.4413
G01 X145.7055 Y42.4999
G01 X145.7117 Y42.5149
G01 X145.7335 Y42.5759
G01 X145.7382 Y42.5915
G01 X145.7540 Y42.6543
G01 X145.7572 Y42.6703
G01 X145.7667 Y42.7344
G01 X145.7683 Y42.7505
G01 X145.7714 Y42.8153
G01 X145.7714 Y42.8315
G01 X145.7683 Y42.8962
G01 X145.7667 Y42.9124
G01 X145.7572 Y42.9765
G01 X145.7540 Y42.9924
G01 X145.7382 Y43.0553
G01 X145.7335 Y43.0708
G01 X145.7117 Y43.1319
G01 X145.7055 Y43.1469
G01 X145.6778 Y43.2055
G01 X145.6701 Y43.2198
G01 X145.6368 Y43.2754
G01 X145.6278 Y43.2889
G01 X145.5892 Y43.3409
G01 X145.5789 Y43.3535
G01 X145.5353 Y43.4015
G01 X145.5239 Y43.4130
G01 X145.4758 Y43.4565
G01 X145.4633 Y43.4668
G01 X145.4112 Y43.5054
G01 X145.3977 Y43.5144
G01 X145.3421 Y43.5478
G01 X145.3278 Y43.5554
G01 X145.2692 Y43.5831
G01 X145.2542 Y43.5893
G01 X145.1932 Y43.6112
G01 X145.1777 Y43.6159
G01 X145.1148 Y43.6316
G01 X145.0989 Y43.6348
G01 X145.0348 Y43.6443
G01 X145.0186 Y43.6459
G01 X144.9457 Y43.6493
G01 X143.6249 Y43.6493
G01 X143.5521 Y43.6459
G01 X143.5359 Y43.6443
G01 X143.4718 Y43.6348
G01 X143.4559 Y43.6316
G01 X143.3930 Y43.6159
G01 X143.3775 Y43.6112
G01 X143.3165 Y43.5893
G01 X143.3015 Y43.5831
G01 X143.2429 Y43.5554
G01 X143.2285 Y43.5478
G01 X143.1730 Y43.5144
G01 X143.1595 Y43.5054
G01 X143.1375 Y43.4891
G01 X142.4111 Y43.4891
G01 X142.4111 Y52.9834
G01 X142.4085 Y53.0405
G01 X142.4069 Y53.0567
G01 X142.3997 Y53.1053
G01 X142.3965 Y53.1212
G01 X142.3846 Y53.1688
G01 X142.3799 Y53.1844
G01 X142.3633 Y53.2306
G01 X142.3571 Y53.2456
G01 X142.3361 Y53.2900
G01 X142.3285 Y53.3043
G01 X142.3032 Y53.3464
G01 X142.2942 Y53.3599
G01 X142.2650 Y53.3993
G01 X142.2547 Y53.4119
G01 X142.2217 Y53.4483
G01 X142.2102 Y53.4597
G01 X142.1738 Y53.4927
G01 X142.1613 Y53.5030
G01 X142.1218 Y53.5323
G01 X142.1083 Y53.5413
G01 X142.0662 Y53.5665
G01 X142.0519 Y53.5742
G01 X142.0075 Y53.5952
G01 X141.9925 Y53.6014
G01 X141.9463 Y53.6179
G01 X141.9308 Y53.6226
G01 X141.8831 Y53.6346
G01 X141.8672 Y53.6377
G01 X141.8187 Y53.6449
G01 X141.8025 Y53.6465
G01 X141.7453 Y53.6491
G01 X137.3311 Y53.6491
G01 X137.3311 Y54.8782
G01 X137.3770 Y54.9288
G01 X137.3873 Y54.9414
G01 X137.4318 Y55.0015
G01 X137.4409 Y55.0150
G01 X137.4793 Y55.0791
G01 X137.4870 Y55.0934
G01 X137.5189 Y55.1610
G01 X137.5252 Y55.1760
G01 X137.5504 Y55.2464
G01 X137.5551 Y55.2620
G01 X137.5732 Y55.3345
G01 X137.5764 Y55.3504
G01 X137.5874 Y55.4244
G01 X137.5890 Y55.4406
G01 X137.5926 Y55.5153
G01 X137.5926 Y55.5315
G01 X137.5890 Y55.6062
G01 X137.5874 Y55.6224
G01 X137.5764 Y55.6963
G01 X137.5732 Y55.7123
G01 X137.5551 Y55.7848
G01 X137.5504 Y55.8003
G01 X137.5252 Y55.8707
G01 X137.5189 Y55.8857
G01 X137.4870 Y55.9533
G01 X137.4793 Y55.9677
G01 X137.4409 Y56.0318
G01 X137.4318 Y56.0453
G01 X137.3873 Y56.1054
G01 X137.3770 Y56.1179
G01 X137.3268 Y56.1733
G01 X137.3153 Y56.1848
G01 X137.2599 Y56.2350
G01 X137.2473 Y56.2453
G01 X137.1873 Y56.2899
G01 X137.1738 Y56.2989
G01 X137.1096 Y56.3374
G01 X137.0953 Y56.3450
G01 X137.0277 Y56.3770
G01 X137.0127 Y56.3832
G01 X136.9423 Y56.4084
G01 X136.9267 Y56.4131
G01 X136.8542 Y56.4313
G01 X136.8383 Y56.4344
G01 X136.7643 Y56.4454
G01 X136.7481 Y56.4470
G01 X136.6735 Y56.4507
G01 X136.6572 Y56.4507
G01 X136.5825 Y56.4470
G01 X136.5664 Y56.4454
G01 X136.4924 Y56.4344
G01 X136.4765 Y56.4313
G01 X136.4039 Y56.4131
G01 X136.3884 Y56.4084
G01 X136.3180 Y56.3832
G01 X136.3030 Y56.3770
G01 X136.2354 Y56.3450
G01 X136.2211 Y56.3374
G01 X136.1569 Y56.2989
G01 X136.1434 Y56.2899
G01 X136.0833 Y56.2453
G01 X136.0708 Y56.2350
G01 X136.0154 Y56.1848
G01 X136.0039 Y56.1733
G01 X135.9537 Y56.1179
G01 X135.9434 Y56.1054
G01 X135.8988 Y56.0453
G01 X135.8898 Y56.0318
G01 X135.8514 Y55.9677
G01 X135.8437 Y55.9533
G01 X135.8117 Y55.8857
G01 X135.8055 Y55.8707
G01 X135.7803 Y55.8003
G01 X135.7756 Y55.7848
G01 X135.7574 Y55.7123
G01 X135.7543 Y55.6963
G01 X135.7433 Y55.6224
G01 X135.7417 Y55.6062
G01 X135.7380 Y55.5315
G01 X135.7380 Y55.5153
G01 X135.7417 Y55.4406
G01 X135.7433 Y55.4244
G01 X135.7543 Y55.3504
G01 X135.7574 Y55.3345
G01 X135.7756 Y55.2620
G01 X135.7803 Y55.2464
G01 X135.8055 Y55.1760
G01 X135.8117 Y55.1610
G01 X135.8437 Y55.0934
G01 X135.8514 Y55.0791
G01 X135.8898 Y55.0150
G01 X135.8988 Y55.0015
G01 X135.9434 Y54.9414
G01 X135.9537 Y54.9288
G01 X135.9996 Y54.8782
G01 X135.9996 Y53.6491
G01 X134.7705 Y53.6491
G01 X134.7199 Y53.6950
G01 X134.7073 Y53.7053
G01 X134.6473 Y53.7499
G01 X134.6338 Y53.7589
G01 X134.5696 Y53.7974
G01 X134.5553 Y53.8050
G01 X134.4877 Y53.8370
G01 X134.4727 Y53.8432
G01 X134.4023 Y53.8684
G01 X134.3867 Y53.8731
G01 X134.3142 Y53.8913
G01 X134.2983 Y53.8944
G01 X134.2243 Y53.9054
G01 X134.2081 Y53.9070
G01 X134.1335 Y53.9107
G01 X134.1172 Y53.9107
G01 X134.0425 Y53.9070
G01 X134.0264 Y53.9054
G01 X133.9524 Y53.8944
G01 X133.9365 Y53.8913
G01 X133.8639 Y53.8731
G01 X133.8484 Y53.8684
G01 X133.7780 Y53.8432
G01 X133.7630 Y53.8370
G01 X133.6954 Y53.8050
G01 X133.6811 Y53.7974
G01 X133.6169 Y53.7589
G01 X133.6034 Y53.7499
G01 X133.5433 Y53.7053
G01 X133.5308 Y53.6950
G01 X133.4754 Y53.6448
G01 X133.4639 Y53.6333
G01 X133.4137 Y53.5779
G01 X133.4034 Y53.5654
G01 X133.3588 Y53.5053
G01 X133.3498 Y53.4918
G01 X133.3114 Y53.4277
G01 X133.3037 Y53.4133
G01 X133.2717 Y53.3457
G01 X133.2655 Y53.3307
G01 X133.2403 Y53.2603
G01 X133.2356 Y53.2448
G01 X133.2174 Y53.1723
G01 X133.2143 Y53.1563
G01 X133.2033 Y53.0824
G01 X133.2017 Y53.0662
G01 X133.1980 Y52.9915
G01 X133.1980 Y52.9753
G01 X133.2017 Y52.9006
G01 X133.2033 Y52.8844
G01 X133.2143 Y52.8104
G01 X133.2174 Y52.7945
G01 X133.2356 Y52.7220
G01 X133.2403 Y52.7064
G01 X133.2655 Y52.6360
G01 X133.2717 Y52.6210
G01 X133.3037 Y52.5534
G01 X133.3114 Y52.5391
G01 X133.3498 Y52.4750
G01 X133.3588 Y52.4615
G01 X133.4034 Y52.4014
G01 X133.4137 Y52.3888
G01 X133.4639 Y52.3334
G01 X133.4754 Y52.3219
G01 X133.5308 Y52.2717
G01 X133.5433 Y52.2614
G01 X133.6034 Y52.2169
G01 X133.6169 Y52.2079
G01 X133.6811 Y52.1694
G01 X133.6954 Y52.1618
G01 X133.7630 Y52.1298
G01 X133.7780 Y52.1236
G01 X133.8484 Y52.0984
G01 X133.8639 Y52.0937
G01 X133.9365 Y52.0755
G01 X133.9524 Y52.0723
G01 X134.0264 Y52.0613
G01 X134.0425 Y52.0598
G01 X134.1172 Y52.0561
G01 X134.1335 Y52.0561
G01 X134.2081 Y52.0598
G01 X134.2243 Y52.0613
G01 X134.2983 Y52.0723
G01 X134.3142 Y52.0755
G01 X134.3867 Y52.0937
G01 X134.4023 Y52.0984
G01 X134.4727 Y52.1236
G01 X134.4877 Y52.1298
G01 X134.5553 Y52.1618
G01 X134.5696 Y52.1694
G01 X134.6338 Y52.2079
G01 X134.6473 Y52.2169
G01 X134.7073 Y52.2614
G01 X134.7199 Y52.2717
G01 X134.7705 Y52.3176
G01 X136.0201 Y52.3176
G01 X136.0708 Y52.2717
G01 X136.0833 Y52.2614
G01 X136.1434 Y52.2169
G01 X136.1569 Y52.2079
G01 X136.2211 Y52.1694
G01 X136.2354 Y52.1618
G01 X136.3030 Y52.1298
G01 X136.3180 Y52.1236
G01 X136.3884 Y52.0984
G01 X136.4039 Y52.0937
G01 X136.4765 Y52.0755
G01 X136.4924 Y52.0723
G01 X136.5664 Y52.0613
G01 X136.5825 Y52.0598
G01 X136.6572 Y52.0561
G01 X136.6735 Y52.0561
G01 X136.7481 Y52.0598
G01 X136.7643 Y52.0613
G01 X136.8383 Y52.0723
G01 X136.8542 Y52.0755
G01 X136.9267 Y52.0937
G01 X136.9423 Y52.0984
G01 X137.0127 Y52.1236
G01 X137.0277 Y52.1298
G01 X137.0953 Y52.1618
G01 X137.1096 Y52.1694
G01 X137.1738 Y52.2079
G01 X137.1873 Y52.2169
G01 X137.2473 Y52.2614
G01 X137.2599 Y52.2717
G01 X137.3105 Y52.3176
G01 X141.0796 Y52.3176
G01 X141.0796 Y28.2491
G01 X129.7111 Y28.2491
G01 X129.7111 Y29.4782
G01 X129.7570 Y29.5288
G01 X129.7673 Y29.5414
G01 X129.8118 Y29.6015
G01 X129.8209 Y29.6150
G01 X129.8593 Y29.6791
G01 X129.8670 Y29.6934
G01 X129.8989 Y29.7610
G01 X129.9052 Y29.7760
G01 X129.9304 Y29.8464
G01 X129.9351 Y29.8620
G01 X129.9532 Y29.9345
G01 X129.9564 Y29.9504
G01 X129.9674 Y30.0244
G01 X129.9690 Y30.0406
G01 X129.9726 Y30.1153
G01 X129.9726 Y30.1315
G01 X129.9690 Y30.2062
G01 X129.9674 Y30.2224
G01 X129.9564 Y30.2963
G01 X129.9532 Y30.3123
G01 X129.9351 Y30.3848
G01 X129.9304 Y30.4003
G01 X129.9052 Y30.4707
G01 X129.8989 Y30.4857
G01 X129.8670 Y30.5533
G01 X129.8593 Y30.5677
G01 X129.8209 Y30.6318
G01 X129.8118 Y30.6453
G01 X129.7673 Y30.7054
G01 X129.7570 Y30.7179
G01 X129.7068 Y30.7733
G01 X129.6953 Y30.7848
G01 X129.6399 Y30.8350
G01 X129.6273 Y30.8453
G01 X129.5673 Y30.8899
G01 X129.5538 Y30.8989
G01 X129.4896 Y30.9374
G01 X129.4753 Y30.9450
G01 X129.4077 Y30.9770
G01 X129.3927 Y30.9832
G01 X129.3223 Y31.0084
G01 X129.3067 Y31.0131
G01 X129.2342 Y31.0313
G01 X129.2183 Y31.0344
G01 X129.1443 Y31.0454
G01 X129.1281 Y31.0470
G01 X129.0535 Y31.0507
G01 X129.0372 Y31.0507
G01 X128.9625 Y31.0470
G01 X128.9464 Y31.0454
G01 X128.8724 Y31.0344
G01 X128.8565 Y31.0313
G01 X128.7839 Y31.0131
G01 X128.7684 Y31.0084
G01 X128.6980 Y30.9832
G01 X128.6830 Y30.9770
G01 X128.6154 Y30.9450
G01 X128.6011 Y30.9374
G01 X128.5369 Y30.8989
G01 X128.5234 Y30.8899
G01 X128.4633 Y30.8453
G01 X128.4508 Y30.8350
G01 X128.3954 Y30.7848
G01 X128.3839 Y30.7733
G01 X128.3337 Y30.7179
G01 X128.3234 Y30.7054
G01 X128.2788 Y30.6453
G01 X128.2698 Y30.6318
G01 X128.2314 Y30.5677
G01 X128.2237 Y30.5533
G01 X128.1917 Y30.4857
G01 X128.1855 Y30.4707
G01 X128.1603 Y30.4003
G01 X128.1556 Y30.3848
G01 X128.1374 Y30.3123
G01 X128.1343 Y30.2963
G01 X128.1233 Y30.2224
G01 X128.1217 Y30.2062
G01 X128.1180 Y30.1315
G01 X128.1180 Y30.1153
G01 X128.1217 Y30.0406
G01 X128.1233 Y30.0244
G01 X128.1343 Y29.9504
G01 X128.1374 Y29.9345
G01 X128.1556 Y29.8620
G01 X128.1603 Y29.8464
G01 X128.1855 Y29.7760
G01 X128.1917 Y29.7610
G01 X128.2237 Y29.6934
G01 X128.2314 Y29.6791
G01 X128.2698 Y29.6150
G01 X128.2788 Y29.6015
G01 X128.3234 Y29.5414
G01 X128.3337 Y29.5288
G01 X128.3796 Y29.4782
G01 X128.3796 Y28.2491
G01 X117.0111 Y28.2491
G01 X117.0111 Y29.4782
G01 X117.0570 Y29.5288
G01 X117.0673 Y29.5414
G01 X117.1118 Y29.6015
G01 X117.1209 Y29.6150
G01 X117.1593 Y29.6791
G01 X117.1670 Y29.6934
G01 X117.1989 Y29.7610
G01 X117.2052 Y29.7760
G01 X117.2304 Y29.8464
G01 X117.2351 Y29.8620
G01 X117.2532 Y29.9345
G01 X117.2564 Y29.9504
G01 X117.2674 Y30.0244
G01 X117.2690 Y30.0406
G01 X117.2726 Y30.1153
G01 X117.2726 Y30.1315
G01 X117.2690 Y30.2062
G01 X117.2674 Y30.2224
G01 X117.2564 Y30.2963
G01 X117.2532 Y30.3123
G01 X117.2351 Y30.3848
G01 X117.2304 Y30.4003
G01 X117.2052 Y30.4707
G01 X117.1989 Y30.4857
G01 X117.1670 Y30.5533
G01 X117.1593 Y30.5677
G01 X117.1209 Y30.6318
G01 X117.1118 Y30.6453
G01 X117.0673 Y30.7054
G01 X117.0570 Y30.7179
G01 X117.0068 Y30.7733
G01 X116.9953 Y30.7848
G01 X116.9399 Y30.8350
G01 X116.9273 Y30.8453
G01 X116.8673 Y30.8899
G01 X116.8538 Y30.8989
G01 X116.7896 Y30.9374
G01 X116.7753 Y30.9450
G01 X116.7077 Y30.9770
G01 X116.6927 Y30.9832
G01 X116.6223 Y31.0084
G01 X116.6067 Y31.0131
G01 X116.5342 Y31.0313
G01 X116.5183 Y31.0344
G01 X116.4443 Y31.0454
G01 X116.4281 Y31.0470
G01 X116.3535 Y31.0507
G01 X116.3372 Y31.0507
G01 X116.2625 Y31.0470
G01 X116.2464 Y31.0454
G01 X116.1724 Y31.0344
G01 X116.1565 Y31.0313
G01 X116.0839 Y31.0131
G01 X116.0684 Y31.0084
G01 X115.9980 Y30.9832
G01 X115.9830 Y30.9770
G01 X115.9154 Y30.9450
G01 X115.9011 Y30.9374
G01 X115.8369 Y30.8989
G01 X115.8234 Y30.8899
G01 X115.7633 Y30.8453
G01 X115.7508 Y30.8350
G01 X115.6954 Y30.7848
G01 X115.6839 Y30.7733
G01 X115.6337 Y30.7179
G01 X115.6234 Y30.7054
G01 X115.5788 Y30.6453
G01 X115.5698 Y30.6318
G01 X115.5314 Y30.5677
G01 X115.5237 Y30.5533
G01 X115.4917 Y30.4857
G01 X115.4855 Y30.4707
G01 X115.4603 Y30.4003
G01 X115.4556 Y30.3848
G01 X115.4374 Y30.3123
G01 X115.4343 Y30.2963
G01 X115.4233 Y30.2224
G01 X115.4217 Y30.2062
G01 X115.4180 Y30.1315
G01 X115.4180 Y30.1153
G01 X115.4217 Y30.0406
G01 X115.4233 Y30.0244
G01 X115.4343 Y29.9504
G01 X115.4374 Y29.9345
G01 X115.4556 Y29.8620
G01 X115.4603 Y29.8464
G01 X115.4855 Y29.7760
G01 X115.4917 Y29.7610
G01 X115.5237 Y29.6934
G01 X115.5314 Y29.6791
G01 X115.5698 Y29.6150
G01 X115.5788 Y29.6015
G01 X115.6234 Y29.5414
G01 X115.6337 Y29.5288
G01 X115.6796 Y29.4782
G01 X115.6796 Y28.2491
G01 X104.3111 Y28.2491
G01 X104.3111 Y29.4782
G01 X104.3570 Y29.5288
G01 X104.3673 Y29.5414
G01 X104.4118 Y29.6015
G01 X104.4209 Y29.6150
G01 X104.4593 Y29.6791
G01 X104.4670 Y29.6934
G01 X104.4989 Y29.7610
G01 X104.5052 Y29.7760
G01 X104.5304 Y29.8464
G01 X104.5351 Y29.8620
G01 X104.5532 Y29.9345
G01 X104.5564 Y29.9504
G01 X104.5674 Y30.0244
G01 X104.5690 Y30.0406
G01 X104.5726 Y30.1153
G01 X104.5726 Y30.1315
G01 X104.5690 Y30.2062
G01 X104.5674 Y30.2224
G01 X104.5564 Y30.2963
G01 X104.5532 Y30.3123
G01 X104.5351 Y30.3848
G01 X104.5304 Y30.4003
G01 X104.5052 Y30.4707
G01 X104.4989 Y30.4857
G01 X104.4670 Y30.5533
G01 X104.4593 Y30.5677
G01 X104.4209 Y30.6318
G01 X104.4118 Y30.6453
G01 X104.3673 Y30.7054
G01 X104.3570 Y30.7179
G01 X104.3068 Y30.7733
G01 X104.2953 Y30.7848
G01 X104.2399 Y30.8350
G01 X104.2273 Y30.8453
G01 X104.1673 Y30.8899
G01 X104.1538 Y30.8989
G01 X104.0896 Y30.9374
G01 X104.0753 Y30.9450
G01 X104.0077 Y30.9770
G01 X103.9927 Y30.9832
G01 X103.9223 Y31.0084
G01 X103.9067 Y31.0131
G01 X103.8342 Y31.0313
G01 X103.8183 Y31.0344
G01 X103.7443 Y31.0454
G01 X103.7281 Y31.0470
G01 X103.6535 Y31.0507
G01 X103.6372 Y31.0507
G01 X103.5625 Y31.0470
G01 X103.5464 Y31.0454
G01 X103.4724 Y31.0344
G01 X103.4565 Y31.0313
G01 X103.3839 Y31.0131
G01 X103.3684 Y31.0084
G01 X103.2980 Y30.9832
G01 X103.2830 Y30.9770
G01 X103.2154 Y30.9450
G01 X103.2011 Y30.9374
G01 X103.1369 Y30.8989
G01 X103.1234 Y30.8899
G01 X103.0633 Y30.8453
G01 X103.0508 Y30.8350
G01 X102.9954 Y30.7848
G01 X102.9839 Y30.7733
G01 X102.9337 Y30.7179
G01 X102.9234 Y30.7054
G01 X102.8788 Y30.6453
G01 X102.8698 Y30.6318
G01 X102.8314 Y30.5677
G01 X102.8237 Y30.5533
G01 X102.7917 Y30.4857
G01 X102.7855 Y30.4707
G01 X102.7603 Y30.4003
G01 X102.7556 Y30.3848
G01 X102.7374 Y30.3123
G01 X102.7343 Y30.2963
G01 X102.7233 Y30.2224
G01 X102.7217 Y30.2062
G01 X102.7180 Y30.1315
G01 X102.7180 Y30.1153
G01 X102.7217 Y30.0406
G01 X102.7233 Y30.0244
G01 X102.7343 Y29.9504
G01 X102.7374 Y29.9345
G01 X102.7556 Y29.8620
G01 X102.7603 Y29.8464
G01 X102.7855 Y29.7760
G01 X102.7917 Y29.7610
G01 X102.8237 Y29.6934
G01 X102.8314 Y29.6791
G01 X102.8698 Y29.6150
G01 X102.8788 Y29.6015
G01 X102.9234 Y29.5414
G01 X102.9337 Y29.5288
G01 X102.9796 Y29.4782
G01 X102.9796 Y28.2491
G01 X91.6111 Y28.2491
G01 X91.6111 Y29.4782
G01 X91.6570 Y29.5288
G01 X91.6673 Y29.5414
G01 X91.7118 Y29.6015
G01 X91.7209 Y29.6150
G01 X91.7593 Y29.6791
G01 X91.7670 Y29.6934
G01 X91.7989 Y29.7610
G01 X91.8052 Y29.7760
G01 X91.8304 Y29.8464
G01 X91.8351 Y29.8620
G01 X91.8532 Y29.9345
G01 X91.8564 Y29.9504
G01 X91.8674 Y30.0244
G01 X91.8690 Y30.0406
G01 X91.8726 Y30.1153
G01 X91.8726 Y30.1315
G01 X91.8690 Y30.2062
G01 X91.8674 Y30.2224
G01 X91.8564 Y30.2963
G01 X91.8532 Y30.3123
G01 X91.8351 Y30.3848
G01 X91.8304 Y30.4003
G01 X91.8052 Y30.4707
G01 X91.7989 Y30.4857
G01 X91.7670 Y30.5533
G01 X91.7593 Y30.5677
G01 X91.7209 Y30.6318
G01 X91.7118 Y30.6453
G01 X91.6673 Y30.7054
G01 X91.6570 Y30.7179
G01 X91.6068 Y30.7733
G01 X91.5953 Y30.7848
G01 X91.5399 Y30.8350
G01 X91.5273 Y30.8453
G01 X91.4673 Y30.8899
G01 X91.4538 Y30.8989
G01 X91.3896 Y30.9374
G01 X91.3753 Y30.9450
G01 X91.3077 Y30.9770
G01 X91.2927 Y30.9832
G01 X91.2223 Y31.0084
G01 X91.2067 Y31.0131
G01 X91.1342 Y31.0313
G01 X91.1183 Y31.0344
G01 X91.0443 Y31.0454
G01 X91.0281 Y31.0470
G01 X90.9535 Y31.0507
G01 X90.9372 Y31.0507
G01 X90.8625 Y31.0470
G01 X90.8464 Y31.0454
G01 X90.7724 Y31.0344
G01 X90.7565 Y31.0313
G01 X90.6839 Y31.0131
G01 X90.6684 Y31.0084
G01 X90.5980 Y30.9832
G01 X90.5830 Y30.9770
G01 X90.5154 Y30.9450
G01 X90.5011 Y30.9374
G01 X90.4369 Y30.8989
G01 X90.4234 Y30.8899
G01 X90.3633 Y30.8453
G01 X90.3508 Y30.8350
G01 X90.2954 Y30.7848
G01 X90.2839 Y30.7733
G01 X90.2337 Y30.7179
G01 X90.2234 Y30.7054
G01 X90.1788 Y30.6453
G01 X90.1698 Y30.6318
G01 X90.1314 Y30.5677
G01 X90.1237 Y30.5533
G01 X90.0917 Y30.4857
G01 X90.0855 Y30.4707
G01 X90.0603 Y30.4003
G01 X90.0556 Y30.3848
G01 X90.0374 Y30.3123
G01 X90.0343 Y30.2963
G01 X90.0233 Y30.2224
G01 X90.0217 Y30.2062
G01 X90.0180 Y30.1315
G01 X90.0180 Y30.1153
G01 X90.0217 Y30.0406
G01 X90.0233 Y30.0244
G01 X90.0343 Y29.9504
G01 X90.0374 Y29.9345
G01 X90.0556 Y29.8620
G01 X90.0603 Y29.8464
G01 X90.0855 Y29.7760
G01 X90.0917 Y29.7610
G01 X90.1237 Y29.6934
G01 X90.1314 Y29.6791
G01 X90.1698 Y29.6150
G01 X90.1788 Y29.6015
G01 X90.2234 Y29.5414
G01 X90.2337 Y29.5288
G01 X90.2796 Y29.4782
G01 X90.2796 Y28.2491
G01 X78.9111 Y28.2491
G01 X78.9111 Y29.4782
G01 X78.9570 Y29.5288
G01 X78.9673 Y29.5414
G01 X79.0118 Y29.6015
G01 X79.0209 Y29.6150
G01 X79.0593 Y29.6791
G01 X79.0670 Y29.6934
G01 X79.0989 Y29.7610
G01 X79.1052 Y29.7760
G01 X79.1304 Y29.8464
G01 X79.1351 Y29.8620
G01 X79.1532 Y29.9345
G01 X79.1564 Y29.9504
G01 X79.1674 Y30.0244
G01 X79.1690 Y30.0406
G01 X79.1726 Y30.1153
G01 X79.1726 Y30.1315
G01 X79.1690 Y30.2062
G01 X79.1674 Y30.2224
G01 X79.1564 Y30.2963
G01 X79.1532 Y30.3123
G01 X79.1351 Y30.3848
G01 X79.1304 Y30.4003
G01 X79.1052 Y30.4707
G01 X79.0989 Y30.4857
G01 X79.0670 Y30.5533
G01 X79.0593 Y30.5677
G01 X79.0209 Y30.6318
G01 X79.0118 Y30.6453
G01 X78.9673 Y30.7054
G01 X78.9570 Y30.7179
G01 X78.9068 Y30.7733
G01 X78.8953 Y30.7848
G01 X78.8399 Y30.8350
G01 X78.8273 Y30.8453
G01 X78.7673 Y30.8899
G01 X78.7538 Y30.8989
G01 X78.6896 Y30.9374
G01 X78.6753 Y30.9450
G01 X78.6077 Y30.9770
G01 X78.5927 Y30.9832
G01 X78.5223 Y31.0084
G01 X78.5067 Y31.0131
G01 X78.4342 Y31.0313
G01 X78.4183 Y31.0344
G01 X78.3443 Y31.0454
G01 X78.3281 Y31.0470
G01 X78.2535 Y31.0507
G01 X78.2372 Y31.0507
G01 X78.1625 Y31.0470
G01 X78.1464 Y31.0454
G01 X78.0724 Y31.0344
G01 X78.0565 Y31.0313
G01 X77.9839 Y31.0131
G01 X77.9684 Y31.0084
G01 X77.8980 Y30.9832
G01 X77.8830 Y30.9770
G01 X77.8154 Y30.9450
G01 X77.8011 Y30.9374
G01 X77.7369 Y30.8989
G01 X77.7234 Y30.8899
G01 X77.6633 Y30.8453
G01 X77.6508 Y30.8350
G01 X77.5954 Y30.7848
G01 X77.5839 Y30.7733
G01 X77.5337 Y30.7179
G01 X77.5234 Y30.7054
G01 X77.4788 Y30.6453
G01 X77.4698 Y30.6318
G01 X77.4314 Y30.5677
G01 X77.4237 Y30.5533
G01 X77.3917 Y30.4857
G01 X77.3855 Y30.4707
G01 X77.3603 Y30.4003
G01 X77.3556 Y30.3848
G01 X77.3374 Y30.3123
G01 X77.3343 Y30.2963
G01 X77.3233 Y30.2224
G01 X77.3217 Y30.2062
G01 X77.3180 Y30.1315
G01 X77.3180 Y30.1153
G01 X77.3217 Y30.0406
G01 X77.3233 Y30.0244
G01 X77.3343 Y29.9504
G01 X77.3374 Y29.9345
G01 X77.3556 Y29.8620
G01 X77.3603 Y29.8464
G01 X77.3855 Y29.7760
G01 X77.3917 Y29.7610
G01 X77.4237 Y29.6934
G01 X77.4314 Y29.6791
G01 X77.4698 Y29.6150
G01 X77.4788 Y29.6015
G01 X77.5234 Y29.5414
G01 X77.5337 Y29.5288
G01 X77.5796 Y29.4782
G01 X77.5796 Y28.2491
G01 X66.2111 Y28.2491
G01 X66.2111 Y29.4782
G01 X66.2570 Y29.5288
G01 X66.2673 Y29.5414
G01 X66.3118 Y29.6015
G01 X66.3209 Y29.6150
G01 X66.3593 Y29.6791
G01 X66.3670 Y29.6934
G01 X66.3989 Y29.7610
G01 X66.4052 Y29.7760
G01 X66.4304 Y29.8464
G01 X66.4351 Y29.8620
G01 X66.4532 Y29.9345
G01 X66.4564 Y29.9504
G01 X66.4674 Y30.0244
G01 X66.4690 Y30.0406
G01 X66.4726 Y30.1153
G01 X66.4726 Y30.1315
G01 X66.4690 Y30.2062
G01 X66.4674 Y30.2224
G01 X66.4564 Y30.2963
G01 X66.4532 Y30.3123
G01 X66.4351 Y30.3848
G01 X66.4304 Y30.4003
G01 X66.4052 Y30.4707
G01 X66.3989 Y30.4857
G01 X66.3670 Y30.5533
G01 X66.3593 Y30.5677
G01 X66.3209 Y30.6318
G01 X66.3118 Y30.6453
G01 X66.2673 Y30.7054
G01 X66.2570 Y30.7179
G01 X66.2068 Y30.7733
G01 X66.1953 Y30.7848
G01 X66.1399 Y30.8350
G01 X66.1273 Y30.8453
G01 X66.0673 Y30.8899
G01 X66.0538 Y30.8989
G01 X65.9896 Y30.9374
G01 X65.9753 Y30.9450
G01 X65.9077 Y30.9770
G01 X65.8927 Y30.9832
G01 X65.8223 Y31.0084
G01 X65.8067 Y31.0131
G01 X65.7342 Y31.0313
G01 X65.7183 Y31.0344
G01 X65.6443 Y31.0454
G01 X65.6281 Y31.0470
G01 X65.5535 Y31.0507
G01 X65.5372 Y31.0507
G01 X65.4625 Y31.0470
G01 X65.4464 Y31.0454
G01 X65.3724 Y31.0344
G01 X65.3565 Y31.0313
G01 X65.2839 Y31.0131
G01 X65.2684 Y31.0084
G01 X65.1980 Y30.9832
G01 X65.1830 Y30.9770
G01 X65.1154 Y30.9450
G01 X65.1011 Y30.9374
G01 X65.0369 Y30.8989
G01 X65.0234 Y30.8899
G01 X64.9633 Y30.8453
G01 X64.9508 Y30.8350
G01 X64.8954 Y30.7848
G01 X64.8839 Y30.7733
G01 X64.8337 Y30.7179
G01 X64.8234 Y30.7054
G01 X64.7788 Y30.6453
G01 X64.7698 Y30.6318
G01 X64.7314 Y30.5677
G01 X64.7237 Y30.5533
G01 X64.6917 Y30.4857
G01 X64.6855 Y30.4707
G01 X64.6603 Y30.4003
G01 X64.6556 Y30.3848
G01 X64.6374 Y30.3123
G01 X64.6343 Y30.2963
G01 X64.6233 Y30.2224
G01 X64.6217 Y30.2062
G01 X64.6180 Y30.1315
G01 X64.6180 Y30.1153
G01 X64.6217 Y30.0406
G01 X64.6233 Y30.0244
G01 X64.6343 Y29.9504
G01 X64.6374 Y29.9345
G01 X64.6556 Y29.8620
G01 X64.6603 Y29.8464
G01 X64.6855 Y29.7760
G01 X64.6917 Y29.7610
G01 X64.7237 Y29.6934
G01 X64.7314 Y29.6791
G01 X64.7698 Y29.6150
G01 X64.7788 Y29.6015
G01 X64.8234 Y29.5414
G01 X64.8337 Y29.5288
G01 X64.8796 Y29.4782
G01 X64.8796 Y28.2491
G01 X53.5111 Y28.2491
G01 X53.5111 Y29.4782
G01 X53.5570 Y29.5288
G01 X53.5673 Y29.5414
G01 X53.6118 Y29.6015
G01 X53.6209 Y29.6150
G01 X53.6593 Y29.6791
G01 X53.6670 Y29.6934
G01 X53.6989 Y29.7610
G01 X53.7052 Y29.7760
G01 X53.7304 Y29.8464
G01 X53.7351 Y29.8620
G01 X53.7532 Y29.9345
G01 X53.7564 Y29.9504
G01 X53.7674 Y30.0244
G01 X53.7690 Y30.0406
G01 X53.7726 Y30.1153
G01 X53.7726 Y30.1315
G01 X53.7690 Y30.2062
G01 X53.7674 Y30.2224
G01 X53.7564 Y30.2963
G01 X53.7532 Y30.3123
G01 X53.7351 Y30.3848
G01 X53.7304 Y30.4003
G01 X53.7052 Y30.4707
G01 X53.6989 Y30.4857
G01 X53.6670 Y30.5533
G01 X53.6593 Y30.5677
G01 X53.6209 Y30.6318
G01 X53.6118 Y30.6453
G01 X53.5673 Y30.7054
G01 X53.5570 Y30.7179
G01 X53.5068 Y30.7733
G01 X53.4953 Y30.7848
G01 X53.4399 Y30.8350
G01 X53.4273 Y30.8453
G01 X53.3673 Y30.8899
G01 X53.3538 Y30.8989
G01 X53.2896 Y30.9374
G01 X53.2753 Y30.9450
G01 X53.2077 Y30.9770
G01 X53.1927 Y30.9832
G01 X53.1223 Y31.0084
G01 X53.1067 Y31.0131
G01 X53.0342 Y31.0313
G01 X53.0183 Y31.0344
G01 X52.9443 Y31.0454
G01 X52.9281 Y31.0470
G01 X52.8535 Y31.0507
G01 X52.8372 Y31.0507
G01 X52.7625 Y31.0470
G01 X52.7464 Y31.0454
G01 X52.6724 Y31.0344
G01 X52.6565 Y31.0313
G01 X52.5839 Y31.0131
G01 X52.5684 Y31.0084
G01 X52.4980 Y30.9832
G01 X52.4830 Y30.9770
G01 X52.4154 Y30.9450
G01 X52.4011 Y30.9374
G01 X52.3369 Y30.8989
G01 X52.3234 Y30.8899
G01 X52.2633 Y30.8453
G01 X52.2508 Y30.8350
G01 X52.1954 Y30.7848
G01 X52.1839 Y30.7733
G01 X52.1337 Y30.7179
G01 X52.1234 Y30.7054
G01 X52.0788 Y30.6453
G01 X52.0698 Y30.6318
G01 X52.0314 Y30.5677
G01 X52.0237 Y30.5533
G01 X51.9917 Y30.4857
G01 X51.9855 Y30.4707
G01 X51.9603 Y30.4003
G01 X51.9556 Y30.3848
G01 X51.9374 Y30.3123
G01 X51.9343 Y30.2963
G01 X51.9233 Y30.2224
G01 X51.9217 Y30.2062
G01 X51.9180 Y30.1315
G01 X51.9180 Y30.1153
G01 X51.9217 Y30.0406
G01 X51.9233 Y30.0244
G01 X51.9343 Y29.9504
G01 X51.9374 Y29.9345
G01 X51.9556 Y29.8620
G01 X51.9603 Y29.8464
G01 X51.9855 Y29.7760
G01 X51.9917 Y29.7610
G01 X52.0237 Y29.6934
G01 X52.0314 Y29.6791
G01 X52.0698 Y29.6150
G01 X52.0788 Y29.6015
G01 X52.1234 Y29.5414
G01 X52.1337 Y29.5288
G01 X52.1796 Y29.4782
G01 X52.1796 Y28.2491
G01 X40.8111 Y28.2491
G01 X40.8111 Y29.4782
G01 X40.8570 Y29.5288
G01 X40.8673 Y29.5414
G01 X40.9118 Y29.6015
G01 X40.9209 Y29.6150
G01 X40.9593 Y29.6791
G01 X40.9670 Y29.6934
G01 X40.9989 Y29.7610
G01 X41.0052 Y29.7760
G01 X41.0304 Y29.8464
G01 X41.0351 Y29.8620
G01 X41.0532 Y29.9345
G01 X41.0564 Y29.9504
G01 X41.0674 Y30.0244
G01 X41.0690 Y30.0406
G01 X41.0726 Y30.1153
G01 X41.0726 Y30.1315
G01 X41.0690 Y30.2062
G01 X41.0674 Y30.2224
G01 X41.0564 Y30.2963
G01 X41.0532 Y30.3123
G01 X41.0351 Y30.3848
G01 X41.0304 Y30.4003
G01 X41.0052 Y30.4707
G01 X40.9989 Y30.4857
G01 X40.9670 Y30.5533
G01 X40.9593 Y30.5677
G01 X40.9209 Y30.6318
G01 X40.9118 Y30.6453
G01 X40.8673 Y30.7054
G01 X40.8570 Y30.7179
G01 X40.8068 Y30.7733
G01 X40.7953 Y30.7848
G01 X40.7399 Y30.8350
G01 X40.7273 Y30.8453
G01 X40.6673 Y30.8899
G01 X40.6538 Y30.8989
G01 X40.5896 Y30.9374
G01 X40.5753 Y30.9450
G01 X40.5077 Y30.9770
G01 X40.4927 Y30.9832
G01 X40.4223 Y31.0084
G01 X40.4067 Y31.0131
G01 X40.3342 Y31.0313
G01 X40.3183 Y31.0344
G01 X40.2443 Y31.0454
G01 X40.2281 Y31.0470
G01 X40.1535 Y31.0507
G01 X40.1372 Y31.0507
G01 X40.0625 Y31.0470
G01 X40.0464 Y31.0454
G01 X39.9724 Y31.0344
G01 X39.9565 Y31.0313
G01 X39.8839 Y31.0131
G01 X39.8684 Y31.0084
G01 X39.7980 Y30.9832
G01 X39.7830 Y30.9770
G01 X39.7154 Y30.9450
G01 X39.7011 Y30.9374
G01 X39.6369 Y30.8989
G01 X39.6234 Y30.8899
G01 X39.5633 Y30.8453
G01 X39.5508 Y30.8350
G01 X39.4954 Y30.7848
G01 X39.4839 Y30.7733
G01 X39.4337 Y30.7179
G01 X39.4234 Y30.7054
G01 X39.3788 Y30.6453
G01 X39.3698 Y30.6318
G01 X39.3314 Y30.5677
G01 X39.3237 Y30.5533
G01 X39.2917 Y30.4857
G01 X39.2855 Y30.4707
G01 X39.2603 Y30.4003
G01 X39.2556 Y30.3848
G01 X39.2374 Y30.3123
G01 X39.2343 Y30.2963
G01 X39.2233 Y30.2224
G01 X39.2217 Y30.2062
G01 X39.2180 Y30.1315
G01 X39.2180 Y30.1153
G01 X39.2217 Y30.0406
G01 X39.2233 Y30.0244
G01 X39.2343 Y29.9504
G01 X39.2374 Y29.9345
G01 X39.2556 Y29.8620
G01 X39.2603 Y29.8464
G01 X39.2855 Y29.7760
G01 X39.2917 Y29.7610
G01 X39.3237 Y29.6934
G01 X39.3314 Y29.6791
G01 X39.3698 Y29.6150
G01 X39.3788 Y29.6015
G01 X39.4234 Y29.5414
G01 X39.4337 Y29.5288
G01 X39.4796 Y29.4782
G01 X39.4796 Y28.2491
G01 X28.1111 Y28.2491
G01 X28.1111 Y29.4782
G01 X28.1570 Y29.5288
G01 X28.1673 Y29.5414
G01 X28.2118 Y29.6015
G01 X28.2209 Y29.6150
G01 X28.2593 Y29.6791
G01 X28.2670 Y29.6934
G01 X28.2989 Y29.7610
G01 X28.3052 Y29.7760
G01 X28.3304 Y29.8464
G01 X28.3351 Y29.8620
G01 X28.3532 Y29.9345
G01 X28.3564 Y29.9504
G01 X28.3674 Y30.0244
G01 X28.3690 Y30.0406
G01 X28.3726 Y30.1153
G01 X28.3726 Y30.1315
G01 X28.3690 Y30.2062
G01 X28.3674 Y30.2224
G01 X28.3564 Y30.2963
G01 X28.3532 Y30.3123
G01 X28.3351 Y30.3848
G01 X28.3304 Y30.4003
G01 X28.3052 Y30.4707
G01 X28.2989 Y30.4857
G01 X28.2670 Y30.5533
G01 X28.2593 Y30.5677
G01 X28.2209 Y30.6318
G01 X28.2118 Y30.6453
G01 X28.1673 Y30.7054
G01 X28.1570 Y30.7179
G01 X28.1068 Y30.7733
G01 X28.0953 Y30.7848
G01 X28.0399 Y30.8350
G01 X28.0273 Y30.8453
G01 X27.9673 Y30.8899
G01 X27.9538 Y30.8989
G01 X27.8896 Y30.9374
G01 X27.8753 Y30.9450
G01 X27.8077 Y30.9770
G01 X27.7927 Y30.9832
G01 X27.7223 Y31.0084
G01 X27.7067 Y31.0131
G01 X27.6342 Y31.0313
G01 X27.6183 Y31.0344
G01 X27.5443 Y31.0454
G01 X27.5281 Y31.0470
G01 X27.4535 Y31.0507
G01 X27.4372 Y31.0507
G01 X27.3625 Y31.0470
G01 X27.3464 Y31.0454
G01 X27.2724 Y31.0344
G01 X27.2565 Y31.0313
G01 X27.1839 Y31.0131
G01 X27.1684 Y31.0084
G01 X27.0980 Y30.9832
G01 X27.0830 Y30.9770
G01 X27.0154 Y30.9450
G01 X27.0011 Y30.9374
G01 X26.9369 Y30.8989
G01 X26.9234 Y30.8899
G01 X26.8633 Y30.8453
G01 X26.8508 Y30.8350
G01 X26.7954 Y30.7848
G01 X26.7839 Y30.7733
G01 X26.7337 Y30.7179
G01 X26.7234 Y30.7054
G01 X26.6788 Y30.6453
G01 X26.6698 Y30.6318
G01 X26.6314 Y30.5677
G01 X26.6237 Y30.5533
G01 X26.5917 Y30.4857
G01 X26.5855 Y30.4707
G01 X26.5603 Y30.4003
G01 X26.5556 Y30.3848
G01 X26.5374 Y30.3123
G01 X26.5343 Y30.2963
G01 X26.5233 Y30.2224
G01 X26.5217 Y30.2062
G01 X26.5180 Y30.1315
G01 X26.5180 Y30.1153
G01 X26.5217 Y30.0406
G01 X26.5233 Y30.0244
G01 X26.5343 Y29.9504
G01 X26.5374 Y29.9345
G01 X26.5556 Y29.8620
G01 X26.5603 Y29.8464
G01 X26.5855 Y29.7760
G01 X26.5917 Y29.7610
G01 X26.6237 Y29.6934
G01 X26.6314 Y29.6791
G01 X26.6698 Y29.6150
G01 X26.6788 Y29.6015
G01 X26.7234 Y29.5414
G01 X26.7337 Y29.5288
G01 X26.7796 Y29.4782
G01 X26.7796 Y28.2491
G01 X15.4111 Y28.2491
G01 X15.4111 Y29.4782
G01 X15.4570 Y29.5288
G01 X15.4673 Y29.5414
G01 X15.5118 Y29.6015
G01 X15.5209 Y29.6150
G01 X15.5593 Y29.6791
G01 X15.5670 Y29.6934
G01 X15.5989 Y29.7610
G01 X15.6052 Y29.7760
G01 X15.6304 Y29.8464
G01 X15.6351 Y29.8620
G01 X15.6532 Y29.9345
G01 X15.6564 Y29.9504
G01 X15.6674 Y30.0244
G01 X15.6690 Y30.0406
G01 X15.6726 Y30.1153
G01 X15.6726 Y30.1315
G01 X15.6690 Y30.2062
G01 X15.6674 Y30.2224
G01 X15.6564 Y30.2963
G01 X15.6532 Y30.3123
G01 X15.6351 Y30.3848
G01 X15.6304 Y30.4003
G01 X15.6052 Y30.4707
G01 X15.5989 Y30.4857
G01 X15.5670 Y30.5533
G01 X15.5593 Y30.5677
G01 X15.5209 Y30.6318
G01 X15.5118 Y30.6453
G01 X15.4673 Y30.7054
G01 X15.4570 Y30.7179
G01 X15.4068 Y30.7733
G01 X15.3953 Y30.7848
G01 X15.3399 Y30.8350
G01 X15.3273 Y30.8453
G01 X15.2673 Y30.8899
G01 X15.2538 Y30.8989
G01 X15.1896 Y30.9374
G01 X15.1753 Y30.9450
G01 X15.1077 Y30.9770
G01 X15.0927 Y30.9832
G01 X15.0223 Y31.0084
G01 X15.0067 Y31.0131
G01 X14.9342 Y31.0313
G01 X14.9183 Y31.0344
G01 X14.8443 Y31.0454
G01 X14.8281 Y31.0470
G01 X14.7535 Y31.0507
G01 X14.7372 Y31.0507
G01 X14.6625 Y31.0470
G01 X14.6464 Y31.0454
G01 X14.5724 Y31.0344
G01 X14.5565 Y31.0313
G01 X14.4839 Y31.0131
G01 X14.4684 Y31.0084
G01 X14.3980 Y30.9832
G01 X14.3830 Y30.9770
G01 X14.3154 Y30.9450
G01 X14.3011 Y30.9374
G01 X14.2369 Y30.8989
G01 X14.2234 Y30.8899
G01 X14.1633 Y30.8453
G01 X14.1508 Y30.8350
G01 X14.0954 Y30.7848
G01 X14.0839 Y30.7733
G01 X14.0337 Y30.7179
G01 X14.0234 Y30.7054
G01 X13.9788 Y30.6453
G01 X13.9698 Y30.6318
G01 X13.9314 Y30.5677
G01 X13.9237 Y30.5533
G01 X13.8917 Y30.4857
G01 X13.8855 Y30.4707
G01 X13.8603 Y30.4003
G01 X13.8556 Y30.3848
G01 X13.8374 Y30.3123
G01 X13.8343 Y30.2963
G01 X13.8233 Y30.2224
G01 X13.8217 Y30.2062
G01 X13.8180 Y30.1315
G01 X13.8180 Y30.1153
G01 X13.8217 Y30.0406
G01 X13.8233 Y30.0244
G01 X13.8343 Y29.9504
G01 X13.8374 Y29.9345
G01 X13.8556 Y29.8620
G01 X13.8603 Y29.8464
G01 X13.8855 Y29.7760
G01 X13.8917 Y29.7610
G01 X13.9237 Y29.6934
G01 X13.9314 Y29.6791
G01 X13.9698 Y29.6150
G01 X13.9788 Y29.6015
G01 X14.0234 Y29.5414
G01 X14.0337 Y29.5288
G01 X14.0796 Y29.4782
G00 Z2.0000
G00 X11.5396 Y34.5582
G01 F60.00
G01 Z-0.2001
G01 F320.00
G01 X11.5396 Y32.6634
G01 X11.5422 Y32.6062
G01 X11.5438 Y32.5901
G01 X11.5510 Y32.5415
G01 X11.5542 Y32.5256
G01 X11.5661 Y32.4780
G01 X11.5708 Y32.4624
G01 X11.5873 Y32.4162
G01 X11.5936 Y32.4012
G01 X11.6146 Y32.3568
G01 X11.6222 Y32.3425
G01 X11.6474 Y32.3004
G01 X11.6565 Y32.2869
G01 X11.6857 Y32.2474
G01 X11.6960 Y32.2349
G01 X11.7290 Y32.1985
G01 X11.7405 Y32.1870
G01 X11.7768 Y32.1541
G01 X11.7894 Y32.1438
G01 X11.8288 Y32.1145
G01 X11.8423 Y32.1055
G01 X11.8844 Y32.0803
G01 X11.8988 Y32.0726
G01 X11.9431 Y32.0516
G01 X11.9581 Y32.0454
G01 X12.0044 Y32.0289
G01 X12.0199 Y32.0241
G01 X12.0675 Y32.0122
G01 X12.0835 Y32.0090
G01 X12.1320 Y32.0018
G01 X12.1482 Y32.0002
G01 X12.2053 Y31.9976
G01 X19.1596 Y31.9976
G01 X19.1596 Y30.7686
G01 X19.1137 Y30.7179
G01 X19.1034 Y30.7054
G01 X19.0588 Y30.6453
G01 X19.0498 Y30.6318
G01 X19.0114 Y30.5677
G01 X19.0037 Y30.5533
G01 X18.9717 Y30.4857
G01 X18.9655 Y30.4707
G01 X18.9403 Y30.4003
G01 X18.9356 Y30.3848
G01 X18.9174 Y30.3123
G01 X18.9143 Y30.2963
G01 X18.9033 Y30.2224
G01 X18.9017 Y30.2062
G01 X18.8980 Y30.1315
G01 X18.8980 Y30.1153
G01 X18.9017 Y30.0406
G01 X18.9033 Y30.0244
G01 X18.9143 Y29.9504
G01 X18.9174 Y29.9345
G01 X18.9356 Y29.8620
G01 X18.9403 Y29.8464
G01 X18.9655 Y29.7760
G01 X18.9717 Y29.7610
G01 X19.0037 Y29.6934
G01 X19.0114 Y29.6791
G01 X19.0498 Y29.6150
G01 X19.0588 Y29.6015
G01 X19.1034 Y29.5414
G01 X19.1137 Y29.5288
G01 X19.1639 Y29.4734
G01 X19.1754 Y29.4619
G01 X19.2308 Y29.4117
G01 X19.2433 Y29.4014
G01 X19.3034 Y29.3569
G01 X19.3169 Y29.3479
G01 X19.3811 Y29.3094
G01 X19.3954 Y29.3018
G01 X19.4630 Y29.2698
G01 X19.4780 Y29.2636
G01 X19.5484 Y29.2384
G01 X19.5639 Y29.2337
G01 X19.6365 Y29.2155
G01 X19.6524 Y29.2123
G01 X19.7264 Y29.2013
G01 X19.7425 Y29.1998
G01 X19.8172 Y29.1961
G01 X19.8335 Y29.1961
G01 X19.9081 Y29.1998
G01 X19.9243 Y29.2013
G01 X19.9983 Y29.2123
G01 X20.0142 Y29.2155
G01 X20.0867 Y29.2337
G01 X20.1023 Y29.2384
G01 X20.1727 Y29.2636
G01 X20.1877 Y29.2698
G01 X20.2553 Y29.3018
G01 X20.2696 Y29.3094
G01 X20.3338 Y29.3479
G01 X20.3473 Y29.3569
G01 X20.4073 Y29.4014
G01 X20.4199 Y29.4117
G01 X20.4753 Y29.4619
G01 X20.4868 Y29.4734
G01 X20.5370 Y29.5288
G01 X20.5473 Y29.5414
G01 X20.5918 Y29.6015
G01 X20.6009 Y29.6150
G01 X20.6393 Y29.6791
G01 X20.6470 Y29.6934
G01 X20.6789 Y29.7610
G01 X20.6852 Y29.7760
G01 X20.7104 Y29.8464
G01 X20.7151 Y29.8620
G01 X20.7332 Y29.9345
G01 X20.7364 Y29.9504
G01 X20.7474 Y30.0244
G01 X20.7490 Y30.0406
G01 X20.7526 Y30.1153
G01 X20.7526 Y30.1315
G01 X20.7490 Y30.2062
G01 X20.7474 Y30.2224
G01 X20.7364 Y30.2963
G01 X20.7332 Y30.3123
G01 X20.7151 Y30.3848
G01 X20.7104 Y30.4003
G01 X20.6852 Y30.4707
G01 X20.6789 Y30.4857
G01 X20.6470 Y30.5533
G01 X20.6393 Y30.5677
G01 X20.6009 Y30.6318
G01 X20.5918 Y30.6453
G01 X20.5473 Y30.7054
G01 X20.5370 Y30.7179
G01 X20.4911 Y30.7686
G01 X20.4911 Y31.9976
G01 X22.3653 Y31.9976
G01 X22.4225 Y32.0002
G01 X22.4387 Y32.0018
G01 X22.4872 Y32.0090
G01 X22.5031 Y32.0122
G01 X22.5508 Y32.0241
G01 X22.5663 Y32.0289
G01 X22.6125 Y32.0454
G01 X22.6275 Y32.0516
G01 X22.6719 Y32.0726
G01 X22.6862 Y32.0803
G01 X22.7283 Y32.1055
G01 X22.7418 Y32.1145
G01 X22.7813 Y32.1438
G01 X22.7938 Y32.1541
G01 X22.8302 Y32.1870
G01 X22.8417 Y32.1985
G01 X22.8747 Y32.2349
G01 X22.8850 Y32.2474
G01 X22.9142 Y32.2869
G01 X22.9232 Y32.3004
G01 X22.9485 Y32.3425
G01 X22.9561 Y32.3568
G01 X22.9771 Y32.4012
G01 X22.9833 Y32.4162
G01 X22.9999 Y32.4624
G01 X23.0046 Y32.4780
G01 X23.0165 Y32.5256
G01 X23.0197 Y32.5415
G01 X23.0269 Y32.5901
G01 X23.0285 Y32.6062
G01 X23.0311 Y32.6634
G01 X23.0311 Y42.1576
G01 X26.2975 Y42.1576
G01 X26.3195 Y42.1414
G01 X26.3330 Y42.1323
G01 X26.3885 Y42.0990
G01 X26.4029 Y42.0914
G01 X26.4615 Y42.0636
G01 X26.4765 Y42.0574
G01 X26.5375 Y42.0356
G01 X26.5530 Y42.0309
G01 X26.6159 Y42.0151
G01 X26.6318 Y42.0120
G01 X26.6959 Y42.0025
G01 X26.7121 Y42.0009
G01 X26.7849 Y41.9975
G01 X28.1057 Y41.9975
G01 X28.1786 Y42.0009
G01 X28.1948 Y42.0025
G01 X28.2589 Y42.0120
G01 X28.2748 Y42.0151
G01 X28.3377 Y42.0309
G01 X28.3532 Y42.0356
G01 X28.4142 Y42.0574
G01 X28.4292 Y42.0636
G01 X28.4878 Y42.0914
G01 X28.5021 Y42.0990
G01 X28.5577 Y42.1323
G01 X28.5712 Y42.1414
G01 X28.6233 Y42.1800
G01 X28.6358 Y42.1903
G01 X28.6839 Y42.2338
G01 X28.6953 Y42.2453
G01 X28.7389 Y42.2933
G01 X28.7492 Y42.3058
G01 X28.7878 Y42.3579
G01 X28.7968 Y42.3714
G01 X28.8301 Y42.4270
G01 X28.8378 Y42.4413
G01 X28.8655 Y42.4999
G01 X28.8717 Y42.5149
G01 X28.8935 Y42.5759
G01 X28.8982 Y42.5915
G01 X28.9140 Y42.6543
G01 X28.9172 Y42.6703
G01 X28.9267 Y42.7344
G01 X28.9283 Y42.7505
G01 X28.9314 Y42.8153
G01 X28.9314 Y42.8315
G01 X28.9283 Y42.8962
G01 X28.9267 Y42.9124
G01 X28.9172 Y42.9765
G01 X28.9140 Y42.9924
G01 X28.8982 Y43.0553
G01 X28.8935 Y43.0708
G01 X28.8717 Y43.1319
G01 X28.8655 Y43.1469
G01 X28.8378 Y43.2055
G01 X28.8301 Y43.2198
G01 X28.7968 Y43.2754
G01 X28.7878 Y43.2889
G01 X28.7492 Y43.3409
G01 X28.7389 Y43.3535
G01 X28.6953 Y43.4015
G01 X28.6839 Y43.4130
G01 X28.6358 Y43.4565
G01 X28.6233 Y43.4668
G01 X28.5712 Y43.5054
G01 X28.5577 Y43.5144
G01 X28.5021 Y43.5478
G01 X28.4878 Y43.5554
G01 X28.4292 Y43.5831
G01 X28.4142 Y43.5893
G01 X28.3532 Y43.6112
G01 X28.3377 Y43.6159
G01 X28.2748 Y43.6316
G01 X28.2589 Y43.6348
G01 X28.1948 Y43.6443
G01 X28.1786 Y43.6459
G01 X28.1057 Y43.6493
G01 X26.7849 Y43.6493
G01 X26.7121 Y43.6459
G01 X26.6959 Y43.6443
G01 X26.6318 Y43.6348
G01 X26.6159 Y43.6316
G01 X26.5530 Y43.6159
G01 X26.5375 Y43.6112
G01 X26.4765 Y43.5893
G01 X26.4615 Y43.5831
G01 X26.4029 Y43.5554
G01 X26.3885 Y43.5478
G01 X26.3330 Y43.5144
G01 X26.3195 Y43.5054
G01 X26.2975 Y43.4891
G01 X22.3653 Y43.4891
G01 X22.3082 Y43.4865
G01 X22.2920 Y43.4849
G01 X22.2435 Y43.4777
G01 X22.2275 Y43.4746
G01 X22.1799 Y43.4626
G01 X22.1644 Y43.4579
G01 X22.1181 Y43.4414
G01 X22.1031 Y43.4352
G01 X22.0588 Y43.4142
G01 X22.0444 Y43.4065
G01 X22.0023 Y43.3813
G01 X21.9888 Y43.3723
G01 X21.9494 Y43.3430
G01 X21.9368 Y43.3327
G01 X21.9005 Y43.2997
G01 X21.8890 Y43.2883
G01 X21.8560 Y43.2519
G01 X21.8457 Y43.2393
G01 X21.8165 Y43.1999
G01 X21.8074 Y43.1864
G01 X21.7822 Y43.1443
G01 X21.7746 Y43.1300
G01 X21.7536 Y43.0856
G01 X21.7473 Y43.0706
G01 X21.7308 Y43.0244
G01 X21.7261 Y43.0088
G01 X21.7142 Y42.9612
G01 X21.7110 Y42.9453
G01 X21.7038 Y42.8967
G01 X21.7022 Y42.8805
G01 X21.6996 Y42.8234
G01 X21.6996 Y33.3291
G01 X12.8711 Y33.3291
G01 X12.8711 Y34.5582
G01 X12.9170 Y34.6088
G01 X12.9273 Y34.6214
G01 X12.9718 Y34.6815
G01 X12.9809 Y34.6950
G01 X13.0193 Y34.7591
G01 X13.0270 Y34.7734
G01 X13.0589 Y34.8410
G01 X13.0652 Y34.8560
G01 X13.0904 Y34.9264
G01 X13.0951 Y34.9420
G01 X13.1132 Y35.0145
G01 X13.1164 Y35.0304
G01 X13.1274 Y35.1044
G01 X13.1290 Y35.1206
G01 X13.1326 Y35.1953
G01 X13.1326 Y35.2115
G01 X13.1290 Y35.2862
G01 X13.1274 Y35.3024
G01 X13.1164 Y35.3763
G01 X13.1132 Y35.3923
G01 X13.0951 Y35.4648
G01 X13.0904 Y35.4803
G01 X13.0652 Y35.5507
G01 X13.0589 Y35.5657
G01 X13.0270 Y35.6333
G01 X13.0193 Y35.6477
G01 X12.9809 Y35.7118
G01 X12.9718 Y35.7253
G01 X12.9273 Y35.7854
G01 X12.9170 Y35.7979
G01 X12.8668 Y35.8533
G01 X12.8553 Y35.8648
G01 X12.7999 Y35.9150
G01 X12.7873 Y35.9253
G01 X12.7273 Y35.9699
G01 X12.7138 Y35.9789
G01 X12.6496 Y36.0174
G01 X12.6353 Y36.0250
G01 X12.5677 Y36.0570
G01 X12.5527 Y36.0632
G01 X12.4823 Y36.0884
G01 X12.4667 Y36.0931
G01 X12.3942 Y36.1113
G01 X12.3783 Y36.1144
G01 X12.3043 Y36.1254
G01 X12.2881 Y36.1270
G01 X12.2135 Y36.1307
G01 X12.1972 Y36.1307
G01 X12.1225 Y36.1270
G01 X12.1064 Y36.1254
G01 X12.0324 Y36.1144
G01 X12.0165 Y36.1113
G01 X11.9439 Y36.0931
G01 X11.9284 Y36.0884
G01 X11.8580 Y36.0632
G01 X11.8430 Y36.0570
G01 X11.7754 Y36.0250
G01 X11.7611 Y36.0174
G01 X11.6969 Y35.9789
G01 X11.6834 Y35.9699
G01 X11.6233 Y35.9253
G01 X11.6108 Y35.9150
G01 X11.5554 Y35.8648
G01 X11.5439 Y35.8533
G01 X11.4937 Y35.7979
G01 X11.4834 Y35.7854
G01 X11.4388 Y35.7253
G01 X11.4298 Y35.7118
G01 X11.3914 Y35.6477
G01 X11.3837 Y35.6333
G01 X11.3517 Y35.5657
G01 X11.3455 Y35.5507
G01 X11.3203 Y35.4803
G01 X11.3156 Y35.4648
G01 X11.2974 Y35.3923
G01 X11.2943 Y35.3763
G01 X11.2833 Y35.3024
G01 X11.2817 Y35.2862
G01 X11.2780 Y35.2115
G01 X11.2780 Y35.1953
G01 X11.2817 Y35.1206
G01 X11.2833 Y35.1044
G01 X11.2943 Y35.0304
G01 X11.2974 Y35.0145
G01 X11.3156 Y34.9420
G01 X11.3203 Y34.9264
G01 X11.3455 Y34.8560
G01 X11.3517 Y34.8410
G01 X11.3837 Y34.7734
G01 X11.3914 Y34.7591
G01 X11.4298 Y34.6950
G01 X11.4388 Y34.6815
G01 X11.4834 Y34.6214
G01 X11.4937 Y34.6088
G01 X11.5396 Y34.5582
G00 Z2.0000
G00 X15.8932 Y39.6176
G01 F60.00
G01 Z-0.2001
G01 F320.00
G01 X17.2853 Y39.6176
G01 X17.3425 Y39.6202
G01 X17.3587 Y39.6218
G01 X17.4072 Y39.6290
G01 X17.4231 Y39.6322
G01 X17.4708 Y39.6441
G01 X17.4863 Y39.6489
G01 X17.5325 Y39.6654
G01 X17.5475 Y39.6716
G01 X17.5919 Y39.6926
G01 X17.6062 Y39.7003
G01 X17.6483 Y39.7255
G01 X17.6618 Y39.7345
G01 X17.7013 Y39.7638
G01 X17.7138 Y39.7741
G01 X17.7502 Y39.8070
G01 X17.7617 Y39.8185
G01 X17.7947 Y39.8549
G01 X17.8050 Y39.8674
G01 X17.8342 Y39.9069
G01 X17.8432 Y39.9204
G01 X17.8685 Y39.9625
G01 X17.8761 Y39.9768
G01 X17.8971 Y40.0212
G01 X17.9033 Y40.0362
G01 X17.9199 Y40.0824
G01 X17.9246 Y40.0980
G01 X17.9365 Y40.1456
G01 X17.9397 Y40.1615
G01 X17.9469 Y40.2101
G01 X17.9485 Y40.2262
G01 X17.9511 Y40.2834
G01 X17.9511 Y62.4776
G01 X19.8253 Y62.4776
G01 X19.8825 Y62.4802
G01 X19.8987 Y62.4818
G01 X19.9472 Y62.4890
G01 X19.9631 Y62.4922
G01 X20.0108 Y62.5041
G01 X20.0263 Y62.5089
G01 X20.0725 Y62.5254
G01 X20.0875 Y62.5316
G01 X20.1319 Y62.5526
G01 X20.1462 Y62.5603
G01 X20.1883 Y62.5855
G01 X20.2018 Y62.5945
G01 X20.2413 Y62.6238
G01 X20.2538 Y62.6341
G01 X20.2902 Y62.6670
G01 X20.3017 Y62.6785
G01 X20.3347 Y62.7149
G01 X20.3450 Y62.7274
G01 X20.3742 Y62.7669
G01 X20.3832 Y62.7804
G01 X20.4085 Y62.8225
G01 X20.4161 Y62.8368
G01 X20.4371 Y62.8812
G01 X20.4433 Y62.8962
G01 X20.4599 Y62.9424
G01 X20.4646 Y62.9580
G01 X20.4765 Y63.0056
G01 X20.4797 Y63.0215
G01 X20.4869 Y63.0701
G01 X20.4885 Y63.0862
G01 X20.4911 Y63.1434
G01 X20.4911 Y67.3976
G01 X20.5586 Y67.4009
G01 X20.5748 Y67.4025
G01 X20.6389 Y67.4120
G01 X20.6548 Y67.4151
G01 X20.7177 Y67.4309
G01 X20.7332 Y67.4356
G01 X20.7942 Y67.4574
G01 X20.8092 Y67.4636
G01 X20.8678 Y67.4914
G01 X20.8821 Y67.4990
G01 X20.9377 Y67.5323
G01 X20.9512 Y67.5414
G01 X21.0033 Y67.5800
G01 X21.0158 Y67.5903
G01 X21.0639 Y67.6338
G01 X21.0753 Y67.6453
G01 X21.1189 Y67.6933
G01 X21.1292 Y67.7058
G01 X21.1678 Y67.7579
G01 X21.1768 Y67.7714
G01 X21.2101 Y67.8270
G01 X21.2178 Y67.8413
G01 X21.2455 Y67.8999
G01 X21.2517 Y67.9149
G01 X21.2735 Y67.9759
G01 X21.2782 Y67.9915
G01 X21.2940 Y68.0543
G01 X21.2972 Y68.0703
G01 X21.3067 Y68.1344
G01 X21.3083 Y68.1505
G01 X21.3114 Y68.2153
G01 X21.3114 Y68.2315
G01 X21.3083 Y68.2962
G01 X21.3067 Y68.3124
G01 X21.2972 Y68.3765
G01 X21.2940 Y68.3924
G01 X21.2782 Y68.4553
G01 X21.2735 Y68.4708
G01 X21.2517 Y68.5319
G01 X21.2455 Y68.5469
G01 X21.2178 Y68.6055
G01 X21.2101 Y68.6198
G01 X21.1768 Y68.6754
G01 X21.1678 Y68.6889
G01 X21.1292 Y68.7409
G01 X21.1189 Y68.7535
G01 X21.0753 Y68.8015
G01 X21.0639 Y68.8130
G01 X21.0158 Y68.8565
G01 X21.0033 Y68.8668
G01 X20.9512 Y68.9054
G01 X20.9377 Y68.9144
G01 X20.8821 Y68.9478
G01 X20.8678 Y68.9554
G01 X20.8092 Y68.9831
G01 X20.7942 Y68.9893
G01 X20.7332 Y69.0112
G01 X20.7177 Y69.0159
G01 X20.6548 Y69.0316
G01 X20.6389 Y69.0348
G01 X20.5748 Y69.0443
G01 X20.5586 Y69.0459
G01 X20.4857 Y69.0493
G01 X19.1649 Y69.0493
G01 X19.0921 Y69.0459
G01 X19.0759 Y69.0443
G01 X19.0118 Y69.0348
G01 X18.9959 Y69.0316
G01 X18.9330 Y69.0159
G01 X18.9175 Y69.0112
G01 X18.8565 Y68.9893
G01 X18.8415 Y68.9831
G01 X18.7829 Y68.9554
G01 X18.7685 Y68.9478
G01 X18.7130 Y68.9144
G01 X18.6995 Y68.9054
G01 X18.6474 Y68.8668
G01 X18.6348 Y68.8565
G01 X18.5868 Y68.8130
G01 X18.5753 Y68.8015
G01 X18.5318 Y68.7535
G01 X18.5215 Y68.7409
G01 X18.4829 Y68.6889
G01 X18.4739 Y68.6754
G01 X18.4406 Y68.6198
G01 X18.4329 Y68.6055
G01 X18.4052 Y68.5469
G01 X18.3990 Y68.5319
G01 X18.3772 Y68.4708
G01 X18.3724 Y68.4553
G01 X18.3567 Y68.3924
G01 X18.3535 Y68.3765
G01 X18.3440 Y68.3124
G01 X18.3424 Y68.2962
G01 X18.3392 Y68.2315
G01 X18.3392 Y68.2153
G01 X18.3424 Y68.1505
G01 X18.3440 Y68.1344
G01 X18.3535 Y68.0703
G01 X18.3567 Y68.0543
G01 X18.3724 Y67.9915
G01 X18.3772 Y67.9759
G01 X18.3990 Y67.9149
G01 X18.4052 Y67.8999
G01 X18.4329 Y67.8413
G01 X18.4406 Y67.8270
G01 X18.4739 Y67.7714
G01 X18.4829 Y67.7579
G01 X18.5215 Y67.7058
G01 X18.5318 Y67.6933
G01 X18.5753 Y67.6453
G01 X18.5868 Y67.6338
G01 X18.6348 Y67.5903
G01 X18.6474 Y67.5800
G01 X18.6995 Y67.5414
G01 X18.7130 Y67.5323
G01 X18.7685 Y67.4990
G01 X18.7829 Y67.4914
G01 X18.8415 Y67.4636
G01 X18.8565 Y67.4574
G01 X18.9175 Y67.4356
G01 X18.9330 Y67.4309
G01 X18.9959 Y67.4151
G01 X19.0118 Y67.4120
G01 X19.0759 Y67.4025
G01 X19.0921 Y67.4009
G01 X19.1596 Y67.3976
G01 X19.1596 Y63.8091
G01 X17.2853 Y63.8091
G01 X17.2282 Y63.8065
G01 X17.2120 Y63.8049
G01 X17.1635 Y63.7977
G01 X17.1475 Y63.7946
G01 X17.0999 Y63.7826
G01 X17.0844 Y63.7779
G01 X17.0381 Y63.7614
G01 X17.0231 Y63.7552
G01 X16.9788 Y63.7342
G01 X16.9644 Y63.7265
G01 X16.9223 Y63.7013
G01 X16.9088 Y63.6923
G01 X16.8694 Y63.6630
G01 X16.8568 Y63.6527
G01 X16.8205 Y63.6197
G01 X16.8090 Y63.6083
G01 X16.7760 Y63.5719
G01 X16.7657 Y63.5593
G01 X16.7365 Y63.5199
G01 X16.7274 Y63.5064
G01 X16.7022 Y63.4643
G01 X16.6946 Y63.4500
G01 X16.6736 Y63.4056
G01 X16.6673 Y63.3906
G01 X16.6508 Y63.3444
G01 X16.6461 Y63.3288
G01 X16.6342 Y63.2812
G01 X16.6310 Y63.2653
G01 X16.6238 Y63.2167
G01 X16.6222 Y63.2005
G01 X16.6196 Y63.1434
G01 X16.6196 Y40.9491
G01 X15.8932 Y40.9491
G01 X15.8712 Y40.9654
G01 X15.8577 Y40.9744
G01 X15.8021 Y41.0078
G01 X15.7878 Y41.0154
G01 X15.7292 Y41.0431
G01 X15.7142 Y41.0493
G01 X15.6532 Y41.0712
G01 X15.6377 Y41.0759
G01 X15.5748 Y41.0916
G01 X15.5589 Y41.0948
G01 X15.4948 Y41.1043
G01 X15.4786 Y41.1059
G01 X15.4057 Y41.1093
G01 X14.0849 Y41.1093
G01 X14.0121 Y41.1059
G01 X13.9959 Y41.1043
G01 X13.9318 Y41.0948
G01 X13.9159 Y41.0916
G01 X13.8530 Y41.0759
G01 X13.8375 Y41.0712
G01 X13.7765 Y41.0493
G01 X13.7615 Y41.0431
G01 X13.7029 Y41.0154
G01 X13.6885 Y41.0078
G01 X13.6330 Y40.9744
G01 X13.6195 Y40.9654
G01 X13.5674 Y40.9268
G01 X13.5548 Y40.9165
G01 X13.5068 Y40.8730
G01 X13.4953 Y40.8615
G01 X13.4518 Y40.8135
G01 X13.4415 Y40.8009
G01 X13.4029 Y40.7489
G01 X13.3939 Y40.7354
G01 X13.3606 Y40.6798
G01 X13.3529 Y40.6655
G01 X13.3252 Y40.6069
G01 X13.3190 Y40.5919
G01 X13.2972 Y40.5308
G01 X13.2924 Y40.5153
G01 X13.2767 Y40.4524
G01 X13.2735 Y40.4365
G01 X13.2640 Y40.3724
G01 X13.2624 Y40.3562
G01 X13.2592 Y40.2915
G01 X13.2592 Y40.2753
G01 X13.2624 Y40.2105
G01 X13.2640 Y40.1944
G01 X13.2735 Y40.1303
G01 X13.2767 Y40.1143
G01 X13.2924 Y40.0515
G01 X13.2972 Y40.0359
G01 X13.3190 Y39.9749
G01 X13.3252 Y39.9599
G01 X13.3529 Y39.9013
G01 X13.3606 Y39.8870
G01 X13.3939 Y39.8314
G01 X13.4029 Y39.8179
G01 X13.4415 Y39.7658
G01 X13.4518 Y39.7533
G01 X13.4953 Y39.7053
G01 X13.5068 Y39.6938
G01 X13.5548 Y39.6503
G01 X13.5674 Y39.6400
G01 X13.6195 Y39.6014
G01 X13.6330 Y39.5923
G01 X13.6885 Y39.5590
G01 X13.7029 Y39.5514
G01 X13.7615 Y39.5236
G01 X13.7765 Y39.5174
G01 X13.8375 Y39.4956
G01 X13.8530 Y39.4909
G01 X13.9159 Y39.4751
G01 X13.9318 Y39.4720
G01 X13.9959 Y39.4625
G01 X14.0121 Y39.4609
G01 X14.0849 Y39.4575
G01 X15.4057 Y39.4575
G01 X15.4786 Y39.4609
G01 X15.4948 Y39.4625
G01 X15.5589 Y39.4720
G01 X15.5748 Y39.4751
G01 X15.6377 Y39.4909
G01 X15.6532 Y39.4956
G01 X15.7142 Y39.5174
G01 X15.7292 Y39.5236
G01 X15.7878 Y39.5514
G01 X15.8021 Y39.5590
G01 X15.8577 Y39.5923
G01 X15.8712 Y39.6014
G01 X15.8932 Y39.6176
G00 Z2.0000
G00 X19.1596 Y39.4576
G01 F60.00
G01 Z-0.2001
G01 F320.00
G01 X19.1596 Y35.8486
G01 X19.1137 Y35.7979
G01 X19.1034 Y35.7854
G01 X19.0588 Y35.7253
G01 X19.0498 Y35.7118
G01 X19.0114 Y35.6477
G01 X19.0037 Y35.6333
G01 X18.9717 Y35.5657
G01 X18.9655 Y35.5507
G01 X18.9403 Y35.4803
G01 X18.9356 Y35.4648
G01 X18.9174 Y35.3923
G01 X18.9143 Y35.3763
G01 X18.9033 Y35.3024
G01 X18.9017 Y35.2862
G01 X18.8980 Y35.2115
G01 X18.8980 Y35.1953
G01 X18.9017 Y35.1206
G01 X18.9033 Y35.1044
G01 X18.9143 Y35.0304
G01 X18.9174 Y35.0145
G01 X18.9356 Y34.9420
G01 X18.9403 Y34.9264
G01 X18.9655 Y34.8560
G01 X18.9717 Y34.8410
G01 X19.0037 Y34.7734
G01 X19.0114 Y34.7591
G01 X19.0498 Y34.6950
G01 X19.0588 Y34.6815
G01 X19.1034 Y34.6214
G01 X19.1137 Y34.6088
G01 X19.1639 Y34.5534
G01 X19.1754 Y34.5419
G01 X19.2308 Y34.4917
G01 X19.2433 Y34.4814
G01 X19.3034 Y34.4369
G01 X19.3169 Y34.4279
G01 X19.3811 Y34.3894
G01 X19.3954 Y34.3818
G01 X19.4630 Y34.3498
G01 X19.4780 Y34.3436
G01 X19.5484 Y34.3184
G01 X19.5639 Y34.3137
G01 X19.6365 Y34.2955
G01 X19.6524 Y34.2923
G01 X19.7264 Y34.2813
G01 X19.7425 Y34.2798
G01 X19.8172 Y34.2761
G01 X19.8335 Y34.2761
G01 X19.9081 Y34.2798
G01 X19.9243 Y34.2813
G01 X19.9983 Y34.2923
G01 X20.0142 Y34.2955
G01 X20.0867 Y34.3137
G01 X20.1023 Y34.3184
G01 X20.1727 Y34.3436
G01 X20.1877 Y34.3498
G01 X20.2553 Y34.3818
G01 X20.2696 Y34.3894
G01 X20.3338 Y34.4279
G01 X20.3473 Y34.4369
G01 X20.4073 Y34.4814
G01 X20.4199 Y34.4917
G01 X20.4753 Y34.5419
G01 X20.4868 Y34.5534
G01 X20.5370 Y34.6088
G01 X20.5473 Y34.6214
G01 X20.5918 Y34.6815
G01 X20.6009 Y34.6950
G01 X20.6393 Y34.7591
G01 X20.6470 Y34.7734
G01 X20.6789 Y34.8410
G01 X20.6852 Y34.8560
G01 X20.7104 Y34.9264
G01 X20.7151 Y34.9420
G01 X20.7332 Y35.0145
G01 X20.7364 Y35.0304
G01 X20.7474 Y35.1044
G01 X20.7490 Y35.1206
G01 X20.7526 Y35.1953
G01 X20.7526 Y35.2115
G01 X20.7490 Y35.2862
G01 X20.7474 Y35.3024
G01 X20.7364 Y35.3763
G01 X20.7332 Y35.3923
G01 X20.7151 Y35.4648
G01 X20.7104 Y35.4803
G01 X20.6852 Y35.5507
G01 X20.6789 Y35.5657
G01 X20.6470 Y35.6333
G01 X20.6393 Y35.6477
G01 X20.6009 Y35.7118
G01 X20.5918 Y35.7253
G01 X20.5473 Y35.7854
G01 X20.5370 Y35.7979
G01 X20.4911 Y35.8486
G01 X20.4911 Y39.4576
G01 X20.5586 Y39.4609
G01 X20.5748 Y39.4625
G01 X20.6389 Y39.4720
G01 X20.6548 Y39.4751
G01 X20.7177 Y39.4909
G01 X20.7332 Y39.4956
G01 X20.7942 Y39.5174
G01 X20.8092 Y39.5236
G01 X20.8678 Y39.5514
G01 X20.8821 Y39.5590
G01 X20.9377 Y39.5923
G01 X20.9512 Y39.6014
G01 X21.0033 Y39.6400
G01 X21.0158 Y39.6503
G01 X21.0639 Y39.6938
G01 X21.0753 Y39.7053
G01 X21.1189 Y39.7533
G01 X21.1292 Y39.7658
G01 X21.1678 Y39.8179
G01 X21.1768 Y39.8314
G01 X21.2101 Y39.8870
G01 X21.2178 Y39.9013
G01 X21.2455 Y39.9599
G01 X21.2517 Y39.9749
G01 X21.2735 Y40.0359
G01 X21.2782 Y40.0515
G01 X21.2940 Y40.1143
G01 X21.2972 Y40.1303
G01 X21.3067 Y40.1944
G01 X21.3083 Y40.2105
G01 X21.3114 Y40.2753
G01 X21.3114 Y40.2915
G01 X21.3083 Y40.3562
G01 X21.3067 Y40.3724
G01 X21.2972 Y40.4365
G01 X21.2940 Y40.4524
G01 X21.2782 Y40.5153
G01 X21.2735 Y40.5308
G01 X21.2517 Y40.5919
G01 X21.2455 Y40.6069
G01 X21.2178 Y40.6655
G01 X21.2101 Y40.6798
G01 X21.1768 Y40.7354
G01 X21.1678 Y40.7489
G01 X21.1292 Y40.8009
G01 X21.1189 Y40.8135
G01 X21.0753 Y40.8615
G01 X21.0639 Y40.8730
G01 X21.0158 Y40.9165
G01 X21.0033 Y40.9268
G01 X20.9512 Y40.9654
G01 X20.9377 Y40.9744
G01 X20.8821 Y41.0078
G01 X20.8678 Y41.0154
G01 X20.8092 Y41.0431
G01 X20.7942 Y41.0493
G01 X20.7332 Y41.0712
G01 X20.7177 Y41.0759
G01 X20.6548 Y41.0916
G01 X20.6389 Y41.0948
G01 X20.5748 Y41.1043
G01 X20.5586 Y41.1059
G01 X20.4857 Y41.1093
G01 X19.1649 Y41.1093
G01 X19.0921 Y41.1059
G01 X19.0759 Y41.1043
G01 X19.0118 Y41.0948
G01 X18.9959 Y41.0916
G01 X18.9330 Y41.0759
G01 X18.9175 Y41.0712
G01 X18.8565 Y41.0493
G01 X18.8415 Y41.0431
G01 X18.7829 Y41.0154
G01 X18.7685 Y41.0078
G01 X18.7130 Y40.9744
G01 X18.6995 Y40.9654
G01 X18.6474 Y40.9268
G01 X18.6348 Y40.9165
G01 X18.5868 Y40.8730
G01 X18.5753 Y40.8615
G01 X18.5318 Y40.8135
G01 X18.5215 Y40.8009
G01 X18.4829 Y40.7489
G01 X18.4739 Y40.7354
G01 X18.4406 Y40.6798
G01 X18.4329 Y40.6655
G01 X18.4052 Y40.6069
G01 X18.3990 Y40.5919
G01 X18.3772 Y40.5308
G01 X18.3724 Y40.5153
G01 X18.3567 Y40.4524
G01 X18.3535 Y40.4365
G01 X18.3440 Y40.3724
G01 X18.3424 Y40.3562
G01 X18.3392 Y40.2915
G01 X18.3392 Y40.2753
G01 X18.3424 Y40.2105
G01 X18.3440 Y40.1944
G01 X18.3535 Y40.1303
G01 X18.3567 Y40.1143
G01 X18.3724 Y40.0515
G01 X18.3772 Y40.0359
G01 X18.3990 Y39.9749
G01 X18.4052 Y39.9599
G01 X18.4329 Y39.9013
G01 X18.4406 Y39.8870
G01 X18.4739 Y39.8314
G01 X18.4829 Y39.8179
G01 X18.5215 Y39.7658
G01 X18.5318 Y39.7533
G01 X18.5753 Y39.7053
G01 X18.5868 Y39.6938
G01 X18.6348 Y39.6503
G01 X18.6474 Y39.6400
G01 X18.6995 Y39.6014
G01 X18.7130 Y39.5923
G01 X18.7685 Y39.5590
G01 X18.7829 Y39.5514
G01 X18.8415 Y39.5236
G01 X18.8565 Y39.5174
G01 X18.9175 Y39.4956
G01 X18.9330 Y39.4909
G01 X18.9959 Y39.4751
G01 X19.0118 Y39.4720
G01 X19.0759 Y39.4625
G01 X19.0921 Y39.4609
G01 X19.1596 Y39.4576
G00 Z2.0000
G00 X19.1596 Y43.6492
G01 F60.00
G01 Z-0.2001
G01 F320.00
G01 X19.0921 Y43.6459
G01 X19.0759 Y43.6443
G01 X19.0118 Y43.6348
G01 X18.9959 Y43.6316
G01 X18.9330 Y43.6159
G01 X18.9175 Y43.6112
G01 X18.8565 Y43.5893
G01 X18.8415 Y43.5831
G01 X18.7829 Y43.5554
G01 X18.7685 Y43.5478
G01 X18.7130 Y43.5144
G01 X18.6995 Y43.5054
G01 X18.6474 Y43.4668
G01 X18.6348 Y43.4565
G01 X18.5868 Y43.4130
G01 X18.5753 Y43.4015
G01 X18.5318 Y43.3535
G01 X18.5215 Y43.3409
G01 X18.4829 Y43.2889
G01 X18.4739 Y43.2754
G01 X18.4406 Y43.2198
G01 X18.4329 Y43.2055
G01 X18.4052 Y43.1469
G01 X18.3990 Y43.1319
G01 X18.3772 Y43.0708
G01 X18.3724 Y43.0553
G01 X18.3567 Y42.9924
G01 X18.3535 Y42.9765
G01 X18.3440 Y42.9124
G01 X18.3424 Y42.8962
G01 X18.3392 Y42.8315
G01 X18.3392 Y42.8153
G01 X18.3424 Y42.7505
G01 X18.3440 Y42.7344
G01 X18.3535 Y42.6703
G01 X18.3567 Y42.6543
G01 X18.3724 Y42.5915
G01 X18.3772 Y42.5759
G01 X18.3990 Y42.5149
G01 X18.4052 Y42.4999
G01 X18.4329 Y42.4413
G01 X18.4406 Y42.4270
G01 X18.4739 Y42.3714
G01 X18.4829 Y42.3579
G01 X18.5215 Y42.3058
G01 X18.5318 Y42.2933
G01 X18.5753 Y42.2453
G01 X18.5868 Y42.2338
G01 X18.6348 Y42.1903
G01 X18.6474 Y42.1800
G01 X18.6995 Y42.1414
G01 X18.7130 Y42.1323
G01 X18.7685 Y42.0990
G01 X18.7829 Y42.0914
G01 X18.8415 Y42.0636
G01 X18.8565 Y42.0574
G01 X18.9175 Y42.0356
G01 X18.9330 Y42.0309
G01 X18.9959 Y42.0151
G01 X19.0118 Y42.0120
G01 X19.0759 Y42.0025
G01 X19.0921 Y42.0009
G01 X19.1649 Y41.9975
G01 X20.4857 Y41.9975
G01 X20.5586 Y42.0009
G01 X20.5748 Y42.0025
G01 X20.6389 Y42.0120
G01 X20.6548 Y42.0151
G01 X20.7177 Y42.0309
G01 X20.7332 Y42.0356
G01 X20.7942 Y42.0574
G01 X20.8092 Y42.0636
G01 X20.8678 Y42.0914
G01 X20.8821 Y42.0990
G01 X20.9377 Y42.1323
G01 X20.9512 Y42.1414
G01 X21.0033 Y42.1800
G01 X21.0158 Y42.1903
G01 X21.0639 Y42.2338
G01 X21.0753 Y42.2453
G01 X21.1189 Y42.2933
G01 X21.1292 Y42.3058
G01 X21.1678 Y42.3579
G01 X21.1768 Y42.3714
G01 X21.2101 Y42.4270
G01 X21.2178 Y42.4413
G01 X21.2455 Y42.4999
G01 X21.2517 Y42.5149
G01 X21.2735 Y42.5759
G01 X21.2782 Y42.5915
G01 X21.2940 Y42.6543
G01 X21.2972 Y42.6703
G01 X21.3067 Y42.7344
G01 X21.3083 Y42.7505
G01 X21.3114 Y42.8153
G01 X21.3114 Y42.8315
G01 X21.3083 Y42.8962
G01 X21.3067 Y42.9124
G01 X21.2972 Y42.9765
G01 X21.2940 Y42.9924
G01 X21.2782 Y43.0553
G01 X21.2735 Y43.0708
G01 X21.2517 Y43.1319
G01 X21.2455 Y43.1469
G01 X21.2178 Y43.2055
G01 X21.2101 Y43.2198
G01 X21.1768 Y43.2754
G01 X21.1678 Y43.2889
G01 X21.1292 Y43.3409
G01 X21.1189 Y43.3535
G01 X21.0753 Y43.4015
G01 X21.0639 Y43.4130
G01 X21.0158 Y43.4565
G01 X21.0033 Y43.4668
G01 X20.9512 Y43.5054
G01 X20.9377 Y43.5144
G01 X20.8821 Y43.5478
G01 X20.8678 Y43.5554
G01 X20.8092 Y43.5831
G01 X20.7942 Y43.5893
G01 X20.7332 Y43.6112
G01 X20.7177 Y43.6159
G01 X20.6548 Y43.6316
G01 X20.6389 Y43.6348
G01 X20.5748 Y43.6443
G01 X20.5586 Y43.6459
G01 X20.4911 Y43.6492
G01 X20.4911 Y47.2376
G01 X21.7201 Y47.2376
G01 X21.7708 Y47.1917
G01 X21.7833 Y47.1814
G01 X21.8434 Y47.1369
G01 X21.8569 Y47.1279
G01 X21.9211 Y47.0894
G01 X21.9354 Y47.0818
G01 X22.0030 Y47.0498
G01 X22.0180 Y47.0436
G01 X22.0884 Y47.0184
G01 X22.1039 Y47.0137
G01 X22.1765 Y46.9955
G01 X22.1924 Y46.9923
G01 X22.2664 Y46.9813
G01 X22.2825 Y46.9798
G01 X22.3572 Y46.9761
G01 X22.3735 Y46.9761
G01 X22.4481 Y46.9798
G01 X22.4643 Y46.9813
G01 X22.5383 Y46.9923
G01 X22.5542 Y46.9955
G01 X22.6267 Y47.0137
G01 X22.6423 Y47.0184
G01 X22.7127 Y47.0436
G01 X22.7277 Y47.0498
G01 X22.7953 Y47.0818
G01 X22.8096 Y47.0894
G01 X22.8738 Y47.1279
G01 X22.8873 Y47.1369
G01 X22.9473 Y47.1814
G01 X22.9599 Y47.1917
G01 X23.0153 Y47.2419
G01 X23.0268 Y47.2534
G01 X23.0770 Y47.3088
G01 X23.0873 Y47.3214
G01 X23.1318 Y47.3815
G01 X23.1409 Y47.3950
G01 X23.1793 Y47.4591
G01 X23.1870 Y47.4734
G01 X23.2189 Y47.5410
G01 X23.2252 Y47.5560
G01 X23.2504 Y47.6264
G01 X23.2551 Y47.6420
G01 X23.2732 Y47.7145
G01 X23.2764 Y47.7304
G01 X23.2874 Y47.8044
G01 X23.2890 Y47.8206
G01 X23.2926 Y47.8953
G01 X23.2926 Y47.9115
G01 X23.2890 Y47.9862
G01 X23.2874 Y48.0024
G01 X23.2764 Y48.0763
G01 X23.2732 Y48.0923
G01 X23.2551 Y48.1648
G01 X23.2504 Y48.1803
G01 X23.2252 Y48.2507
G01 X23.2189 Y48.2657
G01 X23.1870 Y48.3333
G01 X23.1793 Y48.3477
G01 X23.1409 Y48.4118
G01 X23.1318 Y48.4253
G01 X23.0873 Y48.4854
G01 X23.0770 Y48.4979
G01 X23.0268 Y48.5533
G01 X23.0153 Y48.5648
G01 X22.9599 Y48.6150
G01 X22.9473 Y48.6253
G01 X22.8873 Y48.6699
G01 X22.8738 Y48.6789
G01 X22.8096 Y48.7174
G01 X22.7953 Y48.7250
G01 X22.7277 Y48.7570
G01 X22.7127 Y48.7632
G01 X22.6423 Y48.7884
G01 X22.6267 Y48.7931
G01 X22.5542 Y48.8113
G01 X22.5383 Y48.8144
G01 X22.4643 Y48.8254
G01 X22.4481 Y48.8270
G01 X22.3735 Y48.8307
G01 X22.3572 Y48.8307
G01 X22.2825 Y48.8270
G01 X22.2664 Y48.8254
G01 X22.1924 Y48.8144
G01 X22.1765 Y48.8113
G01 X22.1039 Y48.7931
G01 X22.0884 Y48.7884
G01 X22.0180 Y48.7632
G01 X22.0030 Y48.7570
G01 X21.9354 Y48.7250
G01 X21.9211 Y48.7174
G01 X21.8569 Y48.6789
G01 X21.8434 Y48.6699
G01 X21.7833 Y48.6253
G01 X21.7708 Y48.6150
G01 X21.7201 Y48.5691
G01 X19.8253 Y48.5691
G01 X19.7682 Y48.5665
G01 X19.7520 Y48.5649
G01 X19.7035 Y48.5577
G01 X19.6875 Y48.5546
G01 X19.6399 Y48.5426
G01 X19.6244 Y48.5379
G01 X19.5781 Y48.5214
G01 X19.5631 Y48.5152
G01 X19.5188 Y48.4942
G01 X19.5044 Y48.4865
G01 X19.4623 Y48.4613
G01 X19.4488 Y48.4523
G01 X19.4094 Y48.4230
G01 X19.3968 Y48.4127
G01 X19.3605 Y48.3797
G01 X19.3490 Y48.3683
G01 X19.3160 Y48.3319
G01 X19.3057 Y48.3193
G01 X19.2765 Y48.2799
G01 X19.2674 Y48.2664
G01 X19.2422 Y48.2243
G01 X19.2346 Y48.2100
G01 X19.2136 Y48.1656
G01 X19.2073 Y48.1506
G01 X19.1908 Y48.1044
G01 X19.1861 Y48.0888
G01 X19.1742 Y48.0412
G01 X19.1710 Y48.0253
G01 X19.1638 Y47.9767
G01 X19.1622 Y47.9605
G01 X19.1598 Y47.9115
G01 X19.1596 Y43.6492
G00 Z2.0000
G00 X20.9732 Y49.7776
G01 F60.00
G01 Z-0.2001
G01 F320.00
G01 X26.2975 Y49.7776
G01 X26.3195 Y49.7614
G01 X26.3330 Y49.7523
G01 X26.3885 Y49.7190
G01 X26.4029 Y49.7114
G01 X26.4615 Y49.6836
G01 X26.4765 Y49.6774
G01 X26.5375 Y49.6556
G01 X26.5530 Y49.6509
G01 X26.6159 Y49.6351
G01 X26.6318 Y49.6320
G01 X26.6959 Y49.6225
G01 X26.7121 Y49.6209
G01 X26.7849 Y49.6175
G01 X28.1057 Y49.6175
G01 X28.1786 Y49.6209
G01 X28.1948 Y49.6225
G01 X28.2589 Y49.6320
G01 X28.2748 Y49.6351
G01 X28.3377 Y49.6509
G01 X28.3532 Y49.6556
G01 X28.4142 Y49.6774
G01 X28.4292 Y49.6836
G01 X28.4878 Y49.7114
G01 X28.5021 Y49.7190
G01 X28.5577 Y49.7523
G01 X28.5712 Y49.7614
G01 X28.6233 Y49.8000
G01 X28.6358 Y49.8103
G01 X28.6839 Y49.8538
G01 X28.6953 Y49.8653
G01 X28.7389 Y49.9133
G01 X28.7492 Y49.9258
G01 X28.7878 Y49.9779
G01 X28.7968 Y49.9914
G01 X28.8301 Y50.0470
G01 X28.8378 Y50.0613
G01 X28.8655 Y50.1199
G01 X28.8717 Y50.1349
G01 X28.8935 Y50.1959
G01 X28.8982 Y50.2115
G01 X28.9140 Y50.2743
G01 X28.9172 Y50.2903
G01 X28.9267 Y50.3544
G01 X28.9283 Y50.3705
G01 X28.9314 Y50.4353
G01 X28.9314 Y50.4515
G01 X28.9283 Y50.5162
G01 X28.9267 Y50.5324
G01 X28.9172 Y50.5965
G01 X28.9140 Y50.6124
G01 X28.8982 Y50.6753
G01 X28.8935 Y50.6908
G01 X28.8717 Y50.7519
G01 X28.8655 Y50.7669
G01 X28.8378 Y50.8255
G01 X28.8301 Y50.8398
G01 X28.7968 Y50.8954
G01 X28.7878 Y50.9089
G01 X28.7492 Y50.9609
G01 X28.7389 Y50.9735
G01 X28.6953 Y51.0215
G01 X28.6839 Y51.0330
G01 X28.6358 Y51.0765
G01 X28.6233 Y51.0868
G01 X28.5712 Y51.1254
G01 X28.5577 Y51.1344
G01 X28.5021 Y51.1678
G01 X28.4878 Y51.1754
G01 X28.4292 Y51.2031
G01 X28.4142 Y51.2093
G01 X28.3532 Y51.2312
G01 X28.3377 Y51.2359
G01 X28.2748 Y51.2516
G01 X28.2589 Y51.2548
G01 X28.1948 Y51.2643
G01 X28.1786 Y51.2659
G01 X28.1057 Y51.2693
G01 X26.7849 Y51.2693
G01 X26.7121 Y51.2659
G01 X26.6959 Y51.2643
G01 X26.6318 Y51.2548
G01 X26.6159 Y51.2516
G01 X26.5530 Y51.2359
G01 X26.5375 Y51.2312
G01 X26.4765 Y51.2093
G01 X26.4615 Y51.2031
G01 X26.4029 Y51.1754
G01 X26.3885 Y51.1678
G01 X26.3330 Y51.1344
G01 X26.3195 Y51.1254
G01 X26.2975 Y51.1091
G01 X20.9732 Y51.1091
G01 X20.9512 Y51.1254
G01 X20.9377 Y51.1344
G01 X20.8821 Y51.1678
G01 X20.8678 Y51.1754
G01 X20.8092 Y51.2031
G01 X20.7942 Y51.2093
G01 X20.7332 Y51.2312
G01 X20.7177 Y51.2359
G01 X20.6548 Y51.2516
G01 X20.6389 Y51.2548
G01 X20.5748 Y51.2643
G01 X20.5586 Y51.2659
G01 X20.4857 Y51.2693
G01 X19.1649 Y51.2693
G01 X19.0921 Y51.2659
G01 X19.0759 Y51.2643
G01 X19.0118 Y51.2548
G01 X18.9959 Y51.2516
G01 X18.9330 Y51.2359
G01 X18.9175 Y51.2312
G01 X18.8565 Y51.2093
G01 X18.8415 Y51.2031
G01 X18.7829 Y51.1754
G01 X18.7685 Y51.1678
G01 X18.7130 Y51.1344
G01 X18.6995 Y51.1254
G01 X18.6474 Y51.0868
G01 X18.6348 Y51.0765
G01 X18.5868 Y51.0330
G01 X18.5753 Y51.0215
G01 X18.5318 Y50.9735
G01 X18.5215 Y50.9609
G01 X18.4829 Y50.9089
G01 X18.4739 Y50.8954
G01 X18.4406 Y50.8398
G01 X18.4329 Y50.8255
G01 X18.4052 Y50.7669
G01 X18.3990 Y50.7519
G01 X18.3772 Y50.6908
G01 X18.3724 Y50.6753
G01 X18.3567 Y50.6124
G01 X18.3535 Y50.5965
G01 X18.3440 Y50.5324
G01 X18.3424 Y50.5162
G01 X18.3392 Y50.4515
G01 X18.3392 Y50.4353
G01 X18.3424 Y50.3705
G01 X18.3440 Y50.3544
G01 X18.3535 Y50.2903
G01 X18.3567 Y50.2743
G01 X18.3724 Y50.2115
G01 X18.3772 Y50.1959
G01 X18.3990 Y50.1349
G01 X18.4052 Y50.1199
G01 X18.4329 Y50.0613
G01 X18.4406 Y50.0470
G01 X18.4739 Y49.9914
G01 X18.4829 Y49.9779
G01 X18.5215 Y49.9258
G01 X18.5318 Y49.9133
G01 X18.5753 Y49.8653
G01 X18.5868 Y49.8538
G01 X18.6348 Y49.8103
G01 X18.6474 Y49.8000
G01 X18.6995 Y49.7614
G01 X18.7130 Y49.7523
G01 X18.7685 Y49.7190
G01 X18.7829 Y49.7114
G01 X18.8415 Y49.6836
G01 X18.8565 Y49.6774
G01 X18.9175 Y49.6556
G01 X18.9330 Y49.6509
G01 X18.9959 Y49.6351
G01 X19.0118 Y49.6320
G01 X19.0759 Y49.6225
G01 X19.0921 Y49.6209
G01 X19.1568 Y49.6177
G01 X20.4939 Y49.6177
G01 X20.5586 Y49.6209
G01 X20.5748 Y49.6225
G01 X20.6389 Y49.6320
G01 X20.6548 Y49.6351
G01 X20.7177 Y49.6509
G01 X20.7332 Y49.6556
G01 X20.7942 Y49.6774
G01 X20.8092 Y49.6836
G01 X20.8678 Y49.7114
G01 X20.8821 Y49.7190
G01 X20.9377 Y49.7523
G01 X20.9512 Y49.7614
G01 X20.9732 Y49.7776
G00 Z2.0000
G00 X20.4705 Y52.3176
G01 F60.00
G01 Z-0.2001
G01 F320.00
G01 X21.7201 Y52.3176
G01 X21.7708 Y52.2717
G01 X21.7833 Y52.2614
G01 X21.8434 Y52.2169
G01 X21.8569 Y52.2079
G01 X21.9211 Y52.1694
G01 X21.9354 Y52.1618
G01 X22.0030 Y52.1298
G01 X22.0180 Y52.1236
G01 X22.0884 Y52.0984
G01 X22.1039 Y52.0937
G01 X22.1765 Y52.0755
G01 X22.1924 Y52.0723
G01 X22.2664 Y52.0613
G01 X22.2825 Y52.0598
G01 X22.3572 Y52.0561
G01 X22.3735 Y52.0561
G01 X22.4481 Y52.0598
G01 X22.4643 Y52.0613
G01 X22.5383 Y52.0723
G01 X22.5542 Y52.0755
G01 X22.6267 Y52.0937
G01 X22.6423 Y52.0984
G01 X22.7127 Y52.1236
G01 X22.7277 Y52.1298
G01 X22.7953 Y52.1618
G01 X22.8096 Y52.1694
G01 X22.8738 Y52.2079
G01 X22.8873 Y52.2169
G01 X22.9473 Y52.2614
G01 X22.9599 Y52.2717
G01 X23.0105 Y52.3176
G01 X26.8001 Y52.3176
G01 X26.8508 Y52.2717
G01 X26.8633 Y52.2614
G01 X26.9234 Y52.2169
G01 X26.9369 Y52.2079
G01 X27.0011 Y52.1694
G01 X27.0154 Y52.1618
G01 X27.0830 Y52.1298
G01 X27.0980 Y52.1236
G01 X27.1684 Y52.0984
G01 X27.1839 Y52.0937
G01 X27.2565 Y52.0755
G01 X27.2724 Y52.0723
G01 X27.3464 Y52.0613
G01 X27.3625 Y52.0598
G01 X27.4372 Y52.0561
G01 X27.4535 Y52.0561
G01 X27.5281 Y52.0598
G01 X27.5443 Y52.0613
G01 X27.6183 Y52.0723
G01 X27.6342 Y52.0755
G01 X27.7067 Y52.0937
G01 X27.7223 Y52.0984
G01 X27.7927 Y52.1236
G01 X27.8077 Y52.1298
G01 X27.8753 Y52.1618
G01 X27.8896 Y52.1694
G01 X27.9538 Y52.2079
G01 X27.9673 Y52.2169
G01 X28.0273 Y52.2614
G01 X28.0399 Y52.2717
G01 X28.0953 Y52.3219
G01 X28.1068 Y52.3334
G01 X28.1570 Y52.3888
G01 X28.1673 Y52.4014
G01 X28.2118 Y52.4615
G01 X28.2209 Y52.4750
G01 X28.2593 Y52.5391
G01 X28.2670 Y52.5534
G01 X28.2989 Y52.6210
G01 X28.3052 Y52.6360
G01 X28.3304 Y52.7064
G01 X28.3351 Y52.7220
G01 X28.3532 Y52.7945
G01 X28.3564 Y52.8104
G01 X28.3674 Y52.8844
G01 X28.3690 Y52.9006
G01 X28.3726 Y52.9753
G01 X28.3726 Y52.9915
G01 X28.3690 Y53.0662
G01 X28.3674 Y53.0824
G01 X28.3564 Y53.1563
G01 X28.3532 Y53.1723
G01 X28.3351 Y53.2448
G01 X28.3304 Y53.2603
G01 X28.3052 Y53.3307
G01 X28.2989 Y53.3457
G01 X28.2670 Y53.4133
G01 X28.2593 Y53.4277
G01 X28.2209 Y53.4918
G01 X28.2118 Y53.5053
G01 X28.1673 Y53.5654
G01 X28.1570 Y53.5779
G01 X28.1068 Y53.6333
G01 X28.0953 Y53.6448
G01 X28.0399 Y53.6950
G01 X28.0273 Y53.7053
G01 X27.9673 Y53.7499
G01 X27.9538 Y53.7589
G01 X27.8896 Y53.7974
G01 X27.8753 Y53.8050
G01 X27.8077 Y53.8370
G01 X27.7927 Y53.8432
G01 X27.7223 Y53.8684
G01 X27.7067 Y53.8731
G01 X27.6342 Y53.8913
G01 X27.6183 Y53.8944
G01 X27.5443 Y53.9054
G01 X27.5281 Y53.9070
G01 X27.4535 Y53.9107
G01 X27.4372 Y53.9107
G01 X27.3625 Y53.9070
G01 X27.3464 Y53.9054
G01 X27.2724 Y53.8944
G01 X27.2565 Y53.8913
G01 X27.1839 Y53.8731
G01 X27.1684 Y53.8684
G01 X27.0980 Y53.8432
G01 X27.0830 Y53.8370
G01 X27.0154 Y53.8050
G01 X27.0011 Y53.7974
G01 X26.9369 Y53.7589
G01 X26.9234 Y53.7499
G01 X26.8633 Y53.7053
G01 X26.8508 Y53.6950
G01 X26.8001 Y53.6491
G01 X23.0311 Y53.6491
G01 X23.0311 Y57.3976
G01 X24.9053 Y57.3976
G01 X24.9625 Y57.4002
