(G-CODE GENERATED BY FLATCAM v8.991 - www.flatcam.org - Version Date: 2019/12/27)

(Name: 002_Sequencer_iso2)
(Type: G-code from Geometry)
(Units: MM)

(Created on Sunday, 01 March 2020 at 22:31)

(TOOL DIAMETER: 0.331 mm)
(Feedrate: 320.0 mm/min)
(Feedrate_Z: 60.0 mm/min)
(Feedrate rapids 1500.0 mm/min)

(Z_Cut: -0.2001 mm)
(Z_Move: 2.0 mm)
(Z Toolchange: 15.0 mm)
(X,Y Toolchange: 0.0000, 0.0000 mm)
(Z Start: None mm)
(Z End: 15.0 mm)
(Steps per circle: 64)
(Preprocessor Geometry: default)

(X range:    3.3605 ...  147.7890  mm)
(Y range:    3.4985 ...   97.3882  mm)

(Spindle Speed: None RPM)
G21
G90
G94

M03 S3000


G01 F320.00
G00 Z2.0000

M03
G00 X24.9825 Y9.8261
G01 F60.00
G01 Z-0.2001
G01 F320.00
G01 X24.9825 Y9.7806
G01 X24.9921 Y9.5846
G01 X24.9966 Y9.5394
G01 X25.0254 Y9.3452
G01 X25.0343 Y9.3006
G01 X25.0820 Y9.1102
G01 X25.0952 Y9.0667
G01 X25.1613 Y8.8819
G01 X25.1787 Y8.8399
G01 X25.2626 Y8.6625
G01 X25.2840 Y8.6224
G01 X25.3849 Y8.4540
G01 X25.4102 Y8.4162
G01 X25.5271 Y8.2586
G01 X25.5560 Y8.2234
G01 X25.6878 Y8.0780
G01 X25.7199 Y8.0458
G01 X25.8654 Y7.9140
G01 X25.9005 Y7.8852
G01 X26.0582 Y7.7682
G01 X26.0960 Y7.7430
G01 X26.2643 Y7.6421
G01 X26.3044 Y7.6206
G01 X26.4818 Y7.5367
G01 X26.5239 Y7.5193
G01 X26.7087 Y7.4532
G01 X26.7522 Y7.4400
G01 X26.9426 Y7.3923
G01 X26.9872 Y7.3834
G01 X27.1813 Y7.3546
G01 X27.2266 Y7.3502
G01 X27.4226 Y7.3405
G01 X27.4681 Y7.3405
G01 X27.6641 Y7.3502
G01 X27.7094 Y7.3546
G01 X27.9035 Y7.3834
G01 X27.9481 Y7.3923
G01 X28.1385 Y7.4400
G01 X28.1820 Y7.4532
G01 X28.3668 Y7.5193
G01 X28.4088 Y7.5367
G01 X28.5863 Y7.6206
G01 X28.6264 Y7.6421
G01 X28.7947 Y7.7430
G01 X28.8325 Y7.7682
G01 X28.9902 Y7.8852
G01 X29.0253 Y7.9140
G01 X29.1707 Y8.0458
G01 X29.2029 Y8.0780
G01 X29.3347 Y8.2234
G01 X29.3636 Y8.2586
G01 X29.4805 Y8.4162
G01 X29.5057 Y8.4540
G01 X29.6066 Y8.6224
G01 X29.6281 Y8.6625
G01 X29.7120 Y8.8399
G01 X29.7294 Y8.8819
G01 X29.7955 Y9.0667
G01 X29.8087 Y9.1102
G01 X29.8564 Y9.3006
G01 X29.8653 Y9.3452
G01 X29.8941 Y9.5394
G01 X29.8985 Y9.5846
G01 X29.9082 Y9.7806
G01 X29.9082 Y9.8261
G01 X29.8985 Y10.0222
G01 X29.8941 Y10.0674
G01 X29.8653 Y10.2616
G01 X29.8564 Y10.3062
G01 X29.8087 Y10.4965
G01 X29.7955 Y10.5401
G01 X29.7294 Y10.7249
G01 X29.7120 Y10.7669
G01 X29.6281 Y10.9443
G01 X29.6066 Y10.9844
G01 X29.5057 Y11.1528
G01 X29.4805 Y11.1906
G01 X29.3636 Y11.3482
G01 X29.3347 Y11.3834
G01 X29.2029 Y11.5288
G01 X29.1707 Y11.5609
G01 X29.0253 Y11.6928
G01 X28.9902 Y11.7216
G01 X28.8325 Y11.8385
G01 X28.7947 Y11.8638
G01 X28.6264 Y11.9647
G01 X28.5863 Y11.9861
G01 X28.4088 Y12.0700
G01 X28.3668 Y12.0874
G01 X28.1820 Y12.1536
G01 X28.1385 Y12.1668
G01 X27.9481 Y12.2145
G01 X27.9035 Y12.2233
G01 X27.7094 Y12.2521
G01 X27.6641 Y12.2566
G01 X27.4681 Y12.2662
G01 X27.4226 Y12.2662
G01 X27.2266 Y12.2566
G01 X27.1813 Y12.2521
G01 X26.9872 Y12.2233
G01 X26.9426 Y12.2145
G01 X26.7522 Y12.1668
G01 X26.7087 Y12.1536
G01 X26.5239 Y12.0874
G01 X26.4818 Y12.0700
G01 X26.3044 Y11.9861
G01 X26.2643 Y11.9647
G01 X26.0960 Y11.8638
G01 X26.0582 Y11.8385
G01 X25.9005 Y11.7216
G01 X25.8654 Y11.6928
G01 X25.7199 Y11.5609
G01 X25.6878 Y11.5288
G01 X25.5560 Y11.3834
G01 X25.5271 Y11.3482
G01 X25.4102 Y11.1906
G01 X25.3849 Y11.1528
G01 X25.2840 Y10.9844
G01 X25.2626 Y10.9443
G01 X25.1787 Y10.7669
G01 X25.1613 Y10.7249
G01 X25.0952 Y10.5401
G01 X25.0820 Y10.4965
G01 X25.0343 Y10.3062
G01 X25.0254 Y10.2616
G01 X24.9966 Y10.0674
G01 X24.9921 Y10.0222
G01 X24.9825 Y9.8261
G00 Z2.0000
G00 X23.9417 Y34.4472
G01 F60.00
G01 Z-0.2001
G01 F320.00
G01 X23.9417 Y32.6634
G01 X23.9423 Y32.6406
G01 X23.9447 Y32.5916
G01 X23.9491 Y32.5464
G01 X23.9563 Y32.4978
G01 X23.9652 Y32.4532
G01 X23.9771 Y32.4056
G01 X23.9903 Y32.3621
G01 X24.0069 Y32.3158
G01 X24.0243 Y32.2738
G01 X24.0453 Y32.2294
G01 X24.0667 Y32.1893
G01 X24.0919 Y32.1472
G01 X24.1172 Y32.1094
G01 X24.1464 Y32.0700
G01 X24.1753 Y32.0348
G01 X24.2083 Y31.9985
G01 X24.2404 Y31.9663
G01 X24.2768 Y31.9333
G01 X24.3119 Y31.9045
G01 X24.3514 Y31.8752
G01 X24.3892 Y31.8500
G01 X24.4313 Y31.8247
G01 X24.4714 Y31.8033
G01 X24.5158 Y31.7823
G01 X24.5578 Y31.7649
G01 X24.6040 Y31.7484
G01 X24.6475 Y31.7352
G01 X24.6951 Y31.7232
G01 X24.7398 Y31.7144
G01 X24.7883 Y31.7072
G01 X24.8336 Y31.7027
G01 X24.8826 Y31.7003
G01 X24.9053 Y31.6997
G01 X31.5617 Y31.6997
G01 X31.5617 Y30.8796
G01 X31.5196 Y30.8228
G01 X31.4943 Y30.7850
G01 X31.4558 Y30.7208
G01 X31.4344 Y30.6807
G01 X31.4024 Y30.6131
G01 X31.3850 Y30.5711
G01 X31.3598 Y30.5007
G01 X31.3466 Y30.4572
G01 X31.3285 Y30.3846
G01 X31.3196 Y30.3400
G01 X31.3086 Y30.2661
G01 X31.3042 Y30.2208
G01 X31.3005 Y30.1461
G01 X31.3005 Y30.1006
G01 X31.3042 Y30.0260
G01 X31.3086 Y29.9807
G01 X31.3196 Y29.9067
G01 X31.3285 Y29.8621
G01 X31.3466 Y29.7896
G01 X31.3598 Y29.7461
G01 X31.3850 Y29.6757
G01 X31.4024 Y29.6337
G01 X31.4344 Y29.5661
G01 X31.4558 Y29.5259
G01 X31.4943 Y29.4618
G01 X31.5196 Y29.4240
G01 X31.5641 Y29.3639
G01 X31.5930 Y29.3288
G01 X31.6432 Y29.2734
G01 X31.6753 Y29.2412
G01 X31.7307 Y29.1910
G01 X31.7659 Y29.1621
G01 X31.8259 Y29.1176
G01 X31.8638 Y29.0923
G01 X31.9279 Y29.0539
G01 X31.9680 Y29.0325
G01 X32.0356 Y29.0005
G01 X32.0776 Y28.9831
G01 X32.1480 Y28.9579
G01 X32.1915 Y28.9447
G01 X32.2641 Y28.9265
G01 X32.3087 Y28.9176
G01 X32.3827 Y28.9067
G01 X32.4279 Y28.9022
G01 X32.5026 Y28.8985
G01 X32.5481 Y28.8985
G01 X32.6228 Y28.9022
G01 X32.6680 Y28.9067
G01 X32.7420 Y28.9176
G01 X32.7866 Y28.9265
G01 X32.8591 Y28.9447
G01 X32.9026 Y28.9579
G01 X32.9731 Y28.9831
G01 X33.0151 Y29.0005
G01 X33.0827 Y29.0325
G01 X33.1228 Y29.0539
G01 X33.1869 Y29.0923
G01 X33.2247 Y29.1176
G01 X33.2848 Y29.1621
G01 X33.3199 Y29.1910
G01 X33.3754 Y29.2412
G01 X33.4075 Y29.2734
G01 X33.4577 Y29.3288
G01 X33.4866 Y29.3639
G01 X33.5311 Y29.4240
G01 X33.5564 Y29.4618
G01 X33.5948 Y29.5259
G01 X33.6163 Y29.5661
G01 X33.6482 Y29.6337
G01 X33.6656 Y29.6757
G01 X33.6908 Y29.7461
G01 X33.7040 Y29.7896
G01 X33.7222 Y29.8621
G01 X33.7311 Y29.9067
G01 X33.7421 Y29.9807
G01 X33.7465 Y30.0260
G01 X33.7502 Y30.1006
G01 X33.7502 Y30.1461
G01 X33.7465 Y30.2208
G01 X33.7421 Y30.2661
G01 X33.7311 Y30.3400
G01 X33.7222 Y30.3846
G01 X33.7040 Y30.4572
G01 X33.6908 Y30.5007
G01 X33.6656 Y30.5711
G01 X33.6482 Y30.6131
G01 X33.6163 Y30.6807
G01 X33.5948 Y30.7208
G01 X33.5564 Y30.7850
G01 X33.5311 Y30.8228
G01 X33.4890 Y30.8796
G01 X33.4890 Y31.6997
G01 X35.0653 Y31.6997
G01 X35.0881 Y31.7003
G01 X35.1371 Y31.7027
G01 X35.1824 Y31.7072
G01 X35.2309 Y31.7144
G01 X35.2755 Y31.7232
G01 X35.3231 Y31.7352
G01 X35.3667 Y31.7484
G01 X35.4129 Y31.7649
G01 X35.4549 Y31.7823
G01 X35.4993 Y31.8033
G01 X35.5394 Y31.8247
G01 X35.5815 Y31.8500
G01 X35.6193 Y31.8752
G01 X35.6587 Y31.9045
G01 X35.6939 Y31.9333
G01 X35.7303 Y31.9663
G01 X35.7624 Y31.9985
G01 X35.7954 Y32.0348
G01 X35.8242 Y32.0700
G01 X35.8535 Y32.1094
G01 X35.8788 Y32.1472
G01 X35.9040 Y32.1893
G01 X35.9254 Y32.2294
G01 X35.9464 Y32.2738
G01 X35.9638 Y32.3158
G01 X35.9804 Y32.3621
G01 X35.9936 Y32.4056
G01 X36.0055 Y32.4532
G01 X36.0144 Y32.4978
G01 X36.0216 Y32.5464
G01 X36.0260 Y32.5916
G01 X36.0284 Y32.6406
G01 X36.0290 Y32.6634
G01 X36.0290 Y41.8597
G01 X38.9083 Y41.8597
G01 X38.9354 Y41.8435
G01 X38.9755 Y41.8221
G01 X39.0341 Y41.7943
G01 X39.0761 Y41.7769
G01 X39.1371 Y41.7551
G01 X39.1806 Y41.7419
G01 X39.2435 Y41.7262
G01 X39.2881 Y41.7173
G01 X39.3522 Y41.7078
G01 X39.3975 Y41.7033
G01 X39.4622 Y41.7001
G01 X39.4849 Y41.6996
G01 X40.8057 Y41.6996
G01 X40.8285 Y41.7001
G01 X40.8932 Y41.7033
G01 X40.9385 Y41.7078
G01 X41.0026 Y41.7173
G01 X41.0472 Y41.7262
G01 X41.1100 Y41.7419
G01 X41.1536 Y41.7551
G01 X41.2146 Y41.7769
G01 X41.2566 Y41.7943
G01 X41.3152 Y41.8221
G01 X41.3553 Y41.8435
G01 X41.4109 Y41.8768
G01 X41.4487 Y41.9021
G01 X41.5007 Y41.9407
G01 X41.5359 Y41.9695
G01 X41.5839 Y42.0131
G01 X41.6161 Y42.0452
G01 X41.6596 Y42.0932
G01 X41.6884 Y42.1284
G01 X41.7217 Y42.1732
G01 X41.7217 Y41.2470
G01 X41.3824 Y41.2470
G01 X41.3553 Y41.2633
G01 X41.3152 Y41.2847
G01 X41.2566 Y41.3124
G01 X41.2146 Y41.3298
G01 X41.1536 Y41.3517
G01 X41.1100 Y41.3649
G01 X41.0472 Y41.3806
G01 X41.0026 Y41.3895
G01 X40.9385 Y41.3990
G01 X40.8932 Y41.4034
G01 X40.8285 Y41.4066
G01 X40.8057 Y41.4072
G01 X39.4849 Y41.4072
G01 X39.4622 Y41.4066
G01 X39.3975 Y41.4034
G01 X39.3522 Y41.3990
G01 X39.2881 Y41.3895
G01 X39.2435 Y41.3806
G01 X39.1806 Y41.3649
G01 X39.1371 Y41.3517
G01 X39.0761 Y41.3298
G01 X39.0341 Y41.3124
G01 X38.9755 Y41.2847
G01 X38.9354 Y41.2633
G01 X38.8798 Y41.2300
G01 X38.8420 Y41.2047
G01 X38.7899 Y41.1661
G01 X38.7548 Y41.1372
G01 X38.7068 Y41.0937
G01 X38.6746 Y41.0616
G01 X38.6311 Y41.0135
G01 X38.6022 Y40.9784
G01 X38.5636 Y40.9263
G01 X38.5384 Y40.8885
G01 X38.5050 Y40.8329
G01 X38.4836 Y40.7928
G01 X38.4559 Y40.7342
G01 X38.4385 Y40.6922
G01 X38.4167 Y40.6312
G01 X38.4035 Y40.5877
G01 X38.3877 Y40.5248
G01 X38.3788 Y40.4802
G01 X38.3693 Y40.4161
G01 X38.3649 Y40.3709
G01 X38.3617 Y40.3061
G01 X38.3617 Y40.2606
G01 X38.3649 Y40.1959
G01 X38.3693 Y40.1507
G01 X38.3788 Y40.0866
G01 X38.3877 Y40.0419
G01 X38.4035 Y39.9791
G01 X38.4167 Y39.9356
G01 X38.4385 Y39.8745
G01 X38.4559 Y39.8325
G01 X38.4836 Y39.7739
G01 X38.5050 Y39.7338
G01 X38.5384 Y39.6783
G01 X38.5636 Y39.6404
G01 X38.6022 Y39.5884
G01 X38.6311 Y39.5532
G01 X38.6746 Y39.5052
G01 X38.7068 Y39.4731
G01 X38.7548 Y39.4295
G01 X38.7899 Y39.4007
G01 X38.8420 Y39.3621
G01 X38.8798 Y39.3368
G01 X38.9354 Y39.3035
G01 X38.9755 Y39.2821
G01 X39.0341 Y39.2543
G01 X39.0761 Y39.2369
G01 X39.1371 Y39.2151
G01 X39.1806 Y39.2019
G01 X39.2435 Y39.1862
G01 X39.2881 Y39.1773
G01 X39.3522 Y39.1678
G01 X39.3975 Y39.1633
G01 X39.4622 Y39.1601
G01 X39.4849 Y39.1596
G01 X40.8057 Y39.1596
G01 X40.8285 Y39.1601
G01 X40.8932 Y39.1633
G01 X40.9385 Y39.1678
G01 X41.0026 Y39.1773
G01 X41.0472 Y39.1862
G01 X41.1100 Y39.2019
G01 X41.1536 Y39.2151
G01 X41.2146 Y39.2369
G01 X41.2566 Y39.2543
G01 X41.3152 Y39.2821
G01 X41.3553 Y39.3035
G01 X41.3824 Y39.3197
G01 X42.6853 Y39.3197
G01 X42.7081 Y39.3203
G01 X42.7571 Y39.3227
G01 X42.8024 Y39.3272
G01 X42.8509 Y39.3344
G01 X42.8955 Y39.3432
G01 X42.9431 Y39.3552
G01 X42.9867 Y39.3684
G01 X43.0329 Y39.3849
G01 X43.0749 Y39.4023
G01 X43.1193 Y39.4233
G01 X43.1594 Y39.4447
G01 X43.2015 Y39.4700
G01 X43.2393 Y39.4952
G01 X43.2787 Y39.5245
G01 X43.3139 Y39.5533
G01 X43.3503 Y39.5863
G01 X43.3824 Y39.6185
G01 X43.4154 Y39.6548
G01 X43.4442 Y39.6900
G01 X43.4735 Y39.7294
G01 X43.4988 Y39.7672
G01 X43.5240 Y39.8093
G01 X43.5361 Y39.8321
G01 X43.5636 Y39.7739
G01 X43.5850 Y39.7338
G01 X43.6184 Y39.6783
G01 X43.6436 Y39.6404
G01 X43.6822 Y39.5884
G01 X43.7111 Y39.5532
G01 X43.7546 Y39.5052
G01 X43.7868 Y39.4731
G01 X43.8348 Y39.4295
G01 X43.8699 Y39.4007
G01 X43.9220 Y39.3621
G01 X43.9598 Y39.3368
G01 X44.0154 Y39.3035
G01 X44.0555 Y39.2821
G01 X44.1141 Y39.2543
G01 X44.1561 Y39.2369
G01 X44.2171 Y39.2151
G01 X44.2617 Y39.2016
G01 X44.2617 Y35.9596
G01 X44.2196 Y35.9028
G01 X44.1943 Y35.8650
G01 X44.1558 Y35.8008
G01 X44.1344 Y35.7607
G01 X44.1024 Y35.6931
G01 X44.0850 Y35.6511
G01 X44.0598 Y35.5807
G01 X44.0466 Y35.5372
G01 X44.0285 Y35.4646
G01 X44.0196 Y35.4200
G01 X44.0086 Y35.3461
G01 X44.0042 Y35.3008
G01 X44.0005 Y35.2261
G01 X44.0005 Y35.1806
G01 X44.0042 Y35.1060
G01 X44.0086 Y35.0607
G01 X44.0196 Y34.9867
G01 X44.0285 Y34.9421
G01 X44.0466 Y34.8696
G01 X44.0598 Y34.8261
G01 X44.0850 Y34.7557
G01 X44.1024 Y34.7137
G01 X44.1344 Y34.6461
G01 X44.1558 Y34.6059
G01 X44.1943 Y34.5418
G01 X44.2196 Y34.5040
G01 X44.2641 Y34.4439
G01 X44.2930 Y34.4088
G01 X44.3432 Y34.3534
G01 X44.3753 Y34.3212
G01 X44.4307 Y34.2710
G01 X44.4659 Y34.2421
G01 X44.5259 Y34.1976
G01 X44.5638 Y34.1723
G01 X44.6279 Y34.1339
G01 X44.6680 Y34.1125
G01 X44.7356 Y34.0805
G01 X44.7776 Y34.0631
G01 X44.8480 Y34.0379
G01 X44.8915 Y34.0247
G01 X44.9641 Y34.0065
G01 X45.0087 Y33.9976
G01 X45.0827 Y33.9867
G01 X45.1279 Y33.9822
G01 X45.2026 Y33.9785
G01 X45.2481 Y33.9785
G01 X45.3228 Y33.9822
G01 X45.3680 Y33.9867
G01 X45.4420 Y33.9976
G01 X45.4866 Y34.0065
G01 X45.5591 Y34.0247
G01 X45.6026 Y34.0379
G01 X45.6731 Y34.0631
G01 X45.7151 Y34.0805
G01 X45.7827 Y34.1125
G01 X45.8228 Y34.1339
G01 X45.8869 Y34.1723
G01 X45.9247 Y34.1976
G01 X45.9848 Y34.2421
G01 X46.0199 Y34.2710
G01 X46.0754 Y34.3212
G01 X46.1075 Y34.3534
G01 X46.1577 Y34.4088
G01 X46.1866 Y34.4439
G01 X46.2311 Y34.5040
G01 X46.2564 Y34.5418
G01 X46.2948 Y34.6059
G01 X46.3163 Y34.6461
G01 X46.3482 Y34.7137
G01 X46.3656 Y34.7557
G01 X46.3908 Y34.8261
G01 X46.4040 Y34.8696
G01 X46.4222 Y34.9421
G01 X46.4311 Y34.9867
G01 X46.4421 Y35.0607
G01 X46.4465 Y35.1060
G01 X46.4502 Y35.1806
G01 X46.4502 Y35.2261
G01 X46.4465 Y35.3008
G01 X46.4421 Y35.3461
G01 X46.4311 Y35.4200
G01 X46.4222 Y35.4646
G01 X46.4040 Y35.5372
G01 X46.3908 Y35.5807
G01 X46.3656 Y35.6511
G01 X46.3482 Y35.6931
G01 X46.3163 Y35.7607
G01 X46.2948 Y35.8008
G01 X46.2564 Y35.8650
G01 X46.2311 Y35.9028
G01 X46.1890 Y35.9596
G01 X46.1890 Y39.2016
G01 X46.2336 Y39.2151
G01 X46.2946 Y39.2369
G01 X46.3366 Y39.2543
G01 X46.3952 Y39.2821
G01 X46.4353 Y39.3035
G01 X46.4909 Y39.3368
G01 X46.5287 Y39.3621
G01 X46.5807 Y39.4007
G01 X46.6159 Y39.4295
G01 X46.6639 Y39.4731
G01 X46.6961 Y39.5052
G01 X46.7396 Y39.5532
G01 X46.7684 Y39.5884
G01 X46.8017 Y39.6332
G01 X46.8017 Y33.6270
G01 X38.5690 Y33.6270
G01 X38.5690 Y34.4472
G01 X38.6111 Y34.5040
G01 X38.6364 Y34.5418
G01 X38.6748 Y34.6059
G01 X38.6963 Y34.6461
G01 X38.7282 Y34.7137
G01 X38.7456 Y34.7557
G01 X38.7708 Y34.8261
G01 X38.7840 Y34.8696
G01 X38.8022 Y34.9421
G01 X38.8111 Y34.9867
G01 X38.8221 Y35.0607
G01 X38.8265 Y35.1060
G01 X38.8302 Y35.1806
G01 X38.8302 Y35.2261
G01 X38.8265 Y35.3008
G01 X38.8221 Y35.3461
G01 X38.8111 Y35.4200
G01 X38.8022 Y35.4646
G01 X38.7840 Y35.5372
G01 X38.7708 Y35.5807
G01 X38.7456 Y35.6511
G01 X38.7282 Y35.6931
G01 X38.6963 Y35.7607
G01 X38.6748 Y35.8008
G01 X38.6364 Y35.8650
G01 X38.6111 Y35.9028
G01 X38.5666 Y35.9628
G01 X38.5377 Y35.9980
G01 X38.4875 Y36.0534
G01 X38.4554 Y36.0856
G01 X38.3999 Y36.1358
G01 X38.3648 Y36.1646
G01 X38.3047 Y36.2092
G01 X38.2669 Y36.2344
G01 X38.2028 Y36.2729
G01 X38.1627 Y36.2943
G01 X38.0951 Y36.3263
G01 X38.0531 Y36.3437
G01 X37.9826 Y36.3689
G01 X37.9391 Y36.3821
G01 X37.8666 Y36.4003
G01 X37.8220 Y36.4091
G01 X37.7480 Y36.4201
G01 X37.7028 Y36.4246
G01 X37.6281 Y36.4282
G01 X37.5826 Y36.4282
G01 X37.5079 Y36.4246
G01 X37.4627 Y36.4201
G01 X37.3887 Y36.4091
G01 X37.3441 Y36.4003
G01 X37.2715 Y36.3821
G01 X37.2280 Y36.3689
G01 X37.1576 Y36.3437
G01 X37.1156 Y36.3263
G01 X37.0480 Y36.2943
G01 X37.0079 Y36.2729
G01 X36.9438 Y36.2344
G01 X36.9059 Y36.2092
G01 X36.8459 Y36.1646
G01 X36.8107 Y36.1358
G01 X36.7553 Y36.0856
G01 X36.7232 Y36.0534
G01 X36.6730 Y35.9980
G01 X36.6441 Y35.9628
G01 X36.5996 Y35.9028
G01 X36.5743 Y35.8650
G01 X36.5358 Y35.8008
G01 X36.5144 Y35.7607
G01 X36.4824 Y35.6931
G01 X36.4650 Y35.6511
G01 X36.4398 Y35.5807
G01 X36.4266 Y35.5372
G01 X36.4085 Y35.4646
G01 X36.3996 Y35.4200
G01 X36.3886 Y35.3461
G01 X36.3842 Y35.3008
G01 X36.3805 Y35.2261
G01 X36.3805 Y35.1806
G01 X36.3842 Y35.1060
G01 X36.3886 Y35.0607
G01 X36.3996 Y34.9867
G01 X36.4085 Y34.9421
G01 X36.4266 Y34.8696
G01 X36.4398 Y34.8261
G01 X36.4650 Y34.7557
G01 X36.4824 Y34.7137
G01 X36.5144 Y34.6461
G01 X36.5358 Y34.6059
G01 X36.5743 Y34.5418
G01 X36.5996 Y34.5040
G01 X36.6417 Y34.4472
G01 X36.6417 Y32.6634
G01 X36.6423 Y32.6406
G01 X36.6447 Y32.5916
G01 X36.6491 Y32.5464
G01 X36.6563 Y32.4978
G01 X36.6652 Y32.4532
G01 X36.6771 Y32.4056
G01 X36.6903 Y32.3621
G01 X36.7069 Y32.3158
G01 X36.7243 Y32.2738
G01 X36.7453 Y32.2294
G01 X36.7667 Y32.1893
G01 X36.7919 Y32.1472
G01 X36.8172 Y32.1094
G01 X36.8464 Y32.0700
G01 X36.8753 Y32.0348
G01 X36.9083 Y31.9985
G01 X36.9404 Y31.9663
G01 X36.9768 Y31.9333
G01 X37.0119 Y31.9045
G01 X37.0514 Y31.8752
G01 X37.0892 Y31.8500
G01 X37.1313 Y31.8247
G01 X37.1714 Y31.8033
G01 X37.2158 Y31.7823
G01 X37.2578 Y31.7649
G01 X37.3040 Y31.7484
G01 X37.3475 Y31.7352
G01 X37.3951 Y31.7232
G01 X37.4398 Y31.7144
G01 X37.4883 Y31.7072
G01 X37.5336 Y31.7027
G01 X37.5826 Y31.7003
G01 X37.6053 Y31.6997
G01 X44.2617 Y31.6997
G01 X44.2617 Y30.8796
G01 X44.2196 Y30.8228
G01 X44.1943 Y30.7850
G01 X44.1558 Y30.7208
G01 X44.1344 Y30.6807
G01 X44.1024 Y30.6131
G01 X44.0850 Y30.5711
G01 X44.0598 Y30.5007
G01 X44.0466 Y30.4572
G01 X44.0285 Y30.3846
G01 X44.0196 Y30.3400
G01 X44.0086 Y30.2661
G01 X44.0042 Y30.2208
G01 X44.0005 Y30.1461
G01 X44.0005 Y30.1006
G01 X44.0042 Y30.0260
G01 X44.0086 Y29.9807
G01 X44.0196 Y29.9067
G01 X44.0285 Y29.8621
G01 X44.0466 Y29.7896
G01 X44.0598 Y29.7461
G01 X44.0850 Y29.6757
G01 X44.1024 Y29.6337
G01 X44.1344 Y29.5661
G01 X44.1558 Y29.5259
G01 X44.1943 Y29.4618
G01 X44.2196 Y29.4240
G01 X44.2641 Y29.3639
G01 X44.2930 Y29.3288
G01 X44.3432 Y29.2734
G01 X44.3753 Y29.2412
G01 X44.4307 Y29.1910
G01 X44.4659 Y29.1621
G01 X44.5259 Y29.1176
G01 X44.5638 Y29.0923
G01 X44.6279 Y29.0539
G01 X44.6680 Y29.0325
G01 X44.7356 Y29.0005
G01 X44.7776 Y28.9831
G01 X44.8480 Y28.9579
G01 X44.8915 Y28.9447
G01 X44.9641 Y28.9265
G01 X45.0087 Y28.9176
G01 X45.0827 Y28.9067
G01 X45.1279 Y28.9022
G01 X45.2026 Y28.8985
G01 X45.2481 Y28.8985
G01 X45.3228 Y28.9022
G01 X45.3680 Y28.9067
G01 X45.4420 Y28.9176
G01 X45.4866 Y28.9265
G01 X45.5591 Y28.9447
G01 X45.6026 Y28.9579
G01 X45.6731 Y28.9831
G01 X45.7151 Y29.0005
G01 X45.7827 Y29.0325
G01 X45.8228 Y29.0539
G01 X45.8869 Y29.0923
G01 X45.9247 Y29.1176
G01 X45.9848 Y29.1621
G01 X46.0199 Y29.1910
G01 X46.0754 Y29.2412
G01 X46.1075 Y29.2734
G01 X46.1577 Y29.3288
G01 X46.1866 Y29.3639
G01 X46.2311 Y29.4240
G01 X46.2564 Y29.4618
G01 X46.2948 Y29.5259
G01 X46.3163 Y29.5661
G01 X46.3482 Y29.6337
G01 X46.3656 Y29.6757
G01 X46.3908 Y29.7461
G01 X46.4040 Y29.7896
G01 X46.4222 Y29.8621
G01 X46.4311 Y29.9067
G01 X46.4421 Y29.9807
G01 X46.4465 Y30.0260
G01 X46.4502 Y30.1006
G01 X46.4502 Y30.1461
G01 X46.4465 Y30.2208
G01 X46.4421 Y30.2661
G01 X46.4311 Y30.3400
G01 X46.4222 Y30.3846
G01 X46.4040 Y30.4572
G01 X46.3908 Y30.5007
G01 X46.3656 Y30.5711
G01 X46.3482 Y30.6131
G01 X46.3163 Y30.6807
G01 X46.2948 Y30.7208
G01 X46.2564 Y30.7850
G01 X46.2311 Y30.8228
G01 X46.1890 Y30.8796
G01 X46.1890 Y31.6997
G01 X47.7653 Y31.6997
G01 X47.7881 Y31.7003
G01 X47.8371 Y31.7027
G01 X47.8824 Y31.7072
G01 X47.9309 Y31.7144
G01 X47.9755 Y31.7232
G01 X48.0231 Y31.7352
G01 X48.0667 Y31.7484
G01 X48.1129 Y31.7649
G01 X48.1549 Y31.7823
G01 X48.1993 Y31.8033
G01 X48.2394 Y31.8247
G01 X48.2815 Y31.8500
G01 X48.3193 Y31.8752
G01 X48.3587 Y31.9045
G01 X48.3939 Y31.9333
G01 X48.4303 Y31.9663
G01 X48.4624 Y31.9985
G01 X48.4954 Y32.0348
G01 X48.5242 Y32.0700
G01 X48.5535 Y32.1094
G01 X48.5788 Y32.1472
G01 X48.6040 Y32.1893
G01 X48.6254 Y32.2294
G01 X48.6464 Y32.2738
G01 X48.6638 Y32.3158
G01 X48.6804 Y32.3621
G01 X48.6936 Y32.4056
G01 X48.7055 Y32.4532
G01 X48.7144 Y32.4978
G01 X48.7216 Y32.5464
G01 X48.7260 Y32.5916
G01 X48.7284 Y32.6406
G01 X48.7290 Y32.6634
G01 X48.7290 Y41.8597
G01 X51.6083 Y41.8597
G01 X51.6354 Y41.8435
G01 X51.6755 Y41.8221
G01 X51.7341 Y41.7943
G01 X51.7761 Y41.7769
G01 X51.8371 Y41.7551
G01 X51.8806 Y41.7419
G01 X51.9435 Y41.7262
G01 X51.9881 Y41.7173
G01 X52.0522 Y41.7078
G01 X52.0975 Y41.7033
G01 X52.1622 Y41.7001
G01 X52.1849 Y41.6996
G01 X53.5057 Y41.6996
G01 X53.5285 Y41.7001
G01 X53.5932 Y41.7033
G01 X53.6385 Y41.7078
G01 X53.7026 Y41.7173
G01 X53.7472 Y41.7262
G01 X53.8100 Y41.7419
G01 X53.8536 Y41.7551
G01 X53.9146 Y41.7769
G01 X53.9566 Y41.7943
G01 X54.0152 Y41.8221
G01 X54.0553 Y41.8435
G01 X54.1109 Y41.8768
G01 X54.1487 Y41.9021
G01 X54.2007 Y41.9407
G01 X54.2359 Y41.9695
G01 X54.2839 Y42.0131
G01 X54.3161 Y42.0452
G01 X54.3596 Y42.0932
G01 X54.3884 Y42.1284
G01 X54.4217 Y42.1732
G01 X54.4217 Y41.2470
G01 X54.0824 Y41.2470
G01 X54.0553 Y41.2633
G01 X54.0152 Y41.2847
G01 X53.9566 Y41.3124
G01 X53.9146 Y41.3298
G01 X53.8536 Y41.3517
G01 X53.8100 Y41.3649
G01 X53.7472 Y41.3806
G01 X53.7026 Y41.3895
G01 X53.6385 Y41.3990
G01 X53.5932 Y41.4034
G01 X53.5285 Y41.4066
G01 X53.5057 Y41.4072
G01 X52.1849 Y41.4072
G01 X52.1622 Y41.4066
G01 X52.0975 Y41.4034
G01 X52.0522 Y41.3990
G01 X51.9881 Y41.3895
G01 X51.9435 Y41.3806
G01 X51.8806 Y41.3649
G01 X51.8371 Y41.3517
G01 X51.7761 Y41.3298
G01 X51.7341 Y41.3124
G01 X51.6755 Y41.2847
G01 X51.6354 Y41.2633
G01 X51.5798 Y41.2300
G01 X51.5420 Y41.2047
G01 X51.4899 Y41.1661
G01 X51.4548 Y41.1372
G01 X51.4068 Y41.0937
G01 X51.3746 Y41.0616
G01 X51.3311 Y41.0135
G01 X51.3022 Y40.9784
G01 X51.2636 Y40.9263
G01 X51.2384 Y40.8885
G01 X51.2050 Y40.8329
G01 X51.1836 Y40.7928
G01 X51.1559 Y40.7342
G01 X51.1385 Y40.6922
G01 X51.1167 Y40.6312
G01 X51.1035 Y40.5877
G01 X51.0877 Y40.5248
G01 X51.0788 Y40.4802
G01 X51.0693 Y40.4161
G01 X51.0649 Y40.3709
G01 X51.0617 Y40.3061
G01 X51.0617 Y40.2606
G01 X51.0649 Y40.1959
G01 X51.0693 Y40.1507
G01 X51.0788 Y40.0866
G01 X51.0877 Y40.0419
G01 X51.1035 Y39.9791
G01 X51.1167 Y39.9356
G01 X51.1385 Y39.8745
G01 X51.1559 Y39.8325
G01 X51.1836 Y39.7739
G01 X51.2050 Y39.7338
G01 X51.2384 Y39.6783
G01 X51.2636 Y39.6404
G01 X51.3022 Y39.5884
G01 X51.3311 Y39.5532
G01 X51.3746 Y39.5052
G01 X51.4068 Y39.4731
G01 X51.4548 Y39.4295
G01 X51.4899 Y39.4007
G01 X51.5420 Y39.3621
G01 X51.5798 Y39.3368
G01 X51.6354 Y39.3035
G01 X51.6755 Y39.2821
G01 X51.7341 Y39.2543
G01 X51.7761 Y39.2369
G01 X51.8371 Y39.2151
G01 X51.8806 Y39.2019
G01 X51.9435 Y39.1862
G01 X51.9881 Y39.1773
G01 X52.0522 Y39.1678
G01 X52.0975 Y39.1633
G01 X52.1622 Y39.1601
G01 X52.1849 Y39.1596
G01 X53.5057 Y39.1596
G01 X53.5285 Y39.1601
G01 X53.5932 Y39.1633
G01 X53.6385 Y39.1678
G01 X53.7026 Y39.1773
G01 X53.7472 Y39.1862
G01 X53.8100 Y39.2019
G01 X53.8536 Y39.2151
G01 X53.9146 Y39.2369
G01 X53.9566 Y39.2543
G01 X54.0152 Y39.2821
G01 X54.0553 Y39.3035
G01 X54.0824 Y39.3197
G01 X55.3853 Y39.3197
G01 X55.4081 Y39.3203
G01 X55.4571 Y39.3227
G01 X55.5024 Y39.3272
G01 X55.5509 Y39.3344
G01 X55.5955 Y39.3432
G01 X55.6431 Y39.3552
G01 X55.6867 Y39.3684
G01 X55.7329 Y39.3849
G01 X55.7749 Y39.4023
G01 X55.8193 Y39.4233
G01 X55.8594 Y39.4447
G01 X55.9015 Y39.4700
G01 X55.9393 Y39.4952
G01 X55.9787 Y39.5245
G01 X56.0139 Y39.5533
G01 X56.0503 Y39.5863
G01 X56.0824 Y39.6185
G01 X56.1154 Y39.6548
G01 X56.1442 Y39.6900
G01 X56.1735 Y39.7294
G01 X56.1988 Y39.7672
G01 X56.2240 Y39.8093
G01 X56.2361 Y39.8321
G01 X56.2636 Y39.7739
G01 X56.2850 Y39.7338
G01 X56.3184 Y39.6783
G01 X56.3436 Y39.6404
G01 X56.3822 Y39.5884
G01 X56.4111 Y39.5532
G01 X56.4546 Y39.5052
G01 X56.4868 Y39.4731
G01 X56.5348 Y39.4295
G01 X56.5699 Y39.4007
G01 X56.6220 Y39.3621
G01 X56.6598 Y39.3368
G01 X56.7154 Y39.3035
G01 X56.7555 Y39.2821
G01 X56.8141 Y39.2543
G01 X56.8561 Y39.2369
G01 X56.9171 Y39.2151
G01 X56.9617 Y39.2016
G01 X56.9617 Y35.9596
G01 X56.9196 Y35.9028
G01 X56.8943 Y35.8650
G01 X56.8558 Y35.8008
G01 X56.8344 Y35.7607
G01 X56.8024 Y35.6931
G01 X56.7850 Y35.6511
G01 X56.7598 Y35.5807
G01 X56.7466 Y35.5372
G01 X56.7285 Y35.4646
G01 X56.7196 Y35.4200
G01 X56.7086 Y35.3461
G01 X56.7042 Y35.3008
G01 X56.7005 Y35.2261
G01 X56.7005 Y35.1806
G01 X56.7042 Y35.1060
G01 X56.7086 Y35.0607
G01 X56.7196 Y34.9867
G01 X56.7285 Y34.9421
G01 X56.7466 Y34.8696
G01 X56.7598 Y34.8261
G01 X56.7850 Y34.7557
G01 X56.8024 Y34.7137
G01 X56.8344 Y34.6461
G01 X56.8558 Y34.6059
G01 X56.8943 Y34.5418
G01 X56.9196 Y34.5040
G01 X56.9641 Y34.4439
G01 X56.9930 Y34.4088
G01 X57.0432 Y34.3534
G01 X57.0753 Y34.3212
G01 X57.1307 Y34.2710
G01 X57.1659 Y34.2421
G01 X57.2259 Y34.1976
G01 X57.2638 Y34.1723
G01 X57.3279 Y34.1339
G01 X57.3680 Y34.1125
G01 X57.4356 Y34.0805
G01 X57.4776 Y34.0631
G01 X57.5480 Y34.0379
G01 X57.5915 Y34.0247
G01 X57.6641 Y34.0065
G01 X57.7087 Y33.9976
G01 X57.7827 Y33.9867
G01 X57.8279 Y33.9822
G01 X57.9026 Y33.9785
G01 X57.9481 Y33.9785
G01 X58.0228 Y33.9822
G01 X58.0680 Y33.9867
G01 X58.1420 Y33.9976
G01 X58.1866 Y34.0065
G01 X58.2591 Y34.0247
G01 X58.3026 Y34.0379
G01 X58.3731 Y34.0631
G01 X58.4151 Y34.0805
G01 X58.4827 Y34.1125
G01 X58.5228 Y34.1339
G01 X58.5869 Y34.1723
G01 X58.6247 Y34.1976
G01 X58.6848 Y34.2421
G01 X58.7199 Y34.2710
G01 X58.7754 Y34.3212
G01 X58.8075 Y34.3534
G01 X58.8577 Y34.4088
G01 X58.8866 Y34.4439
G01 X58.9311 Y34.5040
G01 X58.9564 Y34.5418
G01 X58.9948 Y34.6059
G01 X59.0163 Y34.6461
G01 X59.0482 Y34.7137
G01 X59.0656 Y34.7557
G01 X59.0908 Y34.8261
G01 X59.1040 Y34.8696
G01 X59.1222 Y34.9421
G01 X59.1311 Y34.9867
G01 X59.1421 Y35.0607
G01 X59.1465 Y35.1060
G01 X59.1502 Y35.1806
G01 X59.1502 Y35.2261
G01 X59.1465 Y35.3008
G01 X59.1421 Y35.3461
G01 X59.1311 Y35.4200
G01 X59.1222 Y35.4646
G01 X59.1040 Y35.5372
G01 X59.0908 Y35.5807
G01 X59.0656 Y35.6511
G01 X59.0482 Y35.6931
G01 X59.0163 Y35.7607
G01 X58.9948 Y35.8008
G01 X58.9564 Y35.8650
G01 X58.9311 Y35.9028
G01 X58.8890 Y35.9596
G01 X58.8890 Y39.2016
G01 X58.9336 Y39.2151
G01 X58.9946 Y39.2369
G01 X59.0366 Y39.2543
G01 X59.0952 Y39.2821
G01 X59.1353 Y39.3035
G01 X59.1909 Y39.3368
G01 X59.2287 Y39.3621
G01 X59.2807 Y39.4007
G01 X59.3159 Y39.4295
G01 X59.3639 Y39.4731
G01 X59.3961 Y39.5052
G01 X59.4396 Y39.5532
G01 X59.4684 Y39.5884
G01 X59.5017 Y39.6332
G01 X59.5017 Y33.6270
G01 X51.2690 Y33.6270
G01 X51.2690 Y34.4472
G01 X51.3111 Y34.5040
G01 X51.3364 Y34.5418
G01 X51.3748 Y34.6059
G01 X51.3963 Y34.6461
G01 X51.4282 Y34.7137
G01 X51.4456 Y34.7557
G01 X51.4708 Y34.8261
G01 X51.4840 Y34.8696
G01 X51.5022 Y34.9421
G01 X51.5111 Y34.9867
G01 X51.5221 Y35.0607
G01 X51.5265 Y35.1060
G01 X51.5302 Y35.1806
G01 X51.5302 Y35.2261
G01 X51.5265 Y35.3008
G01 X51.5221 Y35.3461
G01 X51.5111 Y35.4200
G01 X51.5022 Y35.4646
G01 X51.4840 Y35.5372
G01 X51.4708 Y35.5807
G01 X51.4456 Y35.6511
G01 X51.4282 Y35.6931
G01 X51.3963 Y35.7607
G01 X51.3748 Y35.8008
G01 X51.3364 Y35.8650
G01 X51.3111 Y35.9028
G01 X51.2666 Y35.9628
G01 X51.2377 Y35.9980
G01 X51.1875 Y36.0534
G01 X51.1554 Y36.0856
G01 X51.0999 Y36.1358
G01 X51.0648 Y36.1646
G01 X51.0047 Y36.2092
G01 X50.9669 Y36.2344
G01 X50.9028 Y36.2729
G01 X50.8627 Y36.2943
G01 X50.7951 Y36.3263
G01 X50.7531 Y36.3437
G01 X50.6826 Y36.3689
G01 X50.6391 Y36.3821
G01 X50.5666 Y36.4003
G01 X50.5220 Y36.4091
G01 X50.4480 Y36.4201
G01 X50.4028 Y36.4246
G01 X50.3281 Y36.4282
G01 X50.2826 Y36.4282
G01 X50.2079 Y36.4246
G01 X50.1627 Y36.4201
G01 X50.0887 Y36.4091
G01 X50.0441 Y36.4003
G01 X49.9715 Y36.3821
G01 X49.9280 Y36.3689
G01 X49.8576 Y36.3437
G01 X49.8156 Y36.3263
G01 X49.7480 Y36.2943
G01 X49.7079 Y36.2729
G01 X49.6438 Y36.2344
G01 X49.6059 Y36.2092
G01 X49.5459 Y36.1646
G01 X49.5107 Y36.1358
G01 X49.4553 Y36.0856
G01 X49.4232 Y36.0534
G01 X49.3730 Y35.9980
G01 X49.3441 Y35.9628
G01 X49.2996 Y35.9028
G01 X49.2743 Y35.8650
G01 X49.2358 Y35.8008
G01 X49.2144 Y35.7607
G01 X49.1824 Y35.6931
G01 X49.1650 Y35.6511
G01 X49.1398 Y35.5807
G01 X49.1266 Y35.5372
G01 X49.1085 Y35.4646
G01 X49.0996 Y35.4200
G01 X49.0886 Y35.3461
G01 X49.0842 Y35.3008
G01 X49.0805 Y35.2261
G01 X49.0805 Y35.1806
G01 X49.0842 Y35.1060
G01 X49.0886 Y35.0607
G01 X49.0996 Y34.9867
G01 X49.1085 Y34.9421
G01 X49.1266 Y34.8696
G01 X49.1398 Y34.8261
G01 X49.1650 Y34.7557
G01 X49.1824 Y34.7137
G01 X49.2144 Y34.6461
G01 X49.2358 Y34.6059
G01 X49.2743 Y34.5418
G01 X49.2996 Y34.5040
G01 X49.3417 Y34.4472
G01 X49.3417 Y32.6634
G01 X49.3423 Y32.6406
G01 X49.3447 Y32.5916
G01 X49.3491 Y32.5464
G01 X49.3563 Y32.4978
G01 X49.3652 Y32.4532
G01 X49.3771 Y32.4056
G01 X49.3903 Y32.3621
G01 X49.4069 Y32.3158
G01 X49.4243 Y32.2738
G01 X49.4453 Y32.2294
G01 X49.4667 Y32.1893
G01 X49.4919 Y32.1472
G01 X49.5172 Y32.1094
G01 X49.5464 Y32.0700
G01 X49.5753 Y32.0348
G01 X49.6083 Y31.9985
G01 X49.6404 Y31.9663
G01 X49.6768 Y31.9333
G01 X49.7119 Y31.9045
G01 X49.7514 Y31.8752
G01 X49.7892 Y31.8500
G01 X49.8313 Y31.8247
G01 X49.8714 Y31.8033
G01 X49.9158 Y31.7823
G01 X49.9578 Y31.7649
G01 X50.0040 Y31.7484
G01 X50.0475 Y31.7352
G01 X50.0951 Y31.7232
G01 X50.1398 Y31.7144
G01 X50.1883 Y31.7072
G01 X50.2336 Y31.7027
G01 X50.2826 Y31.7003
G01 X50.3053 Y31.6997
G01 X56.9617 Y31.6997
G01 X56.9617 Y30.8796
G01 X56.9196 Y30.8228
G01 X56.8943 Y30.7850
G01 X56.8558 Y30.7208
G01 X56.8344 Y30.6807
G01 X56.8024 Y30.6131
G01 X56.7850 Y30.5711
G01 X56.7598 Y30.5007
G01 X56.7466 Y30.4572
G01 X56.7285 Y30.3846
G01 X56.7196 Y30.3400
G01 X56.7086 Y30.2661
G01 X56.7042 Y30.2208
G01 X56.7005 Y30.1461
G01 X56.7005 Y30.1006
G01 X56.7042 Y30.0260
G01 X56.7086 Y29.9807
G01 X56.7196 Y29.9067
G01 X56.7285 Y29.8621
G01 X56.7466 Y29.7896
G01 X56.7598 Y29.7461
G01 X56.7850 Y29.6757
G01 X56.8024 Y29.6337
G01 X56.8344 Y29.5661
G01 X56.8558 Y29.5259
G01 X56.8943 Y29.4618
G01 X56.9196 Y29.4240
G01 X56.9641 Y29.3639
G01 X56.9930 Y29.3288
G01 X57.0432 Y29.2734
G01 X57.0753 Y29.2412
G01 X57.1307 Y29.1910
G01 X57.1659 Y29.1621
G01 X57.2259 Y29.1176
G01 X57.2638 Y29.0923
G01 X57.3279 Y29.0539
G01 X57.3680 Y29.0325
G01 X57.4356 Y29.0005
G01 X57.4776 Y28.9831
G01 X57.5480 Y28.9579
G01 X57.5915 Y28.9447
G01 X57.6641 Y28.9265
G01 X57.7087 Y28.9176
G01 X57.7827 Y28.9067
G01 X57.8279 Y28.9022
G01 X57.9026 Y28.8985
G01 X57.9481 Y28.8985
G01 X58.0228 Y28.9022
G01 X58.0680 Y28.9067
G01 X58.1420 Y28.9176
G01 X58.1866 Y28.9265
G01 X58.2591 Y28.9447
G01 X58.3026 Y28.9579
G01 X58.3731 Y28.9831
G01 X58.4151 Y29.0005
G01 X58.4827 Y29.0325
G01 X58.5228 Y29.0539
G01 X58.5869 Y29.0923
G01 X58.6247 Y29.1176
G01 X58.6848 Y29.1621
G01 X58.7199 Y29.1910
G01 X58.7754 Y29.2412
G01 X58.8075 Y29.2734
G01 X58.8577 Y29.3288
G01 X58.8866 Y29.3639
G01 X58.9311 Y29.4240
G01 X58.9564 Y29.4618
G01 X58.9948 Y29.5259
G01 X59.0163 Y29.5661
G01 X59.0482 Y29.6337
G01 X59.0656 Y29.6757
G01 X59.0908 Y29.7461
G01 X59.1040 Y29.7896
G01 X59.1222 Y29.8621
G01 X59.1311 Y29.9067
G01 X59.1421 Y29.9807
G01 X59.1465 Y30.0260
G01 X59.1502 Y30.1006
G01 X59.1502 Y30.1461
G01 X59.1465 Y30.2208
G01 X59.1421 Y30.2661
G01 X59.1311 Y30.3400
G01 X59.1222 Y30.3846
G01 X59.1040 Y30.4572
G01 X59.0908 Y30.5007
G01 X59.0656 Y30.5711
G01 X59.0482 Y30.6131
G01 X59.0163 Y30.6807
G01 X58.9948 Y30.7208
G01 X58.9564 Y30.7850
G01 X58.9311 Y30.8228
G01 X58.8890 Y30.8796
G01 X58.8890 Y31.6997
G01 X60.4653 Y31.6997
G01 X60.4881 Y31.7003
G01 X60.5371 Y31.7027
G01 X60.5824 Y31.7072
G01 X60.6309 Y31.7144
G01 X60.6755 Y31.7232
G01 X60.7231 Y31.7352
G01 X60.7667 Y31.7484
G01 X60.8129 Y31.7649
G01 X60.8549 Y31.7823
G01 X60.8993 Y31.8033
G01 X60.9394 Y31.8247
G01 X60.9815 Y31.8500
G01 X61.0193 Y31.8752
G01 X61.0587 Y31.9045
G01 X61.0939 Y31.9333
G01 X61.1303 Y31.9663
G01 X61.1624 Y31.9985
G01 X61.1954 Y32.0348
G01 X61.2242 Y32.0700
G01 X61.2535 Y32.1094
G01 X61.2788 Y32.1472
G01 X61.3040 Y32.1893
G01 X61.3254 Y32.2294
G01 X61.3464 Y32.2738
G01 X61.3638 Y32.3158
G01 X61.3804 Y32.3621
G01 X61.3936 Y32.4056
G01 X61.4055 Y32.4532
G01 X61.4144 Y32.4978
G01 X61.4216 Y32.5464
G01 X61.4260 Y32.5916
G01 X61.4284 Y32.6406
G01 X61.4290 Y32.6634
G01 X61.4290 Y41.8597
G01 X64.3083 Y41.8597
G01 X64.3354 Y41.8435
G01 X64.3755 Y41.8221
G01 X64.4341 Y41.7943
G01 X64.4761 Y41.7769
G01 X64.5371 Y41.7551
G01 X64.5806 Y41.7419
G01 X64.6435 Y41.7262
G01 X64.6881 Y41.7173
G01 X64.7522 Y41.7078
G01 X64.7975 Y41.7033
G01 X64.8622 Y41.7001
G01 X64.8849 Y41.6996
G01 X66.2057 Y41.6996
G01 X66.2285 Y41.7001
G01 X66.2932 Y41.7033
G01 X66.3385 Y41.7078
G01 X66.4026 Y41.7173
G01 X66.4472 Y41.7262
G01 X66.5100 Y41.7419
G01 X66.5536 Y41.7551
G01 X66.6146 Y41.7769
G01 X66.6566 Y41.7943
G01 X66.7152 Y41.8221
G01 X66.7553 Y41.8435
G01 X66.8109 Y41.8768
G01 X66.8487 Y41.9021
G01 X66.9007 Y41.9407
G01 X66.9359 Y41.9695
G01 X66.9839 Y42.0131
G01 X67.0161 Y42.0452
G01 X67.0596 Y42.0932
G01 X67.0884 Y42.1284
G01 X67.1217 Y42.1732
G01 X67.1217 Y41.2470
G01 X66.7824 Y41.2470
G01 X66.7553 Y41.2633
G01 X66.7152 Y41.2847
G01 X66.6566 Y41.3124
G01 X66.6146 Y41.3298
G01 X66.5536 Y41.3517
G01 X66.5100 Y41.3649
G01 X66.4472 Y41.3806
G01 X66.4026 Y41.3895
G01 X66.3385 Y41.3990
G01 X66.2932 Y41.4034
G01 X66.2285 Y41.4066
G01 X66.2057 Y41.4072
G01 X64.8849 Y41.4072
G01 X64.8622 Y41.4066
G01 X64.7975 Y41.4034
G01 X64.7522 Y41.3990
G01 X64.6881 Y41.3895
G01 X64.6435 Y41.3806
G01 X64.5806 Y41.3649
G01 X64.5371 Y41.3517
G01 X64.4761 Y41.3298
G01 X64.4341 Y41.3124
G01 X64.3755 Y41.2847
G01 X64.3354 Y41.2633
G01 X64.2798 Y41.2300
G01 X64.2420 Y41.2047
G01 X64.1899 Y41.1661
G01 X64.1548 Y41.1372
G01 X64.1068 Y41.0937
G01 X64.0746 Y41.0616
G01 X64.0311 Y41.0135
G01 X64.0022 Y40.9784
G01 X63.9636 Y40.9263
G01 X63.9384 Y40.8885
G01 X63.9050 Y40.8329
G01 X63.8836 Y40.7928
G01 X63.8559 Y40.7342
G01 X63.8385 Y40.6922
G01 X63.8167 Y40.6312
G01 X63.8035 Y40.5877
G01 X63.7877 Y40.5248
G01 X63.7788 Y40.4802
G01 X63.7693 Y40.4161
G01 X63.7649 Y40.3709
G01 X63.7617 Y40.3061
G01 X63.7617 Y40.2606
G01 X63.7649 Y40.1959
G01 X63.7693 Y40.1507
G01 X63.7788 Y40.0866
G01 X63.7877 Y40.0419
G01 X63.8035 Y39.9791
G01 X63.8167 Y39.9356
G01 X63.8385 Y39.8745
G01 X63.8559 Y39.8325
G01 X63.8836 Y39.7739
G01 X63.9050 Y39.7338
G01 X63.9384 Y39.6783
G01 X63.9636 Y39.6404
G01 X64.0022 Y39.5884
G01 X64.0311 Y39.5532
G01 X64.0746 Y39.5052
G01 X64.1068 Y39.4731
G01 X64.1548 Y39.4295
G01 X64.1899 Y39.4007
G01 X64.2420 Y39.3621
G01 X64.2798 Y39.3368
G01 X64.3354 Y39.3035
G01 X64.3755 Y39.2821
G01 X64.4341 Y39.2543
G01 X64.4761 Y39.2369
G01 X64.5371 Y39.2151
G01 X64.5806 Y39.2019
G01 X64.6435 Y39.1862
G01 X64.6881 Y39.1773
G01 X64.7522 Y39.1678
G01 X64.7975 Y39.1633
G01 X64.8622 Y39.1601
G01 X64.8849 Y39.1596
G01 X66.2057 Y39.1596
G01 X66.2285 Y39.1601
G01 X66.2932 Y39.1633
G01 X66.3385 Y39.1678
G01 X66.4026 Y39.1773
G01 X66.4472 Y39.1862
G01 X66.5100 Y39.2019
G01 X66.5536 Y39.2151
G01 X66.6146 Y39.2369
G01 X66.6566 Y39.2543
G01 X66.7152 Y39.2821
G01 X66.7553 Y39.3035
G01 X66.7824 Y39.3197
G01 X68.0853 Y39.3197
G01 X68.1081 Y39.3203
G01 X68.1571 Y39.3227
G01 X68.2024 Y39.3272
G01 X68.2509 Y39.3344
G01 X68.2955 Y39.3432
G01 X68.3431 Y39.3552
G01 X68.3867 Y39.3684
G01 X68.4329 Y39.3849
G01 X68.4749 Y39.4023
G01 X68.5193 Y39.4233
G01 X68.5594 Y39.4447
G01 X68.6015 Y39.4700
G01 X68.6393 Y39.4952
G01 X68.6787 Y39.5245
G01 X68.7139 Y39.5533
G01 X68.7503 Y39.5863
G01 X68.7824 Y39.6185
G01 X68.8154 Y39.6548
G01 X68.8442 Y39.6900
G01 X68.8735 Y39.7294
G01 X68.8988 Y39.7672
G01 X68.9240 Y39.8093
G01 X68.9361 Y39.8321
G01 X68.9636 Y39.7739
G01 X68.9850 Y39.7338
G01 X69.0184 Y39.6783
G01 X69.0436 Y39.6404
G01 X69.0822 Y39.5884
G01 X69.1111 Y39.5532
G01 X69.1546 Y39.5052
G01 X69.1868 Y39.4731
G01 X69.2348 Y39.4295
G01 X69.2699 Y39.4007
G01 X69.3220 Y39.3621
G01 X69.3598 Y39.3368
G01 X69.4154 Y39.3035
G01 X69.4555 Y39.2821
G01 X69.5141 Y39.2543
G01 X69.5561 Y39.2369
G01 X69.6171 Y39.2151
G01 X69.6617 Y39.2016
G01 X69.6617 Y35.9596
G01 X69.6196 Y35.9028
G01 X69.5943 Y35.8650
G01 X69.5558 Y35.8008
G01 X69.5344 Y35.7607
G01 X69.5024 Y35.6931
G01 X69.4850 Y35.6511
G01 X69.4598 Y35.5807
G01 X69.4466 Y35.5372
G01 X69.4285 Y35.4646
G01 X69.4196 Y35.4200
G01 X69.4086 Y35.3461
G01 X69.4042 Y35.3008
G01 X69.4005 Y35.2261
G01 X69.4005 Y35.1806
G01 X69.4042 Y35.1060
G01 X69.4086 Y35.0607
G01 X69.4196 Y34.9867
G01 X69.4285 Y34.9421
G01 X69.4466 Y34.8696
G01 X69.4598 Y34.8261
G01 X69.4850 Y34.7557
G01 X69.5024 Y34.7137
G01 X69.5344 Y34.6461
G01 X69.5558 Y34.6059
G01 X69.5943 Y34.5418
G01 X69.6196 Y34.5040
G01 X69.6641 Y34.4439
G01 X69.6930 Y34.4088
G01 X69.7432 Y34.3534
G01 X69.7753 Y34.3212
G01 X69.8307 Y34.2710
G01 X69.8659 Y34.2421
G01 X69.9259 Y34.1976
G01 X69.9638 Y34.1723
G01 X70.0279 Y34.1339
G01 X70.0680 Y34.1125
G01 X70.1356 Y34.0805
G01 X70.1776 Y34.0631
G01 X70.2480 Y34.0379
G01 X70.2915 Y34.0247
G01 X70.3641 Y34.0065
G01 X70.4087 Y33.9976
G01 X70.4827 Y33.9867
G01 X70.5279 Y33.9822
G01 X70.6026 Y33.9785
G01 X70.6481 Y33.9785
G01 X70.7228 Y33.9822
G01 X70.7680 Y33.9867
G01 X70.8420 Y33.9976
G01 X70.8866 Y34.0065
G01 X70.9591 Y34.0247
G01 X71.0026 Y34.0379
G01 X71.0731 Y34.0631
G01 X71.1151 Y34.0805
G01 X71.1827 Y34.1125
G01 X71.2228 Y34.1339
G01 X71.2869 Y34.1723
G01 X71.3247 Y34.1976
G01 X71.3848 Y34.2421
G01 X71.4199 Y34.2710
G01 X71.4754 Y34.3212
G01 X71.5075 Y34.3534
G01 X71.5577 Y34.4088
G01 X71.5866 Y34.4439
G01 X71.6311 Y34.5040
G01 X71.6564 Y34.5418
G01 X71.6948 Y34.6059
G01 X71.7163 Y34.6461
G01 X71.7482 Y34.7137
G01 X71.7656 Y34.7557
G01 X71.7908 Y34.8261
G01 X71.8040 Y34.8696
G01 X71.8222 Y34.9421
G01 X71.8311 Y34.9867
G01 X71.8421 Y35.0607
G01 X71.8465 Y35.1060
G01 X71.8502 Y35.1806
G01 X71.8502 Y35.2261
G01 X71.8465 Y35.3008
G01 X71.8421 Y35.3461
G01 X71.8311 Y35.4200
G01 X71.8222 Y35.4646
G01 X71.8040 Y35.5372
G01 X71.7908 Y35.5807
G01 X71.7656 Y35.6511
G01 X71.7482 Y35.6931
G01 X71.7163 Y35.7607
G01 X71.6948 Y35.8008
G01 X71.6564 Y35.8650
G01 X71.6311 Y35.9028
G01 X71.5890 Y35.9596
G01 X71.5890 Y39.2016
G01 X71.6336 Y39.2151
G01 X71.6946 Y39.2369
G01 X71.7366 Y39.2543
G01 X71.7952 Y39.2821
G01 X71.8353 Y39.3035
G01 X71.8909 Y39.3368
G01 X71.9287 Y39.3621
G01 X71.9807 Y39.4007
G01 X72.0159 Y39.4295
G01 X72.0639 Y39.4731
G01 X72.0961 Y39.5052
G01 X72.1396 Y39.5532
G01 X72.1684 Y39.5884
G01 X72.2017 Y39.6332
G01 X72.2017 Y33.6270
G01 X63.9690 Y33.6270
G01 X63.9690 Y34.4472
G01 X64.0111 Y34.5040
G01 X64.0364 Y34.5418
G01 X64.0748 Y34.6059
G01 X64.0963 Y34.6461
G01 X64.1282 Y34.7137
G01 X64.1456 Y34.7557
G01 X64.1708 Y34.8261
G01 X64.1840 Y34.8696
G01 X64.2022 Y34.9421
G01 X64.2111 Y34.9867
G01 X64.2221 Y35.0607
G01 X64.2265 Y35.1060
G01 X64.2302 Y35.1806
G01 X64.2302 Y35.2261
G01 X64.2265 Y35.3008
G01 X64.2221 Y35.3461
G01 X64.2111 Y35.4200
G01 X64.2022 Y35.4646
G01 X64.1840 Y35.5372
G01 X64.1708 Y35.5807
G01 X64.1456 Y35.6511
G01 X64.1282 Y35.6931
G01 X64.0963 Y35.7607
G01 X64.0748 Y35.8008
G01 X64.0364 Y35.8650
G01 X64.0111 Y35.9028
G01 X63.9666 Y35.9628
G01 X63.9377 Y35.9980
G01 X63.8875 Y36.0534
G01 X63.8554 Y36.0856
G01 X63.7999 Y36.1358
G01 X63.7648 Y36.1646
G01 X63.7047 Y36.2092
G01 X63.6669 Y36.2344
G01 X63.6028 Y36.2729
G01 X63.5627 Y36.2943
G01 X63.4951 Y36.3263
G01 X63.4531 Y36.3437
G01 X63.3826 Y36.3689
G01 X63.3391 Y36.3821
G01 X63.2666 Y36.4003
G01 X63.2220 Y36.4091
G01 X63.1480 Y36.4201
G01 X63.1028 Y36.4246
G01 X63.0281 Y36.4282
G01 X62.9826 Y36.4282
G01 X62.9079 Y36.4246
G01 X62.8627 Y36.4201
G01 X62.7887 Y36.4091
G01 X62.7441 Y36.4003
G01 X62.6715 Y36.3821
G01 X62.6280 Y36.3689
G01 X62.5576 Y36.3437
G01 X62.5156 Y36.3263
G01 X62.4480 Y36.2943
G01 X62.4079 Y36.2729
G01 X62.3438 Y36.2344
G01 X62.3059 Y36.2092
G01 X62.2459 Y36.1646
G01 X62.2107 Y36.1358
G01 X62.1553 Y36.0856
G01 X62.1232 Y36.0534
G01 X62.0730 Y35.9980
G01 X62.0441 Y35.9628
G01 X61.9996 Y35.9028
G01 X61.9743 Y35.8650
G01 X61.9358 Y35.8008
G01 X61.9144 Y35.7607
G01 X61.8824 Y35.6931
G01 X61.8650 Y35.6511
G01 X61.8398 Y35.5807
G01 X61.8266 Y35.5372
G01 X61.8085 Y35.4646
G01 X61.7996 Y35.4200
G01 X61.7886 Y35.3461
G01 X61.7842 Y35.3008
G01 X61.7805 Y35.2261
G01 X61.7805 Y35.1806
G01 X61.7842 Y35.1060
G01 X61.7886 Y35.0607
G01 X61.7996 Y34.9867
G01 X61.8085 Y34.9421
G01 X61.8266 Y34.8696
G01 X61.8398 Y34.8261
G01 X61.8650 Y34.7557
G01 X61.8824 Y34.7137
G01 X61.9144 Y34.6461
G01 X61.9358 Y34.6059
G01 X61.9743 Y34.5418
G01 X61.9996 Y34.5040
G01 X62.0417 Y34.4472
G01 X62.0417 Y32.6634
G01 X62.0423 Y32.6406
G01 X62.0447 Y32.5916
G01 X62.0491 Y32.5464
G01 X62.0563 Y32.4978
G01 X62.0652 Y32.4532
G01 X62.0771 Y32.4056
G01 X62.0903 Y32.3621
G01 X62.1069 Y32.3158
G01 X62.1243 Y32.2738
G01 X62.1453 Y32.2294
G01 X62.1667 Y32.1893
G01 X62.1919 Y32.1472
G01 X62.2172 Y32.1094
G01 X62.2464 Y32.0700
G01 X62.2753 Y32.0348
G01 X62.3083 Y31.9985
G01 X62.3404 Y31.9663
G01 X62.3768 Y31.9333
G01 X62.4119 Y31.9045
G01 X62.4514 Y31.8752
G01 X62.4892 Y31.8500
G01 X62.5313 Y31.8247
G01 X62.5714 Y31.8033
G01 X62.6158 Y31.7823
G01 X62.6578 Y31.7649
G01 X62.7040 Y31.7484
G01 X62.7475 Y31.7352
G01 X62.7951 Y31.7232
G01 X62.8398 Y31.7144
G01 X62.8883 Y31.7072
G01 X62.9336 Y31.7027
G01 X62.9826 Y31.7003
G01 X63.0053 Y31.6997
G01 X69.6617 Y31.6997
G01 X69.6617 Y30.8796
G01 X69.6196 Y30.8228
G01 X69.5943 Y30.7850
G01 X69.5558 Y30.7208
G01 X69.5344 Y30.6807
G01 X69.5024 Y30.6131
G01 X69.4850 Y30.5711
G01 X69.4598 Y30.5007
G01 X69.4466 Y30.4572
G01 X69.4285 Y30.3846
G01 X69.4196 Y30.3400
G01 X69.4086 Y30.2661
G01 X69.4042 Y30.2208
G01 X69.4005 Y30.1461
G01 X69.4005 Y30.1006
G01 X69.4042 Y30.0260
G01 X69.4086 Y29.9807
G01 X69.4196 Y29.9067
G01 X69.4285 Y29.8621
G01 X69.4466 Y29.7896
G01 X69.4598 Y29.7461
G01 X69.4850 Y29.6757
G01 X69.5024 Y29.6337
G01 X69.5344 Y29.5661
G01 X69.5558 Y29.5259
G01 X69.5943 Y29.4618
G01 X69.6196 Y29.4240
G01 X69.6641 Y29.3639
G01 X69.6930 Y29.3288
G01 X69.7432 Y29.2734
G01 X69.7753 Y29.2412
G01 X69.8307 Y29.1910
G01 X69.8659 Y29.1621
G01 X69.9259 Y29.1176
G01 X69.9638 Y29.0923
G01 X70.0279 Y29.0539
G01 X70.0680 Y29.0325
G01 X70.1356 Y29.0005
G01 X70.1776 Y28.9831
G01 X70.2480 Y28.9579
G01 X70.2915 Y28.9447
G01 X70.3641 Y28.9265
G01 X70.4087 Y28.9176
G01 X70.4827 Y28.9067
G01 X70.5279 Y28.9022
G01 X70.6026 Y28.8985
G01 X70.6481 Y28.8985
G01 X70.7228 Y28.9022
G01 X70.7680 Y28.9067
G01 X70.8420 Y28.9176
G01 X70.8866 Y28.9265
G01 X70.9591 Y28.9447
G01 X71.0026 Y28.9579
G01 X71.0731 Y28.9831
G01 X71.1151 Y29.0005
G01 X71.1827 Y29.0325
G01 X71.2228 Y29.0539
G01 X71.2869 Y29.0923
G01 X71.3247 Y29.1176
G01 X71.3848 Y29.1621
G01 X71.4199 Y29.1910
G01 X71.4754 Y29.2412
G01 X71.5075 Y29.2734
G01 X71.5577 Y29.3288
G01 X71.5866 Y29.3639
G01 X71.6311 Y29.4240
G01 X71.6564 Y29.4618
G01 X71.6948 Y29.5259
G01 X71.7163 Y29.5661
G01 X71.7482 Y29.6337
G01 X71.7656 Y29.6757
G01 X71.7908 Y29.7461
G01 X71.8040 Y29.7896
G01 X71.8222 Y29.8621
G01 X71.8311 Y29.9067
G01 X71.8421 Y29.9807
G01 X71.8465 Y30.0260
G01 X71.8502 Y30.1006
G01 X71.8502 Y30.1461
G01 X71.8465 Y30.2208
G01 X71.8421 Y30.2661
G01 X71.8311 Y30.3400
G01 X71.8222 Y30.3846
G01 X71.8040 Y30.4572
G01 X71.7908 Y30.5007
G01 X71.7656 Y30.5711
G01 X71.7482 Y30.6131
G01 X71.7163 Y30.6807
G01 X71.6948 Y30.7208
G01 X71.6564 Y30.7850
G01 X71.6311 Y30.8228
G01 X71.5890 Y30.8796
G01 X71.5890 Y31.6997
G01 X73.1653 Y31.6997
G01 X73.1881 Y31.7003
G01 X73.2371 Y31.7027
G01 X73.2824 Y31.7072
G01 X73.3309 Y31.7144
G01 X73.3755 Y31.7232
G01 X73.4231 Y31.7352
G01 X73.4667 Y31.7484
G01 X73.5129 Y31.7649
G01 X73.5549 Y31.7823
G01 X73.5993 Y31.8033
G01 X73.6394 Y31.8247
G01 X73.6815 Y31.8500
G01 X73.7193 Y31.8752
G01 X73.7587 Y31.9045
G01 X73.7939 Y31.9333
G01 X73.8303 Y31.9663
G01 X73.8624 Y31.9985
G01 X73.8954 Y32.0348
G01 X73.9242 Y32.0700
G01 X73.9535 Y32.1094
G01 X73.9788 Y32.1472
G01 X74.0040 Y32.1893
G01 X74.0254 Y32.2294
G01 X74.0464 Y32.2738
G01 X74.0638 Y32.3158
G01 X74.0804 Y32.3621
G01 X74.0936 Y32.4056
G01 X74.1055 Y32.4532
G01 X74.1144 Y32.4978
G01 X74.1216 Y32.5464
G01 X74.1260 Y32.5916
G01 X74.1284 Y32.6406
G01 X74.1290 Y32.6634
G01 X74.1290 Y41.8597
G01 X77.0083 Y41.8597
G01 X77.0354 Y41.8435
G01 X77.0755 Y41.8221
G01 X77.1341 Y41.7943
G01 X77.1761 Y41.7769
G01 X77.2371 Y41.7551
G01 X77.2806 Y41.7419
G01 X77.3435 Y41.7262
G01 X77.3881 Y41.7173
G01 X77.4522 Y41.7078
G01 X77.4975 Y41.7033
G01 X77.5622 Y41.7001
G01 X77.5849 Y41.6996
G01 X78.9057 Y41.6996
G01 X78.9285 Y41.7001
G01 X78.9932 Y41.7033
G01 X79.0385 Y41.7078
G01 X79.1026 Y41.7173
G01 X79.1472 Y41.7262
G01 X79.2100 Y41.7419
G01 X79.2536 Y41.7551
G01 X79.3146 Y41.7769
G01 X79.3566 Y41.7943
G01 X79.4152 Y41.8221
G01 X79.4553 Y41.8435
G01 X79.5109 Y41.8768
G01 X79.5487 Y41.9021
G01 X79.6007 Y41.9407
G01 X79.6359 Y41.9695
G01 X79.6839 Y42.0131
G01 X79.7161 Y42.0452
G01 X79.7596 Y42.0932
G01 X79.7884 Y42.1284
G01 X79.8217 Y42.1732
G01 X79.8217 Y41.2470
G01 X79.4824 Y41.2470
G01 X79.4553 Y41.2633
G01 X79.4152 Y41.2847
G01 X79.3566 Y41.3124
G01 X79.3146 Y41.3298
G01 X79.2536 Y41.3517
G01 X79.2100 Y41.3649
G01 X79.1472 Y41.3806
G01 X79.1026 Y41.3895
G01 X79.0385 Y41.3990
G01 X78.9932 Y41.4034
G01 X78.9285 Y41.4066
G01 X78.9057 Y41.4072
G01 X77.5849 Y41.4072
G01 X77.5622 Y41.4066
G01 X77.4975 Y41.4034
G01 X77.4522 Y41.3990
G01 X77.3881 Y41.3895
G01 X77.3435 Y41.3806
G01 X77.2806 Y41.3649
G01 X77.2371 Y41.3517
G01 X77.1761 Y41.3298
G01 X77.1341 Y41.3124
G01 X77.0755 Y41.2847
G01 X77.0354 Y41.2633
G01 X76.9798 Y41.2300
G01 X76.9420 Y41.2047
G01 X76.8899 Y41.1661
G01 X76.8548 Y41.1372
G01 X76.8068 Y41.0937
G01 X76.7746 Y41.0616
G01 X76.7311 Y41.0135
G01 X76.7022 Y40.9784
G01 X76.6636 Y40.9263
G01 X76.6384 Y40.8885
G01 X76.6050 Y40.8329
G01 X76.5836 Y40.7928
G01 X76.5559 Y40.7342
G01 X76.5385 Y40.6922
G01 X76.5167 Y40.6312
G01 X76.5035 Y40.5877
G01 X76.4877 Y40.5248
G01 X76.4788 Y40.4802
G01 X76.4693 Y40.4161
G01 X76.4649 Y40.3709
G01 X76.4617 Y40.3061
G01 X76.4617 Y40.2606
G01 X76.4649 Y40.1959
G01 X76.4693 Y40.1507
G01 X76.4788 Y40.0866
G01 X76.4877 Y40.0419
G01 X76.5035 Y39.9791
G01 X76.5167 Y39.9356
G01 X76.5385 Y39.8745
G01 X76.5559 Y39.8325
G01 X76.5836 Y39.7739
G01 X76.6050 Y39.7338
G01 X76.6384 Y39.6783
G01 X76.6636 Y39.6404
G01 X76.7022 Y39.5884
G01 X76.7311 Y39.5532
G01 X76.7746 Y39.5052
G01 X76.8068 Y39.4731
G01 X76.8548 Y39.4295
G01 X76.8899 Y39.4007
G01 X76.9420 Y39.3621
G01 X76.9798 Y39.3368
G01 X77.0354 Y39.3035
G01 X77.0755 Y39.2821
G01 X77.1341 Y39.2543
G01 X77.1761 Y39.2369
G01 X77.2371 Y39.2151
G01 X77.2806 Y39.2019
G01 X77.3435 Y39.1862
G01 X77.3881 Y39.1773
G01 X77.4522 Y39.1678
G01 X77.4975 Y39.1633
G01 X77.5622 Y39.1601
G01 X77.5849 Y39.1596
G01 X78.9057 Y39.1596
G01 X78.9285 Y39.1601
G01 X78.9932 Y39.1633
G01 X79.0385 Y39.1678
G01 X79.1026 Y39.1773
G01 X79.1472 Y39.1862
G01 X79.2100 Y39.2019
G01 X79.2536 Y39.2151
G01 X79.3146 Y39.2369
G01 X79.3566 Y39.2543
G01 X79.4152 Y39.2821
G01 X79.4553 Y39.3035
G01 X79.4824 Y39.3197
G01 X80.7853 Y39.3197
G01 X80.8081 Y39.3203
G01 X80.8571 Y39.3227
G01 X80.9024 Y39.3272
G01 X80.9509 Y39.3344
G01 X80.9955 Y39.3432
G01 X81.0431 Y39.3552
G01 X81.0867 Y39.3684
G01 X81.1329 Y39.3849
G01 X81.1749 Y39.4023
G01 X81.2193 Y39.4233
G01 X81.2594 Y39.4447
G01 X81.3015 Y39.4700
G01 X81.3393 Y39.4952
G01 X81.3787 Y39.5245
G01 X81.4139 Y39.5533
G01 X81.4503 Y39.5863
G01 X81.4824 Y39.6185
G01 X81.5154 Y39.6548
G01 X81.5442 Y39.6900
G01 X81.5735 Y39.7294
G01 X81.5988 Y39.7672
G01 X81.6240 Y39.8093
G01 X81.6361 Y39.8321
G01 X81.6636 Y39.7739
G01 X81.6850 Y39.7338
G01 X81.7184 Y39.6783
G01 X81.7436 Y39.6404
G01 X81.7822 Y39.5884
G01 X81.8111 Y39.5532
G01 X81.8546 Y39.5052
G01 X81.8868 Y39.4731
G01 X81.9348 Y39.4295
G01 X81.9699 Y39.4007
G01 X82.0220 Y39.3621
G01 X82.0598 Y39.3368
G01 X82.1154 Y39.3035
G01 X82.1555 Y39.2821
G01 X82.2141 Y39.2543
G01 X82.2561 Y39.2369
G01 X82.3171 Y39.2151
G01 X82.3617 Y39.2016
G01 X82.3617 Y35.9596
G01 X82.3196 Y35.9028
G01 X82.2943 Y35.8650
G01 X82.2558 Y35.8008
G01 X82.2344 Y35.7607
G01 X82.2024 Y35.6931
G01 X82.1850 Y35.6511
G01 X82.1598 Y35.5807
G01 X82.1466 Y35.5372
G01 X82.1285 Y35.4646
G01 X82.1196 Y35.4200
G01 X82.1086 Y35.3461
G01 X82.1042 Y35.3008
G01 X82.1005 Y35.2261
G01 X82.1005 Y35.1806
G01 X82.1042 Y35.1060
G01 X82.1086 Y35.0607
G01 X82.1196 Y34.9867
G01 X82.1285 Y34.9421
G01 X82.1466 Y34.8696
G01 X82.1598 Y34.8261
G01 X82.1850 Y34.7557
G01 X82.2024 Y34.7137
G01 X82.2344 Y34.6461
G01 X82.2558 Y34.6059
G01 X82.2943 Y34.5418
G01 X82.3196 Y34.5040
G01 X82.3641 Y34.4439
G01 X82.3930 Y34.4088
G01 X82.4432 Y34.3534
G01 X82.4753 Y34.3212
G01 X82.5307 Y34.2710
G01 X82.5659 Y34.2421
G01 X82.6259 Y34.1976
G01 X82.6638 Y34.1723
G01 X82.7279 Y34.1339
G01 X82.7680 Y34.1125
G01 X82.8356 Y34.0805
G01 X82.8776 Y34.0631
G01 X82.9480 Y34.0379
G01 X82.9915 Y34.0247
G01 X83.0641 Y34.0065
G01 X83.1087 Y33.9976
G01 X83.1827 Y33.9867
G01 X83.2279 Y33.9822
G01 X83.3026 Y33.9785
G01 X83.3481 Y33.9785
G01 X83.4228 Y33.9822
G01 X83.4680 Y33.9867
G01 X83.5420 Y33.9976
G01 X83.5866 Y34.0065
G01 X83.6591 Y34.0247
G01 X83.7026 Y34.0379
G01 X83.7731 Y34.0631
G01 X83.8151 Y34.0805
G01 X83.8827 Y34.1125
G01 X83.9228 Y34.1339
G01 X83.9869 Y34.1723
G01 X84.0247 Y34.1976
G01 X84.0848 Y34.2421
G01 X84.1199 Y34.2710
G01 X84.1754 Y34.3212
G01 X84.2075 Y34.3534
G01 X84.2577 Y34.4088
G01 X84.2866 Y34.4439
G01 X84.3311 Y34.5040
G01 X84.3564 Y34.5418
G01 X84.3948 Y34.6059
G01 X84.4163 Y34.6461
G01 X84.4482 Y34.7137
G01 X84.4656 Y34.7557
G01 X84.4908 Y34.8261
G01 X84.5040 Y34.8696
G01 X84.5222 Y34.9421
G01 X84.5311 Y34.9867
G01 X84.5421 Y35.0607
G01 X84.5465 Y35.1060
G01 X84.5502 Y35.1806
G01 X84.5502 Y35.2261
G01 X84.5465 Y35.3008
G01 X84.5421 Y35.3461
G01 X84.5311 Y35.4200
G01 X84.5222 Y35.4646
G01 X84.5040 Y35.5372
G01 X84.4908 Y35.5807
G01 X84.4656 Y35.6511
G01 X84.4482 Y35.6931
G01 X84.4163 Y35.7607
G01 X84.3948 Y35.8008
G01 X84.3564 Y35.8650
G01 X84.3311 Y35.9028
G01 X84.2890 Y35.9596
G01 X84.2890 Y39.2016
G01 X84.3336 Y39.2151
G01 X84.3946 Y39.2369
G01 X84.4366 Y39.2543
G01 X84.4952 Y39.2821
G01 X84.5353 Y39.3035
G01 X84.5909 Y39.3368
G01 X84.6287 Y39.3621
G01 X84.6807 Y39.4007
G01 X84.7159 Y39.4295
G01 X84.7639 Y39.4731
G01 X84.7961 Y39.5052
G01 X84.8396 Y39.5532
G01 X84.8684 Y39.5884
G01 X84.9017 Y39.6332
G01 X84.9017 Y33.6270
G01 X76.6690 Y33.6270
G01 X76.6690 Y34.4472
G01 X76.7111 Y34.5040
G01 X76.7364 Y34.5418
G01 X76.7748 Y34.6059
G01 X76.7963 Y34.6461
G01 X76.8282 Y34.7137
G01 X76.8456 Y34.7557
G01 X76.8708 Y34.8261
G01 X76.8840 Y34.8696
G01 X76.9022 Y34.9421
G01 X76.9111 Y34.9867
G01 X76.9221 Y35.0607
G01 X76.9265 Y35.1060
G01 X76.9302 Y35.1806
G01 X76.9302 Y35.2261
G01 X76.9265 Y35.3008
G01 X76.9221 Y35.3461
G01 X76.9111 Y35.4200
G01 X76.9022 Y35.4646
G01 X76.8840 Y35.5372
G01 X76.8708 Y35.5807
G01 X76.8456 Y35.6511
G01 X76.8282 Y35.6931
G01 X76.7963 Y35.7607
G01 X76.7748 Y35.8008
G01 X76.7364 Y35.8650
G01 X76.7111 Y35.9028
G01 X76.6666 Y35.9628
G01 X76.6377 Y35.9980
G01 X76.5875 Y36.0534
G01 X76.5554 Y36.0856
G01 X76.4999 Y36.1358
G01 X76.4648 Y36.1646
G01 X76.4047 Y36.2092
G01 X76.3669 Y36.2344
G01 X76.3028 Y36.2729
G01 X76.2627 Y36.2943
G01 X76.1951 Y36.3263
G01 X76.1531 Y36.3437
G01 X76.0826 Y36.3689
G01 X76.0391 Y36.3821
G01 X75.9666 Y36.4003
G01 X75.9220 Y36.4091
G01 X75.8480 Y36.4201
G01 X75.8028 Y36.4246
G01 X75.7281 Y36.4282
G01 X75.6826 Y36.4282
G01 X75.6079 Y36.4246
G01 X75.5627 Y36.4201
G01 X75.4887 Y36.4091
G01 X75.4441 Y36.4003
G01 X75.3715 Y36.3821
G01 X75.3280 Y36.3689
G01 X75.2576 Y36.3437
G01 X75.2156 Y36.3263
G01 X75.1480 Y36.2943
G01 X75.1079 Y36.2729
G01 X75.0438 Y36.2344
G01 X75.0059 Y36.2092
G01 X74.9459 Y36.1646
G01 X74.9107 Y36.1358
G01 X74.8553 Y36.0856
G01 X74.8232 Y36.0534
G01 X74.7730 Y35.9980
G01 X74.7441 Y35.9628
G01 X74.6996 Y35.9028
G01 X74.6743 Y35.8650
G01 X74.6358 Y35.8008
G01 X74.6144 Y35.7607
G01 X74.5824 Y35.6931
G01 X74.5650 Y35.6511
G01 X74.5398 Y35.5807
G01 X74.5266 Y35.5372
G01 X74.5085 Y35.4646
G01 X74.4996 Y35.4200
G01 X74.4886 Y35.3461
G01 X74.4842 Y35.3008
G01 X74.4805 Y35.2261
G01 X74.4805 Y35.1806
G01 X74.4842 Y35.1060
G01 X74.4886 Y35.0607
G01 X74.4996 Y34.9867
G01 X74.5085 Y34.9421
G01 X74.5266 Y34.8696
G01 X74.5398 Y34.8261
G01 X74.5650 Y34.7557
G01 X74.5824 Y34.7137
G01 X74.6144 Y34.6461
G01 X74.6358 Y34.6059
G01 X74.6743 Y34.5418
G01 X74.6996 Y34.5040
G01 X74.7417 Y34.4472
G01 X74.7417 Y32.6634
G01 X74.7423 Y32.6406
G01 X74.7447 Y32.5916
G01 X74.7491 Y32.5464
G01 X74.7563 Y32.4978
G01 X74.7652 Y32.4532
G01 X74.7771 Y32.4056
G01 X74.7903 Y32.3621
G01 X74.8069 Y32.3158
G01 X74.8243 Y32.2738
G01 X74.8453 Y32.2294
G01 X74.8667 Y32.1893
G01 X74.8919 Y32.1472
G01 X74.9172 Y32.1094
G01 X74.9464 Y32.0700
G01 X74.9753 Y32.0348
G01 X75.0083 Y31.9985
G01 X75.0404 Y31.9663
G01 X75.0768 Y31.9333
G01 X75.1119 Y31.9045
G01 X75.1514 Y31.8752
G01 X75.1892 Y31.8500
G01 X75.2313 Y31.8247
G01 X75.2714 Y31.8033
G01 X75.3158 Y31.7823
G01 X75.3578 Y31.7649
G01 X75.4040 Y31.7484
G01 X75.4475 Y31.7352
G01 X75.4951 Y31.7232
G01 X75.5398 Y31.7144
G01 X75.5883 Y31.7072
G01 X75.6336 Y31.7027
G01 X75.6826 Y31.7003
G01 X75.7053 Y31.6997
G01 X82.3617 Y31.6997
G01 X82.3617 Y30.8796
G01 X82.3196 Y30.8228
G01 X82.2943 Y30.7850
G01 X82.2558 Y30.7208
G01 X82.2344 Y30.6807
G01 X82.2024 Y30.6131
G01 X82.1850 Y30.5711
G01 X82.1598 Y30.5007
G01 X82.1466 Y30.4572
G01 X82.1285 Y30.3846
G01 X82.1196 Y30.3400
G01 X82.1086 Y30.2661
G01 X82.1042 Y30.2208
G01 X82.1005 Y30.1461
G01 X82.1005 Y30.1006
G01 X82.1042 Y30.0260
G01 X82.1086 Y29.9807
G01 X82.1196 Y29.9067
G01 X82.1285 Y29.8621
G01 X82.1466 Y29.7896
G01 X82.1598 Y29.7461
G01 X82.1850 Y29.6757
G01 X82.2024 Y29.6337
G01 X82.2344 Y29.5661
G01 X82.2558 Y29.5259
G01 X82.2943 Y29.4618
G01 X82.3196 Y29.4240
G01 X82.3641 Y29.3639
G01 X82.3930 Y29.3288
G01 X82.4432 Y29.2734
G01 X82.4753 Y29.2412
G01 X82.5307 Y29.1910
G01 X82.5659 Y29.1621
G01 X82.6259 Y29.1176
G01 X82.6638 Y29.0923
G01 X82.7279 Y29.0539
G01 X82.7680 Y29.0325
G01 X82.8356 Y29.0005
G01 X82.8776 Y28.9831
G01 X82.9480 Y28.9579
G01 X82.9915 Y28.9447
G01 X83.0641 Y28.9265
G01 X83.1087 Y28.9176
G01 X83.1827 Y28.9067
G01 X83.2279 Y28.9022
G01 X83.3026 Y28.8985
G01 X83.3481 Y28.8985
G01 X83.4228 Y28.9022
G01 X83.4680 Y28.9067
G01 X83.5420 Y28.9176
G01 X83.5866 Y28.9265
G01 X83.6591 Y28.9447
G01 X83.7026 Y28.9579
G01 X83.7731 Y28.9831
G01 X83.8151 Y29.0005
G01 X83.8827 Y29.0325
G01 X83.9228 Y29.0539
G01 X83.9869 Y29.0923
G01 X84.0247 Y29.1176
G01 X84.0848 Y29.1621
G01 X84.1199 Y29.1910
G01 X84.1754 Y29.2412
G01 X84.2075 Y29.2734
G01 X84.2577 Y29.3288
G01 X84.2866 Y29.3639
G01 X84.3311 Y29.4240
G01 X84.3564 Y29.4618
G01 X84.3948 Y29.5259
G01 X84.4163 Y29.5661
G01 X84.4482 Y29.6337
G01 X84.4656 Y29.6757
G01 X84.4908 Y29.7461
G01 X84.5040 Y29.7896
G01 X84.5222 Y29.8621
G01 X84.5311 Y29.9067
G01 X84.5421 Y29.9807
G01 X84.5465 Y30.0260
G01 X84.5502 Y30.1006
G01 X84.5502 Y30.1461
G01 X84.5465 Y30.2208
G01 X84.5421 Y30.2661
G01 X84.5311 Y30.3400
G01 X84.5222 Y30.3846
G01 X84.5040 Y30.4572
G01 X84.4908 Y30.5007
G01 X84.4656 Y30.5711
G01 X84.4482 Y30.6131
G01 X84.4163 Y30.6807
G01 X84.3948 Y30.7208
G01 X84.3564 Y30.7850
G01 X84.3311 Y30.8228
G01 X84.2890 Y30.8796
G01 X84.2890 Y31.6997
G01 X85.8653 Y31.6997
G01 X85.8881 Y31.7003
G01 X85.9371 Y31.7027
G01 X85.9824 Y31.7072
G01 X86.0309 Y31.7144
G01 X86.0755 Y31.7232
G01 X86.1231 Y31.7352
G01 X86.1667 Y31.7484
G01 X86.2129 Y31.7649
G01 X86.2549 Y31.7823
G01 X86.2993 Y31.8033
G01 X86.3394 Y31.8247
G01 X86.3815 Y31.8500
G01 X86.4193 Y31.8752
G01 X86.4587 Y31.9045
G01 X86.4939 Y31.9333
G01 X86.5303 Y31.9663
G01 X86.5624 Y31.9985
G01 X86.5954 Y32.0348
G01 X86.6242 Y32.0700
G01 X86.6535 Y32.1094
G01 X86.6788 Y32.1472
G01 X86.7040 Y32.1893
G01 X86.7254 Y32.2294
G01 X86.7464 Y32.2738
G01 X86.7638 Y32.3158
G01 X86.7804 Y32.3621
G01 X86.7936 Y32.4056
G01 X86.8055 Y32.4532
G01 X86.8144 Y32.4978
G01 X86.8216 Y32.5464
G01 X86.8260 Y32.5916
G01 X86.8284 Y32.6406
G01 X86.8290 Y32.6634
G01 X86.8290 Y41.8597
G01 X89.7083 Y41.8597
G01 X89.7354 Y41.8435
G01 X89.7755 Y41.8221
G01 X89.8341 Y41.7943
G01 X89.8761 Y41.7769
G01 X89.9371 Y41.7551
G01 X89.9806 Y41.7419
G01 X90.0435 Y41.7262
G01 X90.0881 Y41.7173
G01 X90.1522 Y41.7078
G01 X90.1975 Y41.7033
G01 X90.2622 Y41.7001
G01 X90.2849 Y41.6996
G01 X91.6057 Y41.6996
G01 X91.6285 Y41.7001
G01 X91.6932 Y41.7033
G01 X91.7385 Y41.7078
G01 X91.8026 Y41.7173
G01 X91.8472 Y41.7262
G01 X91.9100 Y41.7419
G01 X91.9536 Y41.7551
G01 X92.0146 Y41.7769
G01 X92.0566 Y41.7943
G01 X92.1152 Y41.8221
G01 X92.1553 Y41.8435
G01 X92.2109 Y41.8768
G01 X92.2487 Y41.9021
G01 X92.3007 Y41.9407
G01 X92.3359 Y41.9695
G01 X92.3839 Y42.0131
G01 X92.4161 Y42.0452
G01 X92.4596 Y42.0932
G01 X92.4884 Y42.1284
G01 X92.5217 Y42.1732
G01 X92.5217 Y41.2470
G01 X92.1824 Y41.2470
G01 X92.1553 Y41.2633
G01 X92.1152 Y41.2847
G01 X92.0566 Y41.3124
G01 X92.0146 Y41.3298
G01 X91.9536 Y41.3517
G01 X91.9100 Y41.3649
G01 X91.8472 Y41.3806
G01 X91.8026 Y41.3895
G01 X91.7385 Y41.3990
G01 X91.6932 Y41.4034
G01 X91.6285 Y41.4066
G01 X91.6057 Y41.4072
G01 X90.2849 Y41.4072
G01 X90.2622 Y41.4066
G01 X90.1975 Y41.4034
G01 X90.1522 Y41.3990
G01 X90.0881 Y41.3895
G01 X90.0435 Y41.3806
G01 X89.9806 Y41.3649
G01 X89.9371 Y41.3517
G01 X89.8761 Y41.3298
G01 X89.8341 Y41.3124
G01 X89.7755 Y41.2847
G01 X89.7354 Y41.2633
G01 X89.6798 Y41.2300
G01 X89.6420 Y41.2047
G01 X89.5899 Y41.1661
G01 X89.5548 Y41.1372
G01 X89.5068 Y41.0937
G01 X89.4746 Y41.0616
G01 X89.4311 Y41.0135
G01 X89.4022 Y40.9784
G01 X89.3636 Y40.9263
G01 X89.3384 Y40.8885
G01 X89.3050 Y40.8329
G01 X89.2836 Y40.7928
G01 X89.2559 Y40.7342
G01 X89.2385 Y40.6922
G01 X89.2167 Y40.6312
G01 X89.2035 Y40.5877
G01 X89.1877 Y40.5248
G01 X89.1788 Y40.4802
G01 X89.1693 Y40.4161
G01 X89.1649 Y40.3709
G01 X89.1617 Y40.3061
G01 X89.1617 Y40.2606
G01 X89.1649 Y40.1959
G01 X89.1693 Y40.1507
G01 X89.1788 Y40.0866
G01 X89.1877 Y40.0419
G01 X89.2035 Y39.9791
G01 X89.2167 Y39.9356
G01 X89.2385 Y39.8745
G01 X89.2559 Y39.8325
G01 X89.2836 Y39.7739
G01 X89.3050 Y39.7338
G01 X89.3384 Y39.6783
G01 X89.3636 Y39.6404
G01 X89.4022 Y39.5884
G01 X89.4311 Y39.5532
G01 X89.4746 Y39.5052
G01 X89.5068 Y39.4731
G01 X89.5548 Y39.4295
G01 X89.5899 Y39.4007
G01 X89.6420 Y39.3621
G01 X89.6798 Y39.3368
G01 X89.7354 Y39.3035
G01 X89.7755 Y39.2821
G01 X89.8341 Y39.2543
G01 X89.8761 Y39.2369
G01 X89.9371 Y39.2151
G01 X89.9806 Y39.2019
G01 X90.0435 Y39.1862
G01 X90.0881 Y39.1773
G01 X90.1522 Y39.1678
G01 X90.1975 Y39.1633
G01 X90.2622 Y39.1601
G01 X90.2849 Y39.1596
G01 X91.6057 Y39.1596
G01 X91.6285 Y39.1601
G01 X91.6932 Y39.1633
G01 X91.7385 Y39.1678
G01 X91.8026 Y39.1773
G01 X91.8472 Y39.1862
G01 X91.9100 Y39.2019
G01 X91.9536 Y39.2151
G01 X92.0146 Y39.2369
G01 X92.0566 Y39.2543
G01 X92.1152 Y39.2821
G01 X92.1553 Y39.3035
G01 X92.1824 Y39.3197
G01 X93.4853 Y39.3197
G01 X93.5081 Y39.3203
G01 X93.5571 Y39.3227
G01 X93.6024 Y39.3272
G01 X93.6509 Y39.3344
G01 X93.6955 Y39.3432
G01 X93.7431 Y39.3552
G01 X93.7867 Y39.3684
G01 X93.8329 Y39.3849
G01 X93.8749 Y39.4023
G01 X93.9193 Y39.4233
G01 X93.9594 Y39.4447
G01 X94.0015 Y39.4700
G01 X94.0393 Y39.4952
G01 X94.0787 Y39.5245
G01 X94.1139 Y39.5533
G01 X94.1503 Y39.5863
G01 X94.1824 Y39.6185
G01 X94.2154 Y39.6548
G01 X94.2442 Y39.6900
G01 X94.2735 Y39.7294
G01 X94.2988 Y39.7672
G01 X94.3240 Y39.8093
G01 X94.3361 Y39.8321
G01 X94.3636 Y39.7739
G01 X94.3850 Y39.7338
G01 X94.4184 Y39.6783
G01 X94.4436 Y39.6404
G01 X94.4822 Y39.5884
G01 X94.5111 Y39.5532
G01 X94.5546 Y39.5052
G01 X94.5868 Y39.4731
G01 X94.6348 Y39.4295
G01 X94.6699 Y39.4007
G01 X94.7220 Y39.3621
G01 X94.7598 Y39.3368
G01 X94.8154 Y39.3035
G01 X94.8555 Y39.2821
G01 X94.9141 Y39.2543
G01 X94.9561 Y39.2369
G01 X95.0171 Y39.2151
G01 X95.0617 Y39.2016
G01 X95.0617 Y35.9596
G01 X95.0196 Y35.9028
G01 X94.9943 Y35.8650
G01 X94.9558 Y35.8008
G01 X94.9344 Y35.7607
G01 X94.9024 Y35.6931
G01 X94.8850 Y35.6511
G01 X94.8598 Y35.5807
G01 X94.8466 Y35.5372
G01 X94.8285 Y35.4646
G01 X94.8196 Y35.4200
G01 X94.8086 Y35.3461
G01 X94.8042 Y35.3008
G01 X94.8005 Y35.2261
G01 X94.8005 Y35.1806
G01 X94.8042 Y35.1060
G01 X94.8086 Y35.0607
G01 X94.8196 Y34.9867
G01 X94.8285 Y34.9421
G01 X94.8466 Y34.8696
G01 X94.8598 Y34.8261
G01 X94.8850 Y34.7557
G01 X94.9024 Y34.7137
G01 X94.9344 Y34.6461
G01 X94.9558 Y34.6059
G01 X94.9943 Y34.5418
G01 X95.0196 Y34.5040
G01 X95.0641 Y34.4439
G01 X95.0930 Y34.4088
G01 X95.1432 Y34.3534
G01 X95.1753 Y34.3212
G01 X95.2307 Y34.2710
G01 X95.2659 Y34.2421
G01 X95.3259 Y34.1976
G01 X95.3638 Y34.1723
G01 X95.4279 Y34.1339
G01 X95.4680 Y34.1125
G01 X95.5356 Y34.0805
G01 X95.5776 Y34.0631
G01 X95.6480 Y34.0379
G01 X95.6915 Y34.0247
G01 X95.7641 Y34.0065
G01 X95.8087 Y33.9976
G01 X95.8827 Y33.9867
G01 X95.9279 Y33.9822
G01 X96.0026 Y33.9785
G01 X96.0481 Y33.9785
G01 X96.1228 Y33.9822
G01 X96.1680 Y33.9867
G01 X96.2420 Y33.9976
G01 X96.2866 Y34.0065
G01 X96.3591 Y34.0247
G01 X96.4026 Y34.0379
G01 X96.4731 Y34.0631
G01 X96.5151 Y34.0805
G01 X96.5827 Y34.1125
G01 X96.6228 Y34.1339
G01 X96.6869 Y34.1723
G01 X96.7247 Y34.1976
G01 X96.7848 Y34.2421
G01 X96.8199 Y34.2710
G01 X96.8754 Y34.3212
G01 X96.9075 Y34.3534
G01 X96.9577 Y34.4088
G01 X96.9866 Y34.4439
G01 X97.0311 Y34.5040
G01 X97.0564 Y34.5418
G01 X97.0948 Y34.6059
G01 X97.1163 Y34.6461
G01 X97.1482 Y34.7137
G01 X97.1656 Y34.7557
G01 X97.1908 Y34.8261
G01 X97.2040 Y34.8696
G01 X97.2222 Y34.9421
G01 X97.2311 Y34.9867
G01 X97.2421 Y35.0607
G01 X97.2465 Y35.1060
G01 X97.2502 Y35.1806
G01 X97.2502 Y35.2261
G01 X97.2465 Y35.3008
G01 X97.2421 Y35.3461
G01 X97.2311 Y35.4200
G01 X97.2222 Y35.4646
G01 X97.2040 Y35.5372
G01 X97.1908 Y35.5807
G01 X97.1656 Y35.6511
G01 X97.1482 Y35.6931
G01 X97.1163 Y35.7607
G01 X97.0948 Y35.8008
G01 X97.0564 Y35.8650
G01 X97.0311 Y35.9028
G01 X96.9890 Y35.9596
G01 X96.9890 Y39.2016
G01 X97.0336 Y39.2151
G01 X97.0946 Y39.2369
G01 X97.1366 Y39.2543
G01 X97.1952 Y39.2821
G01 X97.2353 Y39.3035
G01 X97.2909 Y39.3368
G01 X97.3287 Y39.3621
G01 X97.3807 Y39.4007
G01 X97.4159 Y39.4295
G01 X97.4639 Y39.4731
G01 X97.4961 Y39.5052
G01 X97.5396 Y39.5532
G01 X97.5684 Y39.5884
G01 X97.6017 Y39.6332
G01 X97.6017 Y33.6270
G01 X89.3690 Y33.6270
G01 X89.3690 Y34.4472
G01 X89.4111 Y34.5040
G01 X89.4364 Y34.5418
G01 X89.4748 Y34.6059
G01 X89.4963 Y34.6461
G01 X89.5282 Y34.7137
G01 X89.5456 Y34.7557
G01 X89.5708 Y34.8261
G01 X89.5840 Y34.8696
G01 X89.6022 Y34.9421
G01 X89.6111 Y34.9867
G01 X89.6221 Y35.0607
G01 X89.6265 Y35.1060
G01 X89.6302 Y35.1806
G01 X89.6302 Y35.2261
G01 X89.6265 Y35.3008
G01 X89.6221 Y35.3461
G01 X89.6111 Y35.4200
G01 X89.6022 Y35.4646
G01 X89.5840 Y35.5372
G01 X89.5708 Y35.5807
G01 X89.5456 Y35.6511
G01 X89.5282 Y35.6931
G01 X89.4963 Y35.7607
G01 X89.4748 Y35.8008
G01 X89.4364 Y35.8650
G01 X89.4111 Y35.9028
G01 X89.3666 Y35.9628
G01 X89.3377 Y35.9980
G01 X89.2875 Y36.0534
G01 X89.2554 Y36.0856
G01 X89.1999 Y36.1358
G01 X89.1648 Y36.1646
G01 X89.1047 Y36.2092
G01 X89.0669 Y36.2344
G01 X89.0028 Y36.2729
G01 X88.9627 Y36.2943
G01 X88.8951 Y36.3263
G01 X88.8531 Y36.3437
G01 X88.7826 Y36.3689
G01 X88.7391 Y36.3821
G01 X88.6666 Y36.4003
G01 X88.6220 Y36.4091
G01 X88.5480 Y36.4201
G01 X88.5028 Y36.4246
G01 X88.4281 Y36.4282
G01 X88.3826 Y36.4282
G01 X88.3079 Y36.4246
G01 X88.2627 Y36.4201
G01 X88.1887 Y36.4091
G01 X88.1441 Y36.4003
G01 X88.0715 Y36.3821
G01 X88.0280 Y36.3689
G01 X87.9576 Y36.3437
G01 X87.9156 Y36.3263
G01 X87.8480 Y36.2943
G01 X87.8079 Y36.2729
G01 X87.7438 Y36.2344
G01 X87.7059 Y36.2092
G01 X87.6459 Y36.1646
G01 X87.6107 Y36.1358
G01 X87.5553 Y36.0856
G01 X87.5232 Y36.0534
G01 X87.4730 Y35.9980
G01 X87.4441 Y35.9628
G01 X87.3996 Y35.9028
G01 X87.3743 Y35.8650
G01 X87.3358 Y35.8008
G01 X87.3144 Y35.7607
G01 X87.2824 Y35.6931
G01 X87.2650 Y35.6511
G01 X87.2398 Y35.5807
G01 X87.2266 Y35.5372
G01 X87.2085 Y35.4646
G01 X87.1996 Y35.4200
G01 X87.1886 Y35.3461
G01 X87.1842 Y35.3008
G01 X87.1805 Y35.2261
G01 X87.1805 Y35.1806
G01 X87.1842 Y35.1060
G01 X87.1886 Y35.0607
G01 X87.1996 Y34.9867
G01 X87.2085 Y34.9421
G01 X87.2266 Y34.8696
G01 X87.2398 Y34.8261
G01 X87.2650 Y34.7557
G01 X87.2824 Y34.7137
G01 X87.3144 Y34.6461
G01 X87.3358 Y34.6059
G01 X87.3743 Y34.5418
G01 X87.3996 Y34.5040
G01 X87.4417 Y34.4472
G01 X87.4417 Y32.6634
G01 X87.4423 Y32.6406
G01 X87.4447 Y32.5916
G01 X87.4491 Y32.5464
G01 X87.4563 Y32.4978
G01 X87.4652 Y32.4532
G01 X87.4771 Y32.4056
G01 X87.4903 Y32.3621
G01 X87.5069 Y32.3158
G01 X87.5243 Y32.2738
G01 X87.5453 Y32.2294
G01 X87.5667 Y32.1893
G01 X87.5919 Y32.1472
G01 X87.6172 Y32.1094
G01 X87.6464 Y32.0700
G01 X87.6753 Y32.0348
G01 X87.7083 Y31.9985
G01 X87.7404 Y31.9663
G01 X87.7768 Y31.9333
G01 X87.8119 Y31.9045
G01 X87.8514 Y31.8752
G01 X87.8892 Y31.8500
G01 X87.9313 Y31.8247
G01 X87.9714 Y31.8033
G01 X88.0158 Y31.7823
G01 X88.0578 Y31.7649
G01 X88.1040 Y31.7484
G01 X88.1475 Y31.7352
G01 X88.1951 Y31.7232
G01 X88.2398 Y31.7144
G01 X88.2883 Y31.7072
G01 X88.3336 Y31.7027
G01 X88.3826 Y31.7003
G01 X88.4053 Y31.6997
G01 X95.0617 Y31.6997
G01 X95.0617 Y30.8796
G01 X95.0196 Y30.8228
G01 X94.9943 Y30.7850
G01 X94.9558 Y30.7208
G01 X94.9344 Y30.6807
G01 X94.9024 Y30.6131
G01 X94.8850 Y30.5711
G01 X94.8598 Y30.5007
G01 X94.8466 Y30.4572
G01 X94.8285 Y30.3846
G01 X94.8196 Y30.3400
G01 X94.8086 Y30.2661
G01 X94.8042 Y30.2208
G01 X94.8005 Y30.1461
G01 X94.8005 Y30.1006
G01 X94.8042 Y30.0260
G01 X94.8086 Y29.9807
G01 X94.8196 Y29.9067
G01 X94.8285 Y29.8621
G01 X94.8466 Y29.7896
G01 X94.8598 Y29.7461
G01 X94.8850 Y29.6757
G01 X94.9024 Y29.6337
G01 X94.9344 Y29.5661
G01 X94.9558 Y29.5259
G01 X94.9943 Y29.4618
G01 X95.0196 Y29.4240
G01 X95.0641 Y29.3639
G01 X95.0930 Y29.3288
G01 X95.1432 Y29.2734
G01 X95.1753 Y29.2412
G01 X95.2307 Y29.1910
G01 X95.2659 Y29.1621
G01 X95.3259 Y29.1176
G01 X95.3638 Y29.0923
G01 X95.4279 Y29.0539
G01 X95.4680 Y29.0325
G01 X95.5356 Y29.0005
G01 X95.5776 Y28.9831
G01 X95.6480 Y28.9579
G01 X95.6915 Y28.9447
G01 X95.7641 Y28.9265
G01 X95.8087 Y28.9176
G01 X95.8827 Y28.9067
G01 X95.9279 Y28.9022
G01 X96.0026 Y28.8985
G01 X96.0481 Y28.8985
G01 X96.1228 Y28.9022
G01 X96.1680 Y28.9067
G01 X96.2420 Y28.9176
G01 X96.2866 Y28.9265
G01 X96.3591 Y28.9447
G01 X96.4026 Y28.9579
G01 X96.4731 Y28.9831
G01 X96.5151 Y29.0005
G01 X96.5827 Y29.0325
G01 X96.6228 Y29.0539
G01 X96.6869 Y29.0923
G01 X96.7247 Y29.1176
G01 X96.7848 Y29.1621
G01 X96.8199 Y29.1910
G01 X96.8754 Y29.2412
G01 X96.9075 Y29.2734
G01 X96.9577 Y29.3288
G01 X96.9866 Y29.3639
G01 X97.0311 Y29.4240
G01 X97.0564 Y29.4618
G01 X97.0948 Y29.5259
G01 X97.1163 Y29.5661
G01 X97.1482 Y29.6337
G01 X97.1656 Y29.6757
G01 X97.1908 Y29.7461
G01 X97.2040 Y29.7896
G01 X97.2222 Y29.8621
G01 X97.2311 Y29.9067
G01 X97.2421 Y29.9807
G01 X97.2465 Y30.0260
G01 X97.2502 Y30.1006
G01 X97.2502 Y30.1461
G01 X97.2465 Y30.2208
G01 X97.2421 Y30.2661
G01 X97.2311 Y30.3400
G01 X97.2222 Y30.3846
G01 X97.2040 Y30.4572
G01 X97.1908 Y30.5007
G01 X97.1656 Y30.5711
G01 X97.1482 Y30.6131
G01 X97.1163 Y30.6807
G01 X97.0948 Y30.7208
G01 X97.0564 Y30.7850
G01 X97.0311 Y30.8228
G01 X96.9890 Y30.8796
G01 X96.9890 Y31.6997
G01 X98.5653 Y31.6997
G01 X98.5881 Y31.7003
G01 X98.6371 Y31.7027
G01 X98.6824 Y31.7072
G01 X98.7309 Y31.7144
G01 X98.7755 Y31.7232
G01 X98.8231 Y31.7352
G01 X98.8667 Y31.7484
G01 X98.9129 Y31.7649
G01 X98.9549 Y31.7823
G01 X98.9993 Y31.8033
G01 X99.0394 Y31.8247
G01 X99.0815 Y31.8500
G01 X99.1193 Y31.8752
G01 X99.1587 Y31.9045
G01 X99.1939 Y31.9333
G01 X99.2303 Y31.9663
G01 X99.2624 Y31.9985
G01 X99.2954 Y32.0348
G01 X99.3242 Y32.0700
G01 X99.3535 Y32.1094
G01 X99.3788 Y32.1472
G01 X99.4040 Y32.1893
G01 X99.4254 Y32.2294
G01 X99.4464 Y32.2738
G01 X99.4638 Y32.3158
G01 X99.4804 Y32.3621
G01 X99.4936 Y32.4056
G01 X99.5055 Y32.4532
G01 X99.5144 Y32.4978
G01 X99.5216 Y32.5464
G01 X99.5260 Y32.5916
G01 X99.5284 Y32.6406
G01 X99.5290 Y32.6634
G01 X99.5290 Y41.8597
G01 X102.4083 Y41.8597
G01 X102.4354 Y41.8435
G01 X102.4755 Y41.8221
G01 X102.5341 Y41.7943
G01 X102.5761 Y41.7769
G01 X102.6371 Y41.7551
G01 X102.6806 Y41.7419
G01 X102.7435 Y41.7262
G01 X102.7881 Y41.7173
G01 X102.8522 Y41.7078
G01 X102.8975 Y41.7033
G01 X102.9622 Y41.7001
G01 X102.9849 Y41.6996
G01 X104.3057 Y41.6996
G01 X104.3285 Y41.7001
G01 X104.3932 Y41.7033
G01 X104.4385 Y41.7078
G01 X104.5026 Y41.7173
G01 X104.5472 Y41.7262
G01 X104.6100 Y41.7419
G01 X104.6536 Y41.7551
G01 X104.7146 Y41.7769
G01 X104.7566 Y41.7943
G01 X104.8152 Y41.8221
G01 X104.8553 Y41.8435
G01 X104.9109 Y41.8768
G01 X104.9487 Y41.9021
G01 X105.0007 Y41.9407
G01 X105.0359 Y41.9695
G01 X105.0839 Y42.0131
G01 X105.1161 Y42.0452
G01 X105.1596 Y42.0932
G01 X105.1884 Y42.1284
G01 X105.2217 Y42.1732
G01 X105.2217 Y41.2470
G01 X104.8824 Y41.2470
G01 X104.8553 Y41.2633
G01 X104.8152 Y41.2847
G01 X104.7566 Y41.3124
G01 X104.7146 Y41.3298
G01 X104.6536 Y41.3517
G01 X104.6100 Y41.3649
G01 X104.5472 Y41.3806
G01 X104.5026 Y41.3895
G01 X104.4385 Y41.3990
G01 X104.3932 Y41.4034
G01 X104.3285 Y41.4066
G01 X104.3057 Y41.4072
G01 X102.9849 Y41.4072
G01 X102.9622 Y41.4066
G01 X102.8975 Y41.4034
G01 X102.8522 Y41.3990
G01 X102.7881 Y41.3895
G01 X102.7435 Y41.3806
G01 X102.6806 Y41.3649
G01 X102.6371 Y41.3517
G01 X102.5761 Y41.3298
G01 X102.5341 Y41.3124
G01 X102.4755 Y41.2847
G01 X102.4354 Y41.2633
G01 X102.3798 Y41.2300
G01 X102.3420 Y41.2047
G01 X102.2899 Y41.1661
G01 X102.2548 Y41.1372
G01 X102.2068 Y41.0937
G01 X102.1746 Y41.0616
G01 X102.1311 Y41.0135
G01 X102.1022 Y40.9784
G01 X102.0636 Y40.9263
G01 X102.0384 Y40.8885
G01 X102.0050 Y40.8329
G01 X101.9836 Y40.7928
G01 X101.9559 Y40.7342
G01 X101.9385 Y40.6922
G01 X101.9167 Y40.6312
G01 X101.9035 Y40.5877
G01 X101.8877 Y40.5248
G01 X101.8788 Y40.4802
G01 X101.8693 Y40.4161
G01 X101.8649 Y40.3709
G01 X101.8617 Y40.3061
G01 X101.8617 Y40.2606
G01 X101.8649 Y40.1959
G01 X101.8693 Y40.1507
G01 X101.8788 Y40.0866
G01 X101.8877 Y40.0419
G01 X101.9035 Y39.9791
G01 X101.9167 Y39.9356
G01 X101.9385 Y39.8745
G01 X101.9559 Y39.8325
G01 X101.9836 Y39.7739
G01 X102.0050 Y39.7338
G01 X102.0384 Y39.6783
G01 X102.0636 Y39.6404
G01 X102.1022 Y39.5884
G01 X102.1311 Y39.5532
G01 X102.1746 Y39.5052
G01 X102.2068 Y39.4731
G01 X102.2548 Y39.4295
G01 X102.2899 Y39.4007
G01 X102.3420 Y39.3621
G01 X102.3798 Y39.3368
G01 X102.4354 Y39.3035
G01 X102.4755 Y39.2821
G01 X102.5341 Y39.2543
G01 X102.5761 Y39.2369
G01 X102.6371 Y39.2151
G01 X102.6806 Y39.2019
G01 X102.7435 Y39.1862
G01 X102.7881 Y39.1773
G01 X102.8522 Y39.1678
G01 X102.8975 Y39.1633
G01 X102.9622 Y39.1601
G01 X102.9849 Y39.1596
G01 X104.3057 Y39.1596
G01 X104.3285 Y39.1601
G01 X104.3932 Y39.1633
G01 X104.4385 Y39.1678
G01 X104.5026 Y39.1773
G01 X104.5472 Y39.1862
G01 X104.6100 Y39.2019
G01 X104.6536 Y39.2151
G01 X104.7146 Y39.2369
G01 X104.7566 Y39.2543
G01 X104.8152 Y39.2821
G01 X104.8553 Y39.3035
G01 X104.8824 Y39.3197
G01 X106.1853 Y39.3197
G01 X106.2081 Y39.3203
G01 X106.2571 Y39.3227
G01 X106.3024 Y39.3272
G01 X106.3509 Y39.3344
G01 X106.3955 Y39.3432
G01 X106.4431 Y39.3552
G01 X106.4867 Y39.3684
G01 X106.5329 Y39.3849
G01 X106.5749 Y39.4023
G01 X106.6193 Y39.4233
G01 X106.6594 Y39.4447
G01 X106.7015 Y39.4700
G01 X106.7393 Y39.4952
G01 X106.7787 Y39.5245
G01 X106.8139 Y39.5533
G01 X106.8503 Y39.5863
G01 X106.8824 Y39.6185
G01 X106.9154 Y39.6548
G01 X106.9442 Y39.6900
G01 X106.9735 Y39.7294
G01 X106.9988 Y39.7672
G01 X107.0240 Y39.8093
G01 X107.0361 Y39.8321
G01 X107.0636 Y39.7739
G01 X107.0850 Y39.7338
G01 X107.1184 Y39.6783
G01 X107.1436 Y39.6404
G01 X107.1822 Y39.5884
G01 X107.2111 Y39.5532
G01 X107.2546 Y39.5052
G01 X107.2868 Y39.4731
G01 X107.3348 Y39.4295
G01 X107.3699 Y39.4007
G01 X107.4220 Y39.3621
G01 X107.4598 Y39.3368
G01 X107.5154 Y39.3035
G01 X107.5555 Y39.2821
G01 X107.6141 Y39.2543
G01 X107.6561 Y39.2369
G01 X107.7171 Y39.2151
G01 X107.7617 Y39.2016
G01 X107.7617 Y35.9596
G01 X107.7196 Y35.9028
G01 X107.6943 Y35.8650
G01 X107.6558 Y35.8008
G01 X107.6344 Y35.7607
G01 X107.6024 Y35.6931
G01 X107.5850 Y35.6511
G01 X107.5598 Y35.5807
G01 X107.5466 Y35.5372
G01 X107.5285 Y35.4646
G01 X107.5196 Y35.4200
G01 X107.5086 Y35.3461
G01 X107.5042 Y35.3008
G01 X107.5005 Y35.2261
G01 X107.5005 Y35.1806
G01 X107.5042 Y35.1060
G01 X107.5086 Y35.0607
G01 X107.5196 Y34.9867
G01 X107.5285 Y34.9421
G01 X107.5466 Y34.8696
G01 X107.5598 Y34.8261
G01 X107.5850 Y34.7557
G01 X107.6024 Y34.7137
G01 X107.6344 Y34.6461
G01 X107.6558 Y34.6059
G01 X107.6943 Y34.5418
G01 X107.7196 Y34.5040
G01 X107.7641 Y34.4439
G01 X107.7930 Y34.4088
G01 X107.8432 Y34.3534
G01 X107.8753 Y34.3212
G01 X107.9307 Y34.2710
G01 X107.9659 Y34.2421
G01 X108.0259 Y34.1976
G01 X108.0638 Y34.1723
G01 X108.1279 Y34.1339
G01 X108.1680 Y34.1125
G01 X108.2356 Y34.0805
G01 X108.2776 Y34.0631
G01 X108.3480 Y34.0379
G01 X108.3915 Y34.0247
G01 X108.4641 Y34.0065
G01 X108.5087 Y33.9976
G01 X108.5827 Y33.9867
G01 X108.6279 Y33.9822
G01 X108.7026 Y33.9785
G01 X108.7481 Y33.9785
G01 X108.8228 Y33.9822
G01 X108.8680 Y33.9867
G01 X108.9420 Y33.9976
G01 X108.9866 Y34.0065
G01 X109.0591 Y34.0247
G01 X109.1026 Y34.0379
G01 X109.1731 Y34.0631
G01 X109.2151 Y34.0805
G01 X109.2827 Y34.1125
G01 X109.3228 Y34.1339
G01 X109.3869 Y34.1723
G01 X109.4247 Y34.1976
G01 X109.4848 Y34.2421
G01 X109.5199 Y34.2710
G01 X109.5754 Y34.3212
G01 X109.6075 Y34.3534
G01 X109.6577 Y34.4088
G01 X109.6866 Y34.4439
G01 X109.7311 Y34.5040
G01 X109.7564 Y34.5418
G01 X109.7948 Y34.6059
G01 X109.8163 Y34.6461
G01 X109.8482 Y34.7137
G01 X109.8656 Y34.7557
G01 X109.8908 Y34.8261
G01 X109.9040 Y34.8696
G01 X109.9222 Y34.9421
G01 X109.9311 Y34.9867
G01 X109.9421 Y35.0607
G01 X109.9465 Y35.1060
G01 X109.9502 Y35.1806
G01 X109.9502 Y35.2261
G01 X109.9465 Y35.3008
G01 X109.9421 Y35.3461
G01 X109.9311 Y35.4200
G01 X109.9222 Y35.4646
G01 X109.9040 Y35.5372
G01 X109.8908 Y35.5807
G01 X109.8656 Y35.6511
G01 X109.8482 Y35.6931
G01 X109.8163 Y35.7607
G01 X109.7948 Y35.8008
G01 X109.7564 Y35.8650
G01 X109.7311 Y35.9028
G01 X109.6890 Y35.9596
G01 X109.6890 Y39.2016
G01 X109.7336 Y39.2151
G01 X109.7946 Y39.2369
G01 X109.8366 Y39.2543
G01 X109.8952 Y39.2821
G01 X109.9353 Y39.3035
G01 X109.9909 Y39.3368
G01 X110.0287 Y39.3621
G01 X110.0807 Y39.4007
G01 X110.1159 Y39.4295
G01 X110.1639 Y39.4731
G01 X110.1961 Y39.5052
G01 X110.2396 Y39.5532
G01 X110.2684 Y39.5884
G01 X110.3017 Y39.6332
G01 X110.3017 Y33.6270
G01 X102.0690 Y33.6270
G01 X102.0690 Y34.4472
G01 X102.1111 Y34.5040
G01 X102.1364 Y34.5418
G01 X102.1748 Y34.6059
G01 X102.1963 Y34.6461
G01 X102.2282 Y34.7137
G01 X102.2456 Y34.7557
G01 X102.2708 Y34.8261
G01 X102.2840 Y34.8696
G01 X102.3022 Y34.9421
G01 X102.3111 Y34.9867
G01 X102.3221 Y35.0607
G01 X102.3265 Y35.1060
G01 X102.3302 Y35.1806
G01 X102.3302 Y35.2261
G01 X102.3265 Y35.3008
G01 X102.3221 Y35.3461
G01 X102.3111 Y35.4200
G01 X102.3022 Y35.4646
G01 X102.2840 Y35.5372
G01 X102.2708 Y35.5807
G01 X102.2456 Y35.6511
G01 X102.2282 Y35.6931
G01 X102.1963 Y35.7607
G01 X102.1748 Y35.8008
G01 X102.1364 Y35.8650
G01 X102.1111 Y35.9028
G01 X102.0666 Y35.9628
G01 X102.0377 Y35.9980
G01 X101.9875 Y36.0534
G01 X101.9554 Y36.0856
G01 X101.8999 Y36.1358
G01 X101.8648 Y36.1646
G01 X101.8047 Y36.2092
G01 X101.7669 Y36.2344
G01 X101.7028 Y36.2729
G01 X101.6627 Y36.2943
G01 X101.5951 Y36.3263
G01 X101.5531 Y36.3437
G01 X101.4826 Y36.3689
G01 X101.4391 Y36.3821
G01 X101.3666 Y36.4003
G01 X101.3220 Y36.4091
G01 X101.2480 Y36.4201
G01 X101.2028 Y36.4246
G01 X101.1281 Y36.4282
G01 X101.0826 Y36.4282
G01 X101.0079 Y36.4246
G01 X100.9627 Y36.4201
G01 X100.8887 Y36.4091
G01 X100.8441 Y36.4003
G01 X100.7715 Y36.3821
G01 X100.7280 Y36.3689
G01 X100.6576 Y36.3437
G01 X100.6156 Y36.3263
G01 X100.5480 Y36.2943
G01 X100.5079 Y36.2729
G01 X100.4438 Y36.2344
G01 X100.4059 Y36.2092
G01 X100.3459 Y36.1646
G01 X100.3107 Y36.1358
G01 X100.2553 Y36.0856
G01 X100.2232 Y36.0534
G01 X100.1730 Y35.9980
G01 X100.1441 Y35.9628
G01 X100.0996 Y35.9028
G01 X100.0743 Y35.8650
G01 X100.0358 Y35.8008
G01 X100.0144 Y35.7607
G01 X99.9824 Y35.6931
G01 X99.9650 Y35.6511
G01 X99.9398 Y35.5807
G01 X99.9266 Y35.5372
G01 X99.9085 Y35.4646
G01 X99.8996 Y35.4200
G01 X99.8886 Y35.3461
G01 X99.8842 Y35.3008
G01 X99.8805 Y35.2261
G01 X99.8805 Y35.1806
G01 X99.8842 Y35.1060
G01 X99.8886 Y35.0607
G01 X99.8996 Y34.9867
G01 X99.9085 Y34.9421
G01 X99.9266 Y34.8696
G01 X99.9398 Y34.8261
G01 X99.9650 Y34.7557
G01 X99.9824 Y34.7137
G01 X100.0144 Y34.6461
G01 X100.0358 Y34.6059
G01 X100.0743 Y34.5418
G01 X100.0996 Y34.5040
G01 X100.1417 Y34.4472
G01 X100.1417 Y32.6634
G01 X100.1423 Y32.6406
G01 X100.1447 Y32.5916
G01 X100.1491 Y32.5464
G01 X100.1563 Y32.4978
G01 X100.1652 Y32.4532
G01 X100.1771 Y32.4056
G01 X100.1903 Y32.3621
G01 X100.2069 Y32.3158
G01 X100.2243 Y32.2738
G01 X100.2453 Y32.2294
G01 X100.2667 Y32.1893
G01 X100.2919 Y32.1472
G01 X100.3172 Y32.1094
G01 X100.3464 Y32.0700
G01 X100.3753 Y32.0348
G01 X100.4083 Y31.9985
G01 X100.4404 Y31.9663
G01 X100.4768 Y31.9333
G01 X100.5119 Y31.9045
G01 X100.5514 Y31.8752
G01 X100.5892 Y31.8500
G01 X100.6313 Y31.8247
G01 X100.6714 Y31.8033
G01 X100.7158 Y31.7823
G01 X100.7578 Y31.7649
G01 X100.8040 Y31.7484
G01 X100.8475 Y31.7352
G01 X100.8951 Y31.7232
G01 X100.9398 Y31.7144
G01 X100.9883 Y31.7072
G01 X101.0336 Y31.7027
G01 X101.0826 Y31.7003
G01 X101.1053 Y31.6997
G01 X107.7617 Y31.6997
G01 X107.7617 Y30.8796
G01 X107.7196 Y30.8228
G01 X107.6943 Y30.7850
G01 X107.6558 Y30.7208
G01 X107.6344 Y30.6807
G01 X107.6024 Y30.6131
G01 X107.5850 Y30.5711
G01 X107.5598 Y30.5007
G01 X107.5466 Y30.4572
G01 X107.5285 Y30.3846
G01 X107.5196 Y30.3400
G01 X107.5086 Y30.2661
G01 X107.5042 Y30.2208
G01 X107.5005 Y30.1461
G01 X107.5005 Y30.1006
G01 X107.5042 Y30.0260
G01 X107.5086 Y29.9807
G01 X107.5196 Y29.9067
G01 X107.5285 Y29.8621
G01 X107.5466 Y29.7896
G01 X107.5598 Y29.7461
G01 X107.5850 Y29.6757
G01 X107.6024 Y29.6337
G01 X107.6344 Y29.5661
G01 X107.6558 Y29.5259
G01 X107.6943 Y29.4618
G01 X107.7196 Y29.4240
G01 X107.7641 Y29.3639
G01 X107.7930 Y29.3288
G01 X107.8432 Y29.2734
G01 X107.8753 Y29.2412
G01 X107.9307 Y29.1910
G01 X107.9659 Y29.1621
G01 X108.0259 Y29.1176
G01 X108.0638 Y29.0923
G01 X108.1279 Y29.0539
G01 X108.1680 Y29.0325
G01 X108.2356 Y29.0005
G01 X108.2776 Y28.9831
G01 X108.3480 Y28.9579
G01 X108.3915 Y28.9447
G01 X108.4641 Y28.9265
G01 X108.5087 Y28.9176
G01 X108.5827 Y28.9067
G01 X108.6279 Y28.9022
G01 X108.7026 Y28.8985
G01 X108.7481 Y28.8985
G01 X108.8228 Y28.9022
G01 X108.8680 Y28.9067
G01 X108.9420 Y28.9176
G01 X108.9866 Y28.9265
G01 X109.0591 Y28.9447
G01 X109.1026 Y28.9579
G01 X109.1731 Y28.9831
G01 X109.2151 Y29.0005
G01 X109.2827 Y29.0325
G01 X109.3228 Y29.0539
G01 X109.3869 Y29.0923
G01 X109.4247 Y29.1176
G01 X109.4848 Y29.1621
G01 X109.5199 Y29.1910
G01 X109.5754 Y29.2412
G01 X109.6075 Y29.2734
G01 X109.6577 Y29.3288
G01 X109.6866 Y29.3639
G01 X109.7311 Y29.4240
G01 X109.7564 Y29.4618
G01 X109.7948 Y29.5259
G01 X109.8163 Y29.5661
G01 X109.8482 Y29.6337
G01 X109.8656 Y29.6757
G01 X109.8908 Y29.7461
G01 X109.9040 Y29.7896
G01 X109.9222 Y29.8621
G01 X109.9311 Y29.9067
G01 X109.9421 Y29.9807
G01 X109.9465 Y30.0260
G01 X109.9502 Y30.1006
G01 X109.9502 Y30.1461
G01 X109.9465 Y30.2208
G01 X109.9421 Y30.2661
G01 X109.9311 Y30.3400
G01 X109.9222 Y30.3846
G01 X109.9040 Y30.4572
G01 X109.8908 Y30.5007
G01 X109.8656 Y30.5711
G01 X109.8482 Y30.6131
G01 X109.8163 Y30.6807
G01 X109.7948 Y30.7208
G01 X109.7564 Y30.7850
G01 X109.7311 Y30.8228
G01 X109.6890 Y30.8796
G01 X109.6890 Y31.6997
G01 X111.2653 Y31.6997
G01 X111.2881 Y31.7003
G01 X111.3371 Y31.7027
G01 X111.3824 Y31.7072
G01 X111.4309 Y31.7144
G01 X111.4755 Y31.7232
G01 X111.5231 Y31.7352
G01 X111.5667 Y31.7484
G01 X111.6129 Y31.7649
G01 X111.6549 Y31.7823
G01 X111.6993 Y31.8033
G01 X111.7394 Y31.8247
G01 X111.7815 Y31.8500
G01 X111.8193 Y31.8752
G01 X111.8587 Y31.9045
G01 X111.8939 Y31.9333
G01 X111.9303 Y31.9663
G01 X111.9624 Y31.9985
G01 X111.9954 Y32.0348
G01 X112.0242 Y32.0700
G01 X112.0535 Y32.1094
G01 X112.0788 Y32.1472
G01 X112.1040 Y32.1893
G01 X112.1254 Y32.2294
G01 X112.1464 Y32.2738
G01 X112.1638 Y32.3158
G01 X112.1804 Y32.3621
G01 X112.1936 Y32.4056
G01 X112.2055 Y32.4532
G01 X112.2144 Y32.4978
G01 X112.2216 Y32.5464
G01 X112.2260 Y32.5916
G01 X112.2284 Y32.6406
G01 X112.2290 Y32.6634
G01 X112.2290 Y41.8597
G01 X115.1083 Y41.8597
G01 X115.1354 Y41.8435
G01 X115.1755 Y41.8221
G01 X115.2341 Y41.7943
G01 X115.2761 Y41.7769
G01 X115.3371 Y41.7551
G01 X115.3806 Y41.7419
G01 X115.4435 Y41.7262
G01 X115.4881 Y41.7173
G01 X115.5522 Y41.7078
G01 X115.5975 Y41.7033
G01 X115.6622 Y41.7001
G01 X115.6849 Y41.6996
G01 X117.0057 Y41.6996
G01 X117.0285 Y41.7001
G01 X117.0932 Y41.7033
G01 X117.1385 Y41.7078
G01 X117.2026 Y41.7173
G01 X117.2472 Y41.7262
G01 X117.3100 Y41.7419
G01 X117.3536 Y41.7551
G01 X117.4146 Y41.7769
G01 X117.4566 Y41.7943
G01 X117.5152 Y41.8221
G01 X117.5553 Y41.8435
G01 X117.6109 Y41.8768
G01 X117.6487 Y41.9021
G01 X117.7007 Y41.9407
G01 X117.7359 Y41.9695
G01 X117.7839 Y42.0131
G01 X117.8161 Y42.0452
G01 X117.8596 Y42.0932
G01 X117.8884 Y42.1284
G01 X117.9217 Y42.1732
G01 X117.9217 Y41.2470
G01 X117.5824 Y41.2470
G01 X117.5553 Y41.2633
G01 X117.5152 Y41.2847
G01 X117.4566 Y41.3124
G01 X117.4146 Y41.3298
G01 X117.3536 Y41.3517
G01 X117.3100 Y41.3649
G01 X117.2472 Y41.3806
G01 X117.2026 Y41.3895
G01 X117.1385 Y41.3990
G01 X117.0932 Y41.4034
G01 X117.0285 Y41.4066
G01 X117.0057 Y41.4072
G01 X115.6849 Y41.4072
G01 X115.6622 Y41.4066
G01 X115.5975 Y41.4034
G01 X115.5522 Y41.3990
G01 X115.4881 Y41.3895
G01 X115.4435 Y41.3806
G01 X115.3806 Y41.3649
G01 X115.3371 Y41.3517
G01 X115.2761 Y41.3298
G01 X115.2341 Y41.3124
G01 X115.1755 Y41.2847
G01 X115.1354 Y41.2633
G01 X115.0798 Y41.2300
G01 X115.0420 Y41.2047
G01 X114.9899 Y41.1661
G01 X114.9548 Y41.1372
G01 X114.9068 Y41.0937
G01 X114.8746 Y41.0616
G01 X114.8311 Y41.0135
G01 X114.8022 Y40.9784
G01 X114.7636 Y40.9263
G01 X114.7384 Y40.8885
G01 X114.7050 Y40.8329
G01 X114.6836 Y40.7928
G01 X114.6559 Y40.7342
G01 X114.6385 Y40.6922
G01 X114.6167 Y40.6312
G01 X114.6035 Y40.5877
G01 X114.5877 Y40.5248
G01 X114.5788 Y40.4802
G01 X114.5693 Y40.4161
G01 X114.5649 Y40.3709
G01 X114.5617 Y40.3061
G01 X114.5617 Y40.2606
G01 X114.5649 Y40.1959
G01 X114.5693 Y40.1507
G01 X114.5788 Y40.0866
G01 X114.5877 Y40.0419
G01 X114.6035 Y39.9791
G01 X114.6167 Y39.9356
G01 X114.6385 Y39.8745
G01 X114.6559 Y39.8325
G01 X114.6836 Y39.7739
G01 X114.7050 Y39.7338
G01 X114.7384 Y39.6783
G01 X114.7636 Y39.6404
G01 X114.8022 Y39.5884
G01 X114.8311 Y39.5532
G01 X114.8746 Y39.5052
G01 X114.9068 Y39.4731
G01 X114.9548 Y39.4295
G01 X114.9899 Y39.4007
G01 X115.0420 Y39.3621
G01 X115.0798 Y39.3368
G01 X115.1354 Y39.3035
G01 X115.1755 Y39.2821
G01 X115.2341 Y39.2543
G01 X115.2761 Y39.2369
G01 X115.3371 Y39.2151
G01 X115.3806 Y39.2019
G01 X115.4435 Y39.1862
G01 X115.4881 Y39.1773
G01 X115.5522 Y39.1678
G01 X115.5975 Y39.1633
G01 X115.6622 Y39.1601
G01 X115.6849 Y39.1596
G01 X117.0057 Y39.1596
G01 X117.0285 Y39.1601
G01 X117.0932 Y39.1633
G01 X117.1385 Y39.1678
G01 X117.2026 Y39.1773
G01 X117.2472 Y39.1862
G01 X117.3100 Y39.2019
G01 X117.3536 Y39.2151
G01 X117.4146 Y39.2369
G01 X117.4566 Y39.2543
G01 X117.5152 Y39.2821
G01 X117.5553 Y39.3035
G01 X117.5824 Y39.3197
G01 X118.8853 Y39.3197
G01 X118.9081 Y39.3203
G01 X118.9571 Y39.3227
G01 X119.0024 Y39.3272
G01 X119.0509 Y39.3344
G01 X119.0955 Y39.3432
G01 X119.1431 Y39.3552
G01 X119.1867 Y39.3684
G01 X119.2329 Y39.3849
G01 X119.2749 Y39.4023
G01 X119.3193 Y39.4233
G01 X119.3594 Y39.4447
G01 X119.4015 Y39.4700
G01 X119.4393 Y39.4952
G01 X119.4787 Y39.5245
G01 X119.5139 Y39.5533
G01 X119.5503 Y39.5863
G01 X119.5824 Y39.6185
G01 X119.6154 Y39.6548
G01 X119.6442 Y39.6900
G01 X119.6735 Y39.7294
G01 X119.6988 Y39.7672
G01 X119.7240 Y39.8093
G01 X119.7361 Y39.8321
G01 X119.7636 Y39.7739
G01 X119.7850 Y39.7338
G01 X119.8184 Y39.6783
G01 X119.8436 Y39.6404
G01 X119.8822 Y39.5884
G01 X119.9111 Y39.5532
G01 X119.9546 Y39.5052
G01 X119.9868 Y39.4731
G01 X120.0348 Y39.4295
G01 X120.0699 Y39.4007
G01 X120.1220 Y39.3621
G01 X120.1598 Y39.3368
G01 X120.2154 Y39.3035
G01 X120.2555 Y39.2821
G01 X120.3141 Y39.2543
G01 X120.3561 Y39.2369
G01 X120.4171 Y39.2151
G01 X120.4617 Y39.2016
G01 X120.4617 Y35.9596
G01 X120.4196 Y35.9028
G01 X120.3943 Y35.8650
G01 X120.3558 Y35.8008
G01 X120.3344 Y35.7607
G01 X120.3024 Y35.6931
G01 X120.2850 Y35.6511
G01 X120.2598 Y35.5807
G01 X120.2466 Y35.5372
G01 X120.2285 Y35.4646
G01 X120.2196 Y35.4200
G01 X120.2086 Y35.3461
G01 X120.2042 Y35.3008
G01 X120.2005 Y35.2261
G01 X120.2005 Y35.1806
G01 X120.2042 Y35.1060
G01 X120.2086 Y35.0607
G01 X120.2196 Y34.9867
G01 X120.2285 Y34.9421
G01 X120.2466 Y34.8696
G01 X120.2598 Y34.8261
G01 X120.2850 Y34.7557
G01 X120.3024 Y34.7137
G01 X120.3344 Y34.6461
G01 X120.3558 Y34.6059
G01 X120.3943 Y34.5418
G01 X120.4196 Y34.5040
G01 X120.4641 Y34.4439
G01 X120.4930 Y34.4088
G01 X120.5432 Y34.3534
G01 X120.5753 Y34.3212
G01 X120.6307 Y34.2710
G01 X120.6659 Y34.2421
G01 X120.7259 Y34.1976
G01 X120.7638 Y34.1723
G01 X120.8279 Y34.1339
G01 X120.8680 Y34.1125
G01 X120.9356 Y34.0805
G01 X120.9776 Y34.0631
G01 X121.0480 Y34.0379
G01 X121.0915 Y34.0247
G01 X121.1641 Y34.0065
G01 X121.2087 Y33.9976
G01 X121.2827 Y33.9867
G01 X121.3279 Y33.9822
G01 X121.4026 Y33.9785
G01 X121.4481 Y33.9785
G01 X121.5228 Y33.9822
G01 X121.5680 Y33.9867
G01 X121.6420 Y33.9976
G01 X121.6866 Y34.0065
G01 X121.7591 Y34.0247
G01 X121.8026 Y34.0379
G01 X121.8731 Y34.0631
G01 X121.9151 Y34.0805
G01 X121.9827 Y34.1125
G01 X122.0228 Y34.1339
G01 X122.0869 Y34.1723
G01 X122.1247 Y34.1976
G01 X122.1848 Y34.2421
G01 X122.2199 Y34.2710
G01 X122.2754 Y34.3212
G01 X122.3075 Y34.3534
G01 X122.3577 Y34.4088
G01 X122.3866 Y34.4439
G01 X122.4311 Y34.5040
G01 X122.4564 Y34.5418
G01 X122.4948 Y34.6059
G01 X122.5163 Y34.6461
G01 X122.5482 Y34.7137
G01 X122.5656 Y34.7557
G01 X122.5908 Y34.8261
G01 X122.6040 Y34.8696
G01 X122.6222 Y34.9421
G01 X122.6311 Y34.9867
G01 X122.6421 Y35.0607
G01 X122.6465 Y35.1060
G01 X122.6502 Y35.1806
G01 X122.6502 Y35.2261
G01 X122.6465 Y35.3008
G01 X122.6421 Y35.3461
G01 X122.6311 Y35.4200
G01 X122.6222 Y35.4646
G01 X122.6040 Y35.5372
G01 X122.5908 Y35.5807
G01 X122.5656 Y35.6511
G01 X122.5482 Y35.6931
G01 X122.5163 Y35.7607
G01 X122.4948 Y35.8008
G01 X122.4564 Y35.8650
G01 X122.4311 Y35.9028
G01 X122.3890 Y35.9596
G01 X122.3890 Y39.2016
G01 X122.4336 Y39.2151
G01 X122.4946 Y39.2369
G01 X122.5366 Y39.2543
G01 X122.5952 Y39.2821
G01 X122.6353 Y39.3035
G01 X122.6909 Y39.3368
G01 X122.7287 Y39.3621
G01 X122.7807 Y39.4007
G01 X122.8159 Y39.4295
G01 X122.8639 Y39.4731
G01 X122.8961 Y39.5052
G01 X122.9396 Y39.5532
G01 X122.9684 Y39.5884
G01 X123.0017 Y39.6332
G01 X123.0017 Y33.6270
G01 X114.7690 Y33.6270
G01 X114.7690 Y34.4472
G01 X114.8111 Y34.5040
G01 X114.8364 Y34.5418
G01 X114.8748 Y34.6059
G01 X114.8963 Y34.6461
G01 X114.9282 Y34.7137
G01 X114.9456 Y34.7557
G01 X114.9708 Y34.8261
G01 X114.9840 Y34.8696
G01 X115.0022 Y34.9421
G01 X115.0111 Y34.9867
G01 X115.0221 Y35.0607
G01 X115.0265 Y35.1060
G01 X115.0302 Y35.1806
G01 X115.0302 Y35.2261
G01 X115.0265 Y35.3008
G01 X115.0221 Y35.3461
G01 X115.0111 Y35.4200
G01 X115.0022 Y35.4646
G01 X114.9840 Y35.5372
G01 X114.9708 Y35.5807
G01 X114.9456 Y35.6511
G01 X114.9282 Y35.6931
G01 X114.8963 Y35.7607
G01 X114.8748 Y35.8008
G01 X114.8364 Y35.8650
G01 X114.8111 Y35.9028
G01 X114.7666 Y35.9628
G01 X114.7377 Y35.9980
G01 X114.6875 Y36.0534
G01 X114.6554 Y36.0856
G01 X114.5999 Y36.1358
G01 X114.5648 Y36.1646
G01 X114.5047 Y36.2092
G01 X114.4669 Y36.2344
G01 X114.4028 Y36.2729
G01 X114.3627 Y36.2943
G01 X114.2951 Y36.3263
G01 X114.2531 Y36.3437
G01 X114.1826 Y36.3689
G01 X114.1391 Y36.3821
G01 X114.0666 Y36.4003
G01 X114.0220 Y36.4091
G01 X113.9480 Y36.4201
G01 X113.9028 Y36.4246
G01 X113.8281 Y36.4282
G01 X113.7826 Y36.4282
G01 X113.7079 Y36.4246
G01 X113.6627 Y36.4201
G01 X113.5887 Y36.4091
G01 X113.5441 Y36.4003
G01 X113.4715 Y36.3821
G01 X113.4280 Y36.3689
G01 X113.3576 Y36.3437
G01 X113.3156 Y36.3263
G01 X113.2480 Y36.2943
G01 X113.2079 Y36.2729
G01 X113.1438 Y36.2344
G01 X113.1059 Y36.2092
G01 X113.0459 Y36.1646
G01 X113.0107 Y36.1358
G01 X112.9553 Y36.0856
G01 X112.9232 Y36.0534
G01 X112.8730 Y35.9980
G01 X112.8441 Y35.9628
G01 X112.7996 Y35.9028
G01 X112.7743 Y35.8650
G01 X112.7358 Y35.8008
G01 X112.7144 Y35.7607
G01 X112.6824 Y35.6931
G01 X112.6650 Y35.6511
G01 X112.6398 Y35.5807
G01 X112.6266 Y35.5372
G01 X112.6085 Y35.4646
G01 X112.5996 Y35.4200
G01 X112.5886 Y35.3461
G01 X112.5842 Y35.3008
G01 X112.5805 Y35.2261
G01 X112.5805 Y35.1806
G01 X112.5842 Y35.1060
G01 X112.5886 Y35.0607
G01 X112.5996 Y34.9867
G01 X112.6085 Y34.9421
G01 X112.6266 Y34.8696
G01 X112.6398 Y34.8261
G01 X112.6650 Y34.7557
G01 X112.6824 Y34.7137
G01 X112.7144 Y34.6461
G01 X112.7358 Y34.6059
G01 X112.7743 Y34.5418
G01 X112.7996 Y34.5040
G01 X112.8417 Y34.4472
G01 X112.8417 Y32.6634
G01 X112.8423 Y32.6406
G01 X112.8447 Y32.5916
G01 X112.8491 Y32.5464
G01 X112.8563 Y32.4978
G01 X112.8652 Y32.4532
G01 X112.8771 Y32.4056
G01 X112.8903 Y32.3621
G01 X112.9069 Y32.3158
G01 X112.9243 Y32.2738
G01 X112.9453 Y32.2294
G01 X112.9667 Y32.1893
G01 X112.9919 Y32.1472
G01 X113.0172 Y32.1094
G01 X113.0464 Y32.0700
G01 X113.0753 Y32.0348
G01 X113.1083 Y31.9985
G01 X113.1404 Y31.9663
G01 X113.1768 Y31.9333
G01 X113.2119 Y31.9045
G01 X113.2514 Y31.8752
G01 X113.2892 Y31.8500
G01 X113.3313 Y31.8247
G01 X113.3714 Y31.8033
G01 X113.4158 Y31.7823
G01 X113.4578 Y31.7649
G01 X113.5040 Y31.7484
G01 X113.5475 Y31.7352
G01 X113.5951 Y31.7232
G01 X113.6398 Y31.7144
G01 X113.6883 Y31.7072
G01 X113.7336 Y31.7027
G01 X113.7826 Y31.7003
G01 X113.8053 Y31.6997
G01 X120.4617 Y31.6997
G01 X120.4617 Y30.8796
G01 X120.4196 Y30.8228
G01 X120.3943 Y30.7850
G01 X120.3558 Y30.7208
G01 X120.3344 Y30.6807
G01 X120.3024 Y30.6131
G01 X120.2850 Y30.5711
G01 X120.2598 Y30.5007
G01 X120.2466 Y30.4572
G01 X120.2285 Y30.3846
G01 X120.2196 Y30.3400
G01 X120.2086 Y30.2661
G01 X120.2042 Y30.2208
G01 X120.2005 Y30.1461
G01 X120.2005 Y30.1006
G01 X120.2042 Y30.0260
G01 X120.2086 Y29.9807
G01 X120.2196 Y29.9067
G01 X120.2285 Y29.8621
G01 X120.2466 Y29.7896
G01 X120.2598 Y29.7461
G01 X120.2850 Y29.6757
G01 X120.3024 Y29.6337
G01 X120.3344 Y29.5661
G01 X120.3558 Y29.5259
G01 X120.3943 Y29.4618
G01 X120.4196 Y29.4240
G01 X120.4641 Y29.3639
G01 X120.4930 Y29.3288
G01 X120.5432 Y29.2734
G01 X120.5753 Y29.2412
G01 X120.6307 Y29.1910
G01 X120.6659 Y29.1621
G01 X120.7259 Y29.1176
G01 X120.7638 Y29.0923
G01 X120.8279 Y29.0539
G01 X120.8680 Y29.0325
G01 X120.9356 Y29.0005
G01 X120.9776 Y28.9831
G01 X121.0480 Y28.9579
G01 X121.0915 Y28.9447
G01 X121.1641 Y28.9265
G01 X121.2087 Y28.9176
G01 X121.2827 Y28.9067
G01 X121.3279 Y28.9022
G01 X121.4026 Y28.8985
G01 X121.4481 Y28.8985
G01 X121.5228 Y28.9022
G01 X121.5680 Y28.9067
G01 X121.6420 Y28.9176
G01 X121.6866 Y28.9265
G01 X121.7591 Y28.9447
G01 X121.8026 Y28.9579
G01 X121.8731 Y28.9831
G01 X121.9151 Y29.0005
G01 X121.9827 Y29.0325
G01 X122.0228 Y29.0539
G01 X122.0869 Y29.0923
G01 X122.1247 Y29.1176
G01 X122.1848 Y29.1621
G01 X122.2199 Y29.1910
G01 X122.2754 Y29.2412
G01 X122.3075 Y29.2734
G01 X122.3577 Y29.3288
G01 X122.3866 Y29.3639
G01 X122.4311 Y29.4240
G01 X122.4564 Y29.4618
G01 X122.4948 Y29.5259
G01 X122.5163 Y29.5661
G01 X122.5482 Y29.6337
G01 X122.5656 Y29.6757
G01 X122.5908 Y29.7461
G01 X122.6040 Y29.7896
G01 X122.6222 Y29.8621
G01 X122.6311 Y29.9067
G01 X122.6421 Y29.9807
G01 X122.6465 Y30.0260
G01 X122.6502 Y30.1006
G01 X122.6502 Y30.1461
G01 X122.6465 Y30.2208
G01 X122.6421 Y30.2661
G01 X122.6311 Y30.3400
G01 X122.6222 Y30.3846
G01 X122.6040 Y30.4572
G01 X122.5908 Y30.5007
G01 X122.5656 Y30.5711
G01 X122.5482 Y30.6131
G01 X122.5163 Y30.6807
G01 X122.4948 Y30.7208
G01 X122.4564 Y30.7850
G01 X122.4311 Y30.8228
G01 X122.3890 Y30.8796
G01 X122.3890 Y31.6997
G01 X123.9653 Y31.6997
G01 X123.9881 Y31.7003
G01 X124.0371 Y31.7027
G01 X124.0824 Y31.7072
G01 X124.1309 Y31.7144
G01 X124.1755 Y31.7232
G01 X124.2231 Y31.7352
G01 X124.2667 Y31.7484
G01 X124.3129 Y31.7649
G01 X124.3549 Y31.7823
G01 X124.3993 Y31.8033
G01 X124.4394 Y31.8247
G01 X124.4815 Y31.8500
G01 X124.5193 Y31.8752
G01 X124.5587 Y31.9045
G01 X124.5939 Y31.9333
G01 X124.6303 Y31.9663
G01 X124.6624 Y31.9985
G01 X124.6954 Y32.0348
G01 X124.7242 Y32.0700
G01 X124.7535 Y32.1094
G01 X124.7788 Y32.1472
G01 X124.8040 Y32.1893
G01 X124.8254 Y32.2294
G01 X124.8464 Y32.2738
G01 X124.8638 Y32.3158
G01 X124.8804 Y32.3621
G01 X124.8936 Y32.4056
G01 X124.9055 Y32.4532
G01 X124.9144 Y32.4978
G01 X124.9216 Y32.5464
G01 X124.9260 Y32.5916
G01 X124.9284 Y32.6406
G01 X124.9290 Y32.6634
G01 X124.9290 Y41.8597
G01 X127.8083 Y41.8597
G01 X127.8354 Y41.8435
G01 X127.8755 Y41.8221
G01 X127.9341 Y41.7943
G01 X127.9761 Y41.7769
G01 X128.0371 Y41.7551
G01 X128.0806 Y41.7419
G01 X128.1435 Y41.7262
G01 X128.1881 Y41.7173
G01 X128.2522 Y41.7078
G01 X128.2975 Y41.7033
G01 X128.3622 Y41.7001
G01 X128.3849 Y41.6996
G01 X129.7057 Y41.6996
G01 X129.7285 Y41.7001
G01 X129.7932 Y41.7033
G01 X129.8385 Y41.7078
G01 X129.9026 Y41.7173
G01 X129.9472 Y41.7262
G01 X130.0100 Y41.7419
G01 X130.0536 Y41.7551
G01 X130.1146 Y41.7769
G01 X130.1566 Y41.7943
G01 X130.2152 Y41.8221
G01 X130.2553 Y41.8435
G01 X130.3109 Y41.8768
G01 X130.3487 Y41.9021
G01 X130.4007 Y41.9407
G01 X130.4359 Y41.9695
G01 X130.4839 Y42.0131
G01 X130.5161 Y42.0452
G01 X130.5596 Y42.0932
G01 X130.5884 Y42.1284
G01 X130.6217 Y42.1732
G01 X130.6217 Y41.2470
G01 X130.2824 Y41.2470
G01 X130.2553 Y41.2633
G01 X130.2152 Y41.2847
G01 X130.1566 Y41.3124
G01 X130.1146 Y41.3298
G01 X130.0536 Y41.3517
G01 X130.0100 Y41.3649
G01 X129.9472 Y41.3806
G01 X129.9026 Y41.3895
G01 X129.8385 Y41.3990
G01 X129.7932 Y41.4034
G01 X129.7285 Y41.4066
G01 X129.7057 Y41.4072
G01 X128.3849 Y41.4072
G01 X128.3622 Y41.4066
G01 X128.2975 Y41.4034
G01 X128.2522 Y41.3990
G01 X128.1881 Y41.3895
G01 X128.1435 Y41.3806
G01 X128.0806 Y41.3649
G01 X128.0371 Y41.3517
G01 X127.9761 Y41.3298
G01 X127.9341 Y41.3124
G01 X127.8755 Y41.2847
G01 X127.8354 Y41.2633
G01 X127.7798 Y41.2300
G01 X127.7420 Y41.2047
G01 X127.6899 Y41.1661
G01 X127.6548 Y41.1372
G01 X127.6068 Y41.0937
G01 X127.5746 Y41.0616
G01 X127.5311 Y41.0135
G01 X127.5022 Y40.9784
G01 X127.4636 Y40.9263
G01 X127.4384 Y40.8885
G01 X127.4050 Y40.8329
G01 X127.3836 Y40.7928
G01 X127.3559 Y40.7342
G01 X127.3385 Y40.6922
G01 X127.3167 Y40.6312
G01 X127.3035 Y40.5877
G01 X127.2877 Y40.5248
G01 X127.2788 Y40.4802
G01 X127.2693 Y40.4161
G01 X127.2649 Y40.3709
G01 X127.2617 Y40.3061
G01 X127.2617 Y40.2606
G01 X127.2649 Y40.1959
G01 X127.2693 Y40.1507
G01 X127.2788 Y40.0866
G01 X127.2877 Y40.0419
G01 X127.3035 Y39.9791
G01 X127.3167 Y39.9356
G01 X127.3385 Y39.8745
G01 X127.3559 Y39.8325
G01 X127.3836 Y39.7739
G01 X127.4050 Y39.7338
G01 X127.4384 Y39.6783
G01 X127.4636 Y39.6404
G01 X127.5022 Y39.5884
G01 X127.5311 Y39.5532
G01 X127.5746 Y39.5052
G01 X127.6068 Y39.4731
G01 X127.6548 Y39.4295
G01 X127.6899 Y39.4007
G01 X127.7420 Y39.3621
G01 X127.7798 Y39.3368
G01 X127.8354 Y39.3035
G01 X127.8755 Y39.2821
G01 X127.9341 Y39.2543
G01 X127.9761 Y39.2369
G01 X128.0371 Y39.2151
G01 X128.0806 Y39.2019
G01 X128.1435 Y39.1862
G01 X128.1881 Y39.1773
G01 X128.2522 Y39.1678
G01 X128.2975 Y39.1633
G01 X128.3622 Y39.1601
G01 X128.3849 Y39.1596
G01 X129.7057 Y39.1596
G01 X129.7285 Y39.1601
G01 X129.7932 Y39.1633
G01 X129.8385 Y39.1678
G01 X129.9026 Y39.1773
G01 X129.9472 Y39.1862
G01 X130.0100 Y39.2019
G01 X130.0536 Y39.2151
G01 X130.1146 Y39.2369
G01 X130.1566 Y39.2543
G01 X130.2152 Y39.2821
G01 X130.2553 Y39.3035
G01 X130.2824 Y39.3197
G01 X131.5853 Y39.3197
G01 X131.6081 Y39.3203
G01 X131.6571 Y39.3227
G01 X131.7024 Y39.3272
G01 X131.7509 Y39.3344
G01 X131.7955 Y39.3432
G01 X131.8431 Y39.3552
G01 X131.8867 Y39.3684
G01 X131.9329 Y39.3849
G01 X131.9749 Y39.4023
G01 X132.0193 Y39.4233
G01 X132.0594 Y39.4447
G01 X132.1015 Y39.4700
G01 X132.1393 Y39.4952
G01 X132.1787 Y39.5245
G01 X132.2139 Y39.5533
G01 X132.2503 Y39.5863
G01 X132.2824 Y39.6185
G01 X132.3154 Y39.6548
G01 X132.3442 Y39.6900
G01 X132.3735 Y39.7294
G01 X132.3988 Y39.7672
G01 X132.4240 Y39.8093
G01 X132.4361 Y39.8321
G01 X132.4636 Y39.7739
G01 X132.4850 Y39.7338
G01 X132.5184 Y39.6783
G01 X132.5436 Y39.6404
G01 X132.5822 Y39.5884
G01 X132.6111 Y39.5532
G01 X132.6546 Y39.5052
G01 X132.6868 Y39.4731
G01 X132.7348 Y39.4295
G01 X132.7699 Y39.4007
G01 X132.8220 Y39.3621
G01 X132.8598 Y39.3368
G01 X132.9154 Y39.3035
G01 X132.9555 Y39.2821
G01 X133.0141 Y39.2543
G01 X133.0561 Y39.2369
G01 X133.1171 Y39.2151
G01 X133.1617 Y39.2016
G01 X133.1617 Y35.9596
G01 X133.1196 Y35.9028
G01 X133.0943 Y35.8650
G01 X133.0558 Y35.8008
G01 X133.0344 Y35.7607
G01 X133.0024 Y35.6931
G01 X132.9850 Y35.6511
G01 X132.9598 Y35.5807
G01 X132.9466 Y35.5372
G01 X132.9285 Y35.4646
G01 X132.9196 Y35.4200
G01 X132.9086 Y35.3461
G01 X132.9042 Y35.3008
G01 X132.9005 Y35.2261
G01 X132.9005 Y35.1806
G01 X132.9042 Y35.1060
G01 X132.9086 Y35.0607
G01 X132.9196 Y34.9867
G01 X132.9285 Y34.9421
G01 X132.9466 Y34.8696
G01 X132.9598 Y34.8261
G01 X132.9850 Y34.7557
G01 X133.0024 Y34.7137
G01 X133.0344 Y34.6461
G01 X133.0558 Y34.6059
G01 X133.0943 Y34.5418
G01 X133.1196 Y34.5040
G01 X133.1641 Y34.4439
G01 X133.1930 Y34.4088
G01 X133.2432 Y34.3534
G01 X133.2753 Y34.3212
G01 X133.3307 Y34.2710
G01 X133.3659 Y34.2421
G01 X133.4259 Y34.1976
G01 X133.4638 Y34.1723
G01 X133.5279 Y34.1339
G01 X133.5680 Y34.1125
G01 X133.6356 Y34.0805
G01 X133.6776 Y34.0631
G01 X133.7480 Y34.0379
G01 X133.7915 Y34.0247
G01 X133.8641 Y34.0065
G01 X133.9087 Y33.9976
G01 X133.9827 Y33.9867
G01 X134.0279 Y33.9822
G01 X134.1026 Y33.9785
G01 X134.1481 Y33.9785
G01 X134.2228 Y33.9822
G01 X134.2680 Y33.9867
G01 X134.3420 Y33.9976
G01 X134.3866 Y34.0065
G01 X134.4591 Y34.0247
G01 X134.5026 Y34.0379
G01 X134.5731 Y34.0631
G01 X134.6151 Y34.0805
G01 X134.6827 Y34.1125
G01 X134.7228 Y34.1339
G01 X134.7869 Y34.1723
G01 X134.8247 Y34.1976
G01 X134.8848 Y34.2421
G01 X134.9199 Y34.2710
G01 X134.9754 Y34.3212
G01 X135.0075 Y34.3534
G01 X135.0577 Y34.4088
G01 X135.0866 Y34.4439
G01 X135.1311 Y34.5040
G01 X135.1564 Y34.5418
