(G-CODE GENERATED BY FLATCAM v8.991 - www.flatcam.org - Version Date: 2019/12/27)

(Name: 003_Sequencer_iso3)
(Type: G-code from Geometry)
(Units: MM)

(Created on Sunday, 01 March 2020 at 22:32)

(TOOL DIAMETER: 0.331 mm)
(Feedrate: 320.0 mm/min)
(Feedrate_Z: 60.0 mm/min)
(Feedrate rapids 1500.0 mm/min)

(Z_Cut: -0.2001 mm)
(Z_Move: 2.0 mm)
(Z Toolchange: 15.0 mm)
(X,Y Toolchange: 0.0000, 0.0000 mm)
(Z Start: None mm)
(Z End: 15.0 mm)
(Steps per circle: 64)
(Preprocessor Geometry: default)

(X range:    3.0630 ...  148.0869  mm)
(Y range:    3.2010 ...   97.6858  mm)

(Spindle Speed: None RPM)
G21
G90
G94

M03 S3000


G01 F320.00
G00 Z2.0000

M03
G00 X5.8553 Y5.5629
G01 F60.00
G01 Z-0.2001
G01 F320.00
G01 X5.8638 Y5.5756
G01 X5.8638 Y21.6512
G01 X5.8469 Y21.6765
G01 X5.8469 Y5.5756
G01 X5.8553 Y5.5629
G00 Z2.0000
G00 X5.8469 Y23.3303
G01 F60.00
G01 Z-0.2001
G01 F320.00
G01 X5.8638 Y23.3556
G01 X5.8638 Y52.1565
G01 X5.8469 Y52.1312
G01 X5.8469 Y23.3303
G00 Z2.0000
G00 X16.0069 Y23.3303
G01 F60.00
G01 Z-0.2001
G01 F320.00
G01 X16.0403 Y23.3802
G01 X16.0848 Y23.4403
G01 X16.1322 Y23.4980
G01 X16.1824 Y23.5535
G01 X16.2353 Y23.6063
G01 X16.2907 Y23.6565
G01 X16.3484 Y23.7039
G01 X16.4085 Y23.7484
G01 X16.4585 Y23.7818
G01 X16.0069 Y23.7818
G01 X16.0069 Y23.3303
G00 Z2.0000
G00 X18.1122 Y23.7818
G01 F60.00
G01 Z-0.2001
G01 F320.00
G01 X18.1375 Y23.7649
G01 X123.9653 Y23.7649
G01 X124.0027 Y23.7640
G01 X124.0517 Y23.7616
G01 X124.1261 Y23.7543
G01 X124.1746 Y23.7471
G01 X124.2479 Y23.7325
G01 X124.2955 Y23.7206
G01 X124.3670 Y23.6989
G01 X124.4132 Y23.6823
G01 X124.4823 Y23.6538
G01 X124.5267 Y23.6328
G01 X124.5925 Y23.5976
G01 X124.6346 Y23.5723
G01 X124.6968 Y23.5308
G01 X124.7362 Y23.5016
G01 X124.7939 Y23.4542
G01 X124.8303 Y23.4212
G01 X124.8832 Y23.3684
G01 X124.9161 Y23.3320
G01 X124.9635 Y23.2742
G01 X124.9928 Y23.2348
G01 X125.0343 Y23.1727
G01 X125.0595 Y23.1306
G01 X125.0947 Y23.0647
G01 X125.1157 Y23.0203
G01 X125.1443 Y22.9513
G01 X125.1608 Y22.9051
G01 X125.1825 Y22.8336
G01 X125.1945 Y22.7860
G01 X125.2090 Y22.7127
G01 X125.2162 Y22.6641
G01 X125.2236 Y22.5898
G01 X125.2260 Y22.5407
G01 X125.2269 Y22.5034
G01 X125.2269 Y11.0649
G01 X137.9438 Y11.0649
G01 X137.9438 Y13.5692
G01 X137.9347 Y13.5862
G01 X137.9269 Y13.6027
G01 X137.9269 Y12.3434
G01 X137.9260 Y12.3060
G01 X137.9236 Y12.2570
G01 X137.9162 Y12.1826
G01 X137.9090 Y12.1341
G01 X137.8945 Y12.0608
G01 X137.8825 Y12.0132
G01 X137.8608 Y11.9417
G01 X137.8443 Y11.8955
G01 X137.8157 Y11.8265
G01 X137.7947 Y11.7821
G01 X137.7595 Y11.7162
G01 X137.7343 Y11.6741
G01 X137.6928 Y11.6120
G01 X137.6635 Y11.5725
G01 X137.6161 Y11.5148
G01 X137.5832 Y11.4784
G01 X137.5303 Y11.4256
G01 X137.4939 Y11.3926
G01 X137.4362 Y11.3452
G01 X137.3968 Y11.3160
G01 X137.3346 Y11.2745
G01 X137.2925 Y11.2492
G01 X137.2267 Y11.2140
G01 X137.1823 Y11.1930
G01 X137.1132 Y11.1644
G01 X137.0670 Y11.1479
G01 X136.9955 Y11.1262
G01 X136.9479 Y11.1143
G01 X136.8746 Y11.0997
G01 X136.8261 Y11.0925
G01 X136.7517 Y11.0852
G01 X136.7027 Y11.0828
G01 X136.6653 Y11.0818
G01 X129.0453 Y11.0818
G01 X129.0080 Y11.0828
G01 X128.9590 Y11.0852
G01 X128.8846 Y11.0925
G01 X128.8360 Y11.0997
G01 X128.7628 Y11.1143
G01 X128.7151 Y11.1262
G01 X128.6437 Y11.1479
G01 X128.5974 Y11.1644
G01 X128.5284 Y11.1930
G01 X128.4840 Y11.2140
G01 X128.4181 Y11.2492
G01 X128.3760 Y11.2745
G01 X128.3139 Y11.3160
G01 X128.2745 Y11.3452
G01 X128.2167 Y11.3926
G01 X128.1804 Y11.4256
G01 X128.1275 Y11.4784
G01 X128.0946 Y11.5148
G01 X128.0472 Y11.5725
G01 X128.0179 Y11.6120
G01 X127.9764 Y11.6741
G01 X127.9512 Y11.7162
G01 X127.9160 Y11.7821
G01 X127.8950 Y11.8265
G01 X127.8664 Y11.8955
G01 X127.8498 Y11.9417
G01 X127.8281 Y12.0132
G01 X127.8162 Y12.0608
G01 X127.8016 Y12.1341
G01 X127.7944 Y12.1826
G01 X127.7871 Y12.2570
G01 X127.7847 Y12.3060
G01 X127.7838 Y12.3434
G01 X127.7838 Y13.5692
G01 X127.7747 Y13.5862
G01 X127.7578 Y13.6218
G01 X126.5053 Y13.6218
G01 X126.4680 Y13.6228
G01 X126.4190 Y13.6252
G01 X126.3446 Y13.6325
G01 X126.2960 Y13.6397
G01 X126.2228 Y13.6543
G01 X126.1751 Y13.6662
G01 X126.1037 Y13.6879
G01 X126.0574 Y13.7044
G01 X125.9884 Y13.7330
G01 X125.9440 Y13.7540
G01 X125.8781 Y13.7892
G01 X125.8360 Y13.8145
G01 X125.7739 Y13.8560
G01 X125.7345 Y13.8852
G01 X125.6767 Y13.9326
G01 X125.6404 Y13.9656
G01 X125.5875 Y14.0184
G01 X125.5546 Y14.0548
G01 X125.5072 Y14.1125
G01 X125.4779 Y14.1520
G01 X125.4364 Y14.2141
G01 X125.4112 Y14.2562
G01 X125.3760 Y14.3221
G01 X125.3550 Y14.3665
G01 X125.3264 Y14.4355
G01 X125.3098 Y14.4817
G01 X125.2881 Y14.5532
G01 X125.2762 Y14.6008
G01 X125.2616 Y14.6741
G01 X125.2544 Y14.7226
G01 X125.2471 Y14.7970
G01 X125.2447 Y14.8460
G01 X125.2438 Y14.8834
G01 X125.2438 Y23.7818
G01 X18.1122 Y23.7818
G00 Z2.0000
G00 X18.9985 Y28.8449
G01 F60.00
G01 Z-0.2001
G01 F320.00
G01 X18.9485 Y28.8783
G01 X18.8884 Y28.9229
G01 X18.8307 Y28.9703
G01 X18.7753 Y29.0205
G01 X18.7224 Y29.0733
G01 X18.6722 Y29.1287
G01 X18.6248 Y29.1865
G01 X18.5803 Y29.2465
G01 X18.5388 Y29.3087
G01 X18.5003 Y29.3728
G01 X18.4651 Y29.4387
G01 X18.4331 Y29.5063
G01 X18.4045 Y29.5753
G01 X18.3794 Y29.6457
G01 X18.3577 Y29.7172
G01 X18.3395 Y29.7897
G01 X18.3249 Y29.8630
G01 X18.3140 Y29.9370
G01 X18.3066 Y30.0113
G01 X18.3030 Y30.0860
G01 X18.3030 Y30.1607
G01 X18.3066 Y30.2354
G01 X18.3140 Y30.3098
G01 X18.3249 Y30.3837
G01 X18.3395 Y30.4570
G01 X18.3577 Y30.5296
G01 X18.3794 Y30.6011
G01 X18.4045 Y30.6715
G01 X18.4331 Y30.7405
G01 X18.4651 Y30.8081
G01 X18.5003 Y30.8740
G01 X18.5388 Y30.9381
G01 X18.5638 Y30.9756
G01 X18.5638 Y31.4018
G01 X15.5722 Y31.4018
G01 X15.6222 Y31.3684
G01 X15.6823 Y31.3239
G01 X15.7400 Y31.2765
G01 X15.7954 Y31.2263
G01 X15.8482 Y31.1735
G01 X15.8985 Y31.1180
G01 X15.9459 Y31.0603
G01 X15.9904 Y31.0002
G01 X16.0319 Y30.9381
G01 X16.0703 Y30.8740
G01 X16.1056 Y30.8081
G01 X16.1375 Y30.7405
G01 X16.1661 Y30.6715
G01 X16.1913 Y30.6011
G01 X16.2130 Y30.5296
G01 X16.2312 Y30.4570
G01 X16.2458 Y30.3837
G01 X16.2567 Y30.3098
G01 X16.2641 Y30.2354
G01 X16.2677 Y30.1607
G01 X16.2677 Y30.0860
G01 X16.2641 Y30.0113
G01 X16.2567 Y29.9370
G01 X16.2458 Y29.8630
G01 X16.2312 Y29.7897
G01 X16.2130 Y29.7172
G01 X16.1913 Y29.6457
G01 X16.1661 Y29.5753
G01 X16.1375 Y29.5063
G01 X16.1056 Y29.4387
G01 X16.0703 Y29.3728
G01 X16.0319 Y29.3087
G01 X16.0069 Y29.2712
G01 X16.0069 Y28.8449
G01 X18.9985 Y28.8449
G00 Z2.0000
G00 X20.6522 Y33.9249
G01 F60.00
G01 Z-0.2001
G01 F320.00
G01 X21.1038 Y33.9249
G01 X21.1038 Y34.3765
G01 X21.0704 Y34.3265
G01 X21.0259 Y34.2665
G01 X20.9785 Y34.2087
G01 X20.9282 Y34.1533
G01 X20.8754 Y34.1005
G01 X20.8200 Y34.0503
G01 X20.7623 Y34.0029
G01 X20.7022 Y33.9583
G01 X20.6522 Y33.9249
G00 Z2.0000
G00 X21.1038 Y36.0303
G01 F60.00
G01 Z-0.2001
G01 F320.00
G01 X21.1038 Y39.0039
G01 X21.0869 Y38.9959
G01 X21.0869 Y36.0556
G01 X21.1038 Y36.0303
G00 Z2.0000
G00 X23.6269 Y36.0303
G01 F60.00
G01 Z-0.2001
G01 F320.00
G01 X23.6603 Y36.0802
G01 X23.7048 Y36.1403
G01 X23.7522 Y36.1980
G01 X23.8024 Y36.2535
G01 X23.8553 Y36.3063
G01 X23.9107 Y36.3565
G01 X23.9684 Y36.4039
G01 X24.0285 Y36.4484
G01 X24.0906 Y36.4900
G01 X24.1547 Y36.5284
G01 X24.2206 Y36.5636
G01 X24.2882 Y36.5956
G01 X24.3573 Y36.6242
G01 X24.4277 Y36.6494
G01 X24.4992 Y36.6711
G01 X24.5717 Y36.6892
G01 X24.6450 Y36.7038
G01 X24.7189 Y36.7148
G01 X24.7933 Y36.7221
G01 X24.8680 Y36.7258
G01 X24.9427 Y36.7258
G01 X25.0174 Y36.7221
G01 X25.0917 Y36.7148
G01 X25.1657 Y36.7038
G01 X25.2390 Y36.6892
G01 X25.3115 Y36.6711
G01 X25.3830 Y36.6494
G01 X25.4534 Y36.6242
G01 X25.5224 Y36.5956
G01 X25.5900 Y36.5636
G01 X25.6559 Y36.5284
G01 X25.7201 Y36.4900
G01 X25.7822 Y36.4484
G01 X25.8423 Y36.4039
G01 X25.9000 Y36.3565
G01 X25.9554 Y36.3063
G01 X26.0082 Y36.2535
G01 X26.0585 Y36.1980
G01 X26.1059 Y36.1403
G01 X26.1504 Y36.0802
G01 X26.1919 Y36.0181
G01 X26.2303 Y35.9540
G01 X26.2656 Y35.8881
G01 X26.2975 Y35.8205
G01 X26.3261 Y35.7515
G01 X26.3513 Y35.6811
G01 X26.3730 Y35.6096
G01 X26.3912 Y35.5370
G01 X26.4058 Y35.4637
G01 X26.4167 Y35.3898
G01 X26.4241 Y35.3154
G01 X26.4277 Y35.2407
G01 X26.4277 Y35.1660
G01 X26.4241 Y35.0913
G01 X26.4167 Y35.0170
G01 X26.4058 Y34.9430
G01 X26.3912 Y34.8697
G01 X26.3730 Y34.7972
G01 X26.3513 Y34.7257
G01 X26.3261 Y34.6553
G01 X26.2975 Y34.5863
G01 X26.2656 Y34.5187
G01 X26.2303 Y34.4528
G01 X26.1919 Y34.3887
G01 X26.1669 Y34.3512
G01 X26.1669 Y33.9249
G01 X31.6985 Y33.9249
G01 X31.6485 Y33.9583
G01 X31.5884 Y34.0029
G01 X31.5307 Y34.0503
G01 X31.4753 Y34.1005
G01 X31.4224 Y34.1533
G01 X31.3722 Y34.2087
G01 X31.3248 Y34.2665
G01 X31.2803 Y34.3265
G01 X31.2388 Y34.3887
G01 X31.2003 Y34.4528
G01 X31.1651 Y34.5187
G01 X31.1331 Y34.5863
G01 X31.1045 Y34.6553
G01 X31.0794 Y34.7257
G01 X31.0577 Y34.7972
G01 X31.0395 Y34.8697
G01 X31.0249 Y34.9430
G01 X31.0140 Y35.0170
G01 X31.0066 Y35.0913
G01 X31.0030 Y35.1660
G01 X31.0030 Y35.2407
G01 X31.0066 Y35.3154
G01 X31.0140 Y35.3898
G01 X31.0249 Y35.4637
G01 X31.0395 Y35.5370
G01 X31.0577 Y35.6096
G01 X31.0794 Y35.6811
G01 X31.1045 Y35.7515
G01 X31.1331 Y35.8205
G01 X31.1651 Y35.8881
G01 X31.2003 Y35.9540
G01 X31.2388 Y36.0181
G01 X31.2638 Y36.0556
G01 X31.2638 Y38.9959
G01 X31.2281 Y39.0128
G01 X31.1622 Y39.0480
G01 X31.1067 Y39.0813
G01 X31.0445 Y39.1228
G01 X30.9925 Y39.1614
G01 X30.9347 Y39.2088
G01 X30.8867 Y39.2523
G01 X30.8339 Y39.3052
G01 X30.8111 Y39.3303
G01 X30.7562 Y39.2852
G01 X30.7168 Y39.2560
G01 X30.6546 Y39.2145
G01 X30.6125 Y39.1892
G01 X30.5467 Y39.1540
G01 X30.5023 Y39.1330
G01 X30.4332 Y39.1044
G01 X30.3870 Y39.0879
G01 X30.3155 Y39.0662
G01 X30.2679 Y39.0543
G01 X30.1946 Y39.0397
G01 X30.1461 Y39.0325
G01 X30.0717 Y39.0252
G01 X30.0227 Y39.0228
G01 X29.9853 Y39.0218
G01 X28.7595 Y39.0218
G01 X28.7425 Y39.0128
G01 X28.6840 Y38.9850
G01 X28.6149 Y38.9565
G01 X28.5539 Y38.9346
G01 X28.4824 Y38.9129
G01 X28.4196 Y38.8972
G01 X28.3463 Y38.8826
G01 X28.2822 Y38.8731
G01 X28.2078 Y38.8658
G01 X28.1431 Y38.8626
G01 X28.1057 Y38.8617
G01 X26.7849 Y38.8617
G01 X26.7476 Y38.8626
G01 X26.6829 Y38.8658
G01 X26.6085 Y38.8731
G01 X26.5444 Y38.8826
G01 X26.4711 Y38.8972
G01 X26.4083 Y38.9129
G01 X26.3368 Y38.9346
G01 X26.2757 Y38.9565
G01 X26.2067 Y38.9850
G01 X26.1481 Y39.0128
G01 X26.0822 Y39.0480
G01 X26.0267 Y39.0813
G01 X25.9645 Y39.1228
G01 X25.9125 Y39.1614
G01 X25.8547 Y39.2088
G01 X25.8067 Y39.2523
G01 X25.7539 Y39.3052
G01 X25.7104 Y39.3532
G01 X25.6630 Y39.4109
G01 X25.6244 Y39.4630
G01 X25.5828 Y39.5251
G01 X25.5495 Y39.5807
G01 X25.5143 Y39.6466
G01 X25.4866 Y39.7052
G01 X25.4580 Y39.7742
G01 X25.4362 Y39.8352
G01 X25.4145 Y39.9067
G01 X25.3987 Y39.9696
G01 X25.3842 Y40.0428
G01 X25.3747 Y40.1069
G01 X25.3673 Y40.1813
G01 X25.3642 Y40.2460
G01 X25.3642 Y40.3207
G01 X25.3673 Y40.3855
G01 X25.3747 Y40.4598
G01 X25.3842 Y40.5239
G01 X25.3987 Y40.5972
G01 X25.4145 Y40.6601
G01 X25.4362 Y40.7316
G01 X25.4580 Y40.7926
G01 X25.4866 Y40.8616
G01 X25.5143 Y40.9202
G01 X25.5495 Y40.9861
G01 X25.5828 Y41.0417
G01 X25.6244 Y41.1038
G01 X25.6630 Y41.1558
G01 X25.7104 Y41.2136
G01 X25.7539 Y41.2616
G01 X25.8067 Y41.3144
G01 X25.8547 Y41.3580
G01 X25.9125 Y41.4054
G01 X25.9645 Y41.4440
G01 X26.0267 Y41.4855
G01 X26.0822 Y41.5188
G01 X26.1470 Y41.5534
G01 X26.1311 Y41.5618
G01 X23.6269 Y41.5618
G01 X23.6269 Y36.0303
G00 Z2.0000
G00 X23.6438 Y34.3512
G01 F60.00
G01 Z-0.2001
G01 F320.00
G01 X23.6269 Y34.3765
G01 X23.6269 Y32.6634
G01 X23.6260 Y32.6260
G01 X23.6236 Y32.5770
G01 X23.6162 Y32.5026
G01 X23.6090 Y32.4541
G01 X23.5945 Y32.3808
G01 X23.5825 Y32.3332
G01 X23.5608 Y32.2617
G01 X23.5443 Y32.2155
G01 X23.5157 Y32.1465
G01 X23.4947 Y32.1021
G01 X23.4595 Y32.0362
G01 X23.4343 Y31.9941
G01 X23.3928 Y31.9320
G01 X23.3635 Y31.8925
G01 X23.3161 Y31.8348
G01 X23.2832 Y31.7984
G01 X23.2303 Y31.7456
G01 X23.1939 Y31.7126
G01 X23.1362 Y31.6652
G01 X23.0968 Y31.6360
G01 X23.0346 Y31.5945
G01 X22.9925 Y31.5692
G01 X22.9267 Y31.5340
G01 X22.8823 Y31.5130
G01 X22.8132 Y31.4844
G01 X22.7670 Y31.4679
G01 X22.6955 Y31.4462
G01 X22.6479 Y31.4343
G01 X22.5746 Y31.4197
G01 X22.5261 Y31.4125
G01 X22.4517 Y31.4052
G01 X22.4027 Y31.4028
G01 X22.3653 Y31.4018
G01 X21.0869 Y31.4018
G01 X21.0869 Y30.9756
G01 X21.1119 Y30.9381
G01 X21.1503 Y30.8740
G01 X21.1856 Y30.8081
G01 X21.2175 Y30.7405
G01 X21.2461 Y30.6715
G01 X21.2713 Y30.6011
G01 X21.2930 Y30.5296
G01 X21.3112 Y30.4570
G01 X21.3258 Y30.3837
G01 X21.3367 Y30.3098
G01 X21.3441 Y30.2354
G01 X21.3477 Y30.1607
G01 X21.3477 Y30.0860
G01 X21.3441 Y30.0113
G01 X21.3367 Y29.9370
G01 X21.3258 Y29.8630
G01 X21.3112 Y29.7897
G01 X21.2930 Y29.7172
G01 X21.2713 Y29.6457
G01 X21.2461 Y29.5753
G01 X21.2175 Y29.5063
G01 X21.1856 Y29.4387
G01 X21.1503 Y29.3728
G01 X21.1119 Y29.3087
G01 X21.0704 Y29.2465
G01 X21.0259 Y29.1865
G01 X20.9785 Y29.1287
G01 X20.9282 Y29.0733
G01 X20.8754 Y29.0205
G01 X20.8200 Y28.9703
G01 X20.7623 Y28.9229
G01 X20.7022 Y28.8783
G01 X20.6522 Y28.8449
G01 X26.1838 Y28.8449
G01 X26.1838 Y29.2712
G01 X26.1588 Y29.3087
G01 X26.1203 Y29.3728
G01 X26.0851 Y29.4387
G01 X26.0531 Y29.5063
G01 X26.0245 Y29.5753
G01 X25.9994 Y29.6457
G01 X25.9777 Y29.7172
G01 X25.9595 Y29.7897
G01 X25.9449 Y29.8630
G01 X25.9340 Y29.9370
G01 X25.9266 Y30.0113
G01 X25.9230 Y30.0860
G01 X25.9230 Y30.1607
G01 X25.9266 Y30.2354
G01 X25.9340 Y30.3098
G01 X25.9449 Y30.3837
G01 X25.9595 Y30.4570
G01 X25.9777 Y30.5296
G01 X25.9994 Y30.6011
G01 X26.0245 Y30.6715
G01 X26.0531 Y30.7405
G01 X26.0851 Y30.8081
G01 X26.1203 Y30.8740
G01 X26.1588 Y30.9381
G01 X26.2003 Y31.0002
G01 X26.2448 Y31.0603
G01 X26.2922 Y31.1180
G01 X26.3424 Y31.1735
G01 X26.3953 Y31.2263
G01 X26.4507 Y31.2765
G01 X26.5084 Y31.3239
G01 X26.5685 Y31.3684
G01 X26.6185 Y31.4018
G01 X24.9053 Y31.4018
G01 X24.8680 Y31.4028
G01 X24.8190 Y31.4052
G01 X24.7446 Y31.4125
G01 X24.6960 Y31.4197
G01 X24.6228 Y31.4343
G01 X24.5751 Y31.4462
G01 X24.5037 Y31.4679
G01 X24.4574 Y31.4844
G01 X24.3884 Y31.5130
G01 X24.3440 Y31.5340
G01 X24.2781 Y31.5692
G01 X24.2360 Y31.5945
G01 X24.1739 Y31.6360
G01 X24.1345 Y31.6652
G01 X24.0767 Y31.7126
G01 X24.0404 Y31.7456
G01 X23.9875 Y31.7984
G01 X23.9546 Y31.8348
G01 X23.9072 Y31.8925
G01 X23.8779 Y31.9320
G01 X23.8364 Y31.9941
G01 X23.8112 Y32.0362
G01 X23.7760 Y32.1021
G01 X23.7550 Y32.1465
G01 X23.7264 Y32.2155
G01 X23.7098 Y32.2617
G01 X23.6881 Y32.3332
G01 X23.6762 Y32.3808
G01 X23.6616 Y32.4541
G01 X23.6544 Y32.5026
G01 X23.6471 Y32.5770
G01 X23.6447 Y32.6260
G01 X23.6438 Y32.6634
G01 X23.6438 Y34.3512
G00 Z2.0000
G00 X33.3522 Y33.9249
G01 F60.00
G01 Z-0.2001
G01 F320.00
G01 X33.8038 Y33.9249
G01 X33.8038 Y34.3765
G01 X33.7704 Y34.3265
G01 X33.7259 Y34.2665
G01 X33.6785 Y34.2087
G01 X33.6282 Y34.1533
G01 X33.5754 Y34.1005
G01 X33.5200 Y34.0503
G01 X33.4623 Y34.0029
G01 X33.4022 Y33.9583
G01 X33.3522 Y33.9249
G00 Z2.0000
G00 X33.8038 Y36.0303
G01 F60.00
G01 Z-0.2001
G01 F320.00
G01 X33.8038 Y39.0039
G01 X33.7869 Y38.9959
G01 X33.7869 Y36.0556
G01 X33.8038 Y36.0303
G00 Z2.0000
G00 X39.3185 Y31.4018
G01 F60.00
G01 Z-0.2001
G01 F320.00
G01 X37.6053 Y31.4018
G01 X37.5680 Y31.4028
G01 X37.5190 Y31.4052
G01 X37.4446 Y31.4125
G01 X37.3960 Y31.4197
G01 X37.3228 Y31.4343
G01 X37.2751 Y31.4462
G01 X37.2037 Y31.4679
G01 X37.1574 Y31.4844
G01 X37.0884 Y31.5130
G01 X37.0440 Y31.5340
G01 X36.9781 Y31.5692
G01 X36.9360 Y31.5945
G01 X36.8739 Y31.6360
G01 X36.8345 Y31.6652
G01 X36.7767 Y31.7126
G01 X36.7404 Y31.7456
G01 X36.6875 Y31.7984
G01 X36.6546 Y31.8348
G01 X36.6072 Y31.8925
G01 X36.5779 Y31.9320
G01 X36.5364 Y31.9941
G01 X36.5112 Y32.0362
G01 X36.4760 Y32.1021
G01 X36.4550 Y32.1465
G01 X36.4264 Y32.2155
G01 X36.4098 Y32.2617
G01 X36.3881 Y32.3332
G01 X36.3762 Y32.3808
G01 X36.3616 Y32.4541
G01 X36.3544 Y32.5026
G01 X36.3471 Y32.5770
G01 X36.3447 Y32.6260
G01 X36.3438 Y32.6634
G01 X36.3438 Y34.3512
G01 X36.3269 Y34.3765
G01 X36.3269 Y32.6634
G01 X36.3260 Y32.6260
G01 X36.3236 Y32.5770
G01 X36.3162 Y32.5026
G01 X36.3090 Y32.4541
G01 X36.2945 Y32.3808
G01 X36.2825 Y32.3332
G01 X36.2608 Y32.2617
G01 X36.2443 Y32.2155
G01 X36.2157 Y32.1465
G01 X36.1947 Y32.1021
G01 X36.1595 Y32.0362
G01 X36.1343 Y31.9941
G01 X36.0928 Y31.9320
G01 X36.0635 Y31.8925
G01 X36.0161 Y31.8348
G01 X35.9832 Y31.7984
G01 X35.9303 Y31.7456
G01 X35.8939 Y31.7126
G01 X35.8362 Y31.6652
G01 X35.7968 Y31.6360
G01 X35.7346 Y31.5945
G01 X35.6925 Y31.5692
G01 X35.6267 Y31.5340
G01 X35.5823 Y31.5130
G01 X35.5132 Y31.4844
G01 X35.4670 Y31.4679
G01 X35.3955 Y31.4462
G01 X35.3479 Y31.4343
G01 X35.2746 Y31.4197
G01 X35.2261 Y31.4125
G01 X35.1517 Y31.4052
G01 X35.1027 Y31.4028
G01 X35.0653 Y31.4018
G01 X33.7869 Y31.4018
G01 X33.7869 Y30.9756
G01 X33.8119 Y30.9381
G01 X33.8503 Y30.8740
G01 X33.8856 Y30.8081
G01 X33.9175 Y30.7405
G01 X33.9461 Y30.6715
G01 X33.9713 Y30.6011
G01 X33.9930 Y30.5296
G01 X34.0112 Y30.4570
G01 X34.0258 Y30.3837
G01 X34.0367 Y30.3098
G01 X34.0441 Y30.2354
G01 X34.0477 Y30.1607
G01 X34.0477 Y30.0860
G01 X34.0441 Y30.0113
G01 X34.0367 Y29.9370
G01 X34.0258 Y29.8630
G01 X34.0112 Y29.7897
G01 X33.9930 Y29.7172
G01 X33.9713 Y29.6457
G01 X33.9461 Y29.5753
G01 X33.9175 Y29.5063
G01 X33.8856 Y29.4387
G01 X33.8503 Y29.3728
G01 X33.8119 Y29.3087
G01 X33.7704 Y29.2465
G01 X33.7259 Y29.1865
G01 X33.6785 Y29.1287
G01 X33.6282 Y29.0733
G01 X33.5754 Y29.0205
G01 X33.5200 Y28.9703
G01 X33.4623 Y28.9229
G01 X33.4022 Y28.8783
G01 X33.3522 Y28.8449
G01 X38.8838 Y28.8449
G01 X38.8838 Y29.2712
G01 X38.8588 Y29.3087
G01 X38.8203 Y29.3728
G01 X38.7851 Y29.4387
G01 X38.7531 Y29.5063
G01 X38.7245 Y29.5753
G01 X38.6994 Y29.6457
G01 X38.6777 Y29.7172
G01 X38.6595 Y29.7897
G01 X38.6449 Y29.8630
G01 X38.6340 Y29.9370
G01 X38.6266 Y30.0113
G01 X38.6230 Y30.0860
G01 X38.6230 Y30.1607
G01 X38.6266 Y30.2354
G01 X38.6340 Y30.3098
G01 X38.6449 Y30.3837
G01 X38.6595 Y30.4570
G01 X38.6777 Y30.5296
G01 X38.6994 Y30.6011
G01 X38.7245 Y30.6715
G01 X38.7531 Y30.7405
G01 X38.7851 Y30.8081
G01 X38.8203 Y30.8740
G01 X38.8588 Y30.9381
G01 X38.9003 Y31.0002
G01 X38.9448 Y31.0603
G01 X38.9922 Y31.1180
G01 X39.0424 Y31.1735
G01 X39.0953 Y31.2263
G01 X39.1507 Y31.2765
G01 X39.2084 Y31.3239
G01 X39.2685 Y31.3684
G01 X39.3185 Y31.4018
G00 Z2.0000
G00 X44.3985 Y28.8449
G01 F60.00
G01 Z-0.2001
G01 F320.00
G01 X44.3485 Y28.8783
G01 X44.2884 Y28.9229
G01 X44.2307 Y28.9703
G01 X44.1753 Y29.0205
G01 X44.1224 Y29.0733
G01 X44.0722 Y29.1287
G01 X44.0248 Y29.1865
G01 X43.9803 Y29.2465
G01 X43.9388 Y29.3087
G01 X43.9003 Y29.3728
G01 X43.8651 Y29.4387
G01 X43.8331 Y29.5063
G01 X43.8045 Y29.5753
G01 X43.7794 Y29.6457
G01 X43.7577 Y29.7172
G01 X43.7395 Y29.7897
G01 X43.7249 Y29.8630
G01 X43.7140 Y29.9370
G01 X43.7066 Y30.0113
G01 X43.7030 Y30.0860
G01 X43.7030 Y30.1607
G01 X43.7066 Y30.2354
G01 X43.7140 Y30.3098
G01 X43.7249 Y30.3837
G01 X43.7395 Y30.4570
G01 X43.7577 Y30.5296
G01 X43.7794 Y30.6011
G01 X43.8045 Y30.6715
G01 X43.8331 Y30.7405
G01 X43.8651 Y30.8081
G01 X43.9003 Y30.8740
G01 X43.9388 Y30.9381
G01 X43.9638 Y30.9756
G01 X43.9638 Y31.4018
G01 X40.9722 Y31.4018
G01 X41.0222 Y31.3684
G01 X41.0823 Y31.3239
G01 X41.1400 Y31.2765
G01 X41.1954 Y31.2263
G01 X41.2482 Y31.1735
G01 X41.2985 Y31.1180
G01 X41.3459 Y31.0603
G01 X41.3904 Y31.0002
G01 X41.4319 Y30.9381
G01 X41.4703 Y30.8740
G01 X41.5056 Y30.8081
G01 X41.5375 Y30.7405
G01 X41.5661 Y30.6715
G01 X41.5913 Y30.6011
G01 X41.6130 Y30.5296
G01 X41.6312 Y30.4570
G01 X41.6458 Y30.3837
G01 X41.6567 Y30.3098
G01 X41.6641 Y30.2354
G01 X41.6677 Y30.1607
G01 X41.6677 Y30.0860
G01 X41.6641 Y30.0113
G01 X41.6567 Y29.9370
G01 X41.6458 Y29.8630
G01 X41.6312 Y29.7897
G01 X41.6130 Y29.7172
G01 X41.5913 Y29.6457
G01 X41.5661 Y29.5753
G01 X41.5375 Y29.5063
G01 X41.5056 Y29.4387
G01 X41.4703 Y29.3728
G01 X41.4319 Y29.3087
G01 X41.4069 Y29.2712
G01 X41.4069 Y28.8449
G01 X44.3985 Y28.8449
G00 Z2.0000
G00 X46.0522 Y33.9249
G01 F60.00
G01 Z-0.2001
G01 F320.00
G01 X46.5038 Y33.9249
G01 X46.5038 Y34.3765
G01 X46.4704 Y34.3265
G01 X46.4259 Y34.2665
G01 X46.3785 Y34.2087
G01 X46.3282 Y34.1533
G01 X46.2754 Y34.1005
G01 X46.2200 Y34.0503
G01 X46.1623 Y34.0029
G01 X46.1022 Y33.9583
G01 X46.0522 Y33.9249
G00 Z2.0000
G00 X46.5038 Y36.0303
G01 F60.00
G01 Z-0.2001
G01 F320.00
G01 X46.5038 Y39.0039
G01 X46.4869 Y38.9959
G01 X46.4869 Y36.0556
G01 X46.5038 Y36.0303
G00 Z2.0000
G00 X49.0269 Y34.3765
G01 F60.00
G01 Z-0.2001
G01 F320.00
G01 X49.0269 Y32.6634
G01 X49.0260 Y32.6260
G01 X49.0236 Y32.5770
G01 X49.0162 Y32.5026
G01 X49.0090 Y32.4541
G01 X48.9945 Y32.3808
G01 X48.9825 Y32.3332
G01 X48.9608 Y32.2617
G01 X48.9443 Y32.2155
G01 X48.9157 Y32.1465
G01 X48.8947 Y32.1021
G01 X48.8595 Y32.0362
G01 X48.8343 Y31.9941
G01 X48.7928 Y31.9320
G01 X48.7635 Y31.8925
G01 X48.7161 Y31.8348
G01 X48.6832 Y31.7984
G01 X48.6303 Y31.7456
G01 X48.5939 Y31.7126
G01 X48.5362 Y31.6652
G01 X48.4968 Y31.6360
G01 X48.4346 Y31.5945
G01 X48.3925 Y31.5692
G01 X48.3267 Y31.5340
G01 X48.2823 Y31.5130
G01 X48.2132 Y31.4844
G01 X48.1670 Y31.4679
G01 X48.0955 Y31.4462
G01 X48.0479 Y31.4343
G01 X47.9746 Y31.4197
G01 X47.9261 Y31.4125
G01 X47.8517 Y31.4052
G01 X47.8027 Y31.4028
G01 X47.7653 Y31.4018
G01 X46.4869 Y31.4018
G01 X46.4869 Y30.9756
G01 X46.5119 Y30.9381
G01 X46.5503 Y30.8740
G01 X46.5856 Y30.8081
G01 X46.6175 Y30.7405
G01 X46.6461 Y30.6715
G01 X46.6713 Y30.6011
G01 X46.6930 Y30.5296
G01 X46.7112 Y30.4570
G01 X46.7258 Y30.3837
G01 X46.7367 Y30.3098
G01 X46.7441 Y30.2354
G01 X46.7477 Y30.1607
G01 X46.7477 Y30.0860
G01 X46.7441 Y30.0113
G01 X46.7367 Y29.9370
G01 X46.7258 Y29.8630
G01 X46.7112 Y29.7897
G01 X46.6930 Y29.7172
G01 X46.6713 Y29.6457
G01 X46.6461 Y29.5753
G01 X46.6175 Y29.5063
G01 X46.5856 Y29.4387
G01 X46.5503 Y29.3728
G01 X46.5119 Y29.3087
G01 X46.4704 Y29.2465
G01 X46.4259 Y29.1865
G01 X46.3785 Y29.1287
G01 X46.3282 Y29.0733
G01 X46.2754 Y29.0205
G01 X46.2200 Y28.9703
G01 X46.1623 Y28.9229
G01 X46.1022 Y28.8783
G01 X46.0522 Y28.8449
G01 X51.5838 Y28.8449
G01 X51.5838 Y29.2712
G01 X51.5588 Y29.3087
G01 X51.5203 Y29.3728
G01 X51.4851 Y29.4387
G01 X51.4531 Y29.5063
G01 X51.4245 Y29.5753
G01 X51.3994 Y29.6457
G01 X51.3777 Y29.7172
G01 X51.3595 Y29.7897
G01 X51.3449 Y29.8630
G01 X51.3340 Y29.9370
G01 X51.3266 Y30.0113
G01 X51.3230 Y30.0860
G01 X51.3230 Y30.1607
G01 X51.3266 Y30.2354
G01 X51.3340 Y30.3098
G01 X51.3449 Y30.3837
G01 X51.3595 Y30.4570
G01 X51.3777 Y30.5296
G01 X51.3994 Y30.6011
G01 X51.4245 Y30.6715
G01 X51.4531 Y30.7405
G01 X51.4851 Y30.8081
G01 X51.5203 Y30.8740
G01 X51.5588 Y30.9381
G01 X51.6003 Y31.0002
G01 X51.6448 Y31.0603
G01 X51.6922 Y31.1180
G01 X51.7424 Y31.1735
G01 X51.7953 Y31.2263
G01 X51.8507 Y31.2765
G01 X51.9084 Y31.3239
G01 X51.9685 Y31.3684
G01 X52.0185 Y31.4018
G01 X50.3053 Y31.4018
G01 X50.2680 Y31.4028
G01 X50.2190 Y31.4052
G01 X50.1446 Y31.4125
G01 X50.0960 Y31.4197
G01 X50.0228 Y31.4343
G01 X49.9751 Y31.4462
G01 X49.9037 Y31.4679
G01 X49.8574 Y31.4844
G01 X49.7884 Y31.5130
G01 X49.7440 Y31.5340
G01 X49.6781 Y31.5692
G01 X49.6360 Y31.5945
G01 X49.5739 Y31.6360
G01 X49.5345 Y31.6652
G01 X49.4767 Y31.7126
G01 X49.4404 Y31.7456
G01 X49.3875 Y31.7984
G01 X49.3546 Y31.8348
G01 X49.3072 Y31.8925
G01 X49.2779 Y31.9320
G01 X49.2364 Y31.9941
G01 X49.2112 Y32.0362
G01 X49.1760 Y32.1021
G01 X49.1550 Y32.1465
G01 X49.1264 Y32.2155
G01 X49.1098 Y32.2617
G01 X49.0881 Y32.3332
G01 X49.0762 Y32.3808
G01 X49.0616 Y32.4541
G01 X49.0544 Y32.5026
G01 X49.0471 Y32.5770
G01 X49.0447 Y32.6260
G01 X49.0438 Y32.6634
G01 X49.0438 Y34.3512
G01 X49.0269 Y34.3765
G00 Z2.0000
G00 X51.5470 Y41.5534
G01 F60.00
G01 Z-0.2001
G01 F320.00
G01 X51.5311 Y41.5618
G01 X49.0269 Y41.5618
G01 X49.0269 Y36.0303
G01 X49.0603 Y36.0802
G01 X49.1048 Y36.1403
G01 X49.1522 Y36.1980
G01 X49.2024 Y36.2535
G01 X49.2553 Y36.3063
G01 X49.3107 Y36.3565
G01 X49.3684 Y36.4039
G01 X49.4285 Y36.4484
G01 X49.4906 Y36.4900
G01 X49.5547 Y36.5284
G01 X49.6206 Y36.5636
G01 X49.6882 Y36.5956
G01 X49.7573 Y36.6242
G01 X49.8277 Y36.6494
G01 X49.8992 Y36.6711
G01 X49.9717 Y36.6892
G01 X50.0450 Y36.7038
G01 X50.1189 Y36.7148
G01 X50.1933 Y36.7221
G01 X50.2680 Y36.7258
G01 X50.3427 Y36.7258
G01 X50.4174 Y36.7221
G01 X50.4917 Y36.7148
G01 X50.5657 Y36.7038
G01 X50.6390 Y36.6892
G01 X50.7115 Y36.6711
G01 X50.7830 Y36.6494
G01 X50.8534 Y36.6242
G01 X50.9224 Y36.5956
G01 X50.9900 Y36.5636
G01 X51.0559 Y36.5284
G01 X51.1201 Y36.4900
G01 X51.1822 Y36.4484
G01 X51.2423 Y36.4039
G01 X51.3000 Y36.3565
G01 X51.3554 Y36.3063
G01 X51.4082 Y36.2535
G01 X51.4585 Y36.1980
G01 X51.5059 Y36.1403
G01 X51.5504 Y36.0802
G01 X51.5919 Y36.0181
G01 X51.6303 Y35.9540
G01 X51.6656 Y35.8881
G01 X51.6975 Y35.8205
G01 X51.7261 Y35.7515
G01 X51.7513 Y35.6811
G01 X51.7730 Y35.6096
G01 X51.7912 Y35.5370
G01 X51.8058 Y35.4637
G01 X51.8167 Y35.3898
G01 X51.8241 Y35.3154
G01 X51.8277 Y35.2407
G01 X51.8277 Y35.1660
G01 X51.8241 Y35.0913
G01 X51.8167 Y35.0170
G01 X51.8058 Y34.9430
G01 X51.7912 Y34.8697
G01 X51.7730 Y34.7972
G01 X51.7513 Y34.7257
G01 X51.7261 Y34.6553
G01 X51.6975 Y34.5863
G01 X51.6656 Y34.5187
G01 X51.6303 Y34.4528
G01 X51.5919 Y34.3887
G01 X51.5669 Y34.3512
G01 X51.5669 Y33.9249
G01 X57.0985 Y33.9249
G01 X57.0485 Y33.9583
G01 X56.9884 Y34.0029
G01 X56.9307 Y34.0503
G01 X56.8753 Y34.1005
G01 X56.8224 Y34.1533
G01 X56.7722 Y34.2087
G01 X56.7248 Y34.2665
G01 X56.6803 Y34.3265
G01 X56.6388 Y34.3887
G01 X56.6003 Y34.4528
G01 X56.5651 Y34.5187
G01 X56.5331 Y34.5863
G01 X56.5045 Y34.6553
G01 X56.4794 Y34.7257
G01 X56.4577 Y34.7972
G01 X56.4395 Y34.8697
G01 X56.4249 Y34.9430
G01 X56.4140 Y35.0170
G01 X56.4066 Y35.0913
G01 X56.4030 Y35.1660
G01 X56.4030 Y35.2407
G01 X56.4066 Y35.3154
G01 X56.4140 Y35.3898
G01 X56.4249 Y35.4637
G01 X56.4395 Y35.5370
G01 X56.4577 Y35.6096
G01 X56.4794 Y35.6811
G01 X56.5045 Y35.7515
G01 X56.5331 Y35.8205
G01 X56.5651 Y35.8881
G01 X56.6003 Y35.9540
G01 X56.6388 Y36.0181
G01 X56.6638 Y36.0556
G01 X56.6638 Y38.9959
G01 X56.6281 Y39.0128
G01 X56.5622 Y39.0480
G01 X56.5067 Y39.0813
G01 X56.4445 Y39.1228
G01 X56.3925 Y39.1614
G01 X56.3347 Y39.2088
G01 X56.2867 Y39.2523
G01 X56.2339 Y39.3052
G01 X56.2111 Y39.3303
G01 X56.1562 Y39.2852
G01 X56.1168 Y39.2560
G01 X56.0546 Y39.2145
G01 X56.0125 Y39.1892
G01 X55.9467 Y39.1540
G01 X55.9023 Y39.1330
G01 X55.8332 Y39.1044
G01 X55.7870 Y39.0879
G01 X55.7155 Y39.0662
G01 X55.6679 Y39.0543
G01 X55.5946 Y39.0397
G01 X55.5461 Y39.0325
G01 X55.4717 Y39.0252
G01 X55.4227 Y39.0228
G01 X55.3853 Y39.0218
G01 X54.1595 Y39.0218
G01 X54.1425 Y39.0128
G01 X54.0840 Y38.9850
G01 X54.0149 Y38.9565
G01 X53.9539 Y38.9346
G01 X53.8824 Y38.9129
G01 X53.8196 Y38.8972
G01 X53.7463 Y38.8826
G01 X53.6822 Y38.8731
G01 X53.6078 Y38.8658
G01 X53.5431 Y38.8626
G01 X53.5057 Y38.8617
G01 X52.1849 Y38.8617
G01 X52.1476 Y38.8626
G01 X52.0829 Y38.8658
G01 X52.0085 Y38.8731
G01 X51.9444 Y38.8826
G01 X51.8711 Y38.8972
G01 X51.8083 Y38.9129
G01 X51.7368 Y38.9346
G01 X51.6757 Y38.9565
G01 X51.6067 Y38.9850
G01 X51.5481 Y39.0128
G01 X51.4822 Y39.0480
G01 X51.4267 Y39.0813
G01 X51.3645 Y39.1228
G01 X51.3125 Y39.1614
G01 X51.2547 Y39.2088
G01 X51.2067 Y39.2523
G01 X51.1539 Y39.3052
G01 X51.1104 Y39.3532
G01 X51.0630 Y39.4109
G01 X51.0244 Y39.4630
G01 X50.9828 Y39.5251
G01 X50.9495 Y39.5807
G01 X50.9143 Y39.6466
G01 X50.8866 Y39.7052
G01 X50.8580 Y39.7742
G01 X50.8362 Y39.8352
G01 X50.8145 Y39.9067
G01 X50.7987 Y39.9696
G01 X50.7842 Y40.0428
G01 X50.7747 Y40.1069
G01 X50.7673 Y40.1813
G01 X50.7642 Y40.2460
G01 X50.7642 Y40.3207
G01 X50.7673 Y40.3855
G01 X50.7747 Y40.4598
G01 X50.7842 Y40.5239
G01 X50.7987 Y40.5972
G01 X50.8145 Y40.6601
G01 X50.8362 Y40.7316
G01 X50.8580 Y40.7926
G01 X50.8866 Y40.8616
G01 X50.9143 Y40.9202
G01 X50.9495 Y40.9861
G01 X50.9828 Y41.0417
G01 X51.0244 Y41.1038
G01 X51.0630 Y41.1558
G01 X51.1104 Y41.2136
G01 X51.1539 Y41.2616
G01 X51.2067 Y41.3144
G01 X51.2547 Y41.3580
G01 X51.3125 Y41.4054
G01 X51.3645 Y41.4440
G01 X51.4267 Y41.4855
G01 X51.4822 Y41.5188
G01 X51.5470 Y41.5534
G00 Z2.0000
G00 X56.6469 Y44.1029
G01 F60.00
G01 Z-0.2001
G01 F320.00
G01 X56.6638 Y44.1109
G01 X56.6638 Y47.9034
G01 X56.6647 Y47.9407
G01 X56.6671 Y47.9898
G01 X56.6744 Y48.0641
G01 X56.6816 Y48.1127
G01 X56.6962 Y48.1860
G01 X56.7081 Y48.2336
G01 X56.7298 Y48.3051
G01 X56.7464 Y48.3513
G01 X56.7750 Y48.4203
G01 X56.7960 Y48.4647
G01 X56.8312 Y48.5306
G01 X56.8564 Y48.5727
G01 X56.8979 Y48.6348
G01 X56.9272 Y48.6742
G01 X56.9746 Y48.7320
G01 X57.0075 Y48.7684
G01 X57.0604 Y48.8212
G01 X57.0967 Y48.8542
G01 X57.1545 Y48.9016
G01 X57.1939 Y48.9308
G01 X57.2560 Y48.9723
G01 X57.2981 Y48.9976
G01 X57.3433 Y49.0217
G01 X57.2649 Y49.0217
G01 X57.2276 Y49.0226
G01 X57.1629 Y49.0258
G01 X57.0885 Y49.0331
G01 X57.0244 Y49.0426
G01 X56.9511 Y49.0572
G01 X56.8883 Y49.0729
G01 X56.8168 Y49.0946
G01 X56.7557 Y49.1165
G01 X56.6867 Y49.1450
G01 X56.6469 Y49.1639
G01 X56.6469 Y44.1029
G00 Z2.0000
G00 X59.2060 Y49.1649
G01 F60.00
G01 Z-0.2001
G01 F320.00
G01 X59.6132 Y49.1649
G01 X59.6385 Y49.1818
G01 X59.2395 Y49.1818
G01 X59.2225 Y49.1728
G01 X59.2060 Y49.1649
G00 Z2.0000
G00 X59.2060 Y51.7218
G01 F60.00
G01 Z-0.2001
G01 F320.00
G01 X59.2225 Y51.7140
G01 X59.2395 Y51.7049
G01 X59.6385 Y51.7049
G01 X59.6132 Y51.7218
G01 X59.2060 Y51.7218
G00 Z2.0000
G00 X61.2922 Y51.7049
G01 F60.00
G01 Z-0.2001
G01 F320.00
G01 X64.2311 Y51.7049
G01 X64.2481 Y51.7140
G01 X64.2647 Y51.7218
G01 X61.3175 Y51.7218
G01 X61.2922 Y51.7049
G00 Z2.0000
G00 X62.1785 Y54.2449
G01 F60.00
G01 Z-0.2001
G01 F320.00
G01 X62.1285 Y54.2783
G01 X62.0684 Y54.3229
G01 X62.0107 Y54.3703
G01 X61.9553 Y54.4205
G01 X61.9024 Y54.4733
G01 X61.8522 Y54.5287
G01 X61.8048 Y54.5865
G01 X61.7603 Y54.6465
G01 X61.7269 Y54.6965
G01 X61.7269 Y54.2449
G01 X62.1785 Y54.2449
G00 Z2.0000
G00 X61.7269 Y56.3503
G01 F60.00
G01 Z-0.2001
G01 F320.00
G01 X61.7603 Y56.4002
G01 X61.8048 Y56.4603
G01 X61.8522 Y56.5180
G01 X61.9024 Y56.5735
G01 X61.9553 Y56.6263
G01 X62.0107 Y56.6765
G01 X62.0684 Y56.7239
G01 X62.1285 Y56.7684
G01 X62.1785 Y56.8018
G01 X61.7269 Y56.8018
G01 X61.7269 Y56.3503
G00 Z2.0000
G00 X63.5716 Y56.9366
G01 F60.00
G01 Z-0.2001
G01 F320.00
G01 X63.6224 Y56.9156
G01 X63.6900 Y56.8836
G01 X63.7559 Y56.8484
G01 X63.8201 Y56.8100
G01 X63.8575 Y56.7849
G01 X64.2647 Y56.7849
G01 X64.2481 Y56.7928
G01 X64.1822 Y56.8280
G01 X64.1267 Y56.8613
G01 X64.0645 Y56.9028
G01 X64.0125 Y56.9414
G01 X63.9547 Y56.9888
G01 X63.9067 Y57.0323
G01 X63.8539 Y57.0852
G01 X63.8311 Y57.1103
G01 X63.7762 Y57.0652
G01 X63.7368 Y57.0360
G01 X63.6746 Y56.9945
G01 X63.6325 Y56.9692
G01 X63.5716 Y56.9366
G00 Z2.0000
G00 X64.7185 Y54.2618
G01 F60.00
G01 Z-0.2001
G01 F320.00
G01 X63.8575 Y54.2618
G01 X63.8322 Y54.2449
G01 X64.6932 Y54.2449
G01 X64.7185 Y54.2618
G00 Z2.0000
G00 X66.8238 Y53.8103
G01 F60.00
G01 Z-0.2001
G01 F320.00
G01 X66.8238 Y56.7839
G01 X66.8069 Y56.7759
G01 X66.8069 Y55.5234
G01 X66.8060 Y55.4860
G01 X66.8036 Y55.4370
G01 X66.7962 Y55.3626
G01 X66.7890 Y55.3141
G01 X66.7745 Y55.2408
G01 X66.7625 Y55.1932
G01 X66.7408 Y55.1217
G01 X66.7243 Y55.0755
G01 X66.6957 Y55.0065
G01 X66.6747 Y54.9621
G01 X66.6395 Y54.8962
G01 X66.6143 Y54.8541
G01 X66.5728 Y54.7920
G01 X66.5435 Y54.7525
G01 X66.4961 Y54.6948
G01 X66.4632 Y54.6584
G01 X66.4103 Y54.6056
G01 X66.3739 Y54.5726
G01 X66.3162 Y54.5252
G01 X66.2768 Y54.4960
G01 X66.2146 Y54.4545
G01 X66.1725 Y54.4292
G01 X66.1116 Y54.3966
G01 X66.1624 Y54.3756
G01 X66.2300 Y54.3436
G01 X66.2959 Y54.3084
G01 X66.3601 Y54.2700
G01 X66.4222 Y54.2284
G01 X66.4823 Y54.1839
G01 X66.5400 Y54.1365
G01 X66.5954 Y54.0863
G01 X66.6482 Y54.0335
G01 X66.6985 Y53.9780
G01 X66.7459 Y53.9203
G01 X66.7904 Y53.8602
G01 X66.8238 Y53.8103
G00 Z2.0000
G00 X66.5346 Y51.8258
G01 F60.00
G01 Z-0.2001
G01 F320.00
G01 X66.5824 Y51.8138
G01 X66.6539 Y51.7921
G01 X66.7149 Y51.7703
G01 X66.7840 Y51.7417
G01 X66.8238 Y51.7229
G01 X66.8238 Y52.1565
G01 X66.7904 Y52.1065
G01 X66.7459 Y52.0465
G01 X66.6985 Y51.9887
G01 X66.6482 Y51.9333
G01 X66.5954 Y51.8805
G01 X66.5400 Y51.8303
G01 X66.5346 Y51.8258
G00 Z2.0000
G00 X66.8238 Y49.1639
G01 F60.00
G01 Z-0.2001
G01 F320.00
G01 X66.7840 Y49.1450
G01 X66.7149 Y49.1165
G01 X66.6539 Y49.0946
G01 X66.5824 Y49.0729
G01 X66.5196 Y49.0572
G01 X66.4463 Y49.0426
G01 X66.3822 Y49.0331
G01 X66.3078 Y49.0258
G01 X66.2431 Y49.0226
G01 X66.2057 Y49.0217
G01 X64.8849 Y49.0217
G01 X64.8476 Y49.0226
G01 X64.7829 Y49.0258
G01 X64.7085 Y49.0331
G01 X64.6444 Y49.0426
G01 X64.5711 Y49.0572
G01 X64.5083 Y49.0729
G01 X64.4368 Y49.0946
G01 X64.3757 Y49.1165
G01 X64.3067 Y49.1450
G01 X64.2481 Y49.1728
G01 X64.2311 Y49.1818
G01 X61.2922 Y49.1818
G01 X61.3422 Y49.1484
G01 X61.4023 Y49.1039
G01 X61.4600 Y49.0565
G01 X61.5154 Y49.0063
G01 X61.5682 Y48.9535
G01 X61.6185 Y48.8980
G01 X61.6659 Y48.8403
G01 X61.7104 Y48.7802
G01 X61.7519 Y48.7181
G01 X61.7903 Y48.6540
G01 X61.8256 Y48.5881
G01 X61.8575 Y48.5205
G01 X61.8861 Y48.4515
G01 X61.9113 Y48.3811
G01 X61.9330 Y48.3096
G01 X61.9512 Y48.2370
G01 X61.9658 Y48.1637
G01 X61.9767 Y48.0898
G01 X61.9841 Y48.0154
G01 X61.9877 Y47.9407
G01 X61.9877 Y47.8660
G01 X61.9841 Y47.7913
G01 X61.9767 Y47.7170
G01 X61.9658 Y47.6430
G01 X61.9512 Y47.5697
G01 X61.9330 Y47.4972
G01 X61.9113 Y47.4257
G01 X61.8861 Y47.3553
G01 X61.8575 Y47.2863
G01 X61.8256 Y47.2187
G01 X61.7903 Y47.1528
G01 X61.7519 Y47.0887
G01 X61.7104 Y47.0265
G01 X61.6659 Y46.9665
G01 X61.6185 Y46.9087
G01 X61.5682 Y46.8533
G01 X61.5154 Y46.8005
G01 X61.4600 Y46.7503
G01 X61.4023 Y46.7029
G01 X61.3422 Y46.6583
G01 X61.2801 Y46.6168
G01 X61.2159 Y46.5784
G01 X61.1500 Y46.5432
G01 X61.0824 Y46.5112
G01 X61.0134 Y46.4826
G01 X60.9430 Y46.4574
G01 X60.8715 Y46.4357
G01 X60.7990 Y46.4175
G01 X60.7257 Y46.4030
G01 X60.6517 Y46.3920
G01 X60.5774 Y46.3847
G01 X60.5027 Y46.3810
G01 X60.4280 Y46.3810
G01 X60.3533 Y46.3847
G01 X60.2789 Y46.3920
G01 X60.2050 Y46.4030
G01 X60.1317 Y46.4175
G01 X60.0592 Y46.4357
G01 X59.9877 Y46.4574
G01 X59.9173 Y46.4826
G01 X59.8482 Y46.5112
G01 X59.7806 Y46.5432
G01 X59.7147 Y46.5784
G01 X59.6506 Y46.6168
G01 X59.6132 Y46.6418
G01 X59.1869 Y46.6418
G01 X59.1869 Y44.1109
G01 X59.2225 Y44.0940
G01 X59.2884 Y44.0588
G01 X59.3440 Y44.0255
G01 X59.4061 Y43.9840
G01 X59.4582 Y43.9454
G01 X59.5159 Y43.8980
G01 X59.5640 Y43.8544
G01 X59.6168 Y43.8016
G01 X59.6396 Y43.7765
G01 X59.6945 Y43.8216
G01 X59.7339 Y43.8508
G01 X59.7960 Y43.8923
G01 X59.8381 Y43.9176
G01 X59.9040 Y43.9528
G01 X59.9484 Y43.9738
G01 X60.0174 Y44.0023
G01 X60.0637 Y44.0189
G01 X60.1351 Y44.0406
G01 X60.1828 Y44.0525
G01 X60.2560 Y44.0671
G01 X60.3046 Y44.0743
G01 X60.3790 Y44.0816
G01 X60.4280 Y44.0840
G01 X60.4653 Y44.0849
G01 X64.2311 Y44.0849
G01 X64.2481 Y44.0940
G01 X64.3067 Y44.1217
G01 X64.3757 Y44.1503
G01 X64.4368 Y44.1721
G01 X64.5083 Y44.1938
G01 X64.5711 Y44.2096
G01 X64.6444 Y44.2242
G01 X64.7085 Y44.2337
G01 X64.7829 Y44.2410
G01 X64.8476 Y44.2442
G01 X64.8849 Y44.2451
G01 X66.2057 Y44.2451
G01 X66.2431 Y44.2442
G01 X66.3078 Y44.2410
G01 X66.3822 Y44.2337
G01 X66.4463 Y44.2242
G01 X66.5196 Y44.2096
G01 X66.5824 Y44.1938
G01 X66.6539 Y44.1721
G01 X66.7149 Y44.1503
G01 X66.7840 Y44.1217
G01 X66.8238 Y44.1029
G01 X66.8238 Y49.1639
G00 Z2.0000
G00 X69.3469 Y51.7229
G01 F60.00
G01 Z-0.2001
G01 F320.00
G01 X69.3867 Y51.7417
G01 X69.4557 Y51.7703
G01 X69.5168 Y51.7921
G01 X69.5883 Y51.8138
G01 X69.6361 Y51.8258
G01 X69.6307 Y51.8303
G01 X69.5753 Y51.8805
G01 X69.5224 Y51.9333
G01 X69.4722 Y51.9887
G01 X69.4248 Y52.0465
G01 X69.3803 Y52.1065
G01 X69.3469 Y52.1565
G01 X69.3469 Y51.7229
G00 Z2.0000
G00 X71.9060 Y51.7218
G01 F60.00
G01 Z-0.2001
G01 F320.00
G01 X71.9225 Y51.7140
G01 X71.9395 Y51.7049
G01 X72.3385 Y51.7049
G01 X72.3132 Y51.7218
G01 X71.9060 Y51.7218
G00 Z2.0000
G00 X73.9922 Y51.7049
G01 F60.00
G01 Z-0.2001
G01 F320.00
G01 X76.9311 Y51.7049
G01 X76.9481 Y51.7140
G01 X76.9647 Y51.7218
G01 X74.0175 Y51.7218
G01 X73.9922 Y51.7049
G00 Z2.0000
G00 X73.9922 Y49.1818
G01 F60.00
G01 Z-0.2001
G01 F320.00
G01 X74.0422 Y49.1484
G01 X74.1023 Y49.1039
G01 X74.1600 Y49.0565
G01 X74.2154 Y49.0063
G01 X74.2682 Y48.9535
G01 X74.3185 Y48.8980
G01 X74.3659 Y48.8403
G01 X74.4104 Y48.7802
G01 X74.4519 Y48.7181
G01 X74.4903 Y48.6540
G01 X74.5256 Y48.5881
G01 X74.5575 Y48.5205
G01 X74.5861 Y48.4515
G01 X74.6113 Y48.3811
G01 X74.6330 Y48.3096
G01 X74.6512 Y48.2370
G01 X74.6658 Y48.1637
G01 X74.6767 Y48.0898
G01 X74.6841 Y48.0154
G01 X74.6877 Y47.9407
G01 X74.6877 Y47.8660
G01 X74.6841 Y47.7913
G01 X74.6767 Y47.7170
G01 X74.6658 Y47.6430
G01 X74.6512 Y47.5697
G01 X74.6330 Y47.4972
G01 X74.6113 Y47.4257
G01 X74.5861 Y47.3553
G01 X74.5575 Y47.2863
G01 X74.5256 Y47.2187
G01 X74.4903 Y47.1528
G01 X74.4519 Y47.0887
G01 X74.4104 Y47.0265
G01 X74.3659 Y46.9665
G01 X74.3185 Y46.9087
G01 X74.2682 Y46.8533
G01 X74.2154 Y46.8005
G01 X74.1600 Y46.7503
G01 X74.1023 Y46.7029
G01 X74.0422 Y46.6583
G01 X73.9801 Y46.6168
G01 X73.9159 Y46.5784
G01 X73.8500 Y46.5432
G01 X73.7824 Y46.5112
G01 X73.7134 Y46.4826
G01 X73.6430 Y46.4574
G01 X73.5715 Y46.4357
G01 X73.4990 Y46.4175
G01 X73.4257 Y46.4030
G01 X73.3517 Y46.3920
G01 X73.2774 Y46.3847
G01 X73.2027 Y46.3810
G01 X73.1280 Y46.3810
G01 X73.0533 Y46.3847
G01 X72.9789 Y46.3920
G01 X72.9050 Y46.4030
G01 X72.8317 Y46.4175
G01 X72.7592 Y46.4357
G01 X72.6877 Y46.4574
G01 X72.6173 Y46.4826
G01 X72.5482 Y46.5112
G01 X72.4806 Y46.5432
G01 X72.4147 Y46.5784
G01 X72.3506 Y46.6168
G01 X72.3132 Y46.6418
G01 X71.8869 Y46.6418
G01 X71.8869 Y44.1109
G01 X71.9225 Y44.0940
G01 X71.9884 Y44.0588
G01 X72.0440 Y44.0255
G01 X72.1061 Y43.9840
G01 X72.1582 Y43.9454
G01 X72.2159 Y43.8980
G01 X72.2640 Y43.8544
G01 X72.3168 Y43.8016
G01 X72.3396 Y43.7765
G01 X72.3945 Y43.8216
G01 X72.4339 Y43.8508
G01 X72.4960 Y43.8923
G01 X72.5381 Y43.9176
G01 X72.6040 Y43.9528
G01 X72.6484 Y43.9738
G01 X72.7174 Y44.0023
G01 X72.7637 Y44.0189
G01 X72.8351 Y44.0406
G01 X72.8828 Y44.0525
G01 X72.9560 Y44.0671
G01 X73.0046 Y44.0743
G01 X73.0790 Y44.0816
G01 X73.1280 Y44.0840
G01 X73.1653 Y44.0849
G01 X76.9311 Y44.0849
G01 X76.9481 Y44.0940
G01 X77.0067 Y44.1217
G01 X77.0757 Y44.1503
G01 X77.1368 Y44.1721
G01 X77.2083 Y44.1938
G01 X77.2711 Y44.2096
G01 X77.3444 Y44.2242
G01 X77.4085 Y44.2337
G01 X77.4829 Y44.2410
G01 X77.5476 Y44.2442
G01 X77.5849 Y44.2451
G01 X78.9057 Y44.2451
G01 X78.9431 Y44.2442
G01 X79.0078 Y44.2410
G01 X79.0822 Y44.2337
G01 X79.1463 Y44.2242
G01 X79.2196 Y44.2096
G01 X79.2824 Y44.1938
G01 X79.3539 Y44.1721
G01 X79.4149 Y44.1503
G01 X79.4840 Y44.1217
G01 X79.5238 Y44.1029
G01 X79.5238 Y49.1639
G01 X79.4840 Y49.1450
G01 X79.4149 Y49.1165
G01 X79.3539 Y49.0946
G01 X79.2824 Y49.0729
G01 X79.2196 Y49.0572
G01 X79.1463 Y49.0426
G01 X79.0822 Y49.0331
G01 X79.0078 Y49.0258
G01 X78.9431 Y49.0226
G01 X78.9057 Y49.0217
G01 X77.5849 Y49.0217
G01 X77.5476 Y49.0226
G01 X77.4829 Y49.0258
G01 X77.4085 Y49.0331
G01 X77.3444 Y49.0426
G01 X77.2711 Y49.0572
G01 X77.2083 Y49.0729
G01 X77.1368 Y49.0946
G01 X77.0757 Y49.1165
G01 X77.0067 Y49.1450
G01 X76.9481 Y49.1728
G01 X76.9311 Y49.1818
G01 X73.9922 Y49.1818
G00 Z2.0000
G00 X71.9060 Y49.1649
G01 F60.00
G01 Z-0.2001
G01 F320.00
G01 X72.3132 Y49.1649
G01 X72.3385 Y49.1818
G01 X71.9395 Y49.1818
G01 X71.9225 Y49.1728
G01 X71.9060 Y49.1649
G00 Z2.0000
G00 X69.3469 Y44.1029
G01 F60.00
G01 Z-0.2001
G01 F320.00
G01 X69.3638 Y44.1109
G01 X69.3638 Y47.9034
G01 X69.3647 Y47.9407
G01 X69.3671 Y47.9898
G01 X69.3744 Y48.0641
G01 X69.3816 Y48.1127
G01 X69.3962 Y48.1860
G01 X69.4081 Y48.2336
G01 X69.4298 Y48.3051
G01 X69.4464 Y48.3513
G01 X69.4750 Y48.4203
G01 X69.4960 Y48.4647
G01 X69.5312 Y48.5306
G01 X69.5564 Y48.5727
G01 X69.5979 Y48.6348
G01 X69.6272 Y48.6742
G01 X69.6746 Y48.7320
G01 X69.7075 Y48.7684
G01 X69.7604 Y48.8212
G01 X69.7967 Y48.8542
G01 X69.8545 Y48.9016
G01 X69.8939 Y48.9308
G01 X69.9560 Y48.9723
G01 X69.9981 Y48.9976
G01 X70.0433 Y49.0217
G01 X69.9649 Y49.0217
G01 X69.9276 Y49.0226
G01 X69.8629 Y49.0258
G01 X69.7885 Y49.0331
G01 X69.7244 Y49.0426
G01 X69.6511 Y49.0572
G01 X69.5883 Y49.0729
G01 X69.5168 Y49.0946
G01 X69.4557 Y49.1165
G01 X69.3867 Y49.1450
G01 X69.3469 Y49.1639
G01 X69.3469 Y44.1029
G00 Z2.0000
G00 X64.2470 Y41.5534
G01 F60.00
G01 Z-0.2001
G01 F320.00
G01 X64.2311 Y41.5618
G01 X61.7269 Y41.5618
G01 X61.7269 Y36.0303
G01 X61.7603 Y36.0802
G01 X61.8048 Y36.1403
G01 X61.8522 Y36.1980
G01 X61.9024 Y36.2535
G01 X61.9553 Y36.3063
G01 X62.0107 Y36.3565
G01 X62.0684 Y36.4039
G01 X62.1285 Y36.4484
G01 X62.1906 Y36.4900
G01 X62.2547 Y36.5284
G01 X62.3206 Y36.5636
G01 X62.3882 Y36.5956
G01 X62.4573 Y36.6242
G01 X62.5277 Y36.6494
G01 X62.5992 Y36.6711
G01 X62.6717 Y36.6892
G01 X62.7450 Y36.7038
G01 X62.8189 Y36.7148
G01 X62.8933 Y36.7221
G01 X62.9680 Y36.7258
G01 X63.0427 Y36.7258
G01 X63.1174 Y36.7221
G01 X63.1917 Y36.7148
G01 X63.2657 Y36.7038
G01 X63.3390 Y36.6892
G01 X63.4115 Y36.6711
G01 X63.4830 Y36.6494
G01 X63.5534 Y36.6242
G01 X63.6224 Y36.5956
G01 X63.6900 Y36.5636
G01 X63.7559 Y36.5284
G01 X63.8201 Y36.4900
G01 X63.8822 Y36.4484
G01 X63.9423 Y36.4039
G01 X64.0000 Y36.3565
G01 X64.0554 Y36.3063
G01 X64.1082 Y36.2535
G01 X64.1585 Y36.1980
G01 X64.2059 Y36.1403
G01 X64.2504 Y36.0802
G01 X64.2919 Y36.0181
G01 X64.3303 Y35.9540
G01 X64.3656 Y35.8881
G01 X64.3975 Y35.8205
G01 X64.4261 Y35.7515
G01 X64.4513 Y35.6811
G01 X64.4730 Y35.6096
G01 X64.4912 Y35.5370
G01 X64.5058 Y35.4637
G01 X64.5167 Y35.3898
G01 X64.5241 Y35.3154
G01 X64.5277 Y35.2407
G01 X64.5277 Y35.1660
G01 X64.5241 Y35.0913
G01 X64.5167 Y35.0170
G01 X64.5058 Y34.9430
G01 X64.4912 Y34.8697
G01 X64.4730 Y34.7972
G01 X64.4513 Y34.7257
G01 X64.4261 Y34.6553
G01 X64.3975 Y34.5863
G01 X64.3656 Y34.5187
G01 X64.3303 Y34.4528
G01 X64.2919 Y34.3887
G01 X64.2669 Y34.3512
G01 X64.2669 Y33.9249
G01 X69.7985 Y33.9249
G01 X69.7485 Y33.9583
G01 X69.6884 Y34.0029
G01 X69.6307 Y34.0503
G01 X69.5753 Y34.1005
G01 X69.5224 Y34.1533
G01 X69.4722 Y34.2087
G01 X69.4248 Y34.2665
G01 X69.3803 Y34.3265
G01 X69.3388 Y34.3887
G01 X69.3003 Y34.4528
G01 X69.2651 Y34.5187
G01 X69.2331 Y34.5863
G01 X69.2045 Y34.6553
G01 X69.1794 Y34.7257
G01 X69.1577 Y34.7972
G01 X69.1395 Y34.8697
G01 X69.1249 Y34.9430
G01 X69.1140 Y35.0170
G01 X69.1066 Y35.0913
G01 X69.1030 Y35.1660
G01 X69.1030 Y35.2407
G01 X69.1066 Y35.3154
G01 X69.1140 Y35.3898
G01 X69.1249 Y35.4637
G01 X69.1395 Y35.5370
G01 X69.1577 Y35.6096
G01 X69.1794 Y35.6811
G01 X69.2045 Y35.7515
G01 X69.2331 Y35.8205
G01 X69.2651 Y35.8881
G01 X69.3003 Y35.9540
G01 X69.3388 Y36.0181
G01 X69.3638 Y36.0556
G01 X69.3638 Y38.9959
G01 X69.3281 Y39.0128
G01 X69.2622 Y39.0480
G01 X69.2067 Y39.0813
G01 X69.1445 Y39.1228
G01 X69.0925 Y39.1614
G01 X69.0347 Y39.2088
G01 X68.9867 Y39.2523
G01 X68.9339 Y39.3052
G01 X68.9111 Y39.3303
G01 X68.8562 Y39.2852
G01 X68.8168 Y39.2560
G01 X68.7546 Y39.2145
G01 X68.7125 Y39.1892
G01 X68.6467 Y39.1540
G01 X68.6023 Y39.1330
G01 X68.5332 Y39.1044
G01 X68.4870 Y39.0879
G01 X68.4155 Y39.0662
G01 X68.3679 Y39.0543
G01 X68.2946 Y39.0397
G01 X68.2461 Y39.0325
G01 X68.1717 Y39.0252
G01 X68.1227 Y39.0228
G01 X68.0853 Y39.0218
G01 X66.8595 Y39.0218
G01 X66.8425 Y39.0128
G01 X66.7840 Y38.9850
G01 X66.7149 Y38.9565
G01 X66.6539 Y38.9346
G01 X66.5824 Y38.9129
G01 X66.5196 Y38.8972
G01 X66.4463 Y38.8826
G01 X66.3822 Y38.8731
G01 X66.3078 Y38.8658
G01 X66.2431 Y38.8626
G01 X66.2057 Y38.8617
G01 X64.8849 Y38.8617
G01 X64.8476 Y38.8626
G01 X64.7829 Y38.8658
G01 X64.7085 Y38.8731
G01 X64.6444 Y38.8826
G01 X64.5711 Y38.8972
G01 X64.5083 Y38.9129
G01 X64.4368 Y38.9346
G01 X64.3757 Y38.9565
G01 X64.3067 Y38.9850
G01 X64.2481 Y39.0128
G01 X64.1822 Y39.0480
G01 X64.1267 Y39.0813
G01 X64.0645 Y39.1228
G01 X64.0125 Y39.1614
G01 X63.9547 Y39.2088
G01 X63.9067 Y39.2523
G01 X63.8539 Y39.3052
G01 X63.8104 Y39.3532
G01 X63.7630 Y39.4109
G01 X63.7244 Y39.4630
G01 X63.6828 Y39.5251
G01 X63.6495 Y39.5807
G01 X63.6143 Y39.6466
G01 X63.5866 Y39.7052
G01 X63.5580 Y39.7742
G01 X63.5362 Y39.8352
G01 X63.5145 Y39.9067
G01 X63.4987 Y39.9696
G01 X63.4842 Y40.0428
G01 X63.4747 Y40.1069
G01 X63.4673 Y40.1813
G01 X63.4642 Y40.2460
G01 X63.4642 Y40.3207
G01 X63.4673 Y40.3855
G01 X63.4747 Y40.4598
G01 X63.4842 Y40.5239
G01 X63.4987 Y40.5972
G01 X63.5145 Y40.6601
G01 X63.5362 Y40.7316
G01 X63.5580 Y40.7926
G01 X63.5866 Y40.8616
G01 X63.6143 Y40.9202
G01 X63.6495 Y40.9861
G01 X63.6828 Y41.0417
G01 X63.7244 Y41.1038
G01 X63.7630 Y41.1558
G01 X63.8104 Y41.2136
G01 X63.8539 Y41.2616
G01 X63.9067 Y41.3144
G01 X63.9547 Y41.3580
G01 X64.0125 Y41.4054
G01 X64.0645 Y41.4440
G01 X64.1267 Y41.4855
G01 X64.1822 Y41.5188
G01 X64.2470 Y41.5534
G00 Z2.0000
G00 X59.2038 Y36.0303
G01 F60.00
G01 Z-0.2001
G01 F320.00
G01 X59.2038 Y39.0039
G01 X59.1869 Y38.9959
G01 X59.1869 Y36.0556
G01 X59.2038 Y36.0303
G00 Z2.0000
G00 X58.7522 Y33.9249
G01 F60.00
G01 Z-0.2001
G01 F320.00
G01 X59.2038 Y33.9249
G01 X59.2038 Y34.3765
G01 X59.1704 Y34.3265
G01 X59.1259 Y34.2665
G01 X59.0785 Y34.2087
G01 X59.0282 Y34.1533
G01 X58.9754 Y34.1005
G01 X58.9200 Y34.0503
G01 X58.8623 Y34.0029
G01 X58.8022 Y33.9583
G01 X58.7522 Y33.9249
G00 Z2.0000
G00 X57.0985 Y28.8449
G01 F60.00
G01 Z-0.2001
G01 F320.00
G01 X57.0485 Y28.8783
G01 X56.9884 Y28.9229
G01 X56.9307 Y28.9703
G01 X56.8753 Y29.0205
G01 X56.8224 Y29.0733
G01 X56.7722 Y29.1287
G01 X56.7248 Y29.1865
G01 X56.6803 Y29.2465
G01 X56.6388 Y29.3087
G01 X56.6003 Y29.3728
G01 X56.5651 Y29.4387
G01 X56.5331 Y29.5063
G01 X56.5045 Y29.5753
G01 X56.4794 Y29.6457
G01 X56.4577 Y29.7172
G01 X56.4395 Y29.7897
G01 X56.4249 Y29.8630
G01 X56.4140 Y29.9370
G01 X56.4066 Y30.0113
G01 X56.4030 Y30.0860
G01 X56.4030 Y30.1607
G01 X56.4066 Y30.2354
G01 X56.4140 Y30.3098
G01 X56.4249 Y30.3837
G01 X56.4395 Y30.4570
G01 X56.4577 Y30.5296
G01 X56.4794 Y30.6011
G01 X56.5045 Y30.6715
G01 X56.5331 Y30.7405
G01 X56.5651 Y30.8081
G01 X56.6003 Y30.8740
G01 X56.6388 Y30.9381
G01 X56.6638 Y30.9756
G01 X56.6638 Y31.4018
G01 X53.6722 Y31.4018
G01 X53.7222 Y31.3684
G01 X53.7823 Y31.3239
G01 X53.8400 Y31.2765
G01 X53.8954 Y31.2263
G01 X53.9482 Y31.1735
G01 X53.9985 Y31.1180
G01 X54.0459 Y31.0603
G01 X54.0904 Y31.0002
G01 X54.1319 Y30.9381
G01 X54.1703 Y30.8740
G01 X54.2056 Y30.8081
G01 X54.2375 Y30.7405
G01 X54.2661 Y30.6715
G01 X54.2913 Y30.6011
G01 X54.3130 Y30.5296
G01 X54.3312 Y30.4570
G01 X54.3458 Y30.3837
G01 X54.3567 Y30.3098
G01 X54.3641 Y30.2354
G01 X54.3677 Y30.1607
G01 X54.3677 Y30.0860
G01 X54.3641 Y30.0113
G01 X54.3567 Y29.9370
G01 X54.3458 Y29.8630
G01 X54.3312 Y29.7897
G01 X54.3130 Y29.7172
G01 X54.2913 Y29.6457
G01 X54.2661 Y29.5753
G01 X54.2375 Y29.5063
G01 X54.2056 Y29.4387
G01 X54.1703 Y29.3728
G01 X54.1319 Y29.3087
G01 X54.1069 Y29.2712
G01 X54.1069 Y28.8449
G01 X57.0985 Y28.8449
G00 Z2.0000
G00 X64.7185 Y31.4018
G01 F60.00
G01 Z-0.2001
G01 F320.00
G01 X63.0053 Y31.4018
G01 X62.9680 Y31.4028
G01 X62.9190 Y31.4052
G01 X62.8446 Y31.4125
G01 X62.7960 Y31.4197
G01 X62.7228 Y31.4343
G01 X62.6751 Y31.4462
G01 X62.6037 Y31.4679
G01 X62.5574 Y31.4844
G01 X62.4884 Y31.5130
G01 X62.4440 Y31.5340
G01 X62.3781 Y31.5692
G01 X62.3360 Y31.5945
G01 X62.2739 Y31.6360
G01 X62.2345 Y31.6652
G01 X62.1767 Y31.7126
G01 X62.1404 Y31.7456
G01 X62.0875 Y31.7984
G01 X62.0546 Y31.8348
G01 X62.0072 Y31.8925
G01 X61.9779 Y31.9320
G01 X61.9364 Y31.9941
G01 X61.9112 Y32.0362
G01 X61.8760 Y32.1021
G01 X61.8550 Y32.1465
G01 X61.8264 Y32.2155
G01 X61.8098 Y32.2617
G01 X61.7881 Y32.3332
G01 X61.7762 Y32.3808
G01 X61.7616 Y32.4541
G01 X61.7544 Y32.5026
G01 X61.7471 Y32.5770
G01 X61.7447 Y32.6260
G01 X61.7438 Y32.6634
G01 X61.7438 Y34.3512
G01 X61.7269 Y34.3765
G01 X61.7269 Y32.6634
G01 X61.7260 Y32.6260
G01 X61.7236 Y32.5770
G01 X61.7162 Y32.5026
G01 X61.7090 Y32.4541
G01 X61.6945 Y32.3808
G01 X61.6825 Y32.3332
G01 X61.6608 Y32.2617
G01 X61.6443 Y32.2155
G01 X61.6157 Y32.1465
G01 X61.5947 Y32.1021
G01 X61.5595 Y32.0362
G01 X61.5343 Y31.9941
G01 X61.4928 Y31.9320
G01 X61.4635 Y31.8925
G01 X61.4161 Y31.8348
G01 X61.3832 Y31.7984
G01 X61.3303 Y31.7456
G01 X61.2939 Y31.7126
G01 X61.2362 Y31.6652
G01 X61.1968 Y31.6360
G01 X61.1346 Y31.5945
G01 X61.0925 Y31.5692
G01 X61.0267 Y31.5340
G01 X60.9823 Y31.5130
G01 X60.9132 Y31.4844
G01 X60.8670 Y31.4679
G01 X60.7955 Y31.4462
G01 X60.7479 Y31.4343
G01 X60.6746 Y31.4197
G01 X60.6261 Y31.4125
G01 X60.5517 Y31.4052
G01 X60.5027 Y31.4028
G01 X60.4653 Y31.4018
G01 X59.1869 Y31.4018
G01 X59.1869 Y30.9756
G01 X59.2119 Y30.9381
G01 X59.2503 Y30.8740
G01 X59.2856 Y30.8081
G01 X59.3175 Y30.7405
G01 X59.3461 Y30.6715
G01 X59.3713 Y30.6011
G01 X59.3930 Y30.5296
G01 X59.4112 Y30.4570
G01 X59.4258 Y30.3837
G01 X59.4367 Y30.3098
G01 X59.4441 Y30.2354
G01 X59.4477 Y30.1607
G01 X59.4477 Y30.0860
G01 X59.4441 Y30.0113
G01 X59.4367 Y29.9370
G01 X59.4258 Y29.8630
G01 X59.4112 Y29.7897
G01 X59.3930 Y29.7172
G01 X59.3713 Y29.6457
G01 X59.3461 Y29.5753
G01 X59.3175 Y29.5063
G01 X59.2856 Y29.4387
G01 X59.2503 Y29.3728
G01 X59.2119 Y29.3087
G01 X59.1704 Y29.2465
G01 X59.1259 Y29.1865
G01 X59.0785 Y29.1287
G01 X59.0282 Y29.0733
G01 X58.9754 Y29.0205
G01 X58.9200 Y28.9703
G01 X58.8623 Y28.9229
G01 X58.8022 Y28.8783
G01 X58.7522 Y28.8449
G01 X64.2838 Y28.8449
G01 X64.2838 Y29.2712
G01 X64.2588 Y29.3087
G01 X64.2203 Y29.3728
G01 X64.1851 Y29.4387
G01 X64.1531 Y29.5063
G01 X64.1245 Y29.5753
G01 X64.0994 Y29.6457
G01 X64.0777 Y29.7172
G01 X64.0595 Y29.7897
G01 X64.0449 Y29.8630
G01 X64.0340 Y29.9370
G01 X64.0266 Y30.0113
G01 X64.0230 Y30.0860
G01 X64.0230 Y30.1607
G01 X64.0266 Y30.2354
G01 X64.0340 Y30.3098
G01 X64.0449 Y30.3837
G01 X64.0595 Y30.4570
G01 X64.0777 Y30.5296
G01 X64.0994 Y30.6011
G01 X64.1245 Y30.6715
G01 X64.1531 Y30.7405
G01 X64.1851 Y30.8081
G01 X64.2203 Y30.8740
G01 X64.2588 Y30.9381
G01 X64.3003 Y31.0002
G01 X64.3448 Y31.0603
G01 X64.3922 Y31.1180
G01 X64.4424 Y31.1735
G01 X64.4953 Y31.2263
G01 X64.5507 Y31.2765
G01 X64.6084 Y31.3239
G01 X64.6685 Y31.3684
G01 X64.7185 Y31.4018
G00 Z2.0000
G00 X69.7985 Y28.8449
G01 F60.00
G01 Z-0.2001
G01 F320.00
G01 X69.7485 Y28.8783
G01 X69.6884 Y28.9229
G01 X69.6307 Y28.9703
G01 X69.5753 Y29.0205
G01 X69.5224 Y29.0733
G01 X69.4722 Y29.1287
G01 X69.4248 Y29.1865
G01 X69.3803 Y29.2465
G01 X69.3388 Y29.3087
G01 X69.3003 Y29.3728
G01 X69.2651 Y29.4387
G01 X69.2331 Y29.5063
G01 X69.2045 Y29.5753
G01 X69.1794 Y29.6457
G01 X69.1577 Y29.7172
G01 X69.1395 Y29.7897
G01 X69.1249 Y29.8630
G01 X69.1140 Y29.9370
G01 X69.1066 Y30.0113
G01 X69.1030 Y30.0860
G01 X69.1030 Y30.1607
G01 X69.1066 Y30.2354
G01 X69.1140 Y30.3098
G01 X69.1249 Y30.3837
G01 X69.1395 Y30.4570
G01 X69.1577 Y30.5296
G01 X69.1794 Y30.6011
G01 X69.2045 Y30.6715
G01 X69.2331 Y30.7405
G01 X69.2651 Y30.8081
G01 X69.3003 Y30.8740
G01 X69.3388 Y30.9381
G01 X69.3638 Y30.9756
G01 X69.3638 Y31.4018
G01 X66.3722 Y31.4018
G01 X66.4222 Y31.3684
G01 X66.4823 Y31.3239
G01 X66.5400 Y31.2765
G01 X66.5954 Y31.2263
G01 X66.6482 Y31.1735
G01 X66.6985 Y31.1180
G01 X66.7459 Y31.0603
G01 X66.7904 Y31.0002
G01 X66.8319 Y30.9381
G01 X66.8703 Y30.8740
G01 X66.9056 Y30.8081
G01 X66.9375 Y30.7405
G01 X66.9661 Y30.6715
G01 X66.9913 Y30.6011
G01 X67.0130 Y30.5296
G01 X67.0312 Y30.4570
G01 X67.0458 Y30.3837
G01 X67.0567 Y30.3098
G01 X67.0641 Y30.2354
G01 X67.0677 Y30.1607
G01 X67.0677 Y30.0860
G01 X67.0641 Y30.0113
G01 X67.0567 Y29.9370
G01 X67.0458 Y29.8630
G01 X67.0312 Y29.7897
G01 X67.0130 Y29.7172
G01 X66.9913 Y29.6457
G01 X66.9661 Y29.5753
G01 X66.9375 Y29.5063
G01 X66.9056 Y29.4387
G01 X66.8703 Y29.3728
G01 X66.8319 Y29.3087
G01 X66.8069 Y29.2712
G01 X66.8069 Y28.8449
G01 X69.7985 Y28.8449
G00 Z2.0000
G00 X71.4522 Y33.9249
G01 F60.00
G01 Z-0.2001
G01 F320.00
G01 X71.9038 Y33.9249
G01 X71.9038 Y34.3765
G01 X71.8704 Y34.3265
G01 X71.8259 Y34.2665
G01 X71.7785 Y34.2087
G01 X71.7282 Y34.1533
G01 X71.6754 Y34.1005
G01 X71.6200 Y34.0503
G01 X71.5623 Y34.0029
G01 X71.5022 Y33.9583
G01 X71.4522 Y33.9249
G00 Z2.0000
G00 X71.9038 Y36.0303
G01 F60.00
G01 Z-0.2001
G01 F320.00
G01 X71.9038 Y39.0039
G01 X71.8869 Y38.9959
G01 X71.8869 Y36.0556
G01 X71.9038 Y36.0303
G00 Z2.0000
G00 X77.4185 Y31.4018
G01 F60.00
G01 Z-0.2001
G01 F320.00
G01 X75.7053 Y31.4018
G01 X75.6680 Y31.4028
G01 X75.6190 Y31.4052
G01 X75.5446 Y31.4125
G01 X75.4960 Y31.4197
G01 X75.4228 Y31.4343
G01 X75.3751 Y31.4462
G01 X75.3037 Y31.4679
G01 X75.2574 Y31.4844
G01 X75.1884 Y31.5130
G01 X75.1440 Y31.5340
G01 X75.0781 Y31.5692
G01 X75.0360 Y31.5945
G01 X74.9739 Y31.6360
G01 X74.9345 Y31.6652
G01 X74.8767 Y31.7126
G01 X74.8404 Y31.7456
G01 X74.7875 Y31.7984
G01 X74.7546 Y31.8348
G01 X74.7072 Y31.8925
G01 X74.6779 Y31.9320
G01 X74.6364 Y31.9941
G01 X74.6112 Y32.0362
G01 X74.5760 Y32.1021
G01 X74.5550 Y32.1465
G01 X74.5264 Y32.2155
G01 X74.5098 Y32.2617
G01 X74.4881 Y32.3332
G01 X74.4762 Y32.3808
G01 X74.4616 Y32.4541
G01 X74.4544 Y32.5026
G01 X74.4471 Y32.5770
G01 X74.4447 Y32.6260
G01 X74.4438 Y32.6634
G01 X74.4438 Y34.3512
G01 X74.4269 Y34.3765
G01 X74.4269 Y32.6634
G01 X74.4260 Y32.6260
G01 X74.4236 Y32.5770
G01 X74.4162 Y32.5026
G01 X74.4090 Y32.4541
G01 X74.3945 Y32.3808
G01 X74.3825 Y32.3332
G01 X74.3608 Y32.2617
G01 X74.3443 Y32.2155
G01 X74.3157 Y32.1465
G01 X74.2947 Y32.1021
G01 X74.2595 Y32.0362
G01 X74.2343 Y31.9941
G01 X74.1928 Y31.9320
G01 X74.1635 Y31.8925
G01 X74.1161 Y31.8348
G01 X74.0832 Y31.7984
G01 X74.0303 Y31.7456
G01 X73.9939 Y31.7126
G01 X73.9362 Y31.6652
G01 X73.8968 Y31.6360
G01 X73.8346 Y31.5945
G01 X73.7925 Y31.5692
G01 X73.7267 Y31.5340
G01 X73.6823 Y31.5130
G01 X73.6132 Y31.4844
G01 X73.5670 Y31.4679
G01 X73.4955 Y31.4462
G01 X73.4479 Y31.4343
G01 X73.3746 Y31.4197
G01 X73.3261 Y31.4125
G01 X73.2517 Y31.4052
G01 X73.2027 Y31.4028
G01 X73.1653 Y31.4018
G01 X71.8869 Y31.4018
G01 X71.8869 Y30.9756
G01 X71.9119 Y30.9381
G01 X71.9503 Y30.8740
G01 X71.9856 Y30.8081
G01 X72.0175 Y30.7405
G01 X72.0461 Y30.6715
G01 X72.0713 Y30.6011
G01 X72.0930 Y30.5296
G01 X72.1112 Y30.4570
G01 X72.1258 Y30.3837
G01 X72.1367 Y30.3098
G01 X72.1441 Y30.2354
G01 X72.1477 Y30.1607
G01 X72.1477 Y30.0860
G01 X72.1441 Y30.0113
G01 X72.1367 Y29.9370
G01 X72.1258 Y29.8630
G01 X72.1112 Y29.7897
G01 X72.0930 Y29.7172
G01 X72.0713 Y29.6457
G01 X72.0461 Y29.5753
G01 X72.0175 Y29.5063
G01 X71.9856 Y29.4387
G01 X71.9503 Y29.3728
G01 X71.9119 Y29.3087
G01 X71.8704 Y29.2465
G01 X71.8259 Y29.1865
G01 X71.7785 Y29.1287
G01 X71.7282 Y29.0733
G01 X71.6754 Y29.0205
G01 X71.6200 Y28.9703
G01 X71.5623 Y28.9229
G01 X71.5022 Y28.8783
G01 X71.4522 Y28.8449
G01 X76.9838 Y28.8449
G01 X76.9838 Y29.2712
G01 X76.9588 Y29.3087
G01 X76.9203 Y29.3728
G01 X76.8851 Y29.4387
G01 X76.8531 Y29.5063
G01 X76.8245 Y29.5753
G01 X76.7994 Y29.6457
G01 X76.7777 Y29.7172
G01 X76.7595 Y29.7897
G01 X76.7449 Y29.8630
G01 X76.7340 Y29.9370
G01 X76.7266 Y30.0113
G01 X76.7230 Y30.0860
G01 X76.7230 Y30.1607
G01 X76.7266 Y30.2354
G01 X76.7340 Y30.3098
G01 X76.7449 Y30.3837
G01 X76.7595 Y30.4570
G01 X76.7777 Y30.5296
G01 X76.7994 Y30.6011
G01 X76.8245 Y30.6715
G01 X76.8531 Y30.7405
G01 X76.8851 Y30.8081
G01 X76.9203 Y30.8740
G01 X76.9588 Y30.9381
G01 X77.0003 Y31.0002
G01 X77.0448 Y31.0603
G01 X77.0922 Y31.1180
G01 X77.1424 Y31.1735
G01 X77.1953 Y31.2263
G01 X77.2507 Y31.2765
G01 X77.3084 Y31.3239
G01 X77.3685 Y31.3684
G01 X77.4185 Y31.4018
G00 Z2.0000
G00 X82.4985 Y28.8449
G01 F60.00
G01 Z-0.2001
G01 F320.00
G01 X82.4485 Y28.8783
G01 X82.3884 Y28.9229
G01 X82.3307 Y28.9703
G01 X82.2753 Y29.0205
G01 X82.2224 Y29.0733
G01 X82.1722 Y29.1287
G01 X82.1248 Y29.1865
G01 X82.0803 Y29.2465
G01 X82.0388 Y29.3087
G01 X82.0003 Y29.3728
G01 X81.9651 Y29.4387
G01 X81.9331 Y29.5063
G01 X81.9045 Y29.5753
G01 X81.8794 Y29.6457
G01 X81.8577 Y29.7172
G01 X81.8395 Y29.7897
G01 X81.8249 Y29.8630
G01 X81.8140 Y29.9370
G01 X81.8066 Y30.0113
G01 X81.8030 Y30.0860
G01 X81.8030 Y30.1607
G01 X81.8066 Y30.2354
G01 X81.8140 Y30.3098
G01 X81.8249 Y30.3837
G01 X81.8395 Y30.4570
G01 X81.8577 Y30.5296
G01 X81.8794 Y30.6011
G01 X81.9045 Y30.6715
G01 X81.9331 Y30.7405
G01 X81.9651 Y30.8081
G01 X82.0003 Y30.8740
G01 X82.0388 Y30.9381
G01 X82.0638 Y30.9756
G01 X82.0638 Y31.4018
G01 X79.0722 Y31.4018
G01 X79.1222 Y31.3684
G01 X79.1823 Y31.3239
G01 X79.2400 Y31.2765
G01 X79.2954 Y31.2263
G01 X79.3482 Y31.1735
G01 X79.3985 Y31.1180
G01 X79.4459 Y31.0603
G01 X79.4904 Y31.0002
G01 X79.5319 Y30.9381
G01 X79.5703 Y30.8740
G01 X79.6056 Y30.8081
G01 X79.6375 Y30.7405
G01 X79.6661 Y30.6715
G01 X79.6913 Y30.6011
G01 X79.7130 Y30.5296
G01 X79.7312 Y30.4570
G01 X79.7458 Y30.3837
G01 X79.7567 Y30.3098
G01 X79.7641 Y30.2354
G01 X79.7677 Y30.1607
G01 X79.7677 Y30.0860
G01 X79.7641 Y30.0113
G01 X79.7567 Y29.9370
G01 X79.7458 Y29.8630
G01 X79.7312 Y29.7897
G01 X79.7130 Y29.7172
G01 X79.6913 Y29.6457
G01 X79.6661 Y29.5753
G01 X79.6375 Y29.5063
G01 X79.6056 Y29.4387
G01 X79.5703 Y29.3728
G01 X79.5319 Y29.3087
G01 X79.5069 Y29.2712
G01 X79.5069 Y28.8449
G01 X82.4985 Y28.8449
G00 Z2.0000
G00 X84.1522 Y33.9249
G01 F60.00
G01 Z-0.2001
G01 F320.00
G01 X84.6038 Y33.9249
G01 X84.6038 Y34.3765
G01 X84.5704 Y34.3265
G01 X84.5259 Y34.2665
G01 X84.4785 Y34.2087
G01 X84.4282 Y34.1533
G01 X84.3754 Y34.1005
G01 X84.3200 Y34.0503
G01 X84.2623 Y34.0029
G01 X84.2022 Y33.9583
G01 X84.1522 Y33.9249
G00 Z2.0000
G00 X84.6038 Y36.0303
G01 F60.00
G01 Z-0.2001
G01 F320.00
G01 X84.6038 Y39.0039
G01 X84.5869 Y38.9959
G01 X84.5869 Y36.0556
G01 X84.6038 Y36.0303
G00 Z2.0000
G00 X90.1185 Y31.4018
G01 F60.00
G01 Z-0.2001
G01 F320.00
G01 X88.4053 Y31.4018
G01 X88.3680 Y31.4028
G01 X88.3190 Y31.4052
G01 X88.2446 Y31.4125
G01 X88.1960 Y31.4197
G01 X88.1228 Y31.4343
G01 X88.0751 Y31.4462
G01 X88.0037 Y31.4679
G01 X87.9574 Y31.4844
G01 X87.8884 Y31.5130
G01 X87.8440 Y31.5340
G01 X87.7781 Y31.5692
G01 X87.7360 Y31.5945
G01 X87.6739 Y31.6360
G01 X87.6345 Y31.6652
G01 X87.5767 Y31.7126
G01 X87.5404 Y31.7456
G01 X87.4875 Y31.7984
G01 X87.4546 Y31.8348
G01 X87.4072 Y31.8925
G01 X87.3779 Y31.9320
G01 X87.3364 Y31.9941
G01 X87.3112 Y32.0362
G01 X87.2760 Y32.1021
G01 X87.2550 Y32.1465
G01 X87.2264 Y32.2155
G01 X87.2098 Y32.2617
G01 X87.1881 Y32.3332
G01 X87.1762 Y32.3808
G01 X87.1616 Y32.4541
G01 X87.1544 Y32.5026
G01 X87.1471 Y32.5770
G01 X87.1447 Y32.6260
G01 X87.1438 Y32.6634
G01 X87.1438 Y34.3512
G01 X87.1269 Y34.3765
G01 X87.1269 Y32.6634
G01 X87.1260 Y32.6260
G01 X87.1236 Y32.5770
G01 X87.1162 Y32.5026
G01 X87.1090 Y32.4541
G01 X87.0945 Y32.3808
G01 X87.0825 Y32.3332
G01 X87.0608 Y32.2617
G01 X87.0443 Y32.2155
G01 X87.0157 Y32.1465
G01 X86.9947 Y32.1021
G01 X86.9595 Y32.0362
G01 X86.9343 Y31.9941
G01 X86.8928 Y31.9320
G01 X86.8635 Y31.8925
G01 X86.8161 Y31.8348
G01 X86.7832 Y31.7984
G01 X86.7303 Y31.7456
G01 X86.6939 Y31.7126
G01 X86.6362 Y31.6652
G01 X86.5968 Y31.6360
G01 X86.5346 Y31.5945
G01 X86.4925 Y31.5692
G01 X86.4267 Y31.5340
G01 X86.3823 Y31.5130
G01 X86.3132 Y31.4844
G01 X86.2670 Y31.4679
G01 X86.1955 Y31.4462
G01 X86.1479 Y31.4343
G01 X86.0746 Y31.4197
G01 X86.0261 Y31.4125
G01 X85.9517 Y31.4052
G01 X85.9027 Y31.4028
G01 X85.8653 Y31.4018
G01 X84.5869 Y31.4018
G01 X84.5869 Y30.9756
G01 X84.6119 Y30.9381
G01 X84.6503 Y30.8740
G01 X84.6856 Y30.8081
G01 X84.7175 Y30.7405
G01 X84.7461 Y30.6715
G01 X84.7713 Y30.6011
G01 X84.7930 Y30.5296
G01 X84.8112 Y30.4570
G01 X84.8258 Y30.3837
G01 X84.8367 Y30.3098
G01 X84.8441 Y30.2354
G01 X84.8477 Y30.1607
G01 X84.8477 Y30.0860
G01 X84.8441 Y30.0113
G01 X84.8367 Y29.9370
G01 X84.8258 Y29.8630
G01 X84.8112 Y29.7897
G01 X84.7930 Y29.7172
G01 X84.7713 Y29.6457
G01 X84.7461 Y29.5753
G01 X84.7175 Y29.5063
G01 X84.6856 Y29.4387
G01 X84.6503 Y29.3728
G01 X84.6119 Y29.3087
G01 X84.5704 Y29.2465
G01 X84.5259 Y29.1865
G01 X84.4785 Y29.1287
G01 X84.4282 Y29.0733
G01 X84.3754 Y29.0205
G01 X84.3200 Y28.9703
G01 X84.2623 Y28.9229
G01 X84.2022 Y28.8783
G01 X84.1522 Y28.8449
G01 X89.6838 Y28.8449
G01 X89.6838 Y29.2712
G01 X89.6588 Y29.3087
G01 X89.6203 Y29.3728
G01 X89.5851 Y29.4387
G01 X89.5531 Y29.5063
G01 X89.5245 Y29.5753
G01 X89.4994 Y29.6457
G01 X89.4777 Y29.7172
G01 X89.4595 Y29.7897
G01 X89.4449 Y29.8630
G01 X89.4340 Y29.9370
G01 X89.4266 Y30.0113
G01 X89.4230 Y30.0860
G01 X89.4230 Y30.1607
G01 X89.4266 Y30.2354
G01 X89.4340 Y30.3098
G01 X89.4449 Y30.3837
G01 X89.4595 Y30.4570
G01 X89.4777 Y30.5296
G01 X89.4994 Y30.6011
G01 X89.5245 Y30.6715
G01 X89.5531 Y30.7405
G01 X89.5851 Y30.8081
G01 X89.6203 Y30.8740
G01 X89.6588 Y30.9381
G01 X89.7003 Y31.0002
G01 X89.7448 Y31.0603
G01 X89.7922 Y31.1180
G01 X89.8424 Y31.1735
G01 X89.8953 Y31.2263
G01 X89.9507 Y31.2765
G01 X90.0084 Y31.3239
G01 X90.0685 Y31.3684
G01 X90.1185 Y31.4018
G00 Z2.0000
G00 X95.1985 Y28.8449
G01 F60.00
G01 Z-0.2001
G01 F320.00
G01 X95.1485 Y28.8783
G01 X95.0884 Y28.9229
G01 X95.0307 Y28.9703
G01 X94.9753 Y29.0205
G01 X94.9224 Y29.0733
G01 X94.8722 Y29.1287
G01 X94.8248 Y29.1865
G01 X94.7803 Y29.2465
G01 X94.7388 Y29.3087
G01 X94.7003 Y29.3728
G01 X94.6651 Y29.4387
G01 X94.6331 Y29.5063
G01 X94.6045 Y29.5753
G01 X94.5794 Y29.6457
G01 X94.5577 Y29.7172
G01 X94.5395 Y29.7897
G01 X94.5249 Y29.8630
G01 X94.5140 Y29.9370
G01 X94.5066 Y30.0113
G01 X94.5030 Y30.0860
G01 X94.5030 Y30.1607
G01 X94.5066 Y30.2354
G01 X94.5140 Y30.3098
G01 X94.5249 Y30.3837
G01 X94.5395 Y30.4570
G01 X94.5577 Y30.5296
G01 X94.5794 Y30.6011
G01 X94.6045 Y30.6715
G01 X94.6331 Y30.7405
G01 X94.6651 Y30.8081
G01 X94.7003 Y30.8740
G01 X94.7388 Y30.9381
G01 X94.7638 Y30.9756
G01 X94.7638 Y31.4018
G01 X91.7722 Y31.4018
G01 X91.8222 Y31.3684
G01 X91.8823 Y31.3239
G01 X91.9400 Y31.2765
G01 X91.9954 Y31.2263
G01 X92.0482 Y31.1735
G01 X92.0985 Y31.1180
G01 X92.1459 Y31.0603
G01 X92.1904 Y31.0002
G01 X92.2319 Y30.9381
G01 X92.2703 Y30.8740
G01 X92.3056 Y30.8081
G01 X92.3375 Y30.7405
G01 X92.3661 Y30.6715
G01 X92.3913 Y30.6011
G01 X92.4130 Y30.5296
G01 X92.4312 Y30.4570
G01 X92.4458 Y30.3837
G01 X92.4567 Y30.3098
G01 X92.4641 Y30.2354
G01 X92.4677 Y30.1607
G01 X92.4677 Y30.0860
G01 X92.4641 Y30.0113
G01 X92.4567 Y29.9370
G01 X92.4458 Y29.8630
G01 X92.4312 Y29.7897
G01 X92.4130 Y29.7172
G01 X92.3913 Y29.6457
G01 X92.3661 Y29.5753
G01 X92.3375 Y29.5063
G01 X92.3056 Y29.4387
G01 X92.2703 Y29.3728
G01 X92.2319 Y29.3087
G01 X92.2069 Y29.2712
G01 X92.2069 Y28.8449
G01 X95.1985 Y28.8449
G00 Z2.0000
G00 X96.8522 Y33.9249
G01 F60.00
G01 Z-0.2001
G01 F320.00
G01 X97.3038 Y33.9249
G01 X97.3038 Y34.3765
G01 X97.2704 Y34.3265
G01 X97.2259 Y34.2665
G01 X97.1785 Y34.2087
G01 X97.1282 Y34.1533
G01 X97.0754 Y34.1005
G01 X97.0200 Y34.0503
G01 X96.9623 Y34.0029
G01 X96.9022 Y33.9583
G01 X96.8522 Y33.9249
G00 Z2.0000
G00 X97.3038 Y36.0303
G01 F60.00
G01 Z-0.2001
G01 F320.00
G01 X97.3038 Y39.0039
G01 X97.2869 Y38.9959
G01 X97.2869 Y36.0556
G01 X97.3038 Y36.0303
G00 Z2.0000
G00 X102.8185 Y31.4018
G01 F60.00
G01 Z-0.2001
G01 F320.00
G01 X101.1053 Y31.4018
G01 X101.0680 Y31.4028
G01 X101.0190 Y31.4052
G01 X100.9446 Y31.4125
G01 X100.8960 Y31.4197
G01 X100.8228 Y31.4343
G01 X100.7751 Y31.4462
G01 X100.7037 Y31.4679
G01 X100.6574 Y31.4844
G01 X100.5884 Y31.5130
G01 X100.5440 Y31.5340
G01 X100.4781 Y31.5692
G01 X100.4360 Y31.5945
G01 X100.3739 Y31.6360
G01 X100.3345 Y31.6652
G01 X100.2767 Y31.7126
G01 X100.2404 Y31.7456
G01 X100.1875 Y31.7984
G01 X100.1546 Y31.8348
G01 X100.1072 Y31.8925
G01 X100.0779 Y31.9320
G01 X100.0364 Y31.9941
G01 X100.0112 Y32.0362
G01 X99.9760 Y32.1021
G01 X99.9550 Y32.1465
G01 X99.9264 Y32.2155
G01 X99.9098 Y32.2617
G01 X99.8881 Y32.3332
G01 X99.8762 Y32.3808
G01 X99.8616 Y32.4541
G01 X99.8544 Y32.5026
G01 X99.8471 Y32.5770
G01 X99.8447 Y32.6260
G01 X99.8438 Y32.6634
G01 X99.8438 Y34.3512
G01 X99.8269 Y34.3765
G01 X99.8269 Y32.6634
G01 X99.8260 Y32.6260
G01 X99.8236 Y32.5770
G01 X99.8162 Y32.5026
G01 X99.8090 Y32.4541
G01 X99.7945 Y32.3808
G01 X99.7825 Y32.3332
G01 X99.7608 Y32.2617
G01 X99.7443 Y32.2155
G01 X99.7157 Y32.1465
G01 X99.6947 Y32.1021
G01 X99.6595 Y32.0362
G01 X99.6343 Y31.9941
G01 X99.5928 Y31.9320
G01 X99.5635 Y31.8925
G01 X99.5161 Y31.8348
G01 X99.4832 Y31.7984
G01 X99.4303 Y31.7456
G01 X99.3939 Y31.7126
G01 X99.3362 Y31.6652
G01 X99.2968 Y31.6360
G01 X99.2346 Y31.5945
G01 X99.1925 Y31.5692
G01 X99.1267 Y31.5340
G01 X99.0823 Y31.5130
G01 X99.0132 Y31.4844
G01 X98.9670 Y31.4679
G01 X98.8955 Y31.4462
G01 X98.8479 Y31.4343
G01 X98.7746 Y31.4197
G01 X98.7261 Y31.4125
G01 X98.6517 Y31.4052
G01 X98.6027 Y31.4028
G01 X98.5653 Y31.4018
G01 X97.2869 Y31.4018
G01 X97.2869 Y30.9756
G01 X97.3119 Y30.9381
G01 X97.3503 Y30.8740
G01 X97.3856 Y30.8081
G01 X97.4175 Y30.7405
G01 X97.4461 Y30.6715
G01 X97.4713 Y30.6011
G01 X97.4930 Y30.5296
G01 X97.5112 Y30.4570
G01 X97.5258 Y30.3837
G01 X97.5367 Y30.3098
G01 X97.5441 Y30.2354
G01 X97.5477 Y30.1607
G01 X97.5477 Y30.0860
G01 X97.5441 Y30.0113
G01 X97.5367 Y29.9370
G01 X97.5258 Y29.8630
G01 X97.5112 Y29.7897
G01 X97.4930 Y29.7172
G01 X97.4713 Y29.6457
G01 X97.4461 Y29.5753
G01 X97.4175 Y29.5063
G01 X97.3856 Y29.4387
G01 X97.3503 Y29.3728
G01 X97.3119 Y29.3087
G01 X97.2704 Y29.2465
G01 X97.2259 Y29.1865
G01 X97.1785 Y29.1287
G01 X97.1282 Y29.0733
G01 X97.0754 Y29.0205
G01 X97.0200 Y28.9703
G01 X96.9623 Y28.9229
G01 X96.9022 Y28.8783
G01 X96.8522 Y28.8449
G01 X102.3838 Y28.8449
G01 X102.3838 Y29.2712
G01 X102.3588 Y29.3087
G01 X102.3203 Y29.3728
G01 X102.2851 Y29.4387
G01 X102.2531 Y29.5063
G01 X102.2245 Y29.5753
G01 X102.1994 Y29.6457
G01 X102.1777 Y29.7172
G01 X102.1595 Y29.7897
G01 X102.1449 Y29.8630
G01 X102.1340 Y29.9370
G01 X102.1266 Y30.0113
G01 X102.1230 Y30.0860
G01 X102.1230 Y30.1607
G01 X102.1266 Y30.2354
G01 X102.1340 Y30.3098
G01 X102.1449 Y30.3837
G01 X102.1595 Y30.4570
G01 X102.1777 Y30.5296
G01 X102.1994 Y30.6011
G01 X102.2245 Y30.6715
G01 X102.2531 Y30.7405
G01 X102.2851 Y30.8081
G01 X102.3203 Y30.8740
G01 X102.3588 Y30.9381
G01 X102.4003 Y31.0002
G01 X102.4448 Y31.0603
G01 X102.4922 Y31.1180
G01 X102.5424 Y31.1735
G01 X102.5953 Y31.2263
G01 X102.6507 Y31.2765
G01 X102.7084 Y31.3239
G01 X102.7685 Y31.3684
G01 X102.8185 Y31.4018
G00 Z2.0000
G00 X107.8985 Y28.8449
G01 F60.00
G01 Z-0.2001
G01 F320.00
G01 X107.8485 Y28.8783
G01 X107.7884 Y28.9229
G01 X107.7307 Y28.9703
G01 X107.6753 Y29.0205
G01 X107.6224 Y29.0733
G01 X107.5722 Y29.1287
G01 X107.5248 Y29.1865
G01 X107.4803 Y29.2465
G01 X107.4388 Y29.3087
G01 X107.4003 Y29.3728
G01 X107.3651 Y29.4387
G01 X107.3331 Y29.5063
G01 X107.3045 Y29.5753
G01 X107.2794 Y29.6457
G01 X107.2577 Y29.7172
G01 X107.2395 Y29.7897
G01 X107.2249 Y29.8630
G01 X107.2140 Y29.9370
G01 X107.2066 Y30.0113
G01 X107.2030 Y30.0860
G01 X107.2030 Y30.1607
G01 X107.2066 Y30.2354
G01 X107.2140 Y30.3098
G01 X107.2249 Y30.3837
G01 X107.2395 Y30.4570
G01 X107.2577 Y30.5296
G01 X107.2794 Y30.6011
G01 X107.3045 Y30.6715
G01 X107.3331 Y30.7405
G01 X107.3651 Y30.8081
G01 X107.4003 Y30.8740
G01 X107.4388 Y30.9381
G01 X107.4638 Y30.9756
G01 X107.4638 Y31.4018
G01 X104.4722 Y31.4018
G01 X104.5222 Y31.3684
G01 X104.5823 Y31.3239
G01 X104.6400 Y31.2765
G01 X104.6954 Y31.2263
G01 X104.7482 Y31.1735
G01 X104.7985 Y31.1180
G01 X104.8459 Y31.0603
G01 X104.8904 Y31.0002
G01 X104.9319 Y30.9381
G01 X104.9703 Y30.8740
G01 X105.0056 Y30.8081
G01 X105.0375 Y30.7405
G01 X105.0661 Y30.6715
G01 X105.0913 Y30.6011
G01 X105.1130 Y30.5296
G01 X105.1312 Y30.4570
G01 X105.1458 Y30.3837
G01 X105.1567 Y30.3098
G01 X105.1641 Y30.2354
G01 X105.1677 Y30.1607
G01 X105.1677 Y30.0860
G01 X105.1641 Y30.0113
G01 X105.1567 Y29.9370
G01 X105.1458 Y29.8630
G01 X105.1312 Y29.7897
G01 X105.1130 Y29.7172
G01 X105.0913 Y29.6457
G01 X105.0661 Y29.5753
G01 X105.0375 Y29.5063
G01 X105.0056 Y29.4387
G01 X104.9703 Y29.3728
G01 X104.9319 Y29.3087
G01 X104.9069 Y29.2712
G01 X104.9069 Y28.8449
G01 X107.8985 Y28.8449
G00 Z2.0000
G00 X109.5522 Y33.9249
G01 F60.00
G01 Z-0.2001
G01 F320.00
G01 X110.0038 Y33.9249
G01 X110.0038 Y34.3765
G01 X109.9704 Y34.3265
G01 X109.9259 Y34.2665
G01 X109.8785 Y34.2087
G01 X109.8282 Y34.1533
G01 X109.7754 Y34.1005
G01 X109.7200 Y34.0503
G01 X109.6623 Y34.0029
G01 X109.6022 Y33.9583
G01 X109.5522 Y33.9249
G00 Z2.0000
G00 X110.0038 Y36.0303
G01 F60.00
G01 Z-0.2001
G01 F320.00
G01 X110.0038 Y39.0039
G01 X109.9869 Y38.9959
G01 X109.9869 Y36.0556
G01 X110.0038 Y36.0303
G00 Z2.0000
G00 X115.5185 Y31.4018
G01 F60.00
G01 Z-0.2001
G01 F320.00
G01 X113.8053 Y31.4018
G01 X113.7680 Y31.4028
G01 X113.7190 Y31.4052
G01 X113.6446 Y31.4125
G01 X113.5960 Y31.4197
G01 X113.5228 Y31.4343
G01 X113.4751 Y31.4462
G01 X113.4037 Y31.4679
G01 X113.3574 Y31.4844
G01 X113.2884 Y31.5130
G01 X113.2440 Y31.5340
G01 X113.1781 Y31.5692
G01 X113.1360 Y31.5945
G01 X113.0739 Y31.6360
G01 X113.0345 Y31.6652
G01 X112.9767 Y31.7126
G01 X112.9404 Y31.7456
G01 X112.8875 Y31.7984
G01 X112.8546 Y31.8348
G01 X112.8072 Y31.8925
G01 X112.7779 Y31.9320
G01 X112.7364 Y31.9941
G01 X112.7112 Y32.0362
G01 X112.6760 Y32.1021
G01 X112.6550 Y32.1465
G01 X112.6264 Y32.2155
G01 X112.6098 Y32.2617
G01 X112.5881 Y32.3332
G01 X112.5762 Y32.3808
G01 X112.5616 Y32.4541
G01 X112.5544 Y32.5026
G01 X112.5471 Y32.5770
G01 X112.5447 Y32.6260
G01 X112.5438 Y32.6634
G01 X112.5438 Y34.3512
G01 X112.5269 Y34.3765
G01 X112.5269 Y32.6634
G01 X112.5260 Y32.6260
G01 X112.5236 Y32.5770
G01 X112.5162 Y32.5026
G01 X112.5090 Y32.4541
G01 X112.4945 Y32.3808
G01 X112.4825 Y32.3332
G01 X112.4608 Y32.2617
G01 X112.4443 Y32.2155
G01 X112.4157 Y32.1465
G01 X112.3947 Y32.1021
G01 X112.3595 Y32.0362
G01 X112.3343 Y31.9941
G01 X112.2928 Y31.9320
G01 X112.2635 Y31.8925
G01 X112.2161 Y31.8348
G01 X112.1832 Y31.7984
G01 X112.1303 Y31.7456
G01 X112.0939 Y31.7126
G01 X112.0362 Y31.6652
G01 X111.9968 Y31.6360
G01 X111.9346 Y31.5945
G01 X111.8925 Y31.5692
G01 X111.8267 Y31.5340
G01 X111.7823 Y31.5130
G01 X111.7132 Y31.4844
G01 X111.6670 Y31.4679
G01 X111.5955 Y31.4462
G01 X111.5479 Y31.4343
G01 X111.4746 Y31.4197
G01 X111.4261 Y31.4125
G01 X111.3517 Y31.4052
G01 X111.3027 Y31.4028
G01 X111.2653 Y31.4018
G01 X109.9869 Y31.4018
G01 X109.9869 Y30.9756
G01 X110.0119 Y30.9381
G01 X110.0503 Y30.8740
G01 X110.0856 Y30.8081
G01 X110.1175 Y30.7405
G01 X110.1461 Y30.6715
G01 X110.1713 Y30.6011
G01 X110.1930 Y30.5296
G01 X110.2112 Y30.4570
G01 X110.2258 Y30.3837
G01 X110.2367 Y30.3098
G01 X110.2441 Y30.2354
G01 X110.2477 Y30.1607
G01 X110.2477 Y30.0860
G01 X110.2441 Y30.0113
G01 X110.2367 Y29.9370
G01 X110.2258 Y29.8630
G01 X110.2112 Y29.7897
G01 X110.1930 Y29.7172
G01 X110.1713 Y29.6457
G01 X110.1461 Y29.5753
G01 X110.1175 Y29.5063
G01 X110.0856 Y29.4387
G01 X110.0503 Y29.3728
G01 X110.0119 Y29.3087
G01 X109.9704 Y29.2465
G01 X109.9259 Y29.1865
G01 X109.8785 Y29.1287
G01 X109.8282 Y29.0733
G01 X109.7754 Y29.0205
G01 X109.7200 Y28.9703
G01 X109.6623 Y28.9229
G01 X109.6022 Y28.8783
G01 X109.5522 Y28.8449
G01 X115.0838 Y28.8449
G01 X115.0838 Y29.2712
G01 X115.0588 Y29.3087
G01 X115.0203 Y29.3728
G01 X114.9851 Y29.4387
G01 X114.9531 Y29.5063
G01 X114.9245 Y29.5753
G01 X114.8994 Y29.6457
G01 X114.8777 Y29.7172
G01 X114.8595 Y29.7897
G01 X114.8449 Y29.8630
G01 X114.8340 Y29.9370
G01 X114.8266 Y30.0113
G01 X114.8230 Y30.0860
G01 X114.8230 Y30.1607
G01 X114.8266 Y30.2354
G01 X114.8340 Y30.3098
G01 X114.8449 Y30.3837
G01 X114.8595 Y30.4570
G01 X114.8777 Y30.5296
G01 X114.8994 Y30.6011
G01 X114.9245 Y30.6715
G01 X114.9531 Y30.7405
G01 X114.9851 Y30.8081
G01 X115.0203 Y30.8740
G01 X115.0588 Y30.9381
G01 X115.1003 Y31.0002
G01 X115.1448 Y31.0603
G01 X115.1922 Y31.1180
G01 X115.2424 Y31.1735
G01 X115.2953 Y31.2263
G01 X115.3507 Y31.2765
G01 X115.4084 Y31.3239
G01 X115.4685 Y31.3684
G01 X115.5185 Y31.4018
G00 Z2.0000
G00 X120.5985 Y28.8449
G01 F60.00
G01 Z-0.2001
G01 F320.00
G01 X120.5485 Y28.8783
G01 X120.4884 Y28.9229
G01 X120.4307 Y28.9703
G01 X120.3753 Y29.0205
G01 X120.3224 Y29.0733
G01 X120.2722 Y29.1287
G01 X120.2248 Y29.1865
G01 X120.1803 Y29.2465
G01 X120.1388 Y29.3087
G01 X120.1003 Y29.3728
G01 X120.0651 Y29.4387
G01 X120.0331 Y29.5063
G01 X120.0045 Y29.5753
G01 X119.9794 Y29.6457
G01 X119.9577 Y29.7172
G01 X119.9395 Y29.7897
G01 X119.9249 Y29.8630
G01 X119.9140 Y29.9370
G01 X119.9066 Y30.0113
G01 X119.9030 Y30.0860
G01 X119.9030 Y30.1607
G01 X119.9066 Y30.2354
G01 X119.9140 Y30.3098
G01 X119.9249 Y30.3837
G01 X119.9395 Y30.4570
G01 X119.9577 Y30.5296
G01 X119.9794 Y30.6011
G01 X120.0045 Y30.6715
G01 X120.0331 Y30.7405
G01 X120.0651 Y30.8081
G01 X120.1003 Y30.8740
G01 X120.1388 Y30.9381
G01 X120.1638 Y30.9756
G01 X120.1638 Y31.4018
G01 X117.1722 Y31.4018
G01 X117.2222 Y31.3684
G01 X117.2823 Y31.3239
G01 X117.3400 Y31.2765
G01 X117.3954 Y31.2263
G01 X117.4482 Y31.1735
G01 X117.4985 Y31.1180
G01 X117.5459 Y31.0603
G01 X117.5904 Y31.0002
G01 X117.6319 Y30.9381
G01 X117.6703 Y30.8740
G01 X117.7056 Y30.8081
G01 X117.7375 Y30.7405
G01 X117.7661 Y30.6715
G01 X117.7913 Y30.6011
G01 X117.8130 Y30.5296
G01 X117.8312 Y30.4570
G01 X117.8458 Y30.3837
G01 X117.8567 Y30.3098
G01 X117.8641 Y30.2354
G01 X117.8677 Y30.1607
G01 X117.8677 Y30.0860
G01 X117.8641 Y30.0113
G01 X117.8567 Y29.9370
G01 X117.8458 Y29.8630
G01 X117.8312 Y29.7897
G01 X117.8130 Y29.7172
G01 X117.7913 Y29.6457
G01 X117.7661 Y29.5753
G01 X117.7375 Y29.5063
G01 X117.7056 Y29.4387
G01 X117.6703 Y29.3728
G01 X117.6319 Y29.3087
G01 X117.6069 Y29.2712
G01 X117.6069 Y28.8449
G01 X120.5985 Y28.8449
G00 Z2.0000
G00 X122.2522 Y33.9249
G01 F60.00
G01 Z-0.2001
G01 F320.00
G01 X122.7038 Y33.9249
G01 X122.7038 Y34.3765
G01 X122.6704 Y34.3265
G01 X122.6259 Y34.2665
G01 X122.5785 Y34.2087
G01 X122.5282 Y34.1533
G01 X122.4754 Y34.1005
G01 X122.4200 Y34.0503
G01 X122.3623 Y34.0029
G01 X122.3022 Y33.9583
G01 X122.2522 Y33.9249
G00 Z2.0000
G00 X122.7038 Y36.0303
G01 F60.00
G01 Z-0.2001
G01 F320.00
G01 X122.7038 Y39.0039
G01 X122.6869 Y38.9959
G01 X122.6869 Y36.0556
G01 X122.7038 Y36.0303
G00 Z2.0000
G00 X128.2185 Y31.4018
G01 F60.00
G01 Z-0.2001
G01 F320.00
G01 X126.5053 Y31.4018
G01 X126.4680 Y31.4028
G01 X126.4190 Y31.4052
G01 X126.3446 Y31.4125
G01 X126.2960 Y31.4197
G01 X126.2228 Y31.4343
G01 X126.1751 Y31.4462
G01 X126.1037 Y31.4679
G01 X126.0574 Y31.4844
G01 X125.9884 Y31.5130
G01 X125.9440 Y31.5340
G01 X125.8781 Y31.5692
G01 X125.8360 Y31.5945
G01 X125.7739 Y31.6360
G01 X125.7345 Y31.6652
G01 X125.6767 Y31.7126
G01 X125.6404 Y31.7456
G01 X125.5875 Y31.7984
G01 X125.5546 Y31.8348
G01 X125.5072 Y31.8925
G01 X125.4779 Y31.9320
G01 X125.4364 Y31.9941
G01 X125.4112 Y32.0362
G01 X125.3760 Y32.1021
G01 X125.3550 Y32.1465
G01 X125.3264 Y32.2155
G01 X125.3098 Y32.2617
G01 X125.2881 Y32.3332
G01 X125.2762 Y32.3808
G01 X125.2616 Y32.4541
G01 X125.2544 Y32.5026
G01 X125.2471 Y32.5770
G01 X125.2447 Y32.6260
G01 X125.2438 Y32.6634
G01 X125.2438 Y34.3512
G01 X125.2269 Y34.3765
G01 X125.2269 Y32.6634
G01 X125.2260 Y32.6260
G01 X125.2236 Y32.5770
G01 X125.2162 Y32.5026
G01 X125.2090 Y32.4541
G01 X125.1945 Y32.3808
G01 X125.1825 Y32.3332
G01 X125.1608 Y32.2617
G01 X125.1443 Y32.2155
G01 X125.1157 Y32.1465
G01 X125.0947 Y32.1021
G01 X125.0595 Y32.0362
G01 X125.0343 Y31.9941
G01 X124.9928 Y31.9320
G01 X124.9635 Y31.8925
G01 X124.9161 Y31.8348
G01 X124.8832 Y31.7984
G01 X124.8303 Y31.7456
G01 X124.7939 Y31.7126
G01 X124.7362 Y31.6652
G01 X124.6968 Y31.6360
G01 X124.6346 Y31.5945
G01 X124.5925 Y31.5692
G01 X124.5267 Y31.5340
G01 X124.4823 Y31.5130
G01 X124.4132 Y31.4844
G01 X124.3670 Y31.4679
G01 X124.2955 Y31.4462
G01 X124.2479 Y31.4343
G01 X124.1746 Y31.4197
G01 X124.1261 Y31.4125
G01 X124.0517 Y31.4052
G01 X124.0027 Y31.4028
G01 X123.9653 Y31.4018
G01 X122.6869 Y31.4018
G01 X122.6869 Y30.9756
G01 X122.7119 Y30.9381
G01 X122.7503 Y30.8740
G01 X122.7856 Y30.8081
G01 X122.8175 Y30.7405
G01 X122.8461 Y30.6715
G01 X122.8713 Y30.6011
G01 X122.8930 Y30.5296
G01 X122.9112 Y30.4570
G01 X122.9258 Y30.3837
G01 X122.9367 Y30.3098
G01 X122.9441 Y30.2354
G01 X122.9477 Y30.1607
G01 X122.9477 Y30.0860
G01 X122.9441 Y30.0113
G01 X122.9367 Y29.9370
G01 X122.9258 Y29.8630
G01 X122.9112 Y29.7897
G01 X122.8930 Y29.7172
G01 X122.8713 Y29.6457
G01 X122.8461 Y29.5753
G01 X122.8175 Y29.5063
G01 X122.7856 Y29.4387
G01 X122.7503 Y29.3728
G01 X122.7119 Y29.3087
G01 X122.6704 Y29.2465
G01 X122.6259 Y29.1865
G01 X122.5785 Y29.1287
G01 X122.5282 Y29.0733
G01 X122.4754 Y29.0205
G01 X122.4200 Y28.9703
G01 X122.3623 Y28.9229
G01 X122.3022 Y28.8783
G01 X122.2522 Y28.8449
G01 X127.7838 Y28.8449
G01 X127.7838 Y29.2712
G01 X127.7588 Y29.3087
G01 X127.7203 Y29.3728
G01 X127.6851 Y29.4387
G01 X127.6531 Y29.5063
G01 X127.6245 Y29.5753
G01 X127.5994 Y29.6457
G01 X127.5777 Y29.7172
G01 X127.5595 Y29.7897
G01 X127.5449 Y29.8630
G01 X127.5340 Y29.9370
G01 X127.5266 Y30.0113
G01 X127.5230 Y30.0860
G01 X127.5230 Y30.1607
G01 X127.5266 Y30.2354
G01 X127.5340 Y30.3098
G01 X127.5449 Y30.3837
G01 X127.5595 Y30.4570
G01 X127.5777 Y30.5296
G01 X127.5994 Y30.6011
G01 X127.6245 Y30.6715
G01 X127.6531 Y30.7405
G01 X127.6851 Y30.8081
G01 X127.7203 Y30.8740
G01 X127.7588 Y30.9381
G01 X127.8003 Y31.0002
G01 X127.8448 Y31.0603
G01 X127.8922 Y31.1180
G01 X127.9424 Y31.1735
G01 X127.9953 Y31.2263
G01 X128.0507 Y31.2765
G01 X128.1084 Y31.3239
G01 X128.1685 Y31.3684
G01 X128.2185 Y31.4018
G00 Z2.0000
G00 X133.2985 Y28.8449
G01 F60.00
G01 Z-0.2001
G01 F320.00
G01 X133.2485 Y28.8783
G01 X133.1884 Y28.9229
G01 X133.1307 Y28.9703
G01 X133.0753 Y29.0205
G01 X133.0224 Y29.0733
G01 X132.9722 Y29.1287
G01 X132.9248 Y29.1865
G01 X132.8803 Y29.2465
G01 X132.8388 Y29.3087
G01 X132.8003 Y29.3728
G01 X132.7651 Y29.4387
G01 X132.7331 Y29.5063
G01 X132.7045 Y29.5753
G01 X132.6794 Y29.6457
G01 X132.6577 Y29.7172
G01 X132.6395 Y29.7897
G01 X132.6249 Y29.8630
G01 X132.6140 Y29.9370
G01 X132.6066 Y30.0113
G01 X132.6030 Y30.0860
G01 X132.6030 Y30.1607
G01 X132.6066 Y30.2354
G01 X132.6140 Y30.3098
G01 X132.6249 Y30.3837
G01 X132.6395 Y30.4570
G01 X132.6577 Y30.5296
G01 X132.6794 Y30.6011
G01 X132.7045 Y30.6715
G01 X132.7331 Y30.7405
G01 X132.7651 Y30.8081
G01 X132.8003 Y30.8740
G01 X132.8388 Y30.9381
G01 X132.8638 Y30.9756
G01 X132.8638 Y31.4018
G01 X129.8722 Y31.4018
G01 X129.9222 Y31.3684
G01 X129.9823 Y31.3239
G01 X130.0400 Y31.2765
G01 X130.0954 Y31.2263
G01 X130.1482 Y31.1735
G01 X130.1985 Y31.1180
G01 X130.2459 Y31.0603
G01 X130.2904 Y31.0002
G01 X130.3319 Y30.9381
G01 X130.3703 Y30.8740
G01 X130.4056 Y30.8081
G01 X130.4375 Y30.7405
G01 X130.4661 Y30.6715
G01 X130.4913 Y30.6011
G01 X130.5130 Y30.5296
G01 X130.5312 Y30.4570
G01 X130.5458 Y30.3837
G01 X130.5567 Y30.3098
G01 X130.5641 Y30.2354
G01 X130.5677 Y30.1607
G01 X130.5677 Y30.0860
G01 X130.5641 Y30.0113
G01 X130.5567 Y29.9370
G01 X130.5458 Y29.8630
G01 X130.5312 Y29.7897
G01 X130.5130 Y29.7172
G01 X130.4913 Y29.6457
G01 X130.4661 Y29.5753
G01 X130.4375 Y29.5063
G01 X130.4056 Y29.4387
G01 X130.3703 Y29.3728
G01 X130.3319 Y29.3087
G01 X130.3069 Y29.2712
G01 X130.3069 Y28.8449
G01 X133.2985 Y28.8449
G00 Z2.0000
G00 X134.9522 Y33.9249
G01 F60.00
G01 Z-0.2001
G01 F320.00
G01 X135.4038 Y33.9249
G01 X135.4038 Y34.3765
G01 X135.3704 Y34.3265
G01 X135.3259 Y34.2665
G01 X135.2785 Y34.2087
G01 X135.2282 Y34.1533
G01 X135.1754 Y34.1005
G01 X135.1200 Y34.0503
G01 X135.0623 Y34.0029
G01 X135.0022 Y33.9583
G01 X134.9522 Y33.9249
G00 Z2.0000
G00 X135.4038 Y36.0303
G01 F60.00
G01 Z-0.2001
G01 F320.00
G01 X135.4038 Y39.0039
G01 X135.3869 Y38.9959
G01 X135.3869 Y36.0556
G01 X135.4038 Y36.0303
G00 Z2.0000
G00 X137.9438 Y38.9959
G01 F60.00
G01 Z-0.2001
G01 F320.00
G01 X137.9269 Y39.0039
G01 X137.9269 Y33.4903
G01 X137.9438 Y33.5156
G01 X137.9438 Y38.9959
G00 Z2.0000
G00 X140.4838 Y39.0039
G01 F60.00
G01 Z-0.2001
G01 F320.00
G01 X140.4669 Y38.9959
G01 X140.4669 Y33.5156
G01 X140.4838 Y33.4903
G01 X140.4838 Y39.0039
G00 Z2.0000
G00 X140.4838 Y31.8365
G01 F60.00
G01 Z-0.2001
G01 F320.00
G01 X140.4504 Y31.7865
G01 X140.4059 Y31.7265
G01 X140.3585 Y31.6687
G01 X140.3082 Y31.6133
G01 X140.2554 Y31.5605
G01 X140.2000 Y31.5103
G01 X140.1423 Y31.4629
G01 X140.0822 Y31.4183
G01 X140.0201 Y31.3768
G01 X139.9559 Y31.3384
G01 X139.8900 Y31.3032
G01 X139.8224 Y31.2712
G01 X139.7534 Y31.2426
G01 X139.6830 Y31.2174
G01 X139.6115 Y31.1957
G01 X139.5390 Y31.1775
G01 X139.4657 Y31.1630
G01 X139.3917 Y31.1520
G01 X139.3174 Y31.1447
G01 X139.2427 Y31.1410
G01 X139.1680 Y31.1410
G01 X139.0933 Y31.1447
G01 X139.0189 Y31.1520
G01 X138.9450 Y31.1630
G01 X138.8717 Y31.1775
G01 X138.7992 Y31.1957
G01 X138.7277 Y31.2174
G01 X138.6573 Y31.2426
G01 X138.5882 Y31.2712
G01 X138.5206 Y31.3032
G01 X138.4547 Y31.3384
G01 X138.3906 Y31.3768
G01 X138.3285 Y31.4183
G01 X138.2684 Y31.4629
G01 X138.2107 Y31.5103
G01 X138.1553 Y31.5605
G01 X138.1024 Y31.6133
G01 X138.0522 Y31.6687
G01 X138.0048 Y31.7265
G01 X137.9603 Y31.7865
G01 X137.9188 Y31.8487
G01 X137.8803 Y31.9128
G01 X137.8451 Y31.9787
G01 X137.8131 Y32.0463
G01 X137.7921 Y32.0971
G01 X137.7595 Y32.0362
G01 X137.7343 Y31.9941
G01 X137.6928 Y31.9320
G01 X137.6635 Y31.8925
G01 X137.6161 Y31.8348
G01 X137.5832 Y31.7984
G01 X137.5303 Y31.7456
G01 X137.4939 Y31.7126
G01 X137.4362 Y31.6652
G01 X137.3968 Y31.6360
G01 X137.3346 Y31.5945
G01 X137.2925 Y31.5692
G01 X137.2267 Y31.5340
G01 X137.1823 Y31.5130
G01 X137.1132 Y31.4844
G01 X137.0670 Y31.4679
G01 X136.9955 Y31.4462
G01 X136.9479 Y31.4343
G01 X136.8746 Y31.4197
G01 X136.8261 Y31.4125
G01 X136.7517 Y31.4052
G01 X136.7027 Y31.4028
G01 X136.6653 Y31.4018
G01 X135.3869 Y31.4018
G01 X135.3869 Y30.9756
G01 X135.4119 Y30.9381
G01 X135.4503 Y30.8740
G01 X135.4856 Y30.8081
G01 X135.5175 Y30.7405
G01 X135.5461 Y30.6715
G01 X135.5713 Y30.6011
G01 X135.5930 Y30.5296
G01 X135.6112 Y30.4570
G01 X135.6258 Y30.3837
G01 X135.6367 Y30.3098
G01 X135.6441 Y30.2354
G01 X135.6477 Y30.1607
G01 X135.6477 Y30.0860
G01 X135.6441 Y30.0113
G01 X135.6367 Y29.9370
G01 X135.6258 Y29.8630
G01 X135.6112 Y29.7897
G01 X135.5930 Y29.7172
G01 X135.5713 Y29.6457
G01 X135.5461 Y29.5753
G01 X135.5175 Y29.5063
G01 X135.4856 Y29.4387
G01 X135.4503 Y29.3728
G01 X135.4119 Y29.3087
G01 X135.3704 Y29.2465
G01 X135.3259 Y29.1865
G01 X135.2785 Y29.1287
G01 X135.2282 Y29.0733
G01 X135.1754 Y29.0205
G01 X135.1200 Y28.9703
G01 X135.0623 Y28.9229
G01 X135.0022 Y28.8783
G01 X134.9522 Y28.8449
G01 X140.4838 Y28.8449
G01 X140.4838 Y31.8365
G00 Z2.0000
G00 X140.0322 Y26.3218
G01 F60.00
G01 Z-0.2001
G01 F320.00
G01 X140.0822 Y26.2884
G01 X140.1423 Y26.2439
G01 X140.2000 Y26.1965
G01 X140.2554 Y26.1463
G01 X140.3082 Y26.0935
G01 X140.3585 Y26.0380
G01 X140.4059 Y25.9803
G01 X140.4504 Y25.9202
G01 X140.4919 Y25.8581
G01 X140.5303 Y25.7940
G01 X140.5656 Y25.7281
G01 X140.5975 Y25.6605
G01 X140.6261 Y25.5915
G01 X140.6513 Y25.5211
G01 X140.6730 Y25.4496
G01 X140.6912 Y25.3770
G01 X140.7058 Y25.3037
G01 X140.7167 Y25.2298
G01 X140.7241 Y25.1554
G01 X140.7277 Y25.0807
G01 X140.7277 Y25.0060
G01 X140.7241 Y24.9313
G01 X140.7167 Y24.8570
G01 X140.7058 Y24.7830
G01 X140.6912 Y24.7097
G01 X140.6730 Y24.6372
G01 X140.6513 Y24.5657
G01 X140.6261 Y24.4953
G01 X140.5975 Y24.4263
G01 X140.5656 Y24.3587
G01 X140.5303 Y24.2928
G01 X140.4919 Y24.2287
G01 X140.4504 Y24.1665
G01 X140.4059 Y24.1065
G01 X140.3585 Y24.0487
G01 X140.3082 Y23.9933
G01 X140.2554 Y23.9405
G01 X140.2000 Y23.8903
G01 X140.1423 Y23.8429
G01 X140.0822 Y23.7983
G01 X140.0201 Y23.7568
G01 X139.9559 Y23.7184
G01 X139.8900 Y23.6832
G01 X139.8224 Y23.6512
G01 X139.7534 Y23.6226
G01 X139.6830 Y23.5974
G01 X139.6115 Y23.5757
G01 X139.5390 Y23.5575
G01 X139.4657 Y23.5430
G01 X139.3917 Y23.5320
G01 X139.3174 Y23.5247
G01 X139.2427 Y23.5210
G01 X139.1680 Y23.5210
G01 X139.0933 Y23.5247
G01 X139.0189 Y23.5320
G01 X138.9450 Y23.5430
G01 X138.8717 Y23.5575
G01 X138.7992 Y23.5757
G01 X138.7277 Y23.5974
G01 X138.6573 Y23.6226
G01 X138.5882 Y23.6512
G01 X138.5206 Y23.6832
G01 X138.4547 Y23.7184
G01 X138.3906 Y23.7568
G01 X138.3532 Y23.7818
G01 X135.3869 Y23.7818
G01 X135.3869 Y14.8834
G01 X135.3860 Y14.8460
G01 X135.3836 Y14.7970
G01 X135.3762 Y14.7226
G01 X135.3690 Y14.6741
G01 X135.3545 Y14.6008
G01 X135.3425 Y14.5532
G01 X135.3208 Y14.4817
G01 X135.3043 Y14.4355
G01 X135.2757 Y14.3665
G01 X135.2547 Y14.3221
G01 X135.2195 Y14.2562
G01 X135.1943 Y14.2141
G01 X135.1528 Y14.1520
G01 X135.1235 Y14.1125
G01 X135.0761 Y14.0548
G01 X135.0432 Y14.0184
G01 X134.9903 Y13.9656
G01 X134.9539 Y13.9326
G01 X134.8962 Y13.8852
G01 X134.8568 Y13.8560
G01 X134.7946 Y13.8145
G01 X134.7525 Y13.7892
G01 X134.6867 Y13.7540
G01 X134.6423 Y13.7330
G01 X134.5732 Y13.7044
G01 X134.5270 Y13.6879
G01 X134.4555 Y13.6662
G01 X134.4079 Y13.6543
G01 X134.3346 Y13.6397
G01 X134.2861 Y13.6325
G01 X134.2117 Y13.6252
G01 X134.1627 Y13.6228
G01 X134.1253 Y13.6218
G01 X132.8728 Y13.6218
G01 X132.8648 Y13.6049
G01 X135.4038 Y13.6049
G01 X135.4038 Y17.4234
G01 X135.4047 Y17.4607
G01 X135.4071 Y17.5098
G01 X135.4144 Y17.5841
G01 X135.4216 Y17.6327
G01 X135.4362 Y17.7060
G01 X135.4481 Y17.7536
G01 X135.4698 Y17.8251
G01 X135.4864 Y17.8713
G01 X135.5150 Y17.9403
G01 X135.5360 Y17.9847
G01 X135.5712 Y18.0506
G01 X135.5964 Y18.0927
G01 X135.6379 Y18.1548
G01 X135.6672 Y18.1942
G01 X135.7146 Y18.2520
G01 X135.7475 Y18.2884
G01 X135.8004 Y18.3412
G01 X135.8367 Y18.3742
G01 X135.8945 Y18.4216
G01 X135.9339 Y18.4508
G01 X135.9960 Y18.4923
G01 X136.0381 Y18.5176
G01 X136.1040 Y18.5528
G01 X136.1484 Y18.5738
G01 X136.2174 Y18.6023
G01 X136.2637 Y18.6189
G01 X136.3351 Y18.6406
G01 X136.3828 Y18.6525
G01 X136.4560 Y18.6671
G01 X136.5046 Y18.6743
G01 X136.5790 Y18.6816
G01 X136.6280 Y18.6840
G01 X136.6653 Y18.6849
G01 X137.9258 Y18.6849
G01 X137.9070 Y18.7248
G01 X137.8784 Y18.7938
G01 X137.8566 Y18.8548
G01 X137.8349 Y18.9263
G01 X137.8191 Y18.9892
G01 X137.8046 Y19.0624
G01 X137.7951 Y19.1265
G01 X137.7877 Y19.2009
G01 X137.7846 Y19.2656
G01 X137.7836 Y19.3030
G01 X137.7836 Y20.6238
G01 X137.7846 Y20.6611
G01 X137.7877 Y20.7259
G01 X137.7951 Y20.8002
G01 X137.8046 Y20.8643
G01 X137.8191 Y20.9376
G01 X137.8349 Y21.0005
G01 X137.8566 Y21.0720
G01 X137.8784 Y21.1330
G01 X137.9070 Y21.2020
G01 X137.9347 Y21.2606
G01 X137.9699 Y21.3265
G01 X138.0032 Y21.3821
G01 X138.0448 Y21.4442
G01 X138.0834 Y21.4962
G01 X138.1308 Y21.5540
G01 X138.1743 Y21.6020
G01 X138.2271 Y21.6548
G01 X138.2751 Y21.6984
G01 X138.3329 Y21.7458
G01 X138.3849 Y21.7844
G01 X138.4471 Y21.8259
G01 X138.5026 Y21.8592
G01 X138.5685 Y21.8944
G01 X138.6271 Y21.9221
G01 X138.6961 Y21.9507
G01 X138.7572 Y21.9725
G01 X138.8287 Y21.9942
G01 X138.8915 Y22.0100
G01 X138.9648 Y22.0246
G01 X139.0289 Y22.0341
G01 X139.1033 Y22.0414
G01 X139.1680 Y22.0446
G01 X139.2427 Y22.0446
G01 X139.3074 Y22.0414
G01 X139.3818 Y22.0341
G01 X139.4459 Y22.0246
G01 X139.5192 Y22.0100
G01 X139.5820 Y21.9942
G01 X139.6535 Y21.9725
G01 X139.7145 Y21.9507
G01 X139.7836 Y21.9221
G01 X139.8421 Y21.8944
G01 X139.9080 Y21.8592
G01 X139.9636 Y21.8259
G01 X140.0257 Y21.7844
G01 X140.0778 Y21.7458
G01 X140.1355 Y21.6984
G01 X140.1836 Y21.6548
G01 X140.2364 Y21.6020
G01 X140.2799 Y21.5540
G01 X140.3273 Y21.4962
G01 X140.3659 Y21.4442
G01 X140.4074 Y21.3821
G01 X140.4407 Y21.3265
G01 X140.4760 Y21.2606
G01 X140.5037 Y21.2020
G01 X140.5323 Y21.1330
G01 X140.5541 Y21.0720
G01 X140.5758 Y21.0005
G01 X140.5915 Y20.9376
G01 X140.6061 Y20.8643
G01 X140.6156 Y20.8002
G01 X140.6229 Y20.7259
G01 X140.6261 Y20.6611
G01 X140.6270 Y20.6238
G01 X140.6270 Y19.3030
G01 X140.6261 Y19.2656
G01 X140.6229 Y19.2009
G01 X140.6156 Y19.1265
G01 X140.6061 Y19.0624
G01 X140.5915 Y18.9892
G01 X140.5758 Y18.9263
G01 X140.5541 Y18.8548
G01 X140.5323 Y18.7938
G01 X140.5037 Y18.7248
G01 X140.4848 Y18.6849
G01 X145.5638 Y18.6849
G01 X145.5638 Y39.0039
G01 X145.5240 Y38.9850
G01 X145.4549 Y38.9565
G01 X145.3939 Y38.9346
G01 X145.3224 Y38.9129
G01 X145.2596 Y38.8972
G01 X145.1863 Y38.8826
G01 X145.1222 Y38.8731
G01 X145.0478 Y38.8658
G01 X144.9831 Y38.8626
G01 X144.9457 Y38.8617
G01 X143.6249 Y38.8617
G01 X143.5876 Y38.8626
G01 X143.5229 Y38.8658
G01 X143.4485 Y38.8731
G01 X143.3844 Y38.8826
G01 X143.3111 Y38.8972
G01 X143.2483 Y38.9129
G01 X143.1768 Y38.9346
G01 X143.1157 Y38.9565
G01 X143.0467 Y38.9850
G01 X143.0069 Y39.0039
G01 X143.0069 Y27.5834
G01 X143.0060 Y27.5460
G01 X143.0036 Y27.4970
G01 X142.9962 Y27.4226
G01 X142.9890 Y27.3741
G01 X142.9745 Y27.3008
G01 X142.9625 Y27.2532
G01 X142.9408 Y27.1817
G01 X142.9243 Y27.1355
G01 X142.8957 Y27.0665
G01 X142.8747 Y27.0221
G01 X142.8395 Y26.9562
G01 X142.8143 Y26.9141
G01 X142.7728 Y26.8520
G01 X142.7435 Y26.8125
G01 X142.6961 Y26.7548
G01 X142.6632 Y26.7184
G01 X142.6103 Y26.6656
G01 X142.5739 Y26.6326
G01 X142.5162 Y26.5852
G01 X142.4768 Y26.5560
G01 X142.4146 Y26.5145
G01 X142.3725 Y26.4892
G01 X142.3067 Y26.4540
G01 X142.2623 Y26.4330
G01 X142.1932 Y26.4044
G01 X142.1470 Y26.3879
G01 X142.0755 Y26.3662
G01 X142.0279 Y26.3543
G01 X141.9546 Y26.3397
G01 X141.9061 Y26.3325
G01 X141.8317 Y26.3252
G01 X141.7827 Y26.3228
G01 X141.7453 Y26.3218
G01 X140.0322 Y26.3218
G00 Z2.0000
G00 X132.8638 Y21.2440
G01 F60.00
G01 Z-0.2001
G01 F320.00
G01 X132.8638 Y25.0434
G01 X132.8647 Y25.0807
G01 X132.8671 Y25.1298
G01 X132.8744 Y25.2041
G01 X132.8816 Y25.2527
G01 X132.8962 Y25.3260
G01 X132.9081 Y25.3736
G01 X132.9298 Y25.4451
G01 X132.9464 Y25.4913
G01 X132.9750 Y25.5603
G01 X132.9960 Y25.6047
G01 X133.0312 Y25.6706
G01 X133.0564 Y25.7127
G01 X133.0979 Y25.7748
G01 X133.1272 Y25.8142
G01 X133.1746 Y25.8720
G01 X133.2075 Y25.9084
G01 X133.2604 Y25.9612
G01 X133.2967 Y25.9942
G01 X133.3545 Y26.0416
G01 X133.3939 Y26.0708
G01 X133.4560 Y26.1123
G01 X133.4981 Y26.1376
G01 X133.5640 Y26.1728
G01 X133.6084 Y26.1938
G01 X133.6774 Y26.2223
G01 X133.7237 Y26.2389
G01 X133.7951 Y26.2606
G01 X133.8428 Y26.2725
G01 X133.9160 Y26.2871
G01 X133.9646 Y26.2943
G01 X134.0390 Y26.3016
G01 X134.0880 Y26.3040
G01 X134.1253 Y26.3049
G01 X138.3532 Y26.3049
G01 X138.3785 Y26.3218
G01 X132.8469 Y26.3218
G01 X132.8469 Y21.2776
G01 X132.8560 Y21.2606
G01 X132.8638 Y21.2440
G00 Z2.0000
G00 X130.3153 Y18.6650
G01 F60.00
G01 Z-0.2001
G01 F320.00
G01 X130.2807 Y18.6003
G01 X130.2474 Y18.5447
G01 X130.2059 Y18.4826
G01 X130.1673 Y18.4305
G01 X130.1199 Y18.3728
G01 X130.0764 Y18.3248
G01 X130.0236 Y18.2719
G01 X129.9755 Y18.2284
G01 X129.9178 Y18.1810
G01 X129.8657 Y18.1424
G01 X129.8036 Y18.1009
G01 X129.7480 Y18.0676
G01 X129.6821 Y18.0324
G01 X129.6236 Y18.0046
G01 X129.5545 Y17.9761
G01 X129.4935 Y17.9542
G01 X129.4220 Y17.9325
G01 X129.3592 Y17.9168
G01 X129.2859 Y17.9022
G01 X129.2218 Y17.8927
G01 X129.1474 Y17.8854
G01 X129.0827 Y17.8822
G01 X129.0080 Y17.8822
G01 X128.9433 Y17.8854
G01 X128.8689 Y17.8927
G01 X128.8048 Y17.9022
G01 X128.7315 Y17.9168
G01 X128.6687 Y17.9325
G01 X128.5972 Y17.9542
G01 X128.5361 Y17.9761
G01 X128.4671 Y18.0046
G01 X128.4085 Y18.0324
G01 X128.3426 Y18.0676
G01 X128.2871 Y18.1009
G01 X128.2249 Y18.1424
G01 X128.1729 Y18.1810
G01 X128.1151 Y18.2284
G01 X128.0671 Y18.2719
G01 X128.0143 Y18.3248
G01 X127.9708 Y18.3728
G01 X127.9234 Y18.4305
G01 X127.8848 Y18.4826
G01 X127.8432 Y18.5447
G01 X127.8099 Y18.6003
G01 X127.7747 Y18.6662
G01 X127.7669 Y18.6827
G01 X127.7669 Y16.1640
G01 X127.7747 Y16.1806
G01 X127.8099 Y16.2465
G01 X127.8432 Y16.3021
G01 X127.8848 Y16.3642
G01 X127.9234 Y16.4162
G01 X127.9708 Y16.4740
G01 X128.0143 Y16.5220
G01 X128.0671 Y16.5748
G01 X128.1151 Y16.6184
G01 X128.1729 Y16.6658
G01 X128.2249 Y16.7044
G01 X128.2871 Y16.7459
G01 X128.3426 Y16.7792
G01 X128.4085 Y16.8144
G01 X128.4671 Y16.8421
G01 X128.5361 Y16.8707
G01 X128.5972 Y16.8925
G01 X128.6687 Y16.9142
G01 X128.7315 Y16.9300
G01 X128.8048 Y16.9446
G01 X128.8689 Y16.9541
G01 X128.9433 Y16.9614
G01 X129.0080 Y16.9646
G01 X129.0827 Y16.9646
G01 X129.1474 Y16.9614
G01 X129.2218 Y16.9541
G01 X129.2859 Y16.9446
G01 X129.3592 Y16.9300
G01 X129.4220 Y16.9142
G01 X129.4935 Y16.8925
G01 X129.5545 Y16.8707
G01 X129.6236 Y16.8421
G01 X129.6821 Y16.8144
G01 X129.7480 Y16.7792
G01 X129.8036 Y16.7459
G01 X129.8657 Y16.7044
G01 X129.9178 Y16.6658
G01 X129.9755 Y16.6184
G01 X130.0236 Y16.5748
G01 X130.0764 Y16.5220
G01 X130.1199 Y16.4740
G01 X130.1673 Y16.4162
G01 X130.2059 Y16.3642
G01 X130.2474 Y16.3021
G01 X130.2807 Y16.2465
G01 X130.3153 Y16.1818
G01 X130.3499 Y16.2465
G01 X130.3832 Y16.3021
G01 X130.4248 Y16.3642
G01 X130.4634 Y16.4162
G01 X130.5108 Y16.4740
G01 X130.5543 Y16.5220
G01 X130.6071 Y16.5748
G01 X130.6551 Y16.6184
G01 X130.7129 Y16.6658
G01 X130.7649 Y16.7044
G01 X130.8271 Y16.7459
G01 X130.8826 Y16.7792
G01 X130.9485 Y16.8144
G01 X131.0071 Y16.8421
G01 X131.0761 Y16.8707
G01 X131.1372 Y16.8925
G01 X131.2087 Y16.9142
G01 X131.2715 Y16.9300
G01 X131.3448 Y16.9446
G01 X131.4089 Y16.9541
G01 X131.4833 Y16.9614
G01 X131.5480 Y16.9646
G01 X131.6227 Y16.9646
G01 X131.6874 Y16.9614
G01 X131.7618 Y16.9541
G01 X131.8259 Y16.9446
G01 X131.8992 Y16.9300
G01 X131.9620 Y16.9142
G01 X132.0335 Y16.8925
G01 X132.0945 Y16.8707
G01 X132.1636 Y16.8421
G01 X132.2221 Y16.8144
G01 X132.2880 Y16.7792
G01 X132.3436 Y16.7459
G01 X132.4057 Y16.7044
G01 X132.4578 Y16.6658
G01 X132.5155 Y16.6184
G01 X132.5636 Y16.5748
G01 X132.6164 Y16.5220
G01 X132.6599 Y16.4740
G01 X132.7073 Y16.4162
G01 X132.7459 Y16.3642
G01 X132.7874 Y16.3021
G01 X132.8207 Y16.2465
G01 X132.8560 Y16.1806
G01 X132.8638 Y16.1640
G01 X132.8638 Y18.6827
G01 X132.8560 Y18.6662
G01 X132.8207 Y18.6003
G01 X132.7874 Y18.5447
G01 X132.7459 Y18.4826
G01 X132.7073 Y18.4305
G01 X132.6599 Y18.3728
G01 X132.6164 Y18.3248
G01 X132.5636 Y18.2719
G01 X132.5155 Y18.2284
G01 X132.4578 Y18.1810
G01 X132.4057 Y18.1424
G01 X132.3436 Y18.1009
G01 X132.2880 Y18.0676
G01 X132.2221 Y18.0324
G01 X132.1636 Y18.0046
G01 X132.0945 Y17.9761
G01 X132.0335 Y17.9542
G01 X131.9620 Y17.9325
G01 X131.8992 Y17.9168
G01 X131.8259 Y17.9022
G01 X131.7618 Y17.8927
G01 X131.6874 Y17.8854
G01 X131.6227 Y17.8822
G01 X131.5480 Y17.8822
G01 X131.4833 Y17.8854
G01 X131.4089 Y17.8927
G01 X131.3448 Y17.9022
G01 X131.2715 Y17.9168
G01 X131.2087 Y17.9325
G01 X131.1372 Y17.9542
G01 X131.0761 Y17.9761
G01 X131.0071 Y18.0046
G01 X130.9485 Y18.0324
G01 X130.8826 Y18.0676
G01 X130.8271 Y18.1009
G01 X130.7649 Y18.1424
G01 X130.7129 Y18.1810
G01 X130.6551 Y18.2284
G01 X130.6071 Y18.2719
G01 X130.5543 Y18.3248
G01 X130.5108 Y18.3728
G01 X130.4634 Y18.4305
G01 X130.4248 Y18.4826
G01 X130.3832 Y18.5447
G01 X130.3499 Y18.6003
G01 X130.3153 Y18.6650
G00 Z2.0000
G00 X127.7470 Y41.5534
G01 F60.00
G01 Z-0.2001
G01 F320.00
G01 X127.7311 Y41.5618
G01 X125.2269 Y41.5618
G01 X125.2269 Y36.0303
G01 X125.2603 Y36.0802
G01 X125.3048 Y36.1403
G01 X125.3522 Y36.1980
G01 X125.4024 Y36.2535
G01 X125.4553 Y36.3063
G01 X125.5107 Y36.3565
G01 X125.5684 Y36.4039
G01 X125.6285 Y36.4484
G01 X125.6906 Y36.4900
G01 X125.7547 Y36.5284
G01 X125.8206 Y36.5636
G01 X125.8882 Y36.5956
G01 X125.9573 Y36.6242
G01 X126.0277 Y36.6494
G01 X126.0992 Y36.6711
G01 X126.1717 Y36.6892
G01 X126.2450 Y36.7038
G01 X126.3189 Y36.7148
G01 X126.3933 Y36.7221
G01 X126.4680 Y36.7258
G01 X126.5427 Y36.7258
G01 X126.6174 Y36.7221
G01 X126.6917 Y36.7148
G01 X126.7657 Y36.7038
G01 X126.8390 Y36.6892
G01 X126.9115 Y36.6711
G01 X126.9830 Y36.6494
G01 X127.0534 Y36.6242
G01 X127.1224 Y36.5956
G01 X127.1900 Y36.5636
G01 X127.2559 Y36.5284
G01 X127.3201 Y36.4900
G01 X127.3822 Y36.4484
G01 X127.4423 Y36.4039
G01 X127.5000 Y36.3565
G01 X127.5554 Y36.3063
G01 X127.6082 Y36.2535
G01 X127.6585 Y36.1980
G01 X127.7059 Y36.1403
G01 X127.7504 Y36.0802
G01 X127.7919 Y36.0181
G01 X127.8303 Y35.9540
G01 X127.8656 Y35.8881
G01 X127.8975 Y35.8205
G01 X127.9261 Y35.7515
G01 X127.9513 Y35.6811
G01 X127.9730 Y35.6096
G01 X127.9912 Y35.5370
G01 X128.0058 Y35.4637
G01 X128.0167 Y35.3898
G01 X128.0241 Y35.3154
G01 X128.0277 Y35.2407
G01 X128.0277 Y35.1660
G01 X128.0241 Y35.0913
G01 X128.0167 Y35.0170
G01 X128.0058 Y34.9430
G01 X127.9912 Y34.8697
G01 X127.9730 Y34.7972
G01 X127.9513 Y34.7257
G01 X127.9261 Y34.6553
G01 X127.8975 Y34.5863
G01 X127.8656 Y34.5187
G01 X127.8303 Y34.4528
G01 X127.7919 Y34.3887
G01 X127.7669 Y34.3512
G01 X127.7669 Y33.9249
G01 X133.2985 Y33.9249
G01 X133.2485 Y33.9583
G01 X133.1884 Y34.0029
G01 X133.1307 Y34.0503
G01 X133.0753 Y34.1005
G01 X133.0224 Y34.1533
G01 X132.9722 Y34.2087
G01 X132.9248 Y34.2665
G01 X132.8803 Y34.3265
G01 X132.8388 Y34.3887
G01 X132.8003 Y34.4528
G01 X132.7651 Y34.5187
G01 X132.7331 Y34.5863
G01 X132.7045 Y34.6553
G01 X132.6794 Y34.7257
G01 X132.6577 Y34.7972
G01 X132.6395 Y34.8697
G01 X132.6249 Y34.9430
G01 X132.6140 Y35.0170
G01 X132.6066 Y35.0913
G01 X132.6030 Y35.1660
G01 X132.6030 Y35.2407
G01 X132.6066 Y35.3154
G01 X132.6140 Y35.3898
G01 X132.6249 Y35.4637
G01 X132.6395 Y35.5370
G01 X132.6577 Y35.6096
G01 X132.6794 Y35.6811
G01 X132.7045 Y35.7515
G01 X132.7331 Y35.8205
G01 X132.7651 Y35.8881
G01 X132.8003 Y35.9540
G01 X132.8388 Y36.0181
G01 X132.8638 Y36.0556
G01 X132.8638 Y38.9959
G01 X132.8281 Y39.0128
G01 X132.7622 Y39.0480
G01 X132.7067 Y39.0813
G01 X132.6445 Y39.1228
G01 X132.5925 Y39.1614
G01 X132.5347 Y39.2088
G01 X132.4867 Y39.2523
G01 X132.4339 Y39.3052
G01 X132.4111 Y39.3303
G01 X132.3562 Y39.2852
G01 X132.3168 Y39.2560
G01 X132.2546 Y39.2145
G01 X132.2125 Y39.1892
G01 X132.1467 Y39.1540
G01 X132.1023 Y39.1330
G01 X132.0332 Y39.1044
