(G-CODE GENERATED BY FLATCAM v8.991 - www.flatcam.org - Version Date: 2019/12/27)

(Name: 004_Sequencer_drill)
(Type: G-code from Excellon)
(Units: MM)

(Created on Sunday, 01 March 2020 at 22:32)

(Feedrate: 300.0 mm/min)
(Feedrate rapids 1500.0 mm/min)

(Z_Cut: -1.9000000000000001 mm)
(Z_Move: 2.0 mm)
(Z Toolchange: 15.0 mm)
(X,Y Toolchange: 0.0000, 0.0000 mm)
(Z Start: None mm)
(Z End: 0.5 mm)
(Steps per circle: 64)
(Preprocessor Excellon: default)

(X range:    4.1408 ...  144.6917  mm)
(Y range:    4.2789 ...   96.6079  mm)

(Spindle Speed: None RPM)
G21
G90
G94

M03 S3000


G01 F300.00
G00 Z2.0000

M03
G00 X144.2853 Y40.2834
G01 Z-1.9000
G01 Z0
G00 Z2.0000
G00 X139.2053 Y42.8234
G01 Z-1.9000
G01 Z0
G00 Z2.0000
G00 X139.2053 Y40.2834
G01 Z-1.9000
G01 Z0
G00 Z2.0000
G00 X139.2053 Y32.6634
G01 Z-1.9000
G01 Z0
G00 Z2.0000
G00 X139.2053 Y25.0434
G01 Z-1.9000
G01 Z0
G00 Z2.0000
G00 X139.2053 Y19.9634
G01 Z-1.9000
G01 Z0
G00 Z2.0000
G00 X139.2053 Y14.8834
G01 Z-1.9000
G01 Z0
G00 Z2.0000
G00 X131.5853 Y14.8834
G01 Z-1.9000
G01 Z0
G00 Z2.0000
G00 X129.0453 Y14.8834
G01 Z-1.9000
G01 Z0
G00 Z2.0000
G00 X129.0453 Y19.9634
G01 Z-1.9000
G01 Z0
G00 Z2.0000
G00 X131.5853 Y19.9634
G01 Z-1.9000
G01 Z0
G00 Z2.0000
G00 X134.1253 Y35.2034
G01 Z-1.9000
G01 Z0
G00 Z2.0000
G00 X134.1253 Y40.2834
G01 Z-1.9000
G01 Z0
G00 Z2.0000
G00 X134.1253 Y42.8234
G01 Z-1.9000
G01 Z0
G00 Z2.0000
G00 X129.0453 Y42.8234
G01 Z-1.9000
G01 Z0
G00 Z2.0000
G00 X129.0453 Y40.2834
G01 Z-1.9000
G01 Z0
G00 Z2.0000
G00 X126.5053 Y35.2034
G01 Z-1.9000
G01 Z0
G00 Z2.0000
G00 X121.4253 Y35.2034
G01 Z-1.9000
G01 Z0
G00 Z2.0000
G00 X121.4253 Y40.2834
G01 Z-1.9000
G01 Z0
G00 Z2.0000
G00 X121.4253 Y42.8234
G01 Z-1.9000
G01 Z0
G00 Z2.0000
G00 X116.3453 Y42.8234
G01 Z-1.9000
G01 Z0
G00 Z2.0000
G00 X116.3453 Y40.2834
G01 Z-1.9000
G01 Z0
G00 Z2.0000
G00 X113.8053 Y35.2034
G01 Z-1.9000
G01 Z0
G00 Z2.0000
G00 X108.7253 Y35.2034
G01 Z-1.9000
G01 Z0
G00 Z2.0000
G00 X108.7253 Y40.2834
G01 Z-1.9000
G01 Z0
G00 Z2.0000
G00 X108.7253 Y42.8234
G01 Z-1.9000
G01 Z0
G00 Z2.0000
G00 X103.6453 Y42.8234
G01 Z-1.9000
G01 Z0
G00 Z2.0000
G00 X103.6453 Y40.2834
G01 Z-1.9000
G01 Z0
G00 Z2.0000
G00 X101.1053 Y35.2034
G01 Z-1.9000
G01 Z0
G00 Z2.0000
G00 X96.0253 Y35.2034
G01 Z-1.9000
G01 Z0
G00 Z2.0000
G00 X96.0253 Y40.2834
G01 Z-1.9000
G01 Z0
G00 Z2.0000
G00 X96.0253 Y42.8234
G01 Z-1.9000
G01 Z0
G00 Z2.0000
G00 X90.9453 Y42.8234
G01 Z-1.9000
G01 Z0
G00 Z2.0000
G00 X90.9453 Y40.2834
G01 Z-1.9000
G01 Z0
G00 Z2.0000
G00 X88.4053 Y35.2034
G01 Z-1.9000
G01 Z0
G00 Z2.0000
G00 X83.3253 Y35.2034
G01 Z-1.9000
G01 Z0
G00 Z2.0000
G00 X83.3253 Y40.2834
G01 Z-1.9000
G01 Z0
G00 Z2.0000
G00 X83.3253 Y42.8234
G01 Z-1.9000
G01 Z0
G00 Z2.0000
G00 X78.2453 Y42.8234
G01 Z-1.9000
G01 Z0
G00 Z2.0000
G00 X78.2453 Y40.2834
G01 Z-1.9000
G01 Z0
G00 Z2.0000
G00 X75.7053 Y35.2034
G01 Z-1.9000
G01 Z0
G00 Z2.0000
G00 X70.6253 Y35.2034
G01 Z-1.9000
G01 Z0
G00 Z2.0000
G00 X70.6253 Y40.2834
G01 Z-1.9000
G01 Z0
G00 Z2.0000
G00 X70.6253 Y42.8234
G01 Z-1.9000
G01 Z0
G00 Z2.0000
G00 X65.5453 Y42.8234
G01 Z-1.9000
G01 Z0
G00 Z2.0000
G00 X65.5453 Y40.2834
G01 Z-1.9000
G01 Z0
G00 Z2.0000
G00 X63.0053 Y35.2034
G01 Z-1.9000
G01 Z0
G00 Z2.0000
G00 X57.9253 Y35.2034
G01 Z-1.9000
G01 Z0
G00 Z2.0000
G00 X57.9253 Y40.2834
G01 Z-1.9000
G01 Z0
G00 Z2.0000
G00 X57.9253 Y42.8234
G01 Z-1.9000
G01 Z0
G00 Z2.0000
G00 X52.8453 Y42.8234
G01 Z-1.9000
G01 Z0
G00 Z2.0000
G00 X52.8453 Y40.2834
G01 Z-1.9000
G01 Z0
G00 Z2.0000
G00 X50.3053 Y35.2034
G01 Z-1.9000
G01 Z0
G00 Z2.0000
G00 X45.2253 Y35.2034
G01 Z-1.9000
G01 Z0
G00 Z2.0000
G00 X45.2253 Y40.2834
G01 Z-1.9000
G01 Z0
G00 Z2.0000
G00 X45.2253 Y42.8234
G01 Z-1.9000
G01 Z0
G00 Z2.0000
G00 X40.1453 Y42.8234
G01 Z-1.9000
G01 Z0
G00 Z2.0000
G00 X40.1453 Y40.2834
G01 Z-1.9000
G01 Z0
G00 Z2.0000
G00 X37.6053 Y35.2034
G01 Z-1.9000
G01 Z0
G00 Z2.0000
G00 X32.5253 Y35.2034
G01 Z-1.9000
G01 Z0
G00 Z2.0000
G00 X32.5253 Y40.2834
G01 Z-1.9000
G01 Z0
G00 Z2.0000
G00 X32.5253 Y42.8234
G01 Z-1.9000
G01 Z0
G00 Z2.0000
G00 X27.4453 Y42.8234
G01 Z-1.9000
G01 Z0
G00 Z2.0000
G00 X27.4453 Y40.2834
G01 Z-1.9000
G01 Z0
G00 Z2.0000
G00 X24.9053 Y35.2034
G01 Z-1.9000
G01 Z0
G00 Z2.0000
G00 X19.8253 Y35.2034
G01 Z-1.9000
G01 Z0
G00 Z2.0000
G00 X12.2053 Y35.2034
G01 Z-1.9000
G01 Z0
G00 Z2.0000
G00 X14.7453 Y40.2834
G01 Z-1.9000
G01 Z0
G00 Z2.0000
G00 X14.7453 Y42.8234
G01 Z-1.9000
G01 Z0
G00 Z2.0000
G00 X19.8253 Y40.2834
G01 Z-1.9000
G01 Z0
G00 Z2.0000
G00 X19.8253 Y42.8234
G01 Z-1.9000
G01 Z0
G00 Z2.0000
G00 X14.7453 Y50.4434
G01 Z-1.9000
G01 Z0
G00 Z2.0000
G00 X19.8253 Y50.4434
G01 Z-1.9000
G01 Z0
G00 Z2.0000
G00 X19.8253 Y58.0634
G01 Z-1.9000
G01 Z0
G00 Z2.0000
G00 X19.8253 Y60.6034
G01 Z-1.9000
G01 Z0
G00 Z2.0000
G00 X14.7453 Y58.0634
G01 Z-1.9000
G01 Z0
G00 Z2.0000
G00 X14.7453 Y60.6034
G01 Z-1.9000
G01 Z0
G00 Z2.0000
G00 X14.7453 Y68.2234
G01 Z-1.9000
G01 Z0
G00 Z2.0000
G00 X19.8253 Y68.2234
G01 Z-1.9000
G01 Z0
G00 Z2.0000
G00 X27.4453 Y68.2234
G01 Z-1.9000
G01 Z0
G00 Z2.0000
G00 X32.5253 Y68.2234
G01 Z-1.9000
G01 Z0
G00 Z2.0000
G00 X32.5253 Y60.6034
G01 Z-1.9000
G01 Z0
G00 Z2.0000
G00 X32.5253 Y58.0634
G01 Z-1.9000
G01 Z0
G00 Z2.0000
G00 X27.4453 Y60.6034
G01 Z-1.9000
G01 Z0
G00 Z2.0000
G00 X27.4453 Y58.0634
G01 Z-1.9000
G01 Z0
G00 Z2.0000
G00 X27.4453 Y50.4434
G01 Z-1.9000
G01 Z0
G00 Z2.0000
G00 X32.5253 Y50.4434
G01 Z-1.9000
G01 Z0
G00 Z2.0000
G00 X40.1453 Y50.4434
G01 Z-1.9000
G01 Z0
G00 Z2.0000
G00 X45.2253 Y50.4434
G01 Z-1.9000
G01 Z0
G00 Z2.0000
G00 X45.2253 Y58.0634
G01 Z-1.9000
G01 Z0
G00 Z2.0000
G00 X45.2253 Y60.6034
G01 Z-1.9000
G01 Z0
G00 Z2.0000
G00 X40.1453 Y58.0634
G01 Z-1.9000
G01 Z0
G00 Z2.0000
G00 X40.1453 Y60.6034
G01 Z-1.9000
G01 Z0
G00 Z2.0000
G00 X40.1453 Y68.2234
G01 Z-1.9000
G01 Z0
G00 Z2.0000
G00 X45.2253 Y68.2234
G01 Z-1.9000
G01 Z0
G00 Z2.0000
G00 X52.8453 Y68.2234
G01 Z-1.9000
G01 Z0
G00 Z2.0000
G00 X57.9253 Y68.2234
G01 Z-1.9000
G01 Z0
G00 Z2.0000
G00 X57.9253 Y60.6034
G01 Z-1.9000
G01 Z0
G00 Z2.0000
G00 X57.9253 Y58.0634
G01 Z-1.9000
G01 Z0
G00 Z2.0000
G00 X52.8453 Y60.6034
G01 Z-1.9000
G01 Z0
G00 Z2.0000
G00 X52.8453 Y58.0634
G01 Z-1.9000
G01 Z0
G00 Z2.0000
G00 X52.8453 Y50.4434
G01 Z-1.9000
G01 Z0
G00 Z2.0000
G00 X57.9253 Y50.4434
G01 Z-1.9000
G01 Z0
G00 Z2.0000
G00 X65.5453 Y50.4434
G01 Z-1.9000
G01 Z0
G00 Z2.0000
G00 X70.6253 Y50.4434
G01 Z-1.9000
G01 Z0
G00 Z2.0000
G00 X70.6253 Y58.0634
G01 Z-1.9000
G01 Z0
G00 Z2.0000
G00 X70.6253 Y60.6034
G01 Z-1.9000
G01 Z0
G00 Z2.0000
G00 X65.5453 Y58.0634
G01 Z-1.9000
G01 Z0
G00 Z2.0000
G00 X65.5453 Y60.6034
G01 Z-1.9000
G01 Z0
G00 Z2.0000
G00 X65.5453 Y68.2234
G01 Z-1.9000
G01 Z0
G00 Z2.0000
G00 X70.6253 Y68.2234
G01 Z-1.9000
G01 Z0
G00 Z2.0000
G00 X78.2453 Y68.2234
G01 Z-1.9000
G01 Z0
G00 Z2.0000
G00 X83.3253 Y68.2234
G01 Z-1.9000
G01 Z0
G00 Z2.0000
G00 X83.3253 Y60.6034
G01 Z-1.9000
G01 Z0
G00 Z2.0000
G00 X83.3253 Y58.0634
G01 Z-1.9000
G01 Z0
G00 Z2.0000
G00 X78.2453 Y60.6034
G01 Z-1.9000
G01 Z0
G00 Z2.0000
G00 X78.2453 Y58.0634
G01 Z-1.9000
G01 Z0
G00 Z2.0000
G00 X78.2453 Y50.4434
G01 Z-1.9000
G01 Z0
G00 Z2.0000
G00 X83.3253 Y50.4434
G01 Z-1.9000
G01 Z0
G00 Z2.0000
G00 X90.9453 Y50.4434
G01 Z-1.9000
G01 Z0
G00 Z2.0000
G00 X96.0253 Y50.4434
G01 Z-1.9000
G01 Z0
G00 Z2.0000
G00 X96.0253 Y58.0634
G01 Z-1.9000
G01 Z0
G00 Z2.0000
G00 X96.0253 Y60.6034
G01 Z-1.9000
G01 Z0
G00 Z2.0000
G00 X90.9453 Y58.0634
G01 Z-1.9000
G01 Z0
G00 Z2.0000
G00 X90.9453 Y60.6034
G01 Z-1.9000
G01 Z0
G00 Z2.0000
G00 X90.9453 Y68.2234
G01 Z-1.9000
G01 Z0
G00 Z2.0000
G00 X96.0253 Y68.2234
G01 Z-1.9000
G01 Z0
G00 Z2.0000
G00 X103.6453 Y68.2234
G01 Z-1.9000
G01 Z0
G00 Z2.0000
G00 X108.7253 Y68.2234
G01 Z-1.9000
G01 Z0
G00 Z2.0000
G00 X108.7253 Y60.6034
G01 Z-1.9000
G01 Z0
G00 Z2.0000
G00 X108.7253 Y58.0634
G01 Z-1.9000
G01 Z0
G00 Z2.0000
G00 X103.6453 Y60.6034
G01 Z-1.9000
G01 Z0
G00 Z2.0000
G00 X103.6453 Y58.0634
G01 Z-1.9000
G01 Z0
G00 Z2.0000
G00 X103.6453 Y50.4434
G01 Z-1.9000
G01 Z0
G00 Z2.0000
G00 X108.7253 Y50.4434
G01 Z-1.9000
G01 Z0
G00 Z2.0000
G00 X116.3453 Y50.4434
G01 Z-1.9000
G01 Z0
G00 Z2.0000
G00 X121.4253 Y50.4434
G01 Z-1.9000
G01 Z0
G00 Z2.0000
G00 X121.4253 Y58.0634
G01 Z-1.9000
G01 Z0
G00 Z2.0000
G00 X121.4253 Y60.6034
G01 Z-1.9000
G01 Z0
G00 Z2.0000
G00 X116.3453 Y58.0634
G01 Z-1.9000
G01 Z0
G00 Z2.0000
G00 X116.3453 Y60.6034
G01 Z-1.9000
G01 Z0
G00 Z2.0000
G00 X116.3453 Y68.2234
G01 Z-1.9000
G01 Z0
G00 Z2.0000
G00 X121.4253 Y68.2234
G01 Z-1.9000
G01 Z0
G00 Z2.0000
G00 X129.0453 Y68.2234
G01 Z-1.9000
G01 Z0
G00 Z2.0000
G00 X134.1253 Y68.2234
G01 Z-1.9000
G01 Z0
G00 Z2.0000
G00 X134.1253 Y60.6034
G01 Z-1.9000
G01 Z0
G00 Z2.0000
G00 X134.1253 Y58.0634
G01 Z-1.9000
G01 Z0
G00 Z2.0000
G00 X129.0453 Y60.6034
G01 Z-1.9000
G01 Z0
G00 Z2.0000
G00 X129.0453 Y58.0634
G01 Z-1.9000
G01 Z0
G00 Z2.0000
G00 X129.0453 Y50.4434
G01 Z-1.9000
G01 Z0
G00 Z2.0000
G00 X134.1253 Y50.4434
G01 Z-1.9000
G01 Z0
G00 Z2.0000
G00 X139.2053 Y50.4434
G01 Z-1.9000
G01 Z0
G00 Z2.0000
G00 X144.2853 Y50.4434
G01 Z-1.9000
G01 Z0
G00 Z2.0000
G00 X144.2853 Y42.8234
G01 Z-1.9000
G01 Z0
G00 Z2.0000
M03
G00 X136.6653 Y47.9034
G01 Z-1.9000
G01 Z0
G00 Z2.0000
G00 X134.1253 Y30.1234
G01 Z-1.9000
G01 Z0
G00 Z2.0000
G00 X129.0453 Y30.1234
G01 Z-1.9000
G01 Z0
G00 Z2.0000
G00 X103.6453 Y4.7234
G01 Z-1.9000
G01 Z0
G00 Z2.0000
G00 X101.1053 Y4.7234
G01 Z-1.9000
G01 Z0
G00 Z2.0000
G00 X98.5653 Y4.7234
G01 Z-1.9000
G01 Z0
G00 Z2.0000
G00 X96.0253 Y4.7234
G01 Z-1.9000
G01 Z0
G00 Z2.0000
G00 X93.4853 Y4.7234
G01 Z-1.9000
G01 Z0
G00 Z2.0000
G00 X90.9453 Y4.7234
G01 Z-1.9000
G01 Z0
G00 Z2.0000
G00 X88.4053 Y4.7234
G01 Z-1.9000
G01 Z0
G00 Z2.0000
G00 X85.8653 Y4.7234
G01 Z-1.9000
G01 Z0
G00 Z2.0000
G00 X83.3253 Y4.7234
G01 Z-1.9000
G01 Z0
G00 Z2.0000
G00 X80.7853 Y4.7234
G01 Z-1.9000
G01 Z0
G00 Z2.0000
G00 X78.2453 Y4.7234
G01 Z-1.9000
G01 Z0
G00 Z2.0000
G00 X70.6253 Y4.7234
G01 Z-1.9000
G01 Z0
G00 Z2.0000
G00 X68.0853 Y4.7234
G01 Z-1.9000
G01 Z0
G00 Z2.0000
G00 X65.5453 Y4.7234
G01 Z-1.9000
G01 Z0
G00 Z2.0000
G00 X27.4453 Y9.8034
G01 Z-1.9000
G01 Z0
G00 Z2.0000
G00 X14.7453 Y4.7234
G01 Z-1.9000
G01 Z0
G00 Z2.0000
G00 X12.2053 Y4.7234
G01 Z-1.9000
G01 Z0
G00 Z2.0000
G00 X7.1253 Y4.7234
G01 Z-1.9000
G01 Z0
G00 Z2.0000
G00 X4.5853 Y4.7234
G01 Z-1.9000
G01 Z0
G00 Z2.0000
G00 X7.1253 Y22.5034
G01 Z-1.9000
G01 Z0
G00 Z2.0000
G00 X17.2853 Y22.5034
G01 Z-1.9000
G01 Z0
G00 Z2.0000
G00 X14.7453 Y30.1234
G01 Z-1.9000
G01 Z0
G00 Z2.0000
G00 X19.8253 Y30.1234
G01 Z-1.9000
G01 Z0
G00 Z2.0000
G00 X27.4453 Y30.1234
G01 Z-1.9000
G01 Z0
G00 Z2.0000
G00 X32.5253 Y30.1234
G01 Z-1.9000
G01 Z0
G00 Z2.0000
G00 X40.1453 Y30.1234
G01 Z-1.9000
G01 Z0
G00 Z2.0000
G00 X45.2253 Y30.1234
G01 Z-1.9000
G01 Z0
G00 Z2.0000
G00 X52.8453 Y30.1234
G01 Z-1.9000
G01 Z0
G00 Z2.0000
G00 X57.9253 Y30.1234
G01 Z-1.9000
G01 Z0
G00 Z2.0000
G00 X65.5453 Y30.1234
G01 Z-1.9000
G01 Z0
G00 Z2.0000
G00 X70.6253 Y30.1234
G01 Z-1.9000
G01 Z0
G00 Z2.0000
G00 X78.2453 Y30.1234
G01 Z-1.9000
G01 Z0
G00 Z2.0000
G00 X83.3253 Y30.1234
G01 Z-1.9000
G01 Z0
G00 Z2.0000
G00 X90.9453 Y30.1234
G01 Z-1.9000
G01 Z0
G00 Z2.0000
G00 X96.0253 Y30.1234
G01 Z-1.9000
G01 Z0
G00 Z2.0000
G00 X103.6453 Y30.1234
G01 Z-1.9000
G01 Z0
G00 Z2.0000
G00 X108.7253 Y30.1234
G01 Z-1.9000
G01 Z0
G00 Z2.0000
G00 X116.3453 Y30.1234
G01 Z-1.9000
G01 Z0
G00 Z2.0000
G00 X121.4253 Y30.1234
G01 Z-1.9000
G01 Z0
G00 Z2.0000
G00 X123.9653 Y47.9034
G01 Z-1.9000
G01 Z0
G00 Z2.0000
G00 X123.9653 Y52.9834
G01 Z-1.9000
G01 Z0
G00 Z2.0000
G00 X121.4253 Y52.9834
G01 Z-1.9000
G01 Z0
G00 Z2.0000
G00 X116.3453 Y52.9834
G01 Z-1.9000
G01 Z0
G00 Z2.0000
G00 X111.2653 Y47.9034
G01 Z-1.9000
G01 Z0
G00 Z2.0000
G00 X98.5653 Y47.9034
G01 Z-1.9000
G01 Z0
G00 Z2.0000
G00 X85.8653 Y47.9034
G01 Z-1.9000
G01 Z0
G00 Z2.0000
G00 X73.1653 Y47.9034
G01 Z-1.9000
G01 Z0
G00 Z2.0000
G00 X60.4653 Y47.9034
G01 Z-1.9000
G01 Z0
G00 Z2.0000
G00 X47.7653 Y47.9034
G01 Z-1.9000
G01 Z0
G00 Z2.0000
G00 X35.0653 Y47.9034
G01 Z-1.9000
G01 Z0
G00 Z2.0000
G00 X22.3653 Y47.9034
G01 Z-1.9000
G01 Z0
G00 Z2.0000
G00 X4.5853 Y52.9834
G01 Z-1.9000
G01 Z0
G00 Z2.0000
G00 X9.6653 Y52.9834
G01 Z-1.9000
G01 Z0
G00 Z2.0000
G00 X14.7453 Y52.9834
G01 Z-1.9000
G01 Z0
G00 Z2.0000
G00 X19.8253 Y52.9834
G01 Z-1.9000
G01 Z0
G00 Z2.0000
G00 X22.3653 Y52.9834
G01 Z-1.9000
G01 Z0
G00 Z2.0000
G00 X24.9053 Y55.5234
G01 Z-1.9000
G01 Z0
G00 Z2.0000
G00 X27.4453 Y52.9834
G01 Z-1.9000
G01 Z0
G00 Z2.0000
G00 X32.5253 Y52.9834
G01 Z-1.9000
G01 Z0
G00 Z2.0000
G00 X35.0653 Y52.9834
G01 Z-1.9000
G01 Z0
G00 Z2.0000
G00 X37.6053 Y55.5234
G01 Z-1.9000
G01 Z0
G00 Z2.0000
G00 X40.1453 Y52.9834
G01 Z-1.9000
G01 Z0
G00 Z2.0000
G00 X45.2253 Y52.9834
G01 Z-1.9000
G01 Z0
G00 Z2.0000
G00 X47.7653 Y52.9834
G01 Z-1.9000
G01 Z0
G00 Z2.0000
G00 X50.3053 Y55.5234
G01 Z-1.9000
G01 Z0
G00 Z2.0000
G00 X52.8453 Y52.9834
G01 Z-1.9000
G01 Z0
G00 Z2.0000
G00 X57.9253 Y52.9834
G01 Z-1.9000
G01 Z0
G00 Z2.0000
G00 X60.4653 Y52.9834
G01 Z-1.9000
G01 Z0
G00 Z2.0000
G00 X63.0053 Y55.5234
G01 Z-1.9000
G01 Z0
G00 Z2.0000
G00 X65.5453 Y52.9834
G01 Z-1.9000
G01 Z0
G00 Z2.0000
G00 X70.6253 Y52.9834
G01 Z-1.9000
G01 Z0
G00 Z2.0000
G00 X73.1653 Y52.9834
G01 Z-1.9000
G01 Z0
G00 Z2.0000
G00 X75.7053 Y55.5234
G01 Z-1.9000
G01 Z0
G00 Z2.0000
G00 X78.2453 Y52.9834
G01 Z-1.9000
G01 Z0
G00 Z2.0000
G00 X83.3253 Y52.9834
G01 Z-1.9000
G01 Z0
G00 Z2.0000
G00 X85.8653 Y52.9834
G01 Z-1.9000
G01 Z0
G00 Z2.0000
G00 X88.4053 Y55.5234
G01 Z-1.9000
G01 Z0
G00 Z2.0000
G00 X90.9453 Y52.9834
G01 Z-1.9000
G01 Z0
G00 Z2.0000
G00 X96.0253 Y52.9834
G01 Z-1.9000
G01 Z0
G00 Z2.0000
G00 X98.5653 Y52.9834
G01 Z-1.9000
G01 Z0
G00 Z2.0000
G00 X101.1053 Y55.5234
G01 Z-1.9000
G01 Z0
G00 Z2.0000
G00 X103.6453 Y52.9834
G01 Z-1.9000
G01 Z0
G00 Z2.0000
G00 X108.7253 Y52.9834
G01 Z-1.9000
G01 Z0
G00 Z2.0000
G00 X111.2653 Y52.9834
G01 Z-1.9000
G01 Z0
G00 Z2.0000
G00 X113.8053 Y55.5234
G01 Z-1.9000
G01 Z0
G00 Z2.0000
G00 X101.1053 Y73.3034
G01 Z-1.9000
G01 Z0
G00 Z2.0000
G00 X88.4053 Y73.3034
G01 Z-1.9000
G01 Z0
G00 Z2.0000
G00 X75.7053 Y73.3034
G01 Z-1.9000
G01 Z0
G00 Z2.0000
G00 X63.0053 Y73.3034
G01 Z-1.9000
G01 Z0
G00 Z2.0000
G00 X50.3053 Y73.3034
G01 Z-1.9000
G01 Z0
G00 Z2.0000
G00 X37.6053 Y73.3034
G01 Z-1.9000
G01 Z0
G00 Z2.0000
G00 X24.9053 Y73.3034
G01 Z-1.9000
G01 Z0
G00 Z2.0000
G00 X12.2053 Y73.3034
G01 Z-1.9000
G01 Z0
G00 Z2.0000
G00 X4.5853 Y73.3034
G01 Z-1.9000
G01 Z0
G00 Z2.0000
G00 X4.5853 Y96.1634
G01 Z-1.9000
G01 Z0
G00 Z2.0000
G00 X7.1253 Y96.1634
G01 Z-1.9000
G01 Z0
G00 Z2.0000
G00 X12.2053 Y96.1634
G01 Z-1.9000
G01 Z0
G00 Z2.0000
G00 X14.7453 Y96.1634
G01 Z-1.9000
G01 Z0
G00 Z2.0000
G00 X17.2853 Y96.1634
G01 Z-1.9000
G01 Z0
G00 Z2.0000
G00 X83.3253 Y96.1634
G01 Z-1.9000
G01 Z0
G00 Z2.0000
G00 X85.8653 Y96.1634
G01 Z-1.9000
G01 Z0
G00 Z2.0000
G00 X88.4053 Y96.1634
G01 Z-1.9000
G01 Z0
G00 Z2.0000
G00 X90.9453 Y96.1634
G01 Z-1.9000
G01 Z0
G00 Z2.0000
G00 X93.4853 Y96.1634
G01 Z-1.9000
G01 Z0
G00 Z2.0000
G00 X96.0253 Y96.1634
G01 Z-1.9000
G01 Z0
G00 Z2.0000
G00 X98.5653 Y96.1634
G01 Z-1.9000
G01 Z0
G00 Z2.0000
G00 X101.1053 Y96.1634
G01 Z-1.9000
G01 Z0
G00 Z2.0000
G00 X103.6453 Y96.1634
G01 Z-1.9000
G01 Z0
G00 Z2.0000
G00 X106.1853 Y96.1634
G01 Z-1.9000
G01 Z0
G00 Z2.0000
G00 X113.8053 Y73.3034
G01 Z-1.9000
G01 Z0
G00 Z2.0000
G00 X126.5053 Y73.3034
G01 Z-1.9000
G01 Z0
G00 Z2.0000
G00 X136.6653 Y70.7634
G01 Z-1.9000
G01 Z0
G00 Z2.0000
G00 X126.5053 Y55.5234
G01 Z-1.9000
G01 Z0
G00 Z2.0000
G00 X129.0453 Y52.9834
G01 Z-1.9000
G01 Z0
G00 Z2.0000
G00 X134.1253 Y52.9834
G01 Z-1.9000
G01 Z0
G00 Z2.0000
G00 X136.6653 Y55.5234
G01 Z-1.9000
G01 Z0
G00 Z2.0000
G00 X136.6653 Y52.9834
G01 Z-1.9000
G01 Z0
G00 Z2.0000
M05
G00 Z0.50
G00 X0.0 Y0.0

