(G-CODE GENERATED BY FLATCAM v8.991 - www.flatcam.org - Version Date: 2019/12/27)

(Name: 001_DReg1_iso1)
(Type: G-code from Geometry)
(Units: MM)

(Created on Monday, 02 March 2020 at 18:51)

(TOOL DIAMETER: 0.331 mm)
(Feedrate: 320.0 mm/min)
(Feedrate_Z: 60.0 mm/min)
(Feedrate rapids 1500.0 mm/min)

(Z_Cut: -0.2001 mm)
(Z_Move: 2.0 mm)
(Z Toolchange: 15.0 mm)
(X,Y Toolchange: 0.0000, 0.0000 mm)
(Z Start: None mm)
(Z End: 15.0 mm)
(Steps per circle: 64)
(Preprocessor Geometry: default)

(X range:    5.9363 ...  147.4909  mm)
(Y range:    3.7961 ...   97.0907  mm)

(Spindle Speed: None RPM)
G21
G90
G94

M03 S3000


G01 F320.00
G00 Z2.0000

M03
G00 X13.5563 Y4.7315
G01 F60.00
G01 Z-0.2001
G01 F320.00
G01 X13.5563 Y4.7153
G01 X13.5600 Y4.6406
G01 X13.5616 Y4.6244
G01 X13.5725 Y4.5504
G01 X13.5757 Y4.5345
G01 X13.5939 Y4.4620
G01 X13.5986 Y4.4464
G01 X13.6238 Y4.3760
G01 X13.6300 Y4.3610
G01 X13.6620 Y4.2934
G01 X13.6696 Y4.2791
G01 X13.7081 Y4.2150
G01 X13.7171 Y4.2015
G01 X13.7616 Y4.1414
G01 X13.7719 Y4.1288
G01 X13.8221 Y4.0734
G01 X13.8336 Y4.0619
G01 X13.8890 Y4.0117
G01 X13.9016 Y4.0014
G01 X13.9617 Y3.9569
G01 X13.9752 Y3.9479
G01 X14.0393 Y3.9094
G01 X14.0536 Y3.9018
G01 X14.1212 Y3.8698
G01 X14.1362 Y3.8636
G01 X14.2066 Y3.8384
G01 X14.2222 Y3.8337
G01 X14.2947 Y3.8155
G01 X14.3106 Y3.8123
G01 X14.3846 Y3.8013
G01 X14.4008 Y3.7998
G01 X14.4755 Y3.7961
G01 X14.4917 Y3.7961
G01 X14.5664 Y3.7998
G01 X14.5826 Y3.8013
G01 X14.6565 Y3.8123
G01 X14.6725 Y3.8155
G01 X14.7450 Y3.8337
G01 X14.7605 Y3.8384
G01 X14.8309 Y3.8636
G01 X14.8460 Y3.8698
G01 X14.9136 Y3.9018
G01 X14.9279 Y3.9094
G01 X14.9920 Y3.9479
G01 X15.0055 Y3.9569
G01 X15.0656 Y4.0014
G01 X15.0781 Y4.0117
G01 X15.1335 Y4.0619
G01 X15.1450 Y4.0734
G01 X15.1952 Y4.1288
G01 X15.2056 Y4.1414
G01 X15.2501 Y4.2015
G01 X15.2591 Y4.2150
G01 X15.2976 Y4.2791
G01 X15.3052 Y4.2934
G01 X15.3372 Y4.3610
G01 X15.3434 Y4.3760
G01 X15.3686 Y4.4464
G01 X15.3733 Y4.4620
G01 X15.3915 Y4.5345
G01 X15.3947 Y4.5504
G01 X15.4056 Y4.6244
G01 X15.4072 Y4.6406
G01 X15.4109 Y4.7153
G01 X15.4109 Y4.7315
G01 X15.4072 Y4.8062
G01 X15.4056 Y4.8224
G01 X15.3947 Y4.8963
G01 X15.3915 Y4.9123
G01 X15.3733 Y4.9848
G01 X15.3686 Y5.0003
G01 X15.3434 Y5.0707
G01 X15.3372 Y5.0857
G01 X15.3052 Y5.1533
G01 X15.2976 Y5.1677
G01 X15.2591 Y5.2318
G01 X15.2501 Y5.2453
G01 X15.2056 Y5.3054
G01 X15.1952 Y5.3179
G01 X15.1450 Y5.3733
G01 X15.1335 Y5.3848
G01 X15.0781 Y5.4350
G01 X15.0656 Y5.4453
G01 X15.0055 Y5.4899
G01 X14.9920 Y5.4989
G01 X14.9279 Y5.5374
G01 X14.9136 Y5.5450
G01 X14.8460 Y5.5770
G01 X14.8309 Y5.5832
G01 X14.7605 Y5.6084
G01 X14.7450 Y5.6131
G01 X14.6725 Y5.6313
G01 X14.6565 Y5.6344
G01 X14.5826 Y5.6454
G01 X14.5664 Y5.6470
G01 X14.4917 Y5.6507
G01 X14.4755 Y5.6507
G01 X14.4008 Y5.6470
G01 X14.3846 Y5.6454
G01 X14.3106 Y5.6344
G01 X14.2947 Y5.6313
G01 X14.2222 Y5.6131
G01 X14.2066 Y5.6084
G01 X14.1362 Y5.5832
G01 X14.1212 Y5.5770
G01 X14.0536 Y5.5450
G01 X14.0393 Y5.5374
G01 X13.9752 Y5.4989
G01 X13.9617 Y5.4899
G01 X13.9016 Y5.4453
G01 X13.8890 Y5.4350
G01 X13.8336 Y5.3848
G01 X13.8221 Y5.3733
G01 X13.7719 Y5.3179
G01 X13.7616 Y5.3054
G01 X13.7171 Y5.2453
G01 X13.7081 Y5.2318
G01 X13.6696 Y5.1677
G01 X13.6620 Y5.1533
G01 X13.6300 Y5.0857
G01 X13.6238 Y5.0707
G01 X13.5986 Y5.0003
G01 X13.5939 Y4.9848
G01 X13.5757 Y4.9123
G01 X13.5725 Y4.8963
G01 X13.5616 Y4.8224
G01 X13.5600 Y4.8062
G01 X13.5563 Y4.7315
G00 Z2.0000
G00 X16.0963 Y4.7315
G01 F60.00
G01 Z-0.2001
G01 F320.00
G01 X16.0963 Y4.7153
G01 X16.1000 Y4.6406
G01 X16.1016 Y4.6244
G01 X16.1125 Y4.5504
G01 X16.1157 Y4.5345
G01 X16.1339 Y4.4620
G01 X16.1386 Y4.4464
G01 X16.1638 Y4.3760
G01 X16.1700 Y4.3610
G01 X16.2020 Y4.2934
G01 X16.2096 Y4.2791
G01 X16.2481 Y4.2150
G01 X16.2571 Y4.2015
G01 X16.3016 Y4.1414
G01 X16.3119 Y4.1288
G01 X16.3621 Y4.0734
G01 X16.3736 Y4.0619
G01 X16.4290 Y4.0117
G01 X16.4416 Y4.0014
G01 X16.5017 Y3.9569
G01 X16.5152 Y3.9479
G01 X16.5793 Y3.9094
G01 X16.5936 Y3.9018
G01 X16.6612 Y3.8698
G01 X16.6762 Y3.8636
G01 X16.7466 Y3.8384
G01 X16.7622 Y3.8337
G01 X16.8347 Y3.8155
G01 X16.8506 Y3.8123
G01 X16.9246 Y3.8013
G01 X16.9408 Y3.7998
G01 X17.0155 Y3.7961
G01 X17.0317 Y3.7961
G01 X17.1064 Y3.7998
G01 X17.1226 Y3.8013
G01 X17.1965 Y3.8123
G01 X17.2125 Y3.8155
G01 X17.2850 Y3.8337
G01 X17.3005 Y3.8384
G01 X17.3709 Y3.8636
G01 X17.3860 Y3.8698
G01 X17.4536 Y3.9018
G01 X17.4679 Y3.9094
G01 X17.5320 Y3.9479
G01 X17.5455 Y3.9569
G01 X17.6056 Y4.0014
G01 X17.6181 Y4.0117
G01 X17.6735 Y4.0619
G01 X17.6850 Y4.0734
G01 X17.7352 Y4.1288
G01 X17.7456 Y4.1414
G01 X17.7901 Y4.2015
G01 X17.7991 Y4.2150
G01 X17.8376 Y4.2791
G01 X17.8452 Y4.2934
G01 X17.8772 Y4.3610
G01 X17.8834 Y4.3760
G01 X17.9086 Y4.4464
G01 X17.9133 Y4.4620
G01 X17.9315 Y4.5345
G01 X17.9347 Y4.5504
G01 X17.9456 Y4.6244
G01 X17.9472 Y4.6406
G01 X17.9509 Y4.7153
G01 X17.9509 Y4.7315
G01 X17.9472 Y4.8062
G01 X17.9456 Y4.8224
G01 X17.9347 Y4.8963
G01 X17.9315 Y4.9123
G01 X17.9133 Y4.9848
G01 X17.9086 Y5.0003
G01 X17.8834 Y5.0707
G01 X17.8772 Y5.0857
G01 X17.8452 Y5.1533
G01 X17.8376 Y5.1677
G01 X17.7991 Y5.2318
G01 X17.7901 Y5.2453
G01 X17.7456 Y5.3054
G01 X17.7352 Y5.3179
G01 X17.6850 Y5.3733
G01 X17.6735 Y5.3848
G01 X17.6181 Y5.4350
G01 X17.6056 Y5.4453
G01 X17.5455 Y5.4899
G01 X17.5320 Y5.4989
G01 X17.4679 Y5.5374
G01 X17.4536 Y5.5450
G01 X17.3860 Y5.5770
G01 X17.3709 Y5.5832
G01 X17.3005 Y5.6084
G01 X17.2850 Y5.6131
G01 X17.2125 Y5.6313
G01 X17.1965 Y5.6344
G01 X17.1226 Y5.6454
G01 X17.1064 Y5.6470
G01 X17.0317 Y5.6507
G01 X17.0155 Y5.6507
G01 X16.9408 Y5.6470
G01 X16.9246 Y5.6454
G01 X16.8506 Y5.6344
G01 X16.8347 Y5.6313
G01 X16.7622 Y5.6131
G01 X16.7466 Y5.6084
G01 X16.6762 Y5.5832
G01 X16.6612 Y5.5770
G01 X16.5936 Y5.5450
G01 X16.5793 Y5.5374
G01 X16.5152 Y5.4989
G01 X16.5017 Y5.4899
G01 X16.4416 Y5.4453
G01 X16.4290 Y5.4350
G01 X16.3736 Y5.3848
G01 X16.3621 Y5.3733
G01 X16.3119 Y5.3179
G01 X16.3016 Y5.3054
G01 X16.2571 Y5.2453
G01 X16.2481 Y5.2318
G01 X16.2096 Y5.1677
G01 X16.2020 Y5.1533
G01 X16.1700 Y5.0857
G01 X16.1638 Y5.0707
G01 X16.1386 Y5.0003
G01 X16.1339 Y4.9848
G01 X16.1157 Y4.9123
G01 X16.1125 Y4.8963
G01 X16.1016 Y4.8224
G01 X16.1000 Y4.8062
G01 X16.0963 Y4.7315
G00 Z2.0000
G00 X27.5583 Y9.8115
G01 F60.00
G01 Z-0.2001
G01 F320.00
G01 X27.5583 Y9.7953
G01 X27.5679 Y9.5992
G01 X27.5695 Y9.5831
G01 X27.5983 Y9.3889
G01 X27.6015 Y9.3730
G01 X27.6492 Y9.1826
G01 X27.6539 Y9.1671
G01 X27.7200 Y8.9823
G01 X27.7262 Y8.9673
G01 X27.8101 Y8.7898
G01 X27.8178 Y8.7755
G01 X27.9187 Y8.6072
G01 X27.9277 Y8.5937
G01 X28.0446 Y8.4360
G01 X28.0549 Y8.4235
G01 X28.1868 Y8.2780
G01 X28.1982 Y8.2665
G01 X28.3437 Y8.1347
G01 X28.3562 Y8.1244
G01 X28.5139 Y8.0075
G01 X28.5274 Y7.9985
G01 X28.6957 Y7.8976
G01 X28.7100 Y7.8899
G01 X28.8875 Y7.8060
G01 X28.9025 Y7.7998
G01 X29.0873 Y7.7337
G01 X29.1028 Y7.7290
G01 X29.2932 Y7.6813
G01 X29.3091 Y7.6781
G01 X29.5033 Y7.6493
G01 X29.5194 Y7.6477
G01 X29.7155 Y7.6381
G01 X29.7317 Y7.6381
G01 X29.9277 Y7.6477
G01 X29.9439 Y7.6493
G01 X30.1381 Y7.6781
G01 X30.1540 Y7.6813
G01 X30.3444 Y7.7290
G01 X30.3599 Y7.7337
G01 X30.5447 Y7.7998
G01 X30.5597 Y7.8060
G01 X30.7371 Y7.8899
G01 X30.7515 Y7.8976
G01 X30.9198 Y7.9985
G01 X30.9333 Y8.0075
G01 X31.0910 Y8.1244
G01 X31.1035 Y8.1347
G01 X31.2489 Y8.2665
G01 X31.2604 Y8.2780
G01 X31.3922 Y8.4235
G01 X31.4025 Y8.4360
G01 X31.5195 Y8.5937
G01 X31.5285 Y8.6072
G01 X31.6294 Y8.7755
G01 X31.6370 Y8.7898
G01 X31.7210 Y8.9673
G01 X31.7272 Y8.9823
G01 X31.7933 Y9.1671
G01 X31.7980 Y9.1826
G01 X31.8457 Y9.3730
G01 X31.8489 Y9.3889
G01 X31.8777 Y9.5831
G01 X31.8793 Y9.5992
G01 X31.8889 Y9.7953
G01 X31.8889 Y9.8115
G01 X31.8793 Y10.0075
G01 X31.8777 Y10.0237
G01 X31.8489 Y10.2178
G01 X31.8457 Y10.2338
G01 X31.7980 Y10.4242
G01 X31.7933 Y10.4397
G01 X31.7272 Y10.6245
G01 X31.7210 Y10.6395
G01 X31.6370 Y10.8169
G01 X31.6294 Y10.8313
G01 X31.5285 Y10.9996
G01 X31.5195 Y11.0131
G01 X31.4025 Y11.1708
G01 X31.3922 Y11.1833
G01 X31.2604 Y11.3287
G01 X31.2489 Y11.3402
G01 X31.1035 Y11.4720
G01 X31.0910 Y11.4823
G01 X30.9333 Y11.5992
G01 X30.9198 Y11.6083
G01 X30.7515 Y11.7092
G01 X30.7371 Y11.7168
G01 X30.5597 Y11.8007
G01 X30.5447 Y11.8070
G01 X30.3599 Y11.8731
G01 X30.3444 Y11.8778
G01 X30.1540 Y11.9255
G01 X30.1381 Y11.9287
G01 X29.9439 Y11.9575
G01 X29.9277 Y11.9590
G01 X29.7317 Y11.9687
G01 X29.7155 Y11.9687
G01 X29.5194 Y11.9590
G01 X29.5033 Y11.9575
G01 X29.3091 Y11.9287
G01 X29.2932 Y11.9255
G01 X29.1028 Y11.8778
G01 X29.0873 Y11.8731
G01 X28.9025 Y11.8070
G01 X28.8875 Y11.8007
G01 X28.7100 Y11.7168
G01 X28.6957 Y11.7092
G01 X28.5274 Y11.6083
G01 X28.5139 Y11.5992
G01 X28.3562 Y11.4823
G01 X28.3437 Y11.4720
G01 X28.1982 Y11.3402
G01 X28.1868 Y11.3287
G01 X28.0549 Y11.1833
G01 X28.0446 Y11.1708
G01 X27.9277 Y11.0131
G01 X27.9187 Y10.9996
G01 X27.8178 Y10.8313
G01 X27.8101 Y10.8169
G01 X27.7262 Y10.6395
G01 X27.7200 Y10.6245
G01 X27.6539 Y10.4397
G01 X27.6492 Y10.4242
G01 X27.6015 Y10.2338
G01 X27.5983 Y10.2178
G01 X27.5695 Y10.0237
G01 X27.5679 Y10.0075
G01 X27.5583 Y9.8115
G00 Z2.0000
G00 X12.5888 Y21.8376
G01 F60.00
G01 Z-0.2001
G01 F320.00
G01 X41.7784 Y21.8376
G01 X41.8290 Y21.7917
G01 X41.8416 Y21.7814
G01 X41.9017 Y21.7369
G01 X41.9152 Y21.7279
G01 X41.9793 Y21.6894
G01 X41.9936 Y21.6818
G01 X42.0612 Y21.6498
G01 X42.0762 Y21.6436
G01 X42.1466 Y21.6184
G01 X42.1622 Y21.6137
G01 X42.2347 Y21.5955
G01 X42.2506 Y21.5923
G01 X42.3246 Y21.5813
G01 X42.3408 Y21.5798
G01 X42.4155 Y21.5761
G01 X42.4317 Y21.5761
G01 X42.5064 Y21.5798
G01 X42.5226 Y21.5813
G01 X42.5965 Y21.5923
G01 X42.6125 Y21.5955
G01 X42.6850 Y21.6137
G01 X42.7005 Y21.6184
G01 X42.7709 Y21.6436
G01 X42.7860 Y21.6498
G01 X42.8536 Y21.6818
G01 X42.8679 Y21.6894
G01 X42.9320 Y21.7279
G01 X42.9455 Y21.7369
G01 X43.0056 Y21.7814
G01 X43.0181 Y21.7917
G01 X43.0735 Y21.8419
G01 X43.0850 Y21.8534
G01 X43.1352 Y21.9088
G01 X43.1456 Y21.9214
G01 X43.1901 Y21.9815
G01 X43.1991 Y21.9950
G01 X43.2376 Y22.0591
G01 X43.2452 Y22.0734
G01 X43.2772 Y22.1410
G01 X43.2834 Y22.1560
G01 X43.3086 Y22.2264
G01 X43.3133 Y22.2420
G01 X43.3315 Y22.3145
G01 X43.3347 Y22.3304
G01 X43.3456 Y22.4044
G01 X43.3472 Y22.4206
G01 X43.3509 Y22.4953
G01 X43.3509 Y22.5115
G01 X43.3472 Y22.5862
G01 X43.3456 Y22.6024
G01 X43.3347 Y22.6763
G01 X43.3315 Y22.6923
G01 X43.3133 Y22.7648
G01 X43.3086 Y22.7803
G01 X43.2834 Y22.8507
G01 X43.2772 Y22.8657
G01 X43.2452 Y22.9333
G01 X43.2376 Y22.9477
G01 X43.1991 Y23.0118
G01 X43.1901 Y23.0253
G01 X43.1456 Y23.0854
G01 X43.1352 Y23.0979
G01 X43.0850 Y23.1533
G01 X43.0735 Y23.1648
G01 X43.0181 Y23.2150
G01 X43.0056 Y23.2253
G01 X42.9455 Y23.2699
G01 X42.9320 Y23.2789
G01 X42.8679 Y23.3174
G01 X42.8536 Y23.3250
G01 X42.7860 Y23.3570
G01 X42.7709 Y23.3632
G01 X42.7005 Y23.3884
G01 X42.6850 Y23.3931
G01 X42.6125 Y23.4113
G01 X42.5965 Y23.4144
G01 X42.5226 Y23.4254
G01 X42.5064 Y23.4270
G01 X42.4317 Y23.4307
G01 X42.4155 Y23.4307
G01 X42.3408 Y23.4270
G01 X42.3246 Y23.4254
G01 X42.2506 Y23.4144
G01 X42.2347 Y23.4113
G01 X42.1622 Y23.3931
G01 X42.1466 Y23.3884
G01 X42.0762 Y23.3632
G01 X42.0612 Y23.3570
G01 X41.9936 Y23.3250
G01 X41.9793 Y23.3174
G01 X41.9152 Y23.2789
G01 X41.9017 Y23.2699
G01 X41.8416 Y23.2253
G01 X41.8290 Y23.2150
G01 X41.7784 Y23.1691
G01 X12.5888 Y23.1691
G01 X12.5381 Y23.2150
G01 X12.5256 Y23.2253
G01 X12.4655 Y23.2699
G01 X12.4520 Y23.2789
G01 X12.3879 Y23.3174
G01 X12.3736 Y23.3250
G01 X12.3060 Y23.3570
G01 X12.2909 Y23.3632
G01 X12.2205 Y23.3884
G01 X12.2050 Y23.3931
G01 X12.1325 Y23.4113
G01 X12.1165 Y23.4144
G01 X12.0426 Y23.4254
G01 X12.0264 Y23.4270
G01 X11.9517 Y23.4307
G01 X11.9355 Y23.4307
G01 X11.8608 Y23.4270
G01 X11.8446 Y23.4254
G01 X11.7706 Y23.4144
G01 X11.7547 Y23.4113
G01 X11.6822 Y23.3931
G01 X11.6666 Y23.3884
G01 X11.5962 Y23.3632
G01 X11.5812 Y23.3570
G01 X11.5136 Y23.3250
G01 X11.4993 Y23.3174
G01 X11.4352 Y23.2789
G01 X11.4217 Y23.2699
G01 X11.3616 Y23.2253
G01 X11.3490 Y23.2150
G01 X11.2936 Y23.1648
G01 X11.2821 Y23.1533
G01 X11.2319 Y23.0979
G01 X11.2216 Y23.0854
G01 X11.1771 Y23.0253
G01 X11.1681 Y23.0118
G01 X11.1296 Y22.9477
G01 X11.1220 Y22.9333
G01 X11.0900 Y22.8657
G01 X11.0838 Y22.8507
G01 X11.0586 Y22.7803
G01 X11.0539 Y22.7648
G01 X11.0357 Y22.6923
G01 X11.0325 Y22.6763
G01 X11.0216 Y22.6024
G01 X11.0200 Y22.5862
G01 X11.0163 Y22.5115
G01 X11.0163 Y22.4953
G01 X11.0200 Y22.4206
G01 X11.0216 Y22.4044
G01 X11.0325 Y22.3304
G01 X11.0357 Y22.3145
G01 X11.0539 Y22.2420
G01 X11.0586 Y22.2264
G01 X11.0838 Y22.1560
G01 X11.0900 Y22.1410
G01 X11.1220 Y22.0734
G01 X11.1296 Y22.0591
G01 X11.1681 Y21.9950
G01 X11.1771 Y21.9815
G01 X11.2216 Y21.9214
G01 X11.2319 Y21.9088
G01 X11.2821 Y21.8534
G01 X11.2936 Y21.8419
G01 X11.3490 Y21.7917
G01 X11.3616 Y21.7814
G01 X11.4217 Y21.7369
G01 X11.4352 Y21.7279
G01 X11.4993 Y21.6894
G01 X11.5136 Y21.6818
G01 X11.5812 Y21.6498
G01 X11.5962 Y21.6436
G01 X11.6666 Y21.6184
G01 X11.6822 Y21.6137
G01 X11.7547 Y21.5955
G01 X11.7706 Y21.5923
G01 X11.8446 Y21.5813
G01 X11.8608 Y21.5798
G01 X11.9355 Y21.5761
G01 X11.9517 Y21.5761
G01 X12.0264 Y21.5798
G01 X12.0426 Y21.5813
G01 X12.1165 Y21.5923
G01 X12.1325 Y21.5955
G01 X12.2050 Y21.6137
G01 X12.2205 Y21.6184
G01 X12.2909 Y21.6436
G01 X12.3060 Y21.6498
G01 X12.3736 Y21.6818
G01 X12.3879 Y21.6894
G01 X12.4520 Y21.7279
G01 X12.4655 Y21.7369
G01 X12.5256 Y21.7814
G01 X12.5381 Y21.7917
G01 X12.5888 Y21.8376
G00 Z2.0000
G00 X49.3778 Y29.4782
G01 F60.00
G01 Z-0.2001
G01 F320.00
G01 X49.3778 Y23.1486
G01 X49.3319 Y23.0979
G01 X49.3216 Y23.0854
G01 X49.2771 Y23.0253
G01 X49.2681 Y23.0118
G01 X49.2296 Y22.9477
G01 X49.2220 Y22.9333
G01 X49.1900 Y22.8657
G01 X49.1838 Y22.8507
G01 X49.1586 Y22.7803
G01 X49.1539 Y22.7648
G01 X49.1357 Y22.6923
G01 X49.1325 Y22.6763
G01 X49.1216 Y22.6024
G01 X49.1200 Y22.5862
G01 X49.1163 Y22.5115
G01 X49.1163 Y22.4953
G01 X49.1200 Y22.4206
G01 X49.1216 Y22.4044
G01 X49.1325 Y22.3304
G01 X49.1357 Y22.3145
G01 X49.1539 Y22.2420
G01 X49.1586 Y22.2264
G01 X49.1838 Y22.1560
G01 X49.1900 Y22.1410
G01 X49.2220 Y22.0734
G01 X49.2296 Y22.0591
G01 X49.2681 Y21.9950
G01 X49.2771 Y21.9815
G01 X49.3216 Y21.9214
G01 X49.3319 Y21.9088
G01 X49.3821 Y21.8534
G01 X49.3936 Y21.8419
G01 X49.4490 Y21.7917
G01 X49.4616 Y21.7814
G01 X49.5217 Y21.7369
G01 X49.5352 Y21.7279
G01 X49.5993 Y21.6894
G01 X49.6136 Y21.6818
G01 X49.6812 Y21.6498
G01 X49.6962 Y21.6436
G01 X49.7666 Y21.6184
G01 X49.7822 Y21.6137
G01 X49.8547 Y21.5955
G01 X49.8706 Y21.5923
G01 X49.9446 Y21.5813
G01 X49.9608 Y21.5798
G01 X50.0355 Y21.5761
G01 X50.0517 Y21.5761
G01 X50.1264 Y21.5798
G01 X50.1426 Y21.5813
G01 X50.2165 Y21.5923
G01 X50.2325 Y21.5955
G01 X50.3050 Y21.6137
G01 X50.3205 Y21.6184
G01 X50.3909 Y21.6436
G01 X50.4060 Y21.6498
G01 X50.4736 Y21.6818
G01 X50.4879 Y21.6894
G01 X50.5520 Y21.7279
G01 X50.5655 Y21.7369
G01 X50.6256 Y21.7814
G01 X50.6381 Y21.7917
G01 X50.6888 Y21.8376
G01 X51.9384 Y21.8376
G01 X51.9890 Y21.7917
G01 X52.0016 Y21.7814
G01 X52.0617 Y21.7369
G01 X52.0752 Y21.7279
G01 X52.1393 Y21.6894
G01 X52.1536 Y21.6818
G01 X52.2212 Y21.6498
G01 X52.2362 Y21.6436
G01 X52.3066 Y21.6184
G01 X52.3222 Y21.6137
G01 X52.3947 Y21.5955
G01 X52.4106 Y21.5923
G01 X52.4846 Y21.5813
G01 X52.5008 Y21.5798
G01 X52.5755 Y21.5761
G01 X52.5917 Y21.5761
G01 X52.6664 Y21.5798
G01 X52.6826 Y21.5813
G01 X52.7565 Y21.5923
G01 X52.7725 Y21.5955
G01 X52.8450 Y21.6137
G01 X52.8605 Y21.6184
G01 X52.9309 Y21.6436
G01 X52.9460 Y21.6498
G01 X53.0136 Y21.6818
G01 X53.0279 Y21.6894
G01 X53.0920 Y21.7279
G01 X53.1055 Y21.7369
G01 X53.1656 Y21.7814
G01 X53.1781 Y21.7917
G01 X53.2335 Y21.8419
G01 X53.2450 Y21.8534
G01 X53.2952 Y21.9088
G01 X53.3056 Y21.9214
G01 X53.3501 Y21.9815
G01 X53.3591 Y21.9950
G01 X53.3976 Y22.0591
G01 X53.4052 Y22.0734
G01 X53.4372 Y22.1410
G01 X53.4434 Y22.1560
G01 X53.4686 Y22.2264
G01 X53.4733 Y22.2420
G01 X53.4915 Y22.3145
G01 X53.4947 Y22.3304
G01 X53.5056 Y22.4044
G01 X53.5072 Y22.4206
G01 X53.5109 Y22.4953
G01 X53.5109 Y22.5115
G01 X53.5072 Y22.5862
G01 X53.5056 Y22.6024
G01 X53.4947 Y22.6763
G01 X53.4915 Y22.6923
G01 X53.4733 Y22.7648
G01 X53.4686 Y22.7803
G01 X53.4434 Y22.8507
G01 X53.4372 Y22.8657
G01 X53.4052 Y22.9333
G01 X53.3976 Y22.9477
G01 X53.3591 Y23.0118
G01 X53.3501 Y23.0253
G01 X53.3056 Y23.0854
G01 X53.2952 Y23.0979
G01 X53.2450 Y23.1533
G01 X53.2335 Y23.1648
G01 X53.1781 Y23.2150
G01 X53.1656 Y23.2253
G01 X53.1055 Y23.2699
G01 X53.0920 Y23.2789
G01 X53.0279 Y23.3174
G01 X53.0136 Y23.3250
G01 X52.9460 Y23.3570
G01 X52.9309 Y23.3632
G01 X52.8605 Y23.3884
G01 X52.8450 Y23.3931
G01 X52.7725 Y23.4113
G01 X52.7565 Y23.4144
G01 X52.6826 Y23.4254
G01 X52.6664 Y23.4270
G01 X52.5917 Y23.4307
G01 X52.5755 Y23.4307
G01 X52.5008 Y23.4270
G01 X52.4846 Y23.4254
G01 X52.4106 Y23.4144
G01 X52.3947 Y23.4113
G01 X52.3222 Y23.3931
G01 X52.3066 Y23.3884
G01 X52.2362 Y23.3632
G01 X52.2212 Y23.3570
G01 X52.1536 Y23.3250
G01 X52.1393 Y23.3174
G01 X52.0752 Y23.2789
G01 X52.0617 Y23.2699
G01 X52.0016 Y23.2253
G01 X51.9890 Y23.2150
G01 X51.9384 Y23.1691
G01 X50.7093 Y23.1691
G01 X50.7093 Y24.3776
G01 X57.0184 Y24.3776
G01 X57.0690 Y24.3317
G01 X57.0816 Y24.3214
G01 X57.1417 Y24.2769
G01 X57.1552 Y24.2679
G01 X57.2193 Y24.2294
G01 X57.2336 Y24.2218
G01 X57.3012 Y24.1898
G01 X57.3162 Y24.1836
G01 X57.3866 Y24.1584
G01 X57.4022 Y24.1537
G01 X57.4747 Y24.1355
G01 X57.4906 Y24.1323
G01 X57.5646 Y24.1213
G01 X57.5808 Y24.1198
G01 X57.6555 Y24.1161
G01 X57.6717 Y24.1161
G01 X57.7464 Y24.1198
G01 X57.7626 Y24.1213
G01 X57.8365 Y24.1323
G01 X57.8525 Y24.1355
G01 X57.9250 Y24.1537
G01 X57.9405 Y24.1584
G01 X58.0109 Y24.1836
G01 X58.0260 Y24.1898
G01 X58.0936 Y24.2218
G01 X58.1079 Y24.2294
G01 X58.1720 Y24.2679
G01 X58.1855 Y24.2769
G01 X58.2456 Y24.3214
G01 X58.2581 Y24.3317
G01 X58.3135 Y24.3819
G01 X58.3250 Y24.3934
G01 X58.3752 Y24.4488
G01 X58.3856 Y24.4614
G01 X58.4301 Y24.5215
G01 X58.4391 Y24.5350
G01 X58.4776 Y24.5991
G01 X58.4852 Y24.6134
G01 X58.5172 Y24.6810
G01 X58.5234 Y24.6960
G01 X58.5486 Y24.7664
G01 X58.5533 Y24.7820
G01 X58.5715 Y24.8545
G01 X58.5747 Y24.8704
G01 X58.5856 Y24.9444
G01 X58.5872 Y24.9606
G01 X58.5909 Y25.0353
G01 X58.5909 Y25.0515
G01 X58.5872 Y25.1262
G01 X58.5856 Y25.1424
G01 X58.5747 Y25.2163
G01 X58.5715 Y25.2323
G01 X58.5533 Y25.3048
G01 X58.5486 Y25.3203
G01 X58.5234 Y25.3907
G01 X58.5172 Y25.4057
G01 X58.4852 Y25.4733
G01 X58.4776 Y25.4877
G01 X58.4391 Y25.5518
G01 X58.4301 Y25.5653
G01 X58.3856 Y25.6254
G01 X58.3752 Y25.6379
G01 X58.3250 Y25.6933
G01 X58.3135 Y25.7048
G01 X58.2581 Y25.7550
G01 X58.2456 Y25.7653
G01 X58.1855 Y25.8099
G01 X58.1720 Y25.8189
G01 X58.1079 Y25.8574
G01 X58.0936 Y25.8650
G01 X58.0260 Y25.8970
G01 X58.0109 Y25.9032
G01 X57.9405 Y25.9284
G01 X57.9250 Y25.9331
G01 X57.8525 Y25.9513
G01 X57.8365 Y25.9544
G01 X57.7626 Y25.9654
G01 X57.7464 Y25.9670
G01 X57.6717 Y25.9707
G01 X57.6555 Y25.9707
G01 X57.5808 Y25.9670
G01 X57.5646 Y25.9654
G01 X57.4906 Y25.9544
G01 X57.4747 Y25.9513
G01 X57.4022 Y25.9331
G01 X57.3866 Y25.9284
G01 X57.3162 Y25.9032
G01 X57.3012 Y25.8970
G01 X57.2336 Y25.8650
G01 X57.2193 Y25.8574
G01 X57.1552 Y25.8189
G01 X57.1417 Y25.8099
G01 X57.0816 Y25.7653
G01 X57.0690 Y25.7550
G01 X57.0184 Y25.7091
G01 X50.7093 Y25.7091
G01 X50.7093 Y29.4782
G01 X50.7552 Y29.5288
G01 X50.7656 Y29.5414
G01 X50.8101 Y29.6015
G01 X50.8191 Y29.6150
G01 X50.8576 Y29.6791
G01 X50.8652 Y29.6934
G01 X50.8972 Y29.7610
G01 X50.9034 Y29.7760
G01 X50.9286 Y29.8464
G01 X50.9333 Y29.8620
G01 X50.9515 Y29.9345
G01 X50.9547 Y29.9504
G01 X50.9656 Y30.0244
G01 X50.9672 Y30.0406
G01 X50.9709 Y30.1153
G01 X50.9709 Y30.1315
G01 X50.9672 Y30.2062
G01 X50.9656 Y30.2224
G01 X50.9547 Y30.2963
G01 X50.9515 Y30.3123
G01 X50.9333 Y30.3848
G01 X50.9286 Y30.4003
G01 X50.9034 Y30.4707
G01 X50.8972 Y30.4857
G01 X50.8652 Y30.5533
G01 X50.8576 Y30.5677
G01 X50.8191 Y30.6318
G01 X50.8101 Y30.6453
G01 X50.7656 Y30.7054
G01 X50.7552 Y30.7179
G01 X50.7050 Y30.7733
G01 X50.6935 Y30.7848
G01 X50.6381 Y30.8350
G01 X50.6256 Y30.8453
G01 X50.5655 Y30.8899
G01 X50.5520 Y30.8989
G01 X50.4879 Y30.9374
G01 X50.4736 Y30.9450
G01 X50.4060 Y30.9770
G01 X50.3909 Y30.9832
G01 X50.3205 Y31.0084
G01 X50.3050 Y31.0131
G01 X50.2325 Y31.0313
G01 X50.2165 Y31.0344
G01 X50.1426 Y31.0454
G01 X50.1264 Y31.0470
G01 X50.0517 Y31.0507
G01 X50.0355 Y31.0507
G01 X49.9608 Y31.0470
G01 X49.9446 Y31.0454
G01 X49.8706 Y31.0344
G01 X49.8547 Y31.0313
G01 X49.7822 Y31.0131
G01 X49.7666 Y31.0084
G01 X49.6962 Y30.9832
G01 X49.6812 Y30.9770
G01 X49.6136 Y30.9450
G01 X49.5993 Y30.9374
G01 X49.5352 Y30.8989
G01 X49.5217 Y30.8899
G01 X49.4616 Y30.8453
G01 X49.4490 Y30.8350
G01 X49.3936 Y30.7848
G01 X49.3821 Y30.7733
G01 X49.3319 Y30.7179
G01 X49.3216 Y30.7054
G01 X49.2771 Y30.6453
G01 X49.2681 Y30.6318
G01 X49.2296 Y30.5677
G01 X49.2220 Y30.5533
G01 X49.1900 Y30.4857
G01 X49.1838 Y30.4707
G01 X49.1586 Y30.4003
G01 X49.1539 Y30.3848
G01 X49.1357 Y30.3123
G01 X49.1325 Y30.2963
G01 X49.1216 Y30.2224
G01 X49.1200 Y30.2062
G01 X49.1163 Y30.1315
G01 X49.1163 Y30.1153
G01 X49.1200 Y30.0406
G01 X49.1216 Y30.0244
G01 X49.1325 Y29.9504
G01 X49.1357 Y29.9345
G01 X49.1539 Y29.8620
G01 X49.1586 Y29.8464
G01 X49.1838 Y29.7760
G01 X49.1900 Y29.7610
G01 X49.2220 Y29.6934
G01 X49.2296 Y29.6791
G01 X49.2681 Y29.6150
G01 X49.2771 Y29.6015
G01 X49.3216 Y29.5414
G01 X49.3319 Y29.5288
G01 X49.3778 Y29.4782
G00 Z2.0000
G00 X51.4357 Y31.9976
G01 F60.00
G01 Z-0.2001
G01 F320.00
G01 X51.4577 Y31.9814
G01 X51.4712 Y31.9723
G01 X51.5268 Y31.9390
G01 X51.5411 Y31.9314
G01 X51.5997 Y31.9036
G01 X51.6147 Y31.8974
G01 X51.6757 Y31.8756
G01 X51.6913 Y31.8709
G01 X51.7541 Y31.8551
G01 X51.7701 Y31.8520
G01 X51.8342 Y31.8425
G01 X51.8503 Y31.8409
G01 X51.9151 Y31.8377
G01 X53.2521 Y31.8377
G01 X53.3168 Y31.8409
G01 X53.3330 Y31.8425
G01 X53.3971 Y31.8520
G01 X53.4130 Y31.8551
G01 X53.4759 Y31.8709
G01 X53.4914 Y31.8756
G01 X53.5525 Y31.8974
G01 X53.5675 Y31.9036
G01 X53.6261 Y31.9314
G01 X53.6404 Y31.9390
G01 X53.6960 Y31.9723
G01 X53.7095 Y31.9814
G01 X53.7615 Y32.0200
G01 X53.7741 Y32.0303
G01 X53.8221 Y32.0738
G01 X53.8336 Y32.0853
G01 X53.8771 Y32.1333
G01 X53.8874 Y32.1458
G01 X53.9260 Y32.1979
G01 X53.9350 Y32.2114
G01 X53.9684 Y32.2670
G01 X53.9760 Y32.2813
G01 X54.0037 Y32.3399
G01 X54.0099 Y32.3549
G01 X54.0318 Y32.4159
G01 X54.0365 Y32.4315
G01 X54.0522 Y32.4943
G01 X54.0554 Y32.5103
G01 X54.0649 Y32.5744
G01 X54.0665 Y32.5905
G01 X54.0697 Y32.6553
G01 X54.0697 Y32.6715
G01 X54.0665 Y32.7362
G01 X54.0649 Y32.7524
G01 X54.0554 Y32.8165
G01 X54.0522 Y32.8324
G01 X54.0365 Y32.8953
G01 X54.0318 Y32.9108
G01 X54.0099 Y32.9719
G01 X54.0037 Y32.9869
G01 X53.9760 Y33.0455
G01 X53.9684 Y33.0598
G01 X53.9350 Y33.1154
G01 X53.9260 Y33.1289
G01 X53.8874 Y33.1809
G01 X53.8771 Y33.1935
G01 X53.8336 Y33.2415
G01 X53.8221 Y33.2530
G01 X53.7741 Y33.2965
G01 X53.7615 Y33.3068
G01 X53.7095 Y33.3454
G01 X53.6960 Y33.3544
G01 X53.6404 Y33.3878
G01 X53.6261 Y33.3954
G01 X53.5675 Y33.4231
G01 X53.5525 Y33.4293
G01 X53.4914 Y33.4512
G01 X53.4759 Y33.4559
G01 X53.4130 Y33.4716
G01 X53.3971 Y33.4748
G01 X53.3330 Y33.4843
G01 X53.3168 Y33.4859
G01 X53.2440 Y33.4893
G01 X51.9232 Y33.4893
G01 X51.8503 Y33.4859
G01 X51.8342 Y33.4843
G01 X51.7701 Y33.4748
G01 X51.7541 Y33.4716
G01 X51.6913 Y33.4559
G01 X51.6757 Y33.4512
G01 X51.6147 Y33.4293
G01 X51.5997 Y33.4231
G01 X51.5411 Y33.3954
G01 X51.5268 Y33.3878
G01 X51.4712 Y33.3544
G01 X51.4577 Y33.3454
G01 X51.4357 Y33.3291
G01 X48.1693 Y33.3291
G01 X48.1693 Y52.3176
G01 X50.0436 Y52.3176
G01 X50.1007 Y52.3202
G01 X50.1169 Y52.3218
G01 X50.1655 Y52.3290
G01 X50.1814 Y52.3322
G01 X50.2290 Y52.3441
G01 X50.2446 Y52.3489
G01 X50.2908 Y52.3654
G01 X50.3058 Y52.3716
G01 X50.3502 Y52.3926
G01 X50.3645 Y52.4003
G01 X50.4066 Y52.4255
G01 X50.4201 Y52.4345
G01 X50.4595 Y52.4638
G01 X50.4721 Y52.4741
G01 X50.5085 Y52.5070
G01 X50.5199 Y52.5185
G01 X50.5529 Y52.5549
G01 X50.5632 Y52.5674
G01 X50.5925 Y52.6069
G01 X50.6015 Y52.6204
G01 X50.6267 Y52.6625
G01 X50.6344 Y52.6768
G01 X50.6554 Y52.7212
G01 X50.6616 Y52.7362
G01 X50.6781 Y52.7824
G01 X50.6828 Y52.7980
G01 X50.6948 Y52.8456
G01 X50.6979 Y52.8615
G01 X50.7051 Y52.9101
G01 X50.7067 Y52.9262
G01 X50.7091 Y52.9753
G01 X50.7093 Y57.3976
G01 X51.4357 Y57.3976
G01 X51.4577 Y57.3814
G01 X51.4712 Y57.3723
G01 X51.5268 Y57.3390
G01 X51.5411 Y57.3314
G01 X51.5997 Y57.3036
G01 X51.6147 Y57.2974
G01 X51.6757 Y57.2756
G01 X51.6913 Y57.2709
G01 X51.7541 Y57.2551
G01 X51.7701 Y57.2520
G01 X51.8342 Y57.2425
G01 X51.8503 Y57.2409
G01 X51.9232 Y57.2375
G01 X53.2440 Y57.2375
G01 X53.3168 Y57.2409
G01 X53.3330 Y57.2425
G01 X53.3971 Y57.2520
G01 X53.4130 Y57.2551
G01 X53.4759 Y57.2709
G01 X53.4914 Y57.2756
G01 X53.5525 Y57.2974
G01 X53.5675 Y57.3036
G01 X53.6261 Y57.3314
G01 X53.6404 Y57.3390
G01 X53.6960 Y57.3723
G01 X53.7095 Y57.3814
G01 X53.7615 Y57.4200
G01 X53.7741 Y57.4303
G01 X53.8221 Y57.4738
G01 X53.8336 Y57.4853
G01 X53.8771 Y57.5333
G01 X53.8874 Y57.5458
G01 X53.9260 Y57.5979
G01 X53.9350 Y57.6114
G01 X53.9684 Y57.6670
G01 X53.9760 Y57.6813
G01 X54.0037 Y57.7399
G01 X54.0099 Y57.7549
G01 X54.0318 Y57.8159
G01 X54.0365 Y57.8315
G01 X54.0522 Y57.8943
G01 X54.0554 Y57.9103
G01 X54.0649 Y57.9744
G01 X54.0665 Y57.9905
G01 X54.0697 Y58.0553
G01 X54.0697 Y58.0715
G01 X54.0665 Y58.1362
G01 X54.0649 Y58.1524
G01 X54.0554 Y58.2165
G01 X54.0522 Y58.2324
G01 X54.0365 Y58.2953
G01 X54.0318 Y58.3108
G01 X54.0099 Y58.3719
G01 X54.0037 Y58.3869
G01 X53.9760 Y58.4455
G01 X53.9684 Y58.4598
G01 X53.9350 Y58.5154
G01 X53.9260 Y58.5289
G01 X53.8874 Y58.5809
G01 X53.8771 Y58.5935
G01 X53.8336 Y58.6415
G01 X53.8221 Y58.6530
G01 X53.7741 Y58.6965
G01 X53.7615 Y58.7068
G01 X53.7095 Y58.7454
G01 X53.6960 Y58.7544
G01 X53.6404 Y58.7878
G01 X53.6261 Y58.7954
G01 X53.5675 Y58.8231
G01 X53.5525 Y58.8293
G01 X53.4914 Y58.8512
G01 X53.4759 Y58.8559
G01 X53.4130 Y58.8716
G01 X53.3971 Y58.8748
G01 X53.3330 Y58.8843
G01 X53.3168 Y58.8859
G01 X53.2440 Y58.8893
G01 X51.9232 Y58.8893
G01 X51.8503 Y58.8859
G01 X51.8342 Y58.8843
G01 X51.7701 Y58.8748
G01 X51.7541 Y58.8716
G01 X51.6913 Y58.8559
G01 X51.6757 Y58.8512
G01 X51.6147 Y58.8293
G01 X51.5997 Y58.8231
G01 X51.5411 Y58.7954
G01 X51.5268 Y58.7878
G01 X51.4712 Y58.7544
G01 X51.4577 Y58.7454
G01 X51.4357 Y58.7291
G01 X50.0436 Y58.7291
G01 X49.9864 Y58.7265
G01 X49.9703 Y58.7249
G01 X49.9217 Y58.7177
G01 X49.9058 Y58.7146
G01 X49.8582 Y58.7026
G01 X49.8426 Y58.6979
G01 X49.7964 Y58.6814
G01 X49.7814 Y58.6752
G01 X49.7370 Y58.6542
G01 X49.7227 Y58.6465
G01 X49.6806 Y58.6213
G01 X49.6671 Y58.6123
G01 X49.6276 Y58.5830
G01 X49.6151 Y58.5727
G01 X49.5787 Y58.5397
G01 X49.5672 Y58.5283
G01 X49.5343 Y58.4919
G01 X49.5240 Y58.4793
G01 X49.4947 Y58.4399
G01 X49.4857 Y58.4264
G01 X49.4605 Y58.3843
G01 X49.4528 Y58.3700
G01 X49.4318 Y58.3256
G01 X49.4256 Y58.3106
G01 X49.4091 Y58.2644
G01 X49.4043 Y58.2488
G01 X49.3924 Y58.2012
G01 X49.3892 Y58.1853
G01 X49.3820 Y58.1367
G01 X49.3804 Y58.1205
G01 X49.3780 Y58.0715
G01 X49.3778 Y53.6491
G01 X47.5036 Y53.6491
G01 X47.4464 Y53.6465
G01 X47.4303 Y53.6449
G01 X47.3817 Y53.6377
G01 X47.3658 Y53.6346
G01 X47.3182 Y53.6226
G01 X47.3026 Y53.6179
G01 X47.2564 Y53.6014
G01 X47.2414 Y53.5952
G01 X47.1970 Y53.5742
G01 X47.1827 Y53.5665
G01 X47.1406 Y53.5413
G01 X47.1271 Y53.5323
G01 X47.0876 Y53.5030
G01 X47.0751 Y53.4927
G01 X47.0387 Y53.4597
G01 X47.0272 Y53.4483
G01 X46.9943 Y53.4119
G01 X46.9840 Y53.3993
G01 X46.9547 Y53.3599
G01 X46.9457 Y53.3464
G01 X46.9205 Y53.3043
G01 X46.9128 Y53.2900
G01 X46.8918 Y53.2456
G01 X46.8856 Y53.2306
G01 X46.8691 Y53.1844
G01 X46.8643 Y53.1688
G01 X46.8524 Y53.1212
G01 X46.8492 Y53.1053
G01 X46.8420 Y53.0567
G01 X46.8404 Y53.0405
G01 X46.8378 Y52.9834
G01 X46.8378 Y32.6634
G01 X46.8404 Y32.6062
G01 X46.8420 Y32.5901
G01 X46.8492 Y32.5415
G01 X46.8524 Y32.5256
G01 X46.8643 Y32.4780
G01 X46.8691 Y32.4624
G01 X46.8856 Y32.4162
G01 X46.8918 Y32.4012
G01 X46.9128 Y32.3568
G01 X46.9205 Y32.3425
G01 X46.9457 Y32.3004
G01 X46.9547 Y32.2869
G01 X46.9840 Y32.2474
G01 X46.9943 Y32.2349
G01 X47.0272 Y32.1985
G01 X47.0387 Y32.1870
G01 X47.0751 Y32.1541
G01 X47.0876 Y32.1438
G01 X47.1271 Y32.1145
G01 X47.1406 Y32.1055
G01 X47.1827 Y32.0803
G01 X47.1970 Y32.0726
G01 X47.2414 Y32.0516
G01 X47.2564 Y32.0454
G01 X47.3026 Y32.0289
G01 X47.3182 Y32.0241
G01 X47.3658 Y32.0122
G01 X47.3817 Y32.0090
G01 X47.4303 Y32.0018
G01 X47.4464 Y32.0002
G01 X47.5036 Y31.9976
G01 X51.4357 Y31.9976
G00 Z2.0000
G00 X58.3240 Y31.8375
G01 F60.00
G01 Z-0.2001
G01 F320.00
G01 X58.3968 Y31.8409
G01 X58.4130 Y31.8425
G01 X58.4771 Y31.8520
G01 X58.4930 Y31.8551
G01 X58.5559 Y31.8709
G01 X58.5714 Y31.8756
G01 X58.6325 Y31.8974
G01 X58.6475 Y31.9036
G01 X58.7061 Y31.9314
G01 X58.7204 Y31.9390
G01 X58.7760 Y31.9723
G01 X58.7895 Y31.9814
G01 X58.8415 Y32.0200
G01 X58.8541 Y32.0303
G01 X58.9021 Y32.0738
G01 X58.9136 Y32.0853
G01 X58.9571 Y32.1333
G01 X58.9674 Y32.1458
G01 X59.0060 Y32.1979
G01 X59.0150 Y32.2114
G01 X59.0484 Y32.2670
G01 X59.0560 Y32.2813
G01 X59.0837 Y32.3399
G01 X59.0899 Y32.3549
G01 X59.1118 Y32.4159
G01 X59.1165 Y32.4315
G01 X59.1322 Y32.4943
G01 X59.1354 Y32.5103
G01 X59.1449 Y32.5744
G01 X59.1465 Y32.5905
G01 X59.1497 Y32.6553
G01 X59.1497 Y32.6715
G01 X59.1465 Y32.7362
G01 X59.1449 Y32.7524
G01 X59.1354 Y32.8165
G01 X59.1322 Y32.8324
G01 X59.1165 Y32.8953
G01 X59.1118 Y32.9108
G01 X59.0899 Y32.9719
G01 X59.0837 Y32.9869
G01 X59.0560 Y33.0455
G01 X59.0484 Y33.0598
G01 X59.0150 Y33.1154
G01 X59.0060 Y33.1289
G01 X58.9674 Y33.1809
G01 X58.9571 Y33.1935
G01 X58.9136 Y33.2415
G01 X58.9021 Y33.2530
G01 X58.8541 Y33.2965
G01 X58.8415 Y33.3068
G01 X58.7895 Y33.3454
G01 X58.7760 Y33.3544
G01 X58.7204 Y33.3878
G01 X58.7061 Y33.3954
G01 X58.6475 Y33.4231
G01 X58.6325 Y33.4293
G01 X58.5714 Y33.4512
G01 X58.5559 Y33.4559
G01 X58.4930 Y33.4716
G01 X58.4771 Y33.4748
G01 X58.4130 Y33.4843
G01 X58.3968 Y33.4859
G01 X58.3240 Y33.4893
G01 X57.0032 Y33.4893
G01 X56.9303 Y33.4859
G01 X56.9142 Y33.4843
G01 X56.8501 Y33.4748
G01 X56.8341 Y33.4716
G01 X56.7713 Y33.4559
G01 X56.7557 Y33.4512
G01 X56.6947 Y33.4293
G01 X56.6797 Y33.4231
G01 X56.6211 Y33.3954
G01 X56.6068 Y33.3878
G01 X56.5512 Y33.3544
G01 X56.5377 Y33.3454
G01 X56.4856 Y33.3068
G01 X56.4731 Y33.2965
G01 X56.4251 Y33.2530
G01 X56.4136 Y33.2415
G01 X56.3701 Y33.1935
G01 X56.3598 Y33.1809
G01 X56.3212 Y33.1289
G01 X56.3121 Y33.1154
G01 X56.2788 Y33.0598
G01 X56.2712 Y33.0455
G01 X56.2435 Y32.9869
G01 X56.2372 Y32.9719
G01 X56.2154 Y32.9108
G01 X56.2107 Y32.8953
G01 X56.1949 Y32.8324
G01 X56.1918 Y32.8165
G01 X56.1823 Y32.7524
G01 X56.1807 Y32.7362
G01 X56.1775 Y32.6715
G01 X56.1775 Y32.6553
G01 X56.1807 Y32.5905
G01 X56.1823 Y32.5744
G01 X56.1918 Y32.5103
G01 X56.1949 Y32.4943
G01 X56.2107 Y32.4315
G01 X56.2154 Y32.4159
G01 X56.2372 Y32.3549
G01 X56.2435 Y32.3399
G01 X56.2712 Y32.2813
G01 X56.2788 Y32.2670
G01 X56.3121 Y32.2114
G01 X56.3212 Y32.1979
G01 X56.3598 Y32.1458
G01 X56.3701 Y32.1333
G01 X56.4136 Y32.0853
G01 X56.4251 Y32.0738
G01 X56.4731 Y32.0303
G01 X56.4856 Y32.0200
G01 X56.5377 Y31.9814
G01 X56.5512 Y31.9723
G01 X56.6068 Y31.9390
G01 X56.6211 Y31.9314
G01 X56.6797 Y31.9036
G01 X56.6947 Y31.8974
G01 X56.7557 Y31.8756
G01 X56.7713 Y31.8709
G01 X56.8341 Y31.8551
G01 X56.8501 Y31.8520
G01 X56.9142 Y31.8425
G01 X56.9303 Y31.8409
G01 X57.0032 Y31.8375
G01 X58.3240 Y31.8375
G00 Z2.0000
G00 X62.0778 Y29.4782
G01 F60.00
G01 Z-0.2001
G01 F320.00
G01 X62.0778 Y23.1486
G01 X62.0319 Y23.0979
G01 X62.0216 Y23.0854
G01 X61.9771 Y23.0253
G01 X61.9681 Y23.0118
G01 X61.9296 Y22.9477
G01 X61.9220 Y22.9333
G01 X61.8900 Y22.8657
G01 X61.8838 Y22.8507
G01 X61.8586 Y22.7803
G01 X61.8539 Y22.7648
G01 X61.8357 Y22.6923
G01 X61.8325 Y22.6763
G01 X61.8216 Y22.6024
G01 X61.8200 Y22.5862
G01 X61.8163 Y22.5115
G01 X61.8163 Y22.4953
G01 X61.8200 Y22.4206
G01 X61.8216 Y22.4044
G01 X61.8325 Y22.3304
G01 X61.8357 Y22.3145
G01 X61.8539 Y22.2420
G01 X61.8586 Y22.2264
G01 X61.8838 Y22.1560
G01 X61.8900 Y22.1410
G01 X61.9220 Y22.0734
G01 X61.9296 Y22.0591
G01 X61.9681 Y21.9950
G01 X61.9771 Y21.9815
G01 X62.0216 Y21.9214
G01 X62.0319 Y21.9088
G01 X62.0821 Y21.8534
G01 X62.0936 Y21.8419
G01 X62.1490 Y21.7917
G01 X62.1616 Y21.7814
G01 X62.2217 Y21.7369
G01 X62.2352 Y21.7279
G01 X62.2993 Y21.6894
G01 X62.3136 Y21.6818
G01 X62.3812 Y21.6498
G01 X62.3962 Y21.6436
G01 X62.4666 Y21.6184
G01 X62.4822 Y21.6137
G01 X62.5547 Y21.5955
G01 X62.5706 Y21.5923
G01 X62.6446 Y21.5813
G01 X62.6608 Y21.5798
G01 X62.7355 Y21.5761
G01 X62.7517 Y21.5761
G01 X62.8264 Y21.5798
G01 X62.8426 Y21.5813
G01 X62.9165 Y21.5923
G01 X62.9325 Y21.5955
G01 X63.0050 Y21.6137
G01 X63.0205 Y21.6184
G01 X63.0909 Y21.6436
G01 X63.1060 Y21.6498
G01 X63.1736 Y21.6818
G01 X63.1879 Y21.6894
G01 X63.2520 Y21.7279
G01 X63.2655 Y21.7369
G01 X63.3256 Y21.7814
G01 X63.3381 Y21.7917
G01 X63.3888 Y21.8376
G01 X64.6384 Y21.8376
G01 X64.6890 Y21.7917
G01 X64.7016 Y21.7814
G01 X64.7617 Y21.7369
G01 X64.7752 Y21.7279
G01 X64.8393 Y21.6894
G01 X64.8536 Y21.6818
G01 X64.9212 Y21.6498
G01 X64.9362 Y21.6436
G01 X65.0066 Y21.6184
G01 X65.0222 Y21.6137
G01 X65.0947 Y21.5955
G01 X65.1106 Y21.5923
G01 X65.1846 Y21.5813
G01 X65.2008 Y21.5798
G01 X65.2755 Y21.5761
G01 X65.2917 Y21.5761
G01 X65.3664 Y21.5798
G01 X65.3826 Y21.5813
G01 X65.4565 Y21.5923
G01 X65.4725 Y21.5955
G01 X65.5450 Y21.6137
G01 X65.5605 Y21.6184
G01 X65.6309 Y21.6436
G01 X65.6460 Y21.6498
G01 X65.7136 Y21.6818
G01 X65.7279 Y21.6894
G01 X65.7920 Y21.7279
G01 X65.8055 Y21.7369
G01 X65.8656 Y21.7814
G01 X65.8781 Y21.7917
G01 X65.9335 Y21.8419
G01 X65.9450 Y21.8534
G01 X65.9952 Y21.9088
G01 X66.0056 Y21.9214
G01 X66.0501 Y21.9815
G01 X66.0591 Y21.9950
G01 X66.0976 Y22.0591
G01 X66.1052 Y22.0734
G01 X66.1372 Y22.1410
G01 X66.1434 Y22.1560
G01 X66.1686 Y22.2264
G01 X66.1733 Y22.2420
G01 X66.1915 Y22.3145
G01 X66.1947 Y22.3304
G01 X66.2056 Y22.4044
G01 X66.2072 Y22.4206
G01 X66.2109 Y22.4953
G01 X66.2109 Y22.5115
G01 X66.2072 Y22.5862
G01 X66.2056 Y22.6024
G01 X66.1947 Y22.6763
G01 X66.1915 Y22.6923
G01 X66.1733 Y22.7648
G01 X66.1686 Y22.7803
G01 X66.1434 Y22.8507
G01 X66.1372 Y22.8657
G01 X66.1052 Y22.9333
G01 X66.0976 Y22.9477
G01 X66.0591 Y23.0118
G01 X66.0501 Y23.0253
G01 X66.0056 Y23.0854
G01 X65.9952 Y23.0979
G01 X65.9450 Y23.1533
G01 X65.9335 Y23.1648
G01 X65.8781 Y23.2150
G01 X65.8656 Y23.2253
G01 X65.8055 Y23.2699
G01 X65.7920 Y23.2789
G01 X65.7279 Y23.3174
G01 X65.7136 Y23.3250
G01 X65.6460 Y23.3570
G01 X65.6309 Y23.3632
G01 X65.5605 Y23.3884
G01 X65.5450 Y23.3931
G01 X65.4725 Y23.4113
G01 X65.4565 Y23.4144
G01 X65.3826 Y23.4254
G01 X65.3664 Y23.4270
G01 X65.2917 Y23.4307
G01 X65.2755 Y23.4307
G01 X65.2008 Y23.4270
G01 X65.1846 Y23.4254
G01 X65.1106 Y23.4144
G01 X65.0947 Y23.4113
G01 X65.0222 Y23.3931
G01 X65.0066 Y23.3884
G01 X64.9362 Y23.3632
G01 X64.9212 Y23.3570
G01 X64.8536 Y23.3250
G01 X64.8393 Y23.3174
G01 X64.7752 Y23.2789
G01 X64.7617 Y23.2699
G01 X64.7016 Y23.2253
G01 X64.6890 Y23.2150
G01 X64.6384 Y23.1691
G01 X63.4093 Y23.1691
G01 X63.4093 Y24.3776
G01 X69.7184 Y24.3776
G01 X69.7690 Y24.3317
G01 X69.7816 Y24.3214
G01 X69.8417 Y24.2769
G01 X69.8552 Y24.2679
G01 X69.9193 Y24.2294
G01 X69.9336 Y24.2218
G01 X70.0012 Y24.1898
G01 X70.0162 Y24.1836
G01 X70.0866 Y24.1584
G01 X70.1022 Y24.1537
G01 X70.1747 Y24.1355
G01 X70.1906 Y24.1323
G01 X70.2646 Y24.1213
G01 X70.2808 Y24.1198
G01 X70.3555 Y24.1161
G01 X70.3717 Y24.1161
G01 X70.4464 Y24.1198
G01 X70.4626 Y24.1213
G01 X70.5365 Y24.1323
G01 X70.5525 Y24.1355
G01 X70.6250 Y24.1537
G01 X70.6405 Y24.1584
G01 X70.7109 Y24.1836
G01 X70.7260 Y24.1898
G01 X70.7936 Y24.2218
G01 X70.8079 Y24.2294
G01 X70.8720 Y24.2679
G01 X70.8855 Y24.2769
G01 X70.9456 Y24.3214
G01 X70.9581 Y24.3317
G01 X71.0135 Y24.3819
G01 X71.0250 Y24.3934
G01 X71.0752 Y24.4488
G01 X71.0856 Y24.4614
G01 X71.1301 Y24.5215
G01 X71.1391 Y24.5350
G01 X71.1776 Y24.5991
G01 X71.1852 Y24.6134
G01 X71.2172 Y24.6810
G01 X71.2234 Y24.6960
G01 X71.2486 Y24.7664
G01 X71.2533 Y24.7820
G01 X71.2715 Y24.8545
G01 X71.2747 Y24.8704
G01 X71.2856 Y24.9444
G01 X71.2872 Y24.9606
G01 X71.2909 Y25.0353
G01 X71.2909 Y25.0515
G01 X71.2872 Y25.1262
G01 X71.2856 Y25.1424
G01 X71.2747 Y25.2163
G01 X71.2715 Y25.2323
G01 X71.2533 Y25.3048
G01 X71.2486 Y25.3203
G01 X71.2234 Y25.3907
G01 X71.2172 Y25.4057
G01 X71.1852 Y25.4733
G01 X71.1776 Y25.4877
G01 X71.1391 Y25.5518
G01 X71.1301 Y25.5653
G01 X71.0856 Y25.6254
G01 X71.0752 Y25.6379
G01 X71.0250 Y25.6933
G01 X71.0135 Y25.7048
G01 X70.9581 Y25.7550
G01 X70.9456 Y25.7653
G01 X70.8855 Y25.8099
G01 X70.8720 Y25.8189
G01 X70.8079 Y25.8574
G01 X70.7936 Y25.8650
G01 X70.7260 Y25.8970
G01 X70.7109 Y25.9032
G01 X70.6405 Y25.9284
G01 X70.6250 Y25.9331
G01 X70.5525 Y25.9513
G01 X70.5365 Y25.9544
G01 X70.4626 Y25.9654
G01 X70.4464 Y25.9670
G01 X70.3717 Y25.9707
G01 X70.3555 Y25.9707
G01 X70.2808 Y25.9670
G01 X70.2646 Y25.9654
G01 X70.1906 Y25.9544
G01 X70.1747 Y25.9513
G01 X70.1022 Y25.9331
G01 X70.0866 Y25.9284
G01 X70.0162 Y25.9032
G01 X70.0012 Y25.8970
G01 X69.9336 Y25.8650
G01 X69.9193 Y25.8574
G01 X69.8552 Y25.8189
G01 X69.8417 Y25.8099
G01 X69.7816 Y25.7653
G01 X69.7690 Y25.7550
G01 X69.7184 Y25.7091
G01 X63.4093 Y25.7091
G01 X63.4093 Y29.4782
G01 X63.4552 Y29.5288
G01 X63.4656 Y29.5414
G01 X63.5101 Y29.6015
G01 X63.5191 Y29.6150
G01 X63.5576 Y29.6791
G01 X63.5652 Y29.6934
G01 X63.5972 Y29.7610
G01 X63.6034 Y29.7760
G01 X63.6286 Y29.8464
G01 X63.6333 Y29.8620
G01 X63.6515 Y29.9345
G01 X63.6547 Y29.9504
G01 X63.6656 Y30.0244
G01 X63.6672 Y30.0406
G01 X63.6709 Y30.1153
G01 X63.6709 Y30.1315
G01 X63.6672 Y30.2062
G01 X63.6656 Y30.2224
G01 X63.6547 Y30.2963
G01 X63.6515 Y30.3123
G01 X63.6333 Y30.3848
G01 X63.6286 Y30.4003
G01 X63.6034 Y30.4707
G01 X63.5972 Y30.4857
G01 X63.5652 Y30.5533
G01 X63.5576 Y30.5677
G01 X63.5191 Y30.6318
G01 X63.5101 Y30.6453
G01 X63.4656 Y30.7054
G01 X63.4552 Y30.7179
G01 X63.4050 Y30.7733
G01 X63.3935 Y30.7848
G01 X63.3381 Y30.8350
G01 X63.3256 Y30.8453
G01 X63.2655 Y30.8899
G01 X63.2520 Y30.8989
G01 X63.1879 Y30.9374
G01 X63.1736 Y30.9450
G01 X63.1060 Y30.9770
G01 X63.0909 Y30.9832
G01 X63.0205 Y31.0084
G01 X63.0050 Y31.0131
G01 X62.9325 Y31.0313
G01 X62.9165 Y31.0344
G01 X62.8426 Y31.0454
G01 X62.8264 Y31.0470
G01 X62.7517 Y31.0507
G01 X62.7355 Y31.0507
G01 X62.6608 Y31.0470
G01 X62.6446 Y31.0454
G01 X62.5706 Y31.0344
G01 X62.5547 Y31.0313
G01 X62.4822 Y31.0131
G01 X62.4666 Y31.0084
G01 X62.3962 Y30.9832
G01 X62.3812 Y30.9770
G01 X62.3136 Y30.9450
G01 X62.2993 Y30.9374
G01 X62.2352 Y30.8989
G01 X62.2217 Y30.8899
G01 X62.1616 Y30.8453
G01 X62.1490 Y30.8350
G01 X62.0936 Y30.7848
G01 X62.0821 Y30.7733
G01 X62.0319 Y30.7179
G01 X62.0216 Y30.7054
G01 X61.9771 Y30.6453
G01 X61.9681 Y30.6318
G01 X61.9296 Y30.5677
G01 X61.9220 Y30.5533
G01 X61.8900 Y30.4857
G01 X61.8838 Y30.4707
G01 X61.8586 Y30.4003
G01 X61.8539 Y30.3848
G01 X61.8357 Y30.3123
G01 X61.8325 Y30.2963
G01 X61.8216 Y30.2224
G01 X61.8200 Y30.2062
G01 X61.8163 Y30.1315
G01 X61.8163 Y30.1153
G01 X61.8200 Y30.0406
G01 X61.8216 Y30.0244
G01 X61.8325 Y29.9504
G01 X61.8357 Y29.9345
G01 X61.8539 Y29.8620
G01 X61.8586 Y29.8464
G01 X61.8838 Y29.7760
G01 X61.8900 Y29.7610
G01 X61.9220 Y29.6934
G01 X61.9296 Y29.6791
G01 X61.9681 Y29.6150
G01 X61.9771 Y29.6015
G01 X62.0216 Y29.5414
G01 X62.0319 Y29.5288
G01 X62.0778 Y29.4782
G00 Z2.0000
G00 X64.1357 Y31.9976
G01 F60.00
G01 Z-0.2001
G01 F320.00
G01 X64.1577 Y31.9814
G01 X64.1712 Y31.9723
G01 X64.2268 Y31.9390
G01 X64.2411 Y31.9314
G01 X64.2997 Y31.9036
G01 X64.3147 Y31.8974
G01 X64.3757 Y31.8756
G01 X64.3913 Y31.8709
G01 X64.4541 Y31.8551
G01 X64.4701 Y31.8520
G01 X64.5342 Y31.8425
G01 X64.5503 Y31.8409
G01 X64.6151 Y31.8377
G01 X65.9521 Y31.8377
G01 X66.0168 Y31.8409
G01 X66.0330 Y31.8425
G01 X66.0971 Y31.8520
G01 X66.1130 Y31.8551
G01 X66.1759 Y31.8709
G01 X66.1914 Y31.8756
G01 X66.2525 Y31.8974
G01 X66.2675 Y31.9036
G01 X66.3261 Y31.9314
G01 X66.3404 Y31.9390
G01 X66.3960 Y31.9723
G01 X66.4095 Y31.9814
G01 X66.4615 Y32.0200
G01 X66.4741 Y32.0303
G01 X66.5221 Y32.0738
G01 X66.5336 Y32.0853
G01 X66.5771 Y32.1333
G01 X66.5874 Y32.1458
G01 X66.6260 Y32.1979
G01 X66.6350 Y32.2114
G01 X66.6684 Y32.2670
G01 X66.6760 Y32.2813
G01 X66.7037 Y32.3399
G01 X66.7099 Y32.3549
G01 X66.7318 Y32.4159
G01 X66.7365 Y32.4315
G01 X66.7522 Y32.4943
G01 X66.7554 Y32.5103
G01 X66.7649 Y32.5744
G01 X66.7665 Y32.5905
G01 X66.7697 Y32.6553
G01 X66.7697 Y32.6715
G01 X66.7665 Y32.7362
G01 X66.7649 Y32.7524
G01 X66.7554 Y32.8165
G01 X66.7522 Y32.8324
G01 X66.7365 Y32.8953
G01 X66.7318 Y32.9108
G01 X66.7099 Y32.9719
G01 X66.7037 Y32.9869
G01 X66.6760 Y33.0455
G01 X66.6684 Y33.0598
G01 X66.6350 Y33.1154
G01 X66.6260 Y33.1289
G01 X66.5874 Y33.1809
G01 X66.5771 Y33.1935
G01 X66.5336 Y33.2415
G01 X66.5221 Y33.2530
G01 X66.4741 Y33.2965
G01 X66.4615 Y33.3068
G01 X66.4095 Y33.3454
G01 X66.3960 Y33.3544
G01 X66.3404 Y33.3878
G01 X66.3261 Y33.3954
G01 X66.2675 Y33.4231
G01 X66.2525 Y33.4293
G01 X66.1914 Y33.4512
G01 X66.1759 Y33.4559
G01 X66.1130 Y33.4716
G01 X66.0971 Y33.4748
G01 X66.0330 Y33.4843
G01 X66.0168 Y33.4859
G01 X65.9440 Y33.4893
G01 X64.6232 Y33.4893
G01 X64.5503 Y33.4859
G01 X64.5342 Y33.4843
G01 X64.4701 Y33.4748
G01 X64.4541 Y33.4716
G01 X64.3913 Y33.4559
G01 X64.3757 Y33.4512
G01 X64.3147 Y33.4293
G01 X64.2997 Y33.4231
G01 X64.2411 Y33.3954
G01 X64.2268 Y33.3878
G01 X64.1712 Y33.3544
G01 X64.1577 Y33.3454
G01 X64.1357 Y33.3291
G01 X60.8693 Y33.3291
G01 X60.8693 Y52.3176
G01 X62.7436 Y52.3176
G01 X62.8007 Y52.3202
G01 X62.8169 Y52.3218
G01 X62.8655 Y52.3290
G01 X62.8814 Y52.3322
G01 X62.9290 Y52.3441
G01 X62.9446 Y52.3489
G01 X62.9908 Y52.3654
G01 X63.0058 Y52.3716
G01 X63.0502 Y52.3926
G01 X63.0645 Y52.4003
G01 X63.1066 Y52.4255
G01 X63.1201 Y52.4345
G01 X63.1595 Y52.4638
G01 X63.1721 Y52.4741
G01 X63.2085 Y52.5070
G01 X63.2199 Y52.5185
G01 X63.2529 Y52.5549
G01 X63.2632 Y52.5674
G01 X63.2925 Y52.6069
G01 X63.3015 Y52.6204
G01 X63.3267 Y52.6625
G01 X63.3344 Y52.6768
G01 X63.3554 Y52.7212
G01 X63.3616 Y52.7362
G01 X63.3781 Y52.7824
G01 X63.3828 Y52.7980
G01 X63.3948 Y52.8456
G01 X63.3979 Y52.8615
G01 X63.4051 Y52.9101
G01 X63.4067 Y52.9262
G01 X63.4091 Y52.9753
G01 X63.4093 Y57.3976
G01 X64.1357 Y57.3976
G01 X64.1577 Y57.3814
G01 X64.1712 Y57.3723
G01 X64.2268 Y57.3390
G01 X64.2411 Y57.3314
G01 X64.2997 Y57.3036
G01 X64.3147 Y57.2974
G01 X64.3757 Y57.2756
G01 X64.3913 Y57.2709
G01 X64.4541 Y57.2551
G01 X64.4701 Y57.2520
G01 X64.5342 Y57.2425
G01 X64.5503 Y57.2409
G01 X64.6232 Y57.2375
G01 X65.9440 Y57.2375
G01 X66.0168 Y57.2409
G01 X66.0330 Y57.2425
G01 X66.0971 Y57.2520
G01 X66.1130 Y57.2551
G01 X66.1759 Y57.2709
G01 X66.1914 Y57.2756
G01 X66.2525 Y57.2974
G01 X66.2675 Y57.3036
G01 X66.3261 Y57.3314
G01 X66.3404 Y57.3390
G01 X66.3960 Y57.3723
G01 X66.4095 Y57.3814
G01 X66.4615 Y57.4200
G01 X66.4741 Y57.4303
G01 X66.5221 Y57.4738
G01 X66.5336 Y57.4853
G01 X66.5771 Y57.5333
G01 X66.5874 Y57.5458
G01 X66.6260 Y57.5979
G01 X66.6350 Y57.6114
G01 X66.6684 Y57.6670
G01 X66.6760 Y57.6813
G01 X66.7037 Y57.7399
G01 X66.7099 Y57.7549
G01 X66.7318 Y57.8159
G01 X66.7365 Y57.8315
G01 X66.7522 Y57.8943
G01 X66.7554 Y57.9103
G01 X66.7649 Y57.9744
G01 X66.7665 Y57.9905
G01 X66.7697 Y58.0553
G01 X66.7697 Y58.0715
G01 X66.7665 Y58.1362
G01 X66.7649 Y58.1524
G01 X66.7554 Y58.2165
G01 X66.7522 Y58.2324
G01 X66.7365 Y58.2953
G01 X66.7318 Y58.3108
G01 X66.7099 Y58.3719
G01 X66.7037 Y58.3869
G01 X66.6760 Y58.4455
G01 X66.6684 Y58.4598
G01 X66.6350 Y58.5154
G01 X66.6260 Y58.5289
G01 X66.5874 Y58.5809
G01 X66.5771 Y58.5935
G01 X66.5336 Y58.6415
G01 X66.5221 Y58.6530
G01 X66.4741 Y58.6965
G01 X66.4615 Y58.7068
G01 X66.4095 Y58.7454
G01 X66.3960 Y58.7544
G01 X66.3404 Y58.7878
G01 X66.3261 Y58.7954
G01 X66.2675 Y58.8231
G01 X66.2525 Y58.8293
G01 X66.1914 Y58.8512
G01 X66.1759 Y58.8559
G01 X66.1130 Y58.8716
G01 X66.0971 Y58.8748
G01 X66.0330 Y58.8843
G01 X66.0168 Y58.8859
G01 X65.9440 Y58.8893
G01 X64.6232 Y58.8893
G01 X64.5503 Y58.8859
G01 X64.5342 Y58.8843
G01 X64.4701 Y58.8748
G01 X64.4541 Y58.8716
G01 X64.3913 Y58.8559
G01 X64.3757 Y58.8512
G01 X64.3147 Y58.8293
G01 X64.2997 Y58.8231
G01 X64.2411 Y58.7954
G01 X64.2268 Y58.7878
G01 X64.1712 Y58.7544
G01 X64.1577 Y58.7454
G01 X64.1357 Y58.7291
G01 X62.7436 Y58.7291
G01 X62.6864 Y58.7265
G01 X62.6703 Y58.7249
G01 X62.6217 Y58.7177
G01 X62.6058 Y58.7146
G01 X62.5582 Y58.7026
G01 X62.5426 Y58.6979
G01 X62.4964 Y58.6814
G01 X62.4814 Y58.6752
G01 X62.4370 Y58.6542
G01 X62.4227 Y58.6465
G01 X62.3806 Y58.6213
G01 X62.3671 Y58.6123
G01 X62.3276 Y58.5830
G01 X62.3151 Y58.5727
G01 X62.2787 Y58.5397
G01 X62.2672 Y58.5283
G01 X62.2343 Y58.4919
G01 X62.2240 Y58.4793
G01 X62.1947 Y58.4399
G01 X62.1857 Y58.4264
G01 X62.1605 Y58.3843
G01 X62.1528 Y58.3700
G01 X62.1318 Y58.3256
G01 X62.1256 Y58.3106
G01 X62.1091 Y58.2644
G01 X62.1043 Y58.2488
G01 X62.0924 Y58.2012
G01 X62.0892 Y58.1853
G01 X62.0820 Y58.1367
G01 X62.0804 Y58.1205
G01 X62.0780 Y58.0715
G01 X62.0778 Y53.6491
G01 X60.2036 Y53.6491
G01 X60.1464 Y53.6465
G01 X60.1303 Y53.6449
G01 X60.0817 Y53.6377
G01 X60.0658 Y53.6346
G01 X60.0182 Y53.6226
G01 X60.0026 Y53.6179
G01 X59.9564 Y53.6014
G01 X59.9414 Y53.5952
G01 X59.8970 Y53.5742
G01 X59.8827 Y53.5665
G01 X59.8406 Y53.5413
G01 X59.8271 Y53.5323
G01 X59.7876 Y53.5030
G01 X59.7751 Y53.4927
G01 X59.7387 Y53.4597
G01 X59.7272 Y53.4483
G01 X59.6943 Y53.4119
G01 X59.6840 Y53.3993
G01 X59.6547 Y53.3599
G01 X59.6457 Y53.3464
G01 X59.6205 Y53.3043
G01 X59.6128 Y53.2900
G01 X59.5918 Y53.2456
G01 X59.5856 Y53.2306
G01 X59.5691 Y53.1844
G01 X59.5643 Y53.1688
G01 X59.5524 Y53.1212
G01 X59.5492 Y53.1053
G01 X59.5420 Y53.0567
G01 X59.5404 Y53.0405
G01 X59.5378 Y52.9834
G01 X59.5378 Y32.6634
G01 X59.5404 Y32.6062
G01 X59.5420 Y32.5901
G01 X59.5492 Y32.5415
G01 X59.5524 Y32.5256
G01 X59.5643 Y32.4780
G01 X59.5691 Y32.4624
G01 X59.5856 Y32.4162
G01 X59.5918 Y32.4012
G01 X59.6128 Y32.3568
G01 X59.6205 Y32.3425
G01 X59.6457 Y32.3004
G01 X59.6547 Y32.2869
G01 X59.6840 Y32.2474
G01 X59.6943 Y32.2349
G01 X59.7272 Y32.1985
G01 X59.7387 Y32.1870
G01 X59.7751 Y32.1541
G01 X59.7876 Y32.1438
G01 X59.8271 Y32.1145
G01 X59.8406 Y32.1055
G01 X59.8827 Y32.0803
G01 X59.8970 Y32.0726
G01 X59.9414 Y32.0516
G01 X59.9564 Y32.0454
G01 X60.0026 Y32.0289
G01 X60.0182 Y32.0241
G01 X60.0658 Y32.0122
G01 X60.0817 Y32.0090
G01 X60.1303 Y32.0018
G01 X60.1464 Y32.0002
G01 X60.2036 Y31.9976
G01 X64.1357 Y31.9976
G00 Z2.0000
G00 X71.0240 Y31.8375
G01 F60.00
G01 Z-0.2001
G01 F320.00
G01 X71.0968 Y31.8409
G01 X71.1130 Y31.8425
G01 X71.1771 Y31.8520
G01 X71.1930 Y31.8551
G01 X71.2559 Y31.8709
G01 X71.2714 Y31.8756
G01 X71.3325 Y31.8974
G01 X71.3475 Y31.9036
G01 X71.4061 Y31.9314
G01 X71.4204 Y31.9390
G01 X71.4760 Y31.9723
G01 X71.4895 Y31.9814
G01 X71.5415 Y32.0200
G01 X71.5541 Y32.0303
G01 X71.6021 Y32.0738
G01 X71.6136 Y32.0853
G01 X71.6571 Y32.1333
G01 X71.6674 Y32.1458
G01 X71.7060 Y32.1979
G01 X71.7150 Y32.2114
G01 X71.7484 Y32.2670
G01 X71.7560 Y32.2813
G01 X71.7837 Y32.3399
G01 X71.7899 Y32.3549
G01 X71.8118 Y32.4159
G01 X71.8165 Y32.4315
G01 X71.8322 Y32.4943
G01 X71.8354 Y32.5103
G01 X71.8449 Y32.5744
G01 X71.8465 Y32.5905
G01 X71.8497 Y32.6553
G01 X71.8497 Y32.6715
G01 X71.8465 Y32.7362
G01 X71.8449 Y32.7524
G01 X71.8354 Y32.8165
G01 X71.8322 Y32.8324
G01 X71.8165 Y32.8953
G01 X71.8118 Y32.9108
G01 X71.7899 Y32.9719
G01 X71.7837 Y32.9869
G01 X71.7560 Y33.0455
G01 X71.7484 Y33.0598
G01 X71.7150 Y33.1154
G01 X71.7060 Y33.1289
G01 X71.6674 Y33.1809
G01 X71.6571 Y33.1935
G01 X71.6136 Y33.2415
G01 X71.6021 Y33.2530
G01 X71.5541 Y33.2965
G01 X71.5415 Y33.3068
G01 X71.4895 Y33.3454
G01 X71.4760 Y33.3544
G01 X71.4204 Y33.3878
G01 X71.4061 Y33.3954
G01 X71.3475 Y33.4231
G01 X71.3325 Y33.4293
G01 X71.2714 Y33.4512
G01 X71.2559 Y33.4559
G01 X71.1930 Y33.4716
G01 X71.1771 Y33.4748
G01 X71.1130 Y33.4843
G01 X71.0968 Y33.4859
G01 X71.0240 Y33.4893
G01 X69.7032 Y33.4893
G01 X69.6303 Y33.4859
G01 X69.6142 Y33.4843
G01 X69.5501 Y33.4748
G01 X69.5341 Y33.4716
G01 X69.4713 Y33.4559
G01 X69.4557 Y33.4512
G01 X69.3947 Y33.4293
G01 X69.3797 Y33.4231
G01 X69.3211 Y33.3954
G01 X69.3068 Y33.3878
G01 X69.2512 Y33.3544
G01 X69.2377 Y33.3454
G01 X69.1856 Y33.3068
G01 X69.1731 Y33.2965
G01 X69.1251 Y33.2530
G01 X69.1136 Y33.2415
G01 X69.0701 Y33.1935
G01 X69.0598 Y33.1809
G01 X69.0212 Y33.1289
G01 X69.0121 Y33.1154
G01 X68.9788 Y33.0598
G01 X68.9712 Y33.0455
G01 X68.9435 Y32.9869
G01 X68.9372 Y32.9719
G01 X68.9154 Y32.9108
G01 X68.9107 Y32.8953
G01 X68.8949 Y32.8324
G01 X68.8918 Y32.8165
G01 X68.8823 Y32.7524
G01 X68.8807 Y32.7362
G01 X68.8775 Y32.6715
G01 X68.8775 Y32.6553
G01 X68.8807 Y32.5905
G01 X68.8823 Y32.5744
G01 X68.8918 Y32.5103
G01 X68.8949 Y32.4943
G01 X68.9107 Y32.4315
G01 X68.9154 Y32.4159
G01 X68.9372 Y32.3549
G01 X68.9435 Y32.3399
G01 X68.9712 Y32.2813
G01 X68.9788 Y32.2670
G01 X69.0121 Y32.2114
G01 X69.0212 Y32.1979
G01 X69.0598 Y32.1458
G01 X69.0701 Y32.1333
G01 X69.1136 Y32.0853
G01 X69.1251 Y32.0738
G01 X69.1731 Y32.0303
G01 X69.1856 Y32.0200
G01 X69.2377 Y31.9814
G01 X69.2512 Y31.9723
G01 X69.3068 Y31.9390
G01 X69.3211 Y31.9314
G01 X69.3797 Y31.9036
G01 X69.3947 Y31.8974
G01 X69.4557 Y31.8756
G01 X69.4713 Y31.8709
G01 X69.5341 Y31.8551
G01 X69.5501 Y31.8520
G01 X69.6142 Y31.8425
G01 X69.6303 Y31.8409
G01 X69.7032 Y31.8375
G01 X71.0240 Y31.8375
G00 Z2.0000
G00 X74.7778 Y29.4782
G01 F60.00
G01 Z-0.2001
G01 F320.00
G01 X74.7778 Y23.1486
G01 X74.7319 Y23.0979
G01 X74.7216 Y23.0854
G01 X74.6771 Y23.0253
G01 X74.6681 Y23.0118
G01 X74.6296 Y22.9477
G01 X74.6220 Y22.9333
G01 X74.5900 Y22.8657
G01 X74.5838 Y22.8507
G01 X74.5586 Y22.7803
G01 X74.5539 Y22.7648
G01 X74.5357 Y22.6923
G01 X74.5325 Y22.6763
G01 X74.5216 Y22.6024
G01 X74.5200 Y22.5862
G01 X74.5163 Y22.5115
G01 X74.5163 Y22.4953
G01 X74.5200 Y22.4206
G01 X74.5216 Y22.4044
G01 X74.5325 Y22.3304
G01 X74.5357 Y22.3145
G01 X74.5539 Y22.2420
G01 X74.5586 Y22.2264
G01 X74.5838 Y22.1560
G01 X74.5900 Y22.1410
G01 X74.6220 Y22.0734
G01 X74.6296 Y22.0591
G01 X74.6681 Y21.9950
G01 X74.6771 Y21.9815
G01 X74.7216 Y21.9214
G01 X74.7319 Y21.9088
G01 X74.7821 Y21.8534
G01 X74.7936 Y21.8419
G01 X74.8490 Y21.7917
G01 X74.8616 Y21.7814
G01 X74.9217 Y21.7369
G01 X74.9352 Y21.7279
G01 X74.9993 Y21.6894
G01 X75.0136 Y21.6818
G01 X75.0812 Y21.6498
G01 X75.0962 Y21.6436
G01 X75.1666 Y21.6184
G01 X75.1822 Y21.6137
G01 X75.2547 Y21.5955
G01 X75.2706 Y21.5923
G01 X75.3446 Y21.5813
G01 X75.3608 Y21.5798
G01 X75.4355 Y21.5761
G01 X75.4517 Y21.5761
G01 X75.5264 Y21.5798
G01 X75.5426 Y21.5813
G01 X75.6165 Y21.5923
G01 X75.6325 Y21.5955
G01 X75.7050 Y21.6137
G01 X75.7205 Y21.6184
G01 X75.7909 Y21.6436
G01 X75.8060 Y21.6498
G01 X75.8736 Y21.6818
G01 X75.8879 Y21.6894
G01 X75.9520 Y21.7279
G01 X75.9655 Y21.7369
G01 X76.0256 Y21.7814
G01 X76.0381 Y21.7917
G01 X76.0888 Y21.8376
G01 X77.3384 Y21.8376
G01 X77.3890 Y21.7917
G01 X77.4016 Y21.7814
G01 X77.4617 Y21.7369
G01 X77.4752 Y21.7279
G01 X77.5393 Y21.6894
G01 X77.5536 Y21.6818
G01 X77.6212 Y21.6498
G01 X77.6362 Y21.6436
G01 X77.7066 Y21.6184
G01 X77.7222 Y21.6137
G01 X77.7947 Y21.5955
G01 X77.8106 Y21.5923
G01 X77.8846 Y21.5813
G01 X77.9008 Y21.5798
G01 X77.9755 Y21.5761
G01 X77.9917 Y21.5761
G01 X78.0664 Y21.5798
G01 X78.0826 Y21.5813
G01 X78.1565 Y21.5923
G01 X78.1725 Y21.5955
G01 X78.2450 Y21.6137
G01 X78.2605 Y21.6184
G01 X78.3309 Y21.6436
G01 X78.3460 Y21.6498
G01 X78.4136 Y21.6818
G01 X78.4279 Y21.6894
G01 X78.4920 Y21.7279
G01 X78.5055 Y21.7369
G01 X78.5656 Y21.7814
G01 X78.5781 Y21.7917
G01 X78.6335 Y21.8419
G01 X78.6450 Y21.8534
G01 X78.6952 Y21.9088
G01 X78.7056 Y21.9214
G01 X78.7501 Y21.9815
G01 X78.7591 Y21.9950
G01 X78.7976 Y22.0591
G01 X78.8052 Y22.0734
G01 X78.8372 Y22.1410
G01 X78.8434 Y22.1560
G01 X78.8686 Y22.2264
G01 X78.8733 Y22.2420
G01 X78.8915 Y22.3145
G01 X78.8947 Y22.3304
G01 X78.9056 Y22.4044
G01 X78.9072 Y22.4206
G01 X78.9109 Y22.4953
G01 X78.9109 Y22.5115
G01 X78.9072 Y22.5862
G01 X78.9056 Y22.6024
G01 X78.8947 Y22.6763
G01 X78.8915 Y22.6923
G01 X78.8733 Y22.7648
G01 X78.8686 Y22.7803
G01 X78.8434 Y22.8507
G01 X78.8372 Y22.8657
G01 X78.8052 Y22.9333
G01 X78.7976 Y22.9477
G01 X78.7591 Y23.0118
G01 X78.7501 Y23.0253
G01 X78.7056 Y23.0854
G01 X78.6952 Y23.0979
G01 X78.6450 Y23.1533
G01 X78.6335 Y23.1648
G01 X78.5781 Y23.2150
G01 X78.5656 Y23.2253
G01 X78.5055 Y23.2699
G01 X78.4920 Y23.2789
G01 X78.4279 Y23.3174
G01 X78.4136 Y23.3250
G01 X78.3460 Y23.3570
G01 X78.3309 Y23.3632
G01 X78.2605 Y23.3884
G01 X78.2450 Y23.3931
G01 X78.1725 Y23.4113
G01 X78.1565 Y23.4144
G01 X78.0826 Y23.4254
G01 X78.0664 Y23.4270
G01 X77.9917 Y23.4307
G01 X77.9755 Y23.4307
G01 X77.9008 Y23.4270
G01 X77.8846 Y23.4254
G01 X77.8106 Y23.4144
G01 X77.7947 Y23.4113
G01 X77.7222 Y23.3931
G01 X77.7066 Y23.3884
G01 X77.6362 Y23.3632
G01 X77.6212 Y23.3570
G01 X77.5536 Y23.3250
G01 X77.5393 Y23.3174
G01 X77.4752 Y23.2789
G01 X77.4617 Y23.2699
G01 X77.4016 Y23.2253
G01 X77.3890 Y23.2150
G01 X77.3384 Y23.1691
G01 X76.1093 Y23.1691
G01 X76.1093 Y24.3776
G01 X82.4184 Y24.3776
G01 X82.4690 Y24.3317
G01 X82.4816 Y24.3214
G01 X82.5417 Y24.2769
G01 X82.5552 Y24.2679
G01 X82.6193 Y24.2294
G01 X82.6336 Y24.2218
G01 X82.7012 Y24.1898
G01 X82.7162 Y24.1836
G01 X82.7866 Y24.1584
G01 X82.8022 Y24.1537
G01 X82.8747 Y24.1355
G01 X82.8906 Y24.1323
G01 X82.9646 Y24.1213
G01 X82.9808 Y24.1198
G01 X83.0555 Y24.1161
G01 X83.0717 Y24.1161
G01 X83.1464 Y24.1198
G01 X83.1626 Y24.1213
G01 X83.2365 Y24.1323
G01 X83.2525 Y24.1355
G01 X83.3250 Y24.1537
G01 X83.3405 Y24.1584
G01 X83.4109 Y24.1836
G01 X83.4260 Y24.1898
G01 X83.4936 Y24.2218
G01 X83.5079 Y24.2294
G01 X83.5720 Y24.2679
G01 X83.5855 Y24.2769
G01 X83.6456 Y24.3214
G01 X83.6581 Y24.3317
G01 X83.7135 Y24.3819
G01 X83.7250 Y24.3934
G01 X83.7752 Y24.4488
G01 X83.7856 Y24.4614
G01 X83.8301 Y24.5215
G01 X83.8391 Y24.5350
G01 X83.8776 Y24.5991
G01 X83.8852 Y24.6134
G01 X83.9172 Y24.6810
G01 X83.9234 Y24.6960
G01 X83.9486 Y24.7664
G01 X83.9533 Y24.7820
G01 X83.9715 Y24.8545
G01 X83.9747 Y24.8704
G01 X83.9856 Y24.9444
G01 X83.9872 Y24.9606
G01 X83.9909 Y25.0353
G01 X83.9909 Y25.0515
G01 X83.9872 Y25.1262
G01 X83.9856 Y25.1424
G01 X83.9747 Y25.2163
G01 X83.9715 Y25.2323
G01 X83.9533 Y25.3048
G01 X83.9486 Y25.3203
G01 X83.9234 Y25.3907
G01 X83.9172 Y25.4057
G01 X83.8852 Y25.4733
G01 X83.8776 Y25.4877
G01 X83.8391 Y25.5518
G01 X83.8301 Y25.5653
G01 X83.7856 Y25.6254
G01 X83.7752 Y25.6379
G01 X83.7250 Y25.6933
G01 X83.7135 Y25.7048
G01 X83.6581 Y25.7550
G01 X83.6456 Y25.7653
G01 X83.5855 Y25.8099
G01 X83.5720 Y25.8189
G01 X83.5079 Y25.8574
G01 X83.4936 Y25.8650
G01 X83.4260 Y25.8970
G01 X83.4109 Y25.9032
G01 X83.3405 Y25.9284
G01 X83.3250 Y25.9331
G01 X83.2525 Y25.9513
G01 X83.2365 Y25.9544
G01 X83.1626 Y25.9654
G01 X83.1464 Y25.9670
G01 X83.0717 Y25.9707
G01 X83.0555 Y25.9707
G01 X82.9808 Y25.9670
G01 X82.9646 Y25.9654
G01 X82.8906 Y25.9544
G01 X82.8747 Y25.9513
G01 X82.8022 Y25.9331
G01 X82.7866 Y25.9284
G01 X82.7162 Y25.9032
G01 X82.7012 Y25.8970
G01 X82.6336 Y25.8650
G01 X82.6193 Y25.8574
G01 X82.5552 Y25.8189
G01 X82.5417 Y25.8099
G01 X82.4816 Y25.7653
G01 X82.4690 Y25.7550
G01 X82.4184 Y25.7091
G01 X76.1093 Y25.7091
G01 X76.1093 Y29.4782
G01 X76.1552 Y29.5288
G01 X76.1656 Y29.5414
G01 X76.2101 Y29.6015
G01 X76.2191 Y29.6150
G01 X76.2576 Y29.6791
G01 X76.2652 Y29.6934
G01 X76.2972 Y29.7610
G01 X76.3034 Y29.7760
G01 X76.3286 Y29.8464
G01 X76.3333 Y29.8620
G01 X76.3515 Y29.9345
G01 X76.3547 Y29.9504
G01 X76.3656 Y30.0244
G01 X76.3672 Y30.0406
G01 X76.3709 Y30.1153
G01 X76.3709 Y30.1315
G01 X76.3672 Y30.2062
G01 X76.3656 Y30.2224
G01 X76.3547 Y30.2963
G01 X76.3515 Y30.3123
G01 X76.3333 Y30.3848
G01 X76.3286 Y30.4003
G01 X76.3034 Y30.4707
G01 X76.2972 Y30.4857
G01 X76.2652 Y30.5533
G01 X76.2576 Y30.5677
G01 X76.2191 Y30.6318
G01 X76.2101 Y30.6453
G01 X76.1656 Y30.7054
G01 X76.1552 Y30.7179
G01 X76.1050 Y30.7733
G01 X76.0935 Y30.7848
G01 X76.0381 Y30.8350
G01 X76.0256 Y30.8453
G01 X75.9655 Y30.8899
G01 X75.9520 Y30.8989
G01 X75.8879 Y30.9374
G01 X75.8736 Y30.9450
G01 X75.8060 Y30.9770
G01 X75.7909 Y30.9832
G01 X75.7205 Y31.0084
G01 X75.7050 Y31.0131
G01 X75.6325 Y31.0313
G01 X75.6165 Y31.0344
G01 X75.5426 Y31.0454
G01 X75.5264 Y31.0470
G01 X75.4517 Y31.0507
G01 X75.4355 Y31.0507
G01 X75.3608 Y31.0470
G01 X75.3446 Y31.0454
G01 X75.2706 Y31.0344
G01 X75.2547 Y31.0313
G01 X75.1822 Y31.0131
G01 X75.1666 Y31.0084
G01 X75.0962 Y30.9832
G01 X75.0812 Y30.9770
G01 X75.0136 Y30.9450
G01 X74.9993 Y30.9374
G01 X74.9352 Y30.8989
G01 X74.9217 Y30.8899
G01 X74.8616 Y30.8453
G01 X74.8490 Y30.8350
G01 X74.7936 Y30.7848
G01 X74.7821 Y30.7733
G01 X74.7319 Y30.7179
G01 X74.7216 Y30.7054
G01 X74.6771 Y30.6453
G01 X74.6681 Y30.6318
G01 X74.6296 Y30.5677
G01 X74.6220 Y30.5533
G01 X74.5900 Y30.4857
G01 X74.5838 Y30.4707
G01 X74.5586 Y30.4003
G01 X74.5539 Y30.3848
G01 X74.5357 Y30.3123
G01 X74.5325 Y30.2963
G01 X74.5216 Y30.2224
G01 X74.5200 Y30.2062
G01 X74.5163 Y30.1315
G01 X74.5163 Y30.1153
G01 X74.5200 Y30.0406
G01 X74.5216 Y30.0244
G01 X74.5325 Y29.9504
G01 X74.5357 Y29.9345
G01 X74.5539 Y29.8620
G01 X74.5586 Y29.8464
G01 X74.5838 Y29.7760
G01 X74.5900 Y29.7610
G01 X74.6220 Y29.6934
G01 X74.6296 Y29.6791
G01 X74.6681 Y29.6150
G01 X74.6771 Y29.6015
G01 X74.7216 Y29.5414
G01 X74.7319 Y29.5288
G01 X74.7778 Y29.4782
G00 Z2.0000
G00 X76.8357 Y31.9976
G01 F60.00
G01 Z-0.2001
G01 F320.00
G01 X76.8577 Y31.9814
G01 X76.8712 Y31.9723
G01 X76.9268 Y31.9390
G01 X76.9411 Y31.9314
G01 X76.9997 Y31.9036
G01 X77.0147 Y31.8974
G01 X77.0757 Y31.8756
G01 X77.0913 Y31.8709
G01 X77.1541 Y31.8551
G01 X77.1701 Y31.8520
G01 X77.2342 Y31.8425
G01 X77.2503 Y31.8409
G01 X77.3151 Y31.8377
G01 X78.6521 Y31.8377
G01 X78.7168 Y31.8409
G01 X78.7330 Y31.8425
G01 X78.7971 Y31.8520
G01 X78.8130 Y31.8551
G01 X78.8759 Y31.8709
G01 X78.8914 Y31.8756
G01 X78.9525 Y31.8974
G01 X78.9675 Y31.9036
G01 X79.0261 Y31.9314
G01 X79.0404 Y31.9390
G01 X79.0960 Y31.9723
G01 X79.1095 Y31.9814
G01 X79.1615 Y32.0200
G01 X79.1741 Y32.0303
G01 X79.2221 Y32.0738
G01 X79.2336 Y32.0853
G01 X79.2771 Y32.1333
G01 X79.2874 Y32.1458
G01 X79.3260 Y32.1979
G01 X79.3350 Y32.2114
G01 X79.3684 Y32.2670
G01 X79.3760 Y32.2813
G01 X79.4037 Y32.3399
G01 X79.4099 Y32.3549
G01 X79.4318 Y32.4159
G01 X79.4365 Y32.4315
G01 X79.4522 Y32.4943
G01 X79.4554 Y32.5103
G01 X79.4649 Y32.5744
G01 X79.4665 Y32.5905
G01 X79.4697 Y32.6553
G01 X79.4697 Y32.6715
G01 X79.4665 Y32.7362
G01 X79.4649 Y32.7524
G01 X79.4554 Y32.8165
G01 X79.4522 Y32.8324
G01 X79.4365 Y32.8953
G01 X79.4318 Y32.9108
G01 X79.4099 Y32.9719
G01 X79.4037 Y32.9869
G01 X79.3760 Y33.0455
G01 X79.3684 Y33.0598
G01 X79.3350 Y33.1154
G01 X79.3260 Y33.1289
G01 X79.2874 Y33.1809
G01 X79.2771 Y33.1935
G01 X79.2336 Y33.2415
G01 X79.2221 Y33.2530
G01 X79.1741 Y33.2965
G01 X79.1615 Y33.3068
G01 X79.1095 Y33.3454
G01 X79.0960 Y33.3544
G01 X79.0404 Y33.3878
G01 X79.0261 Y33.3954
G01 X78.9675 Y33.4231
G01 X78.9525 Y33.4293
G01 X78.8914 Y33.4512
G01 X78.8759 Y33.4559
G01 X78.8130 Y33.4716
G01 X78.7971 Y33.4748
G01 X78.7330 Y33.4843
G01 X78.7168 Y33.4859
G01 X78.6440 Y33.4893
G01 X77.3232 Y33.4893
G01 X77.2503 Y33.4859
G01 X77.2342 Y33.4843
G01 X77.1701 Y33.4748
G01 X77.1541 Y33.4716
G01 X77.0913 Y33.4559
G01 X77.0757 Y33.4512
G01 X77.0147 Y33.4293
G01 X76.9997 Y33.4231
G01 X76.9411 Y33.3954
G01 X76.9268 Y33.3878
G01 X76.8712 Y33.3544
G01 X76.8577 Y33.3454
G01 X76.8357 Y33.3291
G01 X73.5693 Y33.3291
G01 X73.5693 Y52.3176
G01 X75.4436 Y52.3176
G01 X75.5007 Y52.3202
G01 X75.5169 Y52.3218
G01 X75.5655 Y52.3290
G01 X75.5814 Y52.3322
G01 X75.6290 Y52.3441
G01 X75.6446 Y52.3489
G01 X75.6908 Y52.3654
G01 X75.7058 Y52.3716
G01 X75.7502 Y52.3926
G01 X75.7645 Y52.4003
G01 X75.8066 Y52.4255
G01 X75.8201 Y52.4345
G01 X75.8595 Y52.4638
G01 X75.8721 Y52.4741
G01 X75.9085 Y52.5070
G01 X75.9199 Y52.5185
G01 X75.9529 Y52.5549
G01 X75.9632 Y52.5674
G01 X75.9925 Y52.6069
G01 X76.0015 Y52.6204
G01 X76.0267 Y52.6625
G01 X76.0344 Y52.6768
G01 X76.0554 Y52.7212
G01 X76.0616 Y52.7362
G01 X76.0781 Y52.7824
G01 X76.0828 Y52.7980
G01 X76.0948 Y52.8456
G01 X76.0979 Y52.8615
G01 X76.1051 Y52.9101
G01 X76.1067 Y52.9262
G01 X76.1091 Y52.9753
G01 X76.1093 Y57.3976
G01 X76.8357 Y57.3976
G01 X76.8577 Y57.3814
G01 X76.8712 Y57.3723
G01 X76.9268 Y57.3390
G01 X76.9411 Y57.3314
G01 X76.9997 Y57.3036
G01 X77.0147 Y57.2974
G01 X77.0757 Y57.2756
G01 X77.0913 Y57.2709
G01 X77.1541 Y57.2551
G01 X77.1701 Y57.2520
G01 X77.2342 Y57.2425
G01 X77.2503 Y57.2409
G01 X77.3232 Y57.2375
G01 X78.6440 Y57.2375
G01 X78.7168 Y57.2409
G01 X78.7330 Y57.2425
G01 X78.7971 Y57.2520
G01 X78.8130 Y57.2551
G01 X78.8759 Y57.2709
G01 X78.8914 Y57.2756
G01 X78.9525 Y57.2974
G01 X78.9675 Y57.3036
G01 X79.0261 Y57.3314
G01 X79.0404 Y57.3390
G01 X79.0960 Y57.3723
G01 X79.1095 Y57.3814
G01 X79.1615 Y57.4200
G01 X79.1741 Y57.4303
G01 X79.2221 Y57.4738
G01 X79.2336 Y57.4853
G01 X79.2771 Y57.5333
G01 X79.2874 Y57.5458
G01 X79.3260 Y57.5979
G01 X79.3350 Y57.6114
G01 X79.3684 Y57.6670
G01 X79.3760 Y57.6813
G01 X79.4037 Y57.7399
G01 X79.4099 Y57.7549
G01 X79.4318 Y57.8159
G01 X79.4365 Y57.8315
G01 X79.4522 Y57.8943
G01 X79.4554 Y57.9103
G01 X79.4649 Y57.9744
G01 X79.4665 Y57.9905
G01 X79.4697 Y58.0553
G01 X79.4697 Y58.0715
G01 X79.4665 Y58.1362
G01 X79.4649 Y58.1524
G01 X79.4554 Y58.2165
G01 X79.4522 Y58.2324
G01 X79.4365 Y58.2953
G01 X79.4318 Y58.3108
G01 X79.4099 Y58.3719
G01 X79.4037 Y58.3869
G01 X79.3760 Y58.4455
G01 X79.3684 Y58.4598
G01 X79.3350 Y58.5154
G01 X79.3260 Y58.5289
G01 X79.2874 Y58.5809
G01 X79.2771 Y58.5935
G01 X79.2336 Y58.6415
G01 X79.2221 Y58.6530
G01 X79.1741 Y58.6965
G01 X79.1615 Y58.7068
G01 X79.1095 Y58.7454
G01 X79.0960 Y58.7544
G01 X79.0404 Y58.7878
G01 X79.0261 Y58.7954
G01 X78.9675 Y58.8231
G01 X78.9525 Y58.8293
G01 X78.8914 Y58.8512
G01 X78.8759 Y58.8559
G01 X78.8130 Y58.8716
G01 X78.7971 Y58.8748
G01 X78.7330 Y58.8843
G01 X78.7168 Y58.8859
G01 X78.6440 Y58.8893
G01 X77.3232 Y58.8893
G01 X77.2503 Y58.8859
G01 X77.2342 Y58.8843
G01 X77.1701 Y58.8748
G01 X77.1541 Y58.8716
G01 X77.0913 Y58.8559
G01 X77.0757 Y58.8512
G01 X77.0147 Y58.8293
G01 X76.9997 Y58.8231
G01 X76.9411 Y58.7954
G01 X76.9268 Y58.7878
G01 X76.8712 Y58.7544
G01 X76.8577 Y58.7454
G01 X76.8357 Y58.7291
G01 X75.4436 Y58.7291
G01 X75.3864 Y58.7265
G01 X75.3703 Y58.7249
G01 X75.3217 Y58.7177
G01 X75.3058 Y58.7146
G01 X75.2582 Y58.7026
G01 X75.2426 Y58.6979
G01 X75.1964 Y58.6814
G01 X75.1814 Y58.6752
G01 X75.1370 Y58.6542
G01 X75.1227 Y58.6465
G01 X75.0806 Y58.6213
G01 X75.0671 Y58.6123
G01 X75.0276 Y58.5830
G01 X75.0151 Y58.5727
G01 X74.9787 Y58.5397
G01 X74.9672 Y58.5283
G01 X74.9343 Y58.4919
G01 X74.9240 Y58.4793
G01 X74.8947 Y58.4399
G01 X74.8857 Y58.4264
G01 X74.8605 Y58.3843
G01 X74.8528 Y58.3700
G01 X74.8318 Y58.3256
G01 X74.8256 Y58.3106
G01 X74.8091 Y58.2644
G01 X74.8043 Y58.2488
G01 X74.7924 Y58.2012
G01 X74.7892 Y58.1853
G01 X74.7820 Y58.1367
G01 X74.7804 Y58.1205
G01 X74.7780 Y58.0715
G01 X74.7778 Y53.6491
G01 X72.9036 Y53.6491
G01 X72.8464 Y53.6465
G01 X72.8303 Y53.6449
G01 X72.7817 Y53.6377
G01 X72.7658 Y53.6346
G01 X72.7182 Y53.6226
G01 X72.7026 Y53.6179
G01 X72.6564 Y53.6014
G01 X72.6414 Y53.5952
G01 X72.5970 Y53.5742
G01 X72.5827 Y53.5665
G01 X72.5406 Y53.5413
G01 X72.5271 Y53.5323
G01 X72.4876 Y53.5030
G01 X72.4751 Y53.4927
G01 X72.4387 Y53.4597
G01 X72.4272 Y53.4483
G01 X72.3943 Y53.4119
G01 X72.3840 Y53.3993
G01 X72.3547 Y53.3599
G01 X72.3457 Y53.3464
G01 X72.3205 Y53.3043
G01 X72.3128 Y53.2900
G01 X72.2918 Y53.2456
G01 X72.2856 Y53.2306
G01 X72.2691 Y53.1844
G01 X72.2643 Y53.1688
G01 X72.2524 Y53.1212
G01 X72.2492 Y53.1053
G01 X72.2420 Y53.0567
G01 X72.2404 Y53.0405
G01 X72.2378 Y52.9834
G01 X72.2378 Y32.6634
G01 X72.2404 Y32.6062
G01 X72.2420 Y32.5901
G01 X72.2492 Y32.5415
G01 X72.2524 Y32.5256
G01 X72.2643 Y32.4780
G01 X72.2691 Y32.4624
G01 X72.2856 Y32.4162
G01 X72.2918 Y32.4012
G01 X72.3128 Y32.3568
G01 X72.3205 Y32.3425
G01 X72.3457 Y32.3004
G01 X72.3547 Y32.2869
G01 X72.3840 Y32.2474
G01 X72.3943 Y32.2349
G01 X72.4272 Y32.1985
G01 X72.4387 Y32.1870
G01 X72.4751 Y32.1541
G01 X72.4876 Y32.1438
G01 X72.5271 Y32.1145
G01 X72.5406 Y32.1055
G01 X72.5827 Y32.0803
G01 X72.5970 Y32.0726
G01 X72.6414 Y32.0516
G01 X72.6564 Y32.0454
G01 X72.7026 Y32.0289
G01 X72.7182 Y32.0241
G01 X72.7658 Y32.0122
G01 X72.7817 Y32.0090
G01 X72.8303 Y32.0018
G01 X72.8464 Y32.0002
G01 X72.9036 Y31.9976
G01 X76.8357 Y31.9976
G00 Z2.0000
G00 X83.7240 Y31.8375
G01 F60.00
G01 Z-0.2001
G01 F320.00
G01 X83.7968 Y31.8409
G01 X83.8130 Y31.8425
G01 X83.8771 Y31.8520
G01 X83.8930 Y31.8551
G01 X83.9559 Y31.8709
G01 X83.9714 Y31.8756
G01 X84.0325 Y31.8974
G01 X84.0475 Y31.9036
G01 X84.1061 Y31.9314
G01 X84.1204 Y31.9390
G01 X84.1760 Y31.9723
G01 X84.1895 Y31.9814
G01 X84.2415 Y32.0200
G01 X84.2541 Y32.0303
G01 X84.3021 Y32.0738
G01 X84.3136 Y32.0853
G01 X84.3571 Y32.1333
G01 X84.3674 Y32.1458
G01 X84.4060 Y32.1979
G01 X84.4150 Y32.2114
G01 X84.4484 Y32.2670
G01 X84.4560 Y32.2813
G01 X84.4837 Y32.3399
G01 X84.4899 Y32.3549
G01 X84.5118 Y32.4159
G01 X84.5165 Y32.4315
G01 X84.5322 Y32.4943
G01 X84.5354 Y32.5103
G01 X84.5449 Y32.5744
G01 X84.5465 Y32.5905
G01 X84.5497 Y32.6553
G01 X84.5497 Y32.6715
G01 X84.5465 Y32.7362
G01 X84.5449 Y32.7524
G01 X84.5354 Y32.8165
G01 X84.5322 Y32.8324
G01 X84.5165 Y32.8953
G01 X84.5118 Y32.9108
G01 X84.4899 Y32.9719
G01 X84.4837 Y32.9869
G01 X84.4560 Y33.0455
G01 X84.4484 Y33.0598
G01 X84.4150 Y33.1154
G01 X84.4060 Y33.1289
G01 X84.3674 Y33.1809
G01 X84.3571 Y33.1935
G01 X84.3136 Y33.2415
G01 X84.3021 Y33.2530
G01 X84.2541 Y33.2965
G01 X84.2415 Y33.3068
G01 X84.1895 Y33.3454
G01 X84.1760 Y33.3544
G01 X84.1204 Y33.3878
G01 X84.1061 Y33.3954
G01 X84.0475 Y33.4231
G01 X84.0325 Y33.4293
G01 X83.9714 Y33.4512
G01 X83.9559 Y33.4559
G01 X83.8930 Y33.4716
G01 X83.8771 Y33.4748
G01 X83.8130 Y33.4843
G01 X83.7968 Y33.4859
G01 X83.7240 Y33.4893
G01 X82.4032 Y33.4893
G01 X82.3303 Y33.4859
G01 X82.3142 Y33.4843
G01 X82.2501 Y33.4748
G01 X82.2341 Y33.4716
G01 X82.1713 Y33.4559
G01 X82.1557 Y33.4512
G01 X82.0947 Y33.4293
G01 X82.0797 Y33.4231
G01 X82.0211 Y33.3954
G01 X82.0068 Y33.3878
G01 X81.9512 Y33.3544
G01 X81.9377 Y33.3454
G01 X81.8856 Y33.3068
G01 X81.8731 Y33.2965
G01 X81.8251 Y33.2530
G01 X81.8136 Y33.2415
G01 X81.7701 Y33.1935
G01 X81.7598 Y33.1809
G01 X81.7212 Y33.1289
G01 X81.7121 Y33.1154
G01 X81.6788 Y33.0598
G01 X81.6712 Y33.0455
G01 X81.6435 Y32.9869
G01 X81.6372 Y32.9719
G01 X81.6154 Y32.9108
G01 X81.6107 Y32.8953
G01 X81.5949 Y32.8324
G01 X81.5918 Y32.8165
G01 X81.5823 Y32.7524
G01 X81.5807 Y32.7362
G01 X81.5775 Y32.6715
G01 X81.5775 Y32.6553
G01 X81.5807 Y32.5905
G01 X81.5823 Y32.5744
G01 X81.5918 Y32.5103
G01 X81.5949 Y32.4943
G01 X81.6107 Y32.4315
G01 X81.6154 Y32.4159
G01 X81.6372 Y32.3549
G01 X81.6435 Y32.3399
G01 X81.6712 Y32.2813
G01 X81.6788 Y32.2670
G01 X81.7121 Y32.2114
G01 X81.7212 Y32.1979
G01 X81.7598 Y32.1458
G01 X81.7701 Y32.1333
G01 X81.8136 Y32.0853
G01 X81.8251 Y32.0738
G01 X81.8731 Y32.0303
G01 X81.8856 Y32.0200
G01 X81.9377 Y31.9814
G01 X81.9512 Y31.9723
G01 X82.0068 Y31.9390
G01 X82.0211 Y31.9314
G01 X82.0797 Y31.9036
G01 X82.0947 Y31.8974
G01 X82.1557 Y31.8756
G01 X82.1713 Y31.8709
G01 X82.2341 Y31.8551
G01 X82.2501 Y31.8520
G01 X82.3142 Y31.8425
G01 X82.3303 Y31.8409
G01 X82.4032 Y31.8375
G01 X83.7240 Y31.8375
G00 Z2.0000
G00 X87.4778 Y29.4782
G01 F60.00
G01 Z-0.2001
G01 F320.00
G01 X87.4778 Y23.1486
G01 X87.4319 Y23.0979
G01 X87.4216 Y23.0854
G01 X87.3771 Y23.0253
G01 X87.3681 Y23.0118
G01 X87.3296 Y22.9477
G01 X87.3220 Y22.9333
G01 X87.2900 Y22.8657
G01 X87.2838 Y22.8507
G01 X87.2586 Y22.7803
G01 X87.2539 Y22.7648
G01 X87.2357 Y22.6923
G01 X87.2325 Y22.6763
G01 X87.2216 Y22.6024
G01 X87.2200 Y22.5862
G01 X87.2163 Y22.5115
G01 X87.2163 Y22.4953
G01 X87.2200 Y22.4206
G01 X87.2216 Y22.4044
G01 X87.2325 Y22.3304
G01 X87.2357 Y22.3145
G01 X87.2539 Y22.2420
G01 X87.2586 Y22.2264
G01 X87.2838 Y22.1560
G01 X87.2900 Y22.1410
G01 X87.3220 Y22.0734
G01 X87.3296 Y22.0591
G01 X87.3681 Y21.9950
G01 X87.3771 Y21.9815
G01 X87.4216 Y21.9214
G01 X87.4319 Y21.9088
G01 X87.4821 Y21.8534
G01 X87.4936 Y21.8419
G01 X87.5490 Y21.7917
G01 X87.5616 Y21.7814
G01 X87.6217 Y21.7369
G01 X87.6352 Y21.7279
G01 X87.6993 Y21.6894
G01 X87.7136 Y21.6818
G01 X87.7812 Y21.6498
G01 X87.7962 Y21.6436
G01 X87.8666 Y21.6184
G01 X87.8822 Y21.6137
G01 X87.9547 Y21.5955
G01 X87.9706 Y21.5923
G01 X88.0446 Y21.5813
G01 X88.0608 Y21.5798
G01 X88.1355 Y21.5761
G01 X88.1517 Y21.5761
G01 X88.2264 Y21.5798
G01 X88.2426 Y21.5813
G01 X88.3165 Y21.5923
G01 X88.3325 Y21.5955
G01 X88.4050 Y21.6137
G01 X88.4205 Y21.6184
G01 X88.4909 Y21.6436
G01 X88.5060 Y21.6498
G01 X88.5736 Y21.6818
G01 X88.5879 Y21.6894
G01 X88.6520 Y21.7279
G01 X88.6655 Y21.7369
G01 X88.7256 Y21.7814
G01 X88.7381 Y21.7917
G01 X88.7888 Y21.8376
G01 X90.0384 Y21.8376
G01 X90.0890 Y21.7917
G01 X90.1016 Y21.7814
G01 X90.1617 Y21.7369
G01 X90.1752 Y21.7279
G01 X90.2393 Y21.6894
G01 X90.2536 Y21.6818
G01 X90.3212 Y21.6498
G01 X90.3362 Y21.6436
G01 X90.4066 Y21.6184
G01 X90.4222 Y21.6137
G01 X90.4947 Y21.5955
G01 X90.5106 Y21.5923
G01 X90.5846 Y21.5813
G01 X90.6008 Y21.5798
G01 X90.6755 Y21.5761
G01 X90.6917 Y21.5761
G01 X90.7664 Y21.5798
G01 X90.7826 Y21.5813
G01 X90.8565 Y21.5923
G01 X90.8725 Y21.5955
G01 X90.9450 Y21.6137
G01 X90.9605 Y21.6184
G01 X91.0309 Y21.6436
G01 X91.0460 Y21.6498
G01 X91.1136 Y21.6818
G01 X91.1279 Y21.6894
G01 X91.1920 Y21.7279
G01 X91.2055 Y21.7369
G01 X91.2656 Y21.7814
G01 X91.2781 Y21.7917
G01 X91.3335 Y21.8419
G01 X91.3450 Y21.8534
G01 X91.3952 Y21.9088
G01 X91.4056 Y21.9214
G01 X91.4501 Y21.9815
G01 X91.4591 Y21.9950
G01 X91.4976 Y22.0591
G01 X91.5052 Y22.0734
G01 X91.5372 Y22.1410
G01 X91.5434 Y22.1560
G01 X91.5686 Y22.2264
G01 X91.5733 Y22.2420
G01 X91.5915 Y22.3145
G01 X91.5947 Y22.3304
G01 X91.6056 Y22.4044
G01 X91.6072 Y22.4206
G01 X91.6109 Y22.4953
G01 X91.6109 Y22.5115
G01 X91.6072 Y22.5862
G01 X91.6056 Y22.6024
G01 X91.5947 Y22.6763
G01 X91.5915 Y22.6923
G01 X91.5733 Y22.7648
G01 X91.5686 Y22.7803
G01 X91.5434 Y22.8507
G01 X91.5372 Y22.8657
G01 X91.5052 Y22.9333
G01 X91.4976 Y22.9477
G01 X91.4591 Y23.0118
G01 X91.4501 Y23.0253
G01 X91.4056 Y23.0854
G01 X91.3952 Y23.0979
G01 X91.3450 Y23.1533
G01 X91.3335 Y23.1648
G01 X91.2781 Y23.2150
G01 X91.2656 Y23.2253
G01 X91.2055 Y23.2699
G01 X91.1920 Y23.2789
G01 X91.1279 Y23.3174
G01 X91.1136 Y23.3250
G01 X91.0460 Y23.3570
G01 X91.0309 Y23.3632
G01 X90.9605 Y23.3884
G01 X90.9450 Y23.3931
G01 X90.8725 Y23.4113
G01 X90.8565 Y23.4144
G01 X90.7826 Y23.4254
G01 X90.7664 Y23.4270
G01 X90.6917 Y23.4307
G01 X90.6755 Y23.4307
G01 X90.6008 Y23.4270
G01 X90.5846 Y23.4254
G01 X90.5106 Y23.4144
G01 X90.4947 Y23.4113
G01 X90.4222 Y23.3931
G01 X90.4066 Y23.3884
G01 X90.3362 Y23.3632
G01 X90.3212 Y23.3570
G01 X90.2536 Y23.3250
G01 X90.2393 Y23.3174
G01 X90.1752 Y23.2789
G01 X90.1617 Y23.2699
G01 X90.1016 Y23.2253
G01 X90.0890 Y23.2150
G01 X90.0384 Y23.1691
G01 X88.8093 Y23.1691
G01 X88.8093 Y24.3776
G01 X95.1184 Y24.3776
G01 X95.1690 Y24.3317
G01 X95.1816 Y24.3214
G01 X95.2417 Y24.2769
G01 X95.2552 Y24.2679
G01 X95.3193 Y24.2294
G01 X95.3336 Y24.2218
G01 X95.4012 Y24.1898
G01 X95.4162 Y24.1836
G01 X95.4866 Y24.1584
G01 X95.5022 Y24.1537
G01 X95.5747 Y24.1355
G01 X95.5906 Y24.1323
G01 X95.6646 Y24.1213
G01 X95.6808 Y24.1198
G01 X95.7555 Y24.1161
G01 X95.7717 Y24.1161
G01 X95.8464 Y24.1198
G01 X95.8626 Y24.1213
G01 X95.9365 Y24.1323
G01 X95.9525 Y24.1355
G01 X96.0250 Y24.1537
G01 X96.0405 Y24.1584
G01 X96.1109 Y24.1836
G01 X96.1260 Y24.1898
G01 X96.1936 Y24.2218
G01 X96.2079 Y24.2294
G01 X96.2720 Y24.2679
G01 X96.2855 Y24.2769
G01 X96.3456 Y24.3214
G01 X96.3581 Y24.3317
G01 X96.4135 Y24.3819
G01 X96.4250 Y24.3934
G01 X96.4752 Y24.4488
G01 X96.4856 Y24.4614
G01 X96.5301 Y24.5215
G01 X96.5391 Y24.5350
G01 X96.5776 Y24.5991
G01 X96.5852 Y24.6134
G01 X96.6172 Y24.6810
G01 X96.6234 Y24.6960
G01 X96.6486 Y24.7664
G01 X96.6533 Y24.7820
G01 X96.6715 Y24.8545
G01 X96.6747 Y24.8704
G01 X96.6856 Y24.9444
G01 X96.6872 Y24.9606
G01 X96.6909 Y25.0353
G01 X96.6909 Y25.0515
G01 X96.6872 Y25.1262
G01 X96.6856 Y25.1424
G01 X96.6747 Y25.2163
G01 X96.6715 Y25.2323
G01 X96.6533 Y25.3048
G01 X96.6486 Y25.3203
G01 X96.6234 Y25.3907
G01 X96.6172 Y25.4057
G01 X96.5852 Y25.4733
G01 X96.5776 Y25.4877
G01 X96.5391 Y25.5518
G01 X96.5301 Y25.5653
G01 X96.4856 Y25.6254
G01 X96.4752 Y25.6379
G01 X96.4250 Y25.6933
G01 X96.4135 Y25.7048
G01 X96.3581 Y25.7550
G01 X96.3456 Y25.7653
G01 X96.2855 Y25.8099
G01 X96.2720 Y25.8189
G01 X96.2079 Y25.8574
G01 X96.1936 Y25.8650
G01 X96.1260 Y25.8970
G01 X96.1109 Y25.9032
G01 X96.0405 Y25.9284
G01 X96.0250 Y25.9331
G01 X95.9525 Y25.9513
G01 X95.9365 Y25.9544
G01 X95.8626 Y25.9654
G01 X95.8464 Y25.9670
G01 X95.7717 Y25.9707
G01 X95.7555 Y25.9707
G01 X95.6808 Y25.9670
G01 X95.6646 Y25.9654
G01 X95.5906 Y25.9544
G01 X95.5747 Y25.9513
G01 X95.5022 Y25.9331
G01 X95.4866 Y25.9284
G01 X95.4162 Y25.9032
G01 X95.4012 Y25.8970
G01 X95.3336 Y25.8650
G01 X95.3193 Y25.8574
G01 X95.2552 Y25.8189
G01 X95.2417 Y25.8099
G01 X95.1816 Y25.7653
G01 X95.1690 Y25.7550
G01 X95.1184 Y25.7091
G01 X88.8093 Y25.7091
G01 X88.8093 Y29.4782
G01 X88.8552 Y29.5288
G01 X88.8656 Y29.5414
G01 X88.9101 Y29.6015
G01 X88.9191 Y29.6150
G01 X88.9576 Y29.6791
G01 X88.9652 Y29.6934
G01 X88.9972 Y29.7610
G01 X89.0034 Y29.7760
G01 X89.0286 Y29.8464
G01 X89.0333 Y29.8620
G01 X89.0515 Y29.9345
G01 X89.0547 Y29.9504
G01 X89.0656 Y30.0244
G01 X89.0672 Y30.0406
G01 X89.0709 Y30.1153
G01 X89.0709 Y30.1315
G01 X89.0672 Y30.2062
G01 X89.0656 Y30.2224
G01 X89.0547 Y30.2963
G01 X89.0515 Y30.3123
G01 X89.0333 Y30.3848
G01 X89.0286 Y30.4003
G01 X89.0034 Y30.4707
G01 X88.9972 Y30.4857
G01 X88.9652 Y30.5533
G01 X88.9576 Y30.5677
G01 X88.9191 Y30.6318
G01 X88.9101 Y30.6453
G01 X88.8656 Y30.7054
G01 X88.8552 Y30.7179
G01 X88.8050 Y30.7733
G01 X88.7935 Y30.7848
G01 X88.7381 Y30.8350
G01 X88.7256 Y30.8453
G01 X88.6655 Y30.8899
G01 X88.6520 Y30.8989
G01 X88.5879 Y30.9374
G01 X88.5736 Y30.9450
G01 X88.5060 Y30.9770
G01 X88.4909 Y30.9832
G01 X88.4205 Y31.0084
G01 X88.4050 Y31.0131
G01 X88.3325 Y31.0313
G01 X88.3165 Y31.0344
G01 X88.2426 Y31.0454
G01 X88.2264 Y31.0470
G01 X88.1517 Y31.0507
G01 X88.1355 Y31.0507
G01 X88.0608 Y31.0470
G01 X88.0446 Y31.0454
G01 X87.9706 Y31.0344
G01 X87.9547 Y31.0313
G01 X87.8822 Y31.0131
G01 X87.8666 Y31.0084
G01 X87.7962 Y30.9832
G01 X87.7812 Y30.9770
G01 X87.7136 Y30.9450
G01 X87.6993 Y30.9374
G01 X87.6352 Y30.8989
G01 X87.6217 Y30.8899
G01 X87.5616 Y30.8453
G01 X87.5490 Y30.8350
G01 X87.4936 Y30.7848
G01 X87.4821 Y30.7733
G01 X87.4319 Y30.7179
G01 X87.4216 Y30.7054
G01 X87.3771 Y30.6453
G01 X87.3681 Y30.6318
G01 X87.3296 Y30.5677
G01 X87.3220 Y30.5533
G01 X87.2900 Y30.4857
G01 X87.2838 Y30.4707
G01 X87.2586 Y30.4003
G01 X87.2539 Y30.3848
G01 X87.2357 Y30.3123
G01 X87.2325 Y30.2963
G01 X87.2216 Y30.2224
G01 X87.2200 Y30.2062
G01 X87.2163 Y30.1315
G01 X87.2163 Y30.1153
G01 X87.2200 Y30.0406
G01 X87.2216 Y30.0244
G01 X87.2325 Y29.9504
G01 X87.2357 Y29.9345
G01 X87.2539 Y29.8620
G01 X87.2586 Y29.8464
G01 X87.2838 Y29.7760
G01 X87.2900 Y29.7610
G01 X87.3220 Y29.6934
G01 X87.3296 Y29.6791
G01 X87.3681 Y29.6150
G01 X87.3771 Y29.6015
G01 X87.4216 Y29.5414
G01 X87.4319 Y29.5288
G01 X87.4778 Y29.4782
G00 Z2.0000
G00 X89.5357 Y31.9976
G01 F60.00
G01 Z-0.2001
G01 F320.00
G01 X89.5577 Y31.9814
G01 X89.5712 Y31.9723
G01 X89.6268 Y31.9390
G01 X89.6411 Y31.9314
G01 X89.6997 Y31.9036
G01 X89.7147 Y31.8974
G01 X89.7757 Y31.8756
G01 X89.7913 Y31.8709
G01 X89.8541 Y31.8551
G01 X89.8701 Y31.8520
G01 X89.9342 Y31.8425
G01 X89.9503 Y31.8409
G01 X90.0151 Y31.8377
G01 X91.3521 Y31.8377
G01 X91.4168 Y31.8409
G01 X91.4330 Y31.8425
G01 X91.4971 Y31.8520
G01 X91.5130 Y31.8551
G01 X91.5759 Y31.8709
G01 X91.5914 Y31.8756
G01 X91.6525 Y31.8974
G01 X91.6675 Y31.9036
G01 X91.7261 Y31.9314
G01 X91.7404 Y31.9390
G01 X91.7960 Y31.9723
G01 X91.8095 Y31.9814
G01 X91.8615 Y32.0200
G01 X91.8741 Y32.0303
G01 X91.9221 Y32.0738
G01 X91.9336 Y32.0853
G01 X91.9771 Y32.1333
G01 X91.9874 Y32.1458
G01 X92.0260 Y32.1979
G01 X92.0350 Y32.2114
G01 X92.0684 Y32.2670
G01 X92.0760 Y32.2813
G01 X92.1037 Y32.3399
G01 X92.1099 Y32.3549
G01 X92.1318 Y32.4159
G01 X92.1365 Y32.4315
G01 X92.1522 Y32.4943
G01 X92.1554 Y32.5103
G01 X92.1649 Y32.5744
G01 X92.1665 Y32.5905
G01 X92.1697 Y32.6553
G01 X92.1697 Y32.6715
G01 X92.1665 Y32.7362
G01 X92.1649 Y32.7524
G01 X92.1554 Y32.8165
G01 X92.1522 Y32.8324
G01 X92.1365 Y32.8953
G01 X92.1318 Y32.9108
G01 X92.1099 Y32.9719
G01 X92.1037 Y32.9869
G01 X92.0760 Y33.0455
G01 X92.0684 Y33.0598
G01 X92.0350 Y33.1154
G01 X92.0260 Y33.1289
G01 X91.9874 Y33.1809
G01 X91.9771 Y33.1935
G01 X91.9336 Y33.2415
G01 X91.9221 Y33.2530
G01 X91.8741 Y33.2965
G01 X91.8615 Y33.3068
G01 X91.8095 Y33.3454
G01 X91.7960 Y33.3544
G01 X91.7404 Y33.3878
G01 X91.7261 Y33.3954
G01 X91.6675 Y33.4231
G01 X91.6525 Y33.4293
G01 X91.5914 Y33.4512
G01 X91.5759 Y33.4559
G01 X91.5130 Y33.4716
G01 X91.4971 Y33.4748
G01 X91.4330 Y33.4843
G01 X91.4168 Y33.4859
G01 X91.3440 Y33.4893
G01 X90.0232 Y33.4893
G01 X89.9503 Y33.4859
G01 X89.9342 Y33.4843
G01 X89.8701 Y33.4748
G01 X89.8541 Y33.4716
G01 X89.7913 Y33.4559
G01 X89.7757 Y33.4512
G01 X89.7147 Y33.4293
G01 X89.6997 Y33.4231
G01 X89.6411 Y33.3954
G01 X89.6268 Y33.3878
G01 X89.5712 Y33.3544
G01 X89.5577 Y33.3454
G01 X89.5357 Y33.3291
G01 X86.2693 Y33.3291
G01 X86.2693 Y52.3176
G01 X88.1436 Y52.3176
G01 X88.2007 Y52.3202
G01 X88.2169 Y52.3218
G01 X88.2655 Y52.3290
G01 X88.2814 Y52.3322
G01 X88.3290 Y52.3441
G01 X88.3446 Y52.3489
G01 X88.3908 Y52.3654
G01 X88.4058 Y52.3716
G01 X88.4502 Y52.3926
G01 X88.4645 Y52.4003
G01 X88.5066 Y52.4255
G01 X88.5201 Y52.4345
G01 X88.5595 Y52.4638
G01 X88.5721 Y52.4741
G01 X88.6085 Y52.5070
G01 X88.6199 Y52.5185
G01 X88.6529 Y52.5549
G01 X88.6632 Y52.5674
G01 X88.6925 Y52.6069
G01 X88.7015 Y52.6204
G01 X88.7267 Y52.6625
G01 X88.7344 Y52.6768
G01 X88.7554 Y52.7212
G01 X88.7616 Y52.7362
G01 X88.7781 Y52.7824
G01 X88.7828 Y52.7980
G01 X88.7948 Y52.8456
G01 X88.7979 Y52.8615
G01 X88.8051 Y52.9101
G01 X88.8067 Y52.9262
G01 X88.8091 Y52.9753
G01 X88.8093 Y57.3976
G01 X89.5357 Y57.3976
G01 X89.5577 Y57.3814
G01 X89.5712 Y57.3723
G01 X89.6268 Y57.3390
G01 X89.6411 Y57.3314
G01 X89.6997 Y57.3036
G01 X89.7147 Y57.2974
G01 X89.7757 Y57.2756
G01 X89.7913 Y57.2709
G01 X89.8541 Y57.2551
G01 X89.8701 Y57.2520
G01 X89.9342 Y57.2425
G01 X89.9503 Y57.2409
G01 X90.0232 Y57.2375
G01 X91.3440 Y57.2375
G01 X91.4168 Y57.2409
G01 X91.4330 Y57.2425
G01 X91.4971 Y57.2520
G01 X91.5130 Y57.2551
G01 X91.5759 Y57.2709
G01 X91.5914 Y57.2756
G01 X91.6525 Y57.2974
G01 X91.6675 Y57.3036
G01 X91.7261 Y57.3314
G01 X91.7404 Y57.3390
G01 X91.7960 Y57.3723
G01 X91.8095 Y57.3814
G01 X91.8615 Y57.4200
G01 X91.8741 Y57.4303
G01 X91.9221 Y57.4738
G01 X91.9336 Y57.4853
G01 X91.9771 Y57.5333
G01 X91.9874 Y57.5458
G01 X92.0260 Y57.5979
G01 X92.0350 Y57.6114
G01 X92.0684 Y57.6670
G01 X92.0760 Y57.6813
G01 X92.1037 Y57.7399
G01 X92.1099 Y57.7549
G01 X92.1318 Y57.8159
G01 X92.1365 Y57.8315
G01 X92.1522 Y57.8943
G01 X92.1554 Y57.9103
G01 X92.1649 Y57.9744
G01 X92.1665 Y57.9905
G01 X92.1697 Y58.0553
G01 X92.1697 Y58.0715
G01 X92.1665 Y58.1362
G01 X92.1649 Y58.1524
G01 X92.1554 Y58.2165
G01 X92.1522 Y58.2324
G01 X92.1365 Y58.2953
G01 X92.1318 Y58.3108
G01 X92.1099 Y58.3719
G01 X92.1037 Y58.3869
G01 X92.0760 Y58.4455
G01 X92.0684 Y58.4598
G01 X92.0350 Y58.5154
G01 X92.0260 Y58.5289
G01 X91.9874 Y58.5809
G01 X91.9771 Y58.5935
G01 X91.9336 Y58.6415
G01 X91.9221 Y58.6530
G01 X91.8741 Y58.6965
G01 X91.8615 Y58.7068
G01 X91.8095 Y58.7454
G01 X91.7960 Y58.7544
G01 X91.7404 Y58.7878
G01 X91.7261 Y58.7954
G01 X91.6675 Y58.8231
G01 X91.6525 Y58.8293
G01 X91.5914 Y58.8512
G01 X91.5759 Y58.8559
G01 X91.5130 Y58.8716
G01 X91.4971 Y58.8748
G01 X91.4330 Y58.8843
G01 X91.4168 Y58.8859
G01 X91.3440 Y58.8893
G01 X90.0232 Y58.8893
G01 X89.9503 Y58.8859
G01 X89.9342 Y58.8843
G01 X89.8701 Y58.8748
G01 X89.8541 Y58.8716
G01 X89.7913 Y58.8559
G01 X89.7757 Y58.8512
G01 X89.7147 Y58.8293
G01 X89.6997 Y58.8231
G01 X89.6411 Y58.7954
G01 X89.6268 Y58.7878
G01 X89.5712 Y58.7544
G01 X89.5577 Y58.7454
G01 X89.5357 Y58.7291
G01 X88.1436 Y58.7291
G01 X88.0864 Y58.7265
G01 X88.0703 Y58.7249
G01 X88.0217 Y58.7177
G01 X88.0058 Y58.7146
G01 X87.9582 Y58.7026
G01 X87.9426 Y58.6979
G01 X87.8964 Y58.6814
G01 X87.8814 Y58.6752
G01 X87.8370 Y58.6542
G01 X87.8227 Y58.6465
G01 X87.7806 Y58.6213
G01 X87.7671 Y58.6123
G01 X87.7276 Y58.5830
G01 X87.7151 Y58.5727
G01 X87.6787 Y58.5397
G01 X87.6672 Y58.5283
G01 X87.6343 Y58.4919
G01 X87.6240 Y58.4793
G01 X87.5947 Y58.4399
G01 X87.5857 Y58.4264
G01 X87.5605 Y58.3843
G01 X87.5528 Y58.3700
G01 X87.5318 Y58.3256
G01 X87.5256 Y58.3106
G01 X87.5091 Y58.2644
G01 X87.5043 Y58.2488
G01 X87.4924 Y58.2012
G01 X87.4892 Y58.1853
G01 X87.4820 Y58.1367
G01 X87.4804 Y58.1205
G01 X87.4780 Y58.0715
G01 X87.4778 Y53.6491
G01 X85.6036 Y53.6491
G01 X85.5464 Y53.6465
G01 X85.5303 Y53.6449
G01 X85.4817 Y53.6377
G01 X85.4658 Y53.6346
G01 X85.4182 Y53.6226
G01 X85.4026 Y53.6179
G01 X85.3564 Y53.6014
G01 X85.3414 Y53.5952
G01 X85.2970 Y53.5742
G01 X85.2827 Y53.5665
G01 X85.2406 Y53.5413
G01 X85.2271 Y53.5323
G01 X85.1876 Y53.5030
G01 X85.1751 Y53.4927
G01 X85.1387 Y53.4597
G01 X85.1272 Y53.4483
G01 X85.0943 Y53.4119
G01 X85.0840 Y53.3993
G01 X85.0547 Y53.3599
G01 X85.0457 Y53.3464
G01 X85.0205 Y53.3043
G01 X85.0128 Y53.2900
G01 X84.9918 Y53.2456
G01 X84.9856 Y53.2306
G01 X84.9691 Y53.1844
G01 X84.9643 Y53.1688
G01 X84.9524 Y53.1212
G01 X84.9492 Y53.1053
G01 X84.9420 Y53.0567
G01 X84.9404 Y53.0405
G01 X84.9378 Y52.9834
G01 X84.9378 Y32.6634
G01 X84.9404 Y32.6062
G01 X84.9420 Y32.5901
G01 X84.9492 Y32.5415
G01 X84.9524 Y32.5256
G01 X84.9643 Y32.4780
G01 X84.9691 Y32.4624
G01 X84.9856 Y32.4162
G01 X84.9918 Y32.4012
G01 X85.0128 Y32.3568
G01 X85.0205 Y32.3425
G01 X85.0457 Y32.3004
G01 X85.0547 Y32.2869
G01 X85.0840 Y32.2474
G01 X85.0943 Y32.2349
G01 X85.1272 Y32.1985
G01 X85.1387 Y32.1870
G01 X85.1751 Y32.1541
G01 X85.1876 Y32.1438
G01 X85.2271 Y32.1145
G01 X85.2406 Y32.1055
G01 X85.2827 Y32.0803
G01 X85.2970 Y32.0726
G01 X85.3414 Y32.0516
G01 X85.3564 Y32.0454
G01 X85.4026 Y32.0289
G01 X85.4182 Y32.0241
G01 X85.4658 Y32.0122
G01 X85.4817 Y32.0090
G01 X85.5303 Y32.0018
G01 X85.5464 Y32.0002
G01 X85.6036 Y31.9976
G01 X89.5357 Y31.9976
G00 Z2.0000
G00 X96.4240 Y31.8375
G01 F60.00
G01 Z-0.2001
G01 F320.00
G01 X96.4968 Y31.8409
G01 X96.5130 Y31.8425
G01 X96.5771 Y31.8520
G01 X96.5930 Y31.8551
G01 X96.6559 Y31.8709
G01 X96.6714 Y31.8756
G01 X96.7325 Y31.8974
G01 X96.7475 Y31.9036
G01 X96.8061 Y31.9314
G01 X96.8204 Y31.9390
G01 X96.8760 Y31.9723
G01 X96.8895 Y31.9814
G01 X96.9415 Y32.0200
G01 X96.9541 Y32.0303
G01 X97.0021 Y32.0738
G01 X97.0136 Y32.0853
G01 X97.0571 Y32.1333
G01 X97.0674 Y32.1458
G01 X97.1060 Y32.1979
G01 X97.1150 Y32.2114
G01 X97.1484 Y32.2670
G01 X97.1560 Y32.2813
G01 X97.1837 Y32.3399
G01 X97.1899 Y32.3549
G01 X97.2118 Y32.4159
G01 X97.2165 Y32.4315
G01 X97.2322 Y32.4943
G01 X97.2354 Y32.5103
G01 X97.2449 Y32.5744
G01 X97.2465 Y32.5905
G01 X97.2497 Y32.6553
G01 X97.2497 Y32.6715
G01 X97.2465 Y32.7362
G01 X97.2449 Y32.7524
G01 X97.2354 Y32.8165
G01 X97.2322 Y32.8324
G01 X97.2165 Y32.8953
G01 X97.2118 Y32.9108
G01 X97.1899 Y32.9719
G01 X97.1837 Y32.9869
G01 X97.1560 Y33.0455
G01 X97.1484 Y33.0598
G01 X97.1150 Y33.1154
G01 X97.1060 Y33.1289
G01 X97.0674 Y33.1809
G01 X97.0571 Y33.1935
G01 X97.0136 Y33.2415
G01 X97.0021 Y33.2530
G01 X96.9541 Y33.2965
G01 X96.9415 Y33.3068
G01 X96.8895 Y33.3454
G01 X96.8760 Y33.3544
G01 X96.8204 Y33.3878
G01 X96.8061 Y33.3954
G01 X96.7475 Y33.4231
G01 X96.7325 Y33.4293
G01 X96.6714 Y33.4512
G01 X96.6559 Y33.4559
G01 X96.5930 Y33.4716
G01 X96.5771 Y33.4748
G01 X96.5130 Y33.4843
G01 X96.4968 Y33.4859
G01 X96.4240 Y33.4893
G01 X95.1032 Y33.4893
G01 X95.0303 Y33.4859
G01 X95.0142 Y33.4843
G01 X94.9501 Y33.4748
G01 X94.9341 Y33.4716
G01 X94.8713 Y33.4559
G01 X94.8557 Y33.4512
G01 X94.7947 Y33.4293
G01 X94.7797 Y33.4231
G01 X94.7211 Y33.3954
G01 X94.7068 Y33.3878
G01 X94.6512 Y33.3544
G01 X94.6377 Y33.3454
G01 X94.5856 Y33.3068
G01 X94.5731 Y33.2965
G01 X94.5251 Y33.2530
G01 X94.5136 Y33.2415
G01 X94.4701 Y33.1935
G01 X94.4598 Y33.1809
G01 X94.4212 Y33.1289
G01 X94.4121 Y33.1154
G01 X94.3788 Y33.0598
G01 X94.3712 Y33.0455
G01 X94.3435 Y32.9869
G01 X94.3372 Y32.9719
G01 X94.3154 Y32.9108
G01 X94.3107 Y32.8953
G01 X94.2949 Y32.8324
G01 X94.2918 Y32.8165
G01 X94.2823 Y32.7524
G01 X94.2807 Y32.7362
G01 X94.2775 Y32.6715
G01 X94.2775 Y32.6553
G01 X94.2807 Y32.5905
G01 X94.2823 Y32.5744
G01 X94.2918 Y32.5103
G01 X94.2949 Y32.4943
G01 X94.3107 Y32.4315
G01 X94.3154 Y32.4159
G01 X94.3372 Y32.3549
G01 X94.3435 Y32.3399
G01 X94.3712 Y32.2813
G01 X94.3788 Y32.2670
G01 X94.4121 Y32.2114
G01 X94.4212 Y32.1979
G01 X94.4598 Y32.1458
G01 X94.4701 Y32.1333
G01 X94.5136 Y32.0853
G01 X94.5251 Y32.0738
G01 X94.5731 Y32.0303
G01 X94.5856 Y32.0200
G01 X94.6377 Y31.9814
G01 X94.6512 Y31.9723
G01 X94.7068 Y31.9390
G01 X94.7211 Y31.9314
G01 X94.7797 Y31.9036
G01 X94.7947 Y31.8974
G01 X94.8557 Y31.8756
G01 X94.8713 Y31.8709
G01 X94.9341 Y31.8551
G01 X94.9501 Y31.8520
G01 X95.0142 Y31.8425
G01 X95.0303 Y31.8409
G01 X95.1032 Y31.8375
G01 X96.4240 Y31.8375
G00 Z2.0000
G00 X100.1778 Y29.4782
G01 F60.00
G01 Z-0.2001
G01 F320.00
G01 X100.1778 Y23.1486
G01 X100.1319 Y23.0979
G01 X100.1216 Y23.0854
G01 X100.0771 Y23.0253
G01 X100.0681 Y23.0118
G01 X100.0296 Y22.9477
G01 X100.0220 Y22.9333
G01 X99.9900 Y22.8657
G01 X99.9838 Y22.8507
G01 X99.9586 Y22.7803
G01 X99.9539 Y22.7648
G01 X99.9357 Y22.6923
G01 X99.9325 Y22.6763
G01 X99.9216 Y22.6024
G01 X99.9200 Y22.5862
G01 X99.9163 Y22.5115
G01 X99.9163 Y22.4953
G01 X99.9200 Y22.4206
G01 X99.9216 Y22.4044
G01 X99.9325 Y22.3304
G01 X99.9357 Y22.3145
G01 X99.9539 Y22.2420
G01 X99.9586 Y22.2264
G01 X99.9838 Y22.1560
G01 X99.9900 Y22.1410
G01 X100.0220 Y22.0734
G01 X100.0296 Y22.0591
G01 X100.0681 Y21.9950
G01 X100.0771 Y21.9815
G01 X100.1216 Y21.9214
G01 X100.1319 Y21.9088
G01 X100.1821 Y21.8534
G01 X100.1936 Y21.8419
G01 X100.2490 Y21.7917
G01 X100.2616 Y21.7814
G01 X100.3217 Y21.7369
G01 X100.3352 Y21.7279
G01 X100.3993 Y21.6894
G01 X100.4136 Y21.6818
G01 X100.4812 Y21.6498
G01 X100.4962 Y21.6436
G01 X100.5666 Y21.6184
G01 X100.5822 Y21.6137
G01 X100.6547 Y21.5955
G01 X100.6706 Y21.5923
G01 X100.7446 Y21.5813
G01 X100.7608 Y21.5798
G01 X100.8355 Y21.5761
G01 X100.8517 Y21.5761
G01 X100.9264 Y21.5798
G01 X100.9426 Y21.5813
G01 X101.0165 Y21.5923
G01 X101.0325 Y21.5955
G01 X101.1050 Y21.6137
G01 X101.1205 Y21.6184
G01 X101.1909 Y21.6436
G01 X101.2060 Y21.6498
G01 X101.2736 Y21.6818
G01 X101.2879 Y21.6894
G01 X101.3520 Y21.7279
G01 X101.3655 Y21.7369
G01 X101.4256 Y21.7814
G01 X101.4381 Y21.7917
G01 X101.4888 Y21.8376
G01 X102.7384 Y21.8376
G01 X102.7890 Y21.7917
G01 X102.8016 Y21.7814
G01 X102.8617 Y21.7369
G01 X102.8752 Y21.7279
G01 X102.9393 Y21.6894
G01 X102.9536 Y21.6818
G01 X103.0212 Y21.6498
G01 X103.0362 Y21.6436
G01 X103.1066 Y21.6184
G01 X103.1222 Y21.6137
G01 X103.1947 Y21.5955
G01 X103.2106 Y21.5923
G01 X103.2846 Y21.5813
G01 X103.3008 Y21.5798
G01 X103.3755 Y21.5761
G01 X103.3917 Y21.5761
G01 X103.4664 Y21.5798
G01 X103.4826 Y21.5813
G01 X103.5565 Y21.5923
G01 X103.5725 Y21.5955
G01 X103.6450 Y21.6137
G01 X103.6605 Y21.6184
G01 X103.7309 Y21.6436
G01 X103.7460 Y21.6498
G01 X103.8136 Y21.6818
G01 X103.8279 Y21.6894
G01 X103.8920 Y21.7279
G01 X103.9055 Y21.7369
G01 X103.9656 Y21.7814
G01 X103.9781 Y21.7917
G01 X104.0335 Y21.8419
G01 X104.0450 Y21.8534
G01 X104.0952 Y21.9088
G01 X104.1056 Y21.9214
G01 X104.1501 Y21.9815
G01 X104.1591 Y21.9950
G01 X104.1976 Y22.0591
G01 X104.2052 Y22.0734
G01 X104.2372 Y22.1410
G01 X104.2434 Y22.1560
G01 X104.2686 Y22.2264
G01 X104.2733 Y22.2420
G01 X104.2915 Y22.3145
G01 X104.2947 Y22.3304
G01 X104.3056 Y22.4044
G01 X104.3072 Y22.4206
G01 X104.3109 Y22.4953
G01 X104.3109 Y22.5115
G01 X104.3072 Y22.5862
G01 X104.3056 Y22.6024
G01 X104.2947 Y22.6763
G01 X104.2915 Y22.6923
G01 X104.2733 Y22.7648
G01 X104.2686 Y22.7803
G01 X104.2434 Y22.8507
G01 X104.2372 Y22.8657
G01 X104.2052 Y22.9333
G01 X104.1976 Y22.9477
G01 X104.1591 Y23.0118
G01 X104.1501 Y23.0253
G01 X104.1056 Y23.0854
G01 X104.0952 Y23.0979
G01 X104.0450 Y23.1533
G01 X104.0335 Y23.1648
G01 X103.9781 Y23.2150
G01 X103.9656 Y23.2253
G01 X103.9055 Y23.2699
G01 X103.8920 Y23.2789
G01 X103.8279 Y23.3174
G01 X103.8136 Y23.3250
G01 X103.7460 Y23.3570
G01 X103.7309 Y23.3632
G01 X103.6605 Y23.3884
G01 X103.6450 Y23.3931
G01 X103.5725 Y23.4113
G01 X103.5565 Y23.4144
G01 X103.4826 Y23.4254
G01 X103.4664 Y23.4270
G01 X103.3917 Y23.4307
G01 X103.3755 Y23.4307
G01 X103.3008 Y23.4270
G01 X103.2846 Y23.4254
G01 X103.2106 Y23.4144
G01 X103.1947 Y23.4113
G01 X103.1222 Y23.3931
G01 X103.1066 Y23.3884
G01 X103.0362 Y23.3632
G01 X103.0212 Y23.3570
G01 X102.9536 Y23.3250
G01 X102.9393 Y23.3174
G01 X102.8752 Y23.2789
G01 X102.8617 Y23.2699
G01 X102.8016 Y23.2253
G01 X102.7890 Y23.2150
G01 X102.7384 Y23.1691
G01 X101.5093 Y23.1691
G01 X101.5093 Y24.3776
G01 X107.8184 Y24.3776
G01 X107.8690 Y24.3317
G01 X107.8816 Y24.3214
G01 X107.9417 Y24.2769
G01 X107.9552 Y24.2679
G01 X108.0193 Y24.2294
G01 X108.0336 Y24.2218
G01 X108.1012 Y24.1898
G01 X108.1162 Y24.1836
G01 X108.1866 Y24.1584
G01 X108.2022 Y24.1537
G01 X108.2747 Y24.1355
G01 X108.2906 Y24.1323
G01 X108.3646 Y24.1213
G01 X108.3808 Y24.1198
G01 X108.4555 Y24.1161
G01 X108.4717 Y24.1161
G01 X108.5464 Y24.1198
G01 X108.5626 Y24.1213
G01 X108.6365 Y24.1323
G01 X108.6525 Y24.1355
G01 X108.7250 Y24.1537
G01 X108.7405 Y24.1584
G01 X108.8109 Y24.1836
G01 X108.8260 Y24.1898
G01 X108.8936 Y24.2218
G01 X108.9079 Y24.2294
G01 X108.9720 Y24.2679
G01 X108.9855 Y24.2769
G01 X109.0456 Y24.3214
G01 X109.0581 Y24.3317
G01 X109.1135 Y24.3819
G01 X109.1250 Y24.3934
G01 X109.1752 Y24.4488
G01 X109.1856 Y24.4614
G01 X109.2301 Y24.5215
G01 X109.2391 Y24.5350
G01 X109.2776 Y24.5991
G01 X109.2852 Y24.6134
G01 X109.3172 Y24.6810
G01 X109.3234 Y24.6960
G01 X109.3486 Y24.7664
G01 X109.3533 Y24.7820
G01 X109.3715 Y24.8545
G01 X109.3747 Y24.8704
G01 X109.3856 Y24.9444
G01 X109.3872 Y24.9606
G01 X109.3909 Y25.0353
G01 X109.3909 Y25.0515
G01 X109.3872 Y25.1262
G01 X109.3856 Y25.1424
G01 X109.3747 Y25.2163
G01 X109.3715 Y25.2323
G01 X109.3533 Y25.3048
G01 X109.3486 Y25.3203
G01 X109.3234 Y25.3907
G01 X109.3172 Y25.4057
G01 X109.2852 Y25.4733
G01 X109.2776 Y25.4877
G01 X109.2391 Y25.5518
G01 X109.2301 Y25.5653
G01 X109.1856 Y25.6254
G01 X109.1752 Y25.6379
G01 X109.1250 Y25.6933
G01 X109.1135 Y25.7048
G01 X109.0581 Y25.7550
G01 X109.0456 Y25.7653
G01 X108.9855 Y25.8099
G01 X108.9720 Y25.8189
G01 X108.9079 Y25.8574
G01 X108.8936 Y25.8650
G01 X108.8260 Y25.8970
G01 X108.8109 Y25.9032
G01 X108.7405 Y25.9284
G01 X108.7250 Y25.9331
G01 X108.6525 Y25.9513
G01 X108.6365 Y25.9544
G01 X108.5626 Y25.9654
G01 X108.5464 Y25.9670
G01 X108.4717 Y25.9707
G01 X108.4555 Y25.9707
G01 X108.3808 Y25.9670
G01 X108.3646 Y25.9654
G01 X108.2906 Y25.9544
G01 X108.2747 Y25.9513
G01 X108.2022 Y25.9331
G01 X108.1866 Y25.9284
G01 X108.1162 Y25.9032
G01 X108.1012 Y25.8970
G01 X108.0336 Y25.8650
G01 X108.0193 Y25.8574
G01 X107.9552 Y25.8189
G01 X107.9417 Y25.8099
G01 X107.8816 Y25.7653
G01 X107.8690 Y25.7550
G01 X107.8184 Y25.7091
G01 X101.5093 Y25.7091
G01 X101.5093 Y29.4782
G01 X101.5552 Y29.5288
G01 X101.5656 Y29.5414
G01 X101.6101 Y29.6015
G01 X101.6191 Y29.6150
G01 X101.6576 Y29.6791
G01 X101.6652 Y29.6934
G01 X101.6972 Y29.7610
G01 X101.7034 Y29.7760
G01 X101.7286 Y29.8464
G01 X101.7333 Y29.8620
G01 X101.7515 Y29.9345
G01 X101.7547 Y29.9504
G01 X101.7656 Y30.0244
G01 X101.7672 Y30.0406
G01 X101.7709 Y30.1153
G01 X101.7709 Y30.1315
G01 X101.7672 Y30.2062
G01 X101.7656 Y30.2224
G01 X101.7547 Y30.2963
G01 X101.7515 Y30.3123
G01 X101.7333 Y30.3848
G01 X101.7286 Y30.4003
G01 X101.7034 Y30.4707
G01 X101.6972 Y30.4857
G01 X101.6652 Y30.5533
G01 X101.6576 Y30.5677
G01 X101.6191 Y30.6318
G01 X101.6101 Y30.6453
G01 X101.5656 Y30.7054
G01 X101.5552 Y30.7179
G01 X101.5050 Y30.7733
G01 X101.4935 Y30.7848
G01 X101.4381 Y30.8350
G01 X101.4256 Y30.8453
G01 X101.3655 Y30.8899
G01 X101.3520 Y30.8989
G01 X101.2879 Y30.9374
G01 X101.2736 Y30.9450
G01 X101.2060 Y30.9770
G01 X101.1909 Y30.9832
G01 X101.1205 Y31.0084
G01 X101.1050 Y31.0131
G01 X101.0325 Y31.0313
G01 X101.0165 Y31.0344
G01 X100.9426 Y31.0454
G01 X100.9264 Y31.0470
G01 X100.8517 Y31.0507
G01 X100.8355 Y31.0507
G01 X100.7608 Y31.0470
G01 X100.7446 Y31.0454
G01 X100.6706 Y31.0344
G01 X100.6547 Y31.0313
G01 X100.5822 Y31.0131
G01 X100.5666 Y31.0084
G01 X100.4962 Y30.9832
G01 X100.4812 Y30.9770
G01 X100.4136 Y30.9450
G01 X100.3993 Y30.9374
G01 X100.3352 Y30.8989
G01 X100.3217 Y30.8899
G01 X100.2616 Y30.8453
G01 X100.2490 Y30.8350
G01 X100.1936 Y30.7848
G01 X100.1821 Y30.7733
G01 X100.1319 Y30.7179
G01 X100.1216 Y30.7054
G01 X100.0771 Y30.6453
G01 X100.0681 Y30.6318
G01 X100.0296 Y30.5677
G01 X100.0220 Y30.5533
G01 X99.9900 Y30.4857
G01 X99.9838 Y30.4707
G01 X99.9586 Y30.4003
G01 X99.9539 Y30.3848
G01 X99.9357 Y30.3123
G01 X99.9325 Y30.2963
G01 X99.9216 Y30.2224
G01 X99.9200 Y30.2062
G01 X99.9163 Y30.1315
G01 X99.9163 Y30.1153
G01 X99.9200 Y30.0406
G01 X99.9216 Y30.0244
G01 X99.9325 Y29.9504
G01 X99.9357 Y29.9345
G01 X99.9539 Y29.8620
G01 X99.9586 Y29.8464
G01 X99.9838 Y29.7760
G01 X99.9900 Y29.7610
G01 X100.0220 Y29.6934
G01 X100.0296 Y29.6791
G01 X100.0681 Y29.6150
G01 X100.0771 Y29.6015
G01 X100.1216 Y29.5414
G01 X100.1319 Y29.5288
G01 X100.1778 Y29.4782
G00 Z2.0000
G00 X102.2357 Y31.9976
G01 F60.00
G01 Z-0.2001
G01 F320.00
G01 X102.2577 Y31.9814
G01 X102.2712 Y31.9723
G01 X102.3268 Y31.9390
G01 X102.3411 Y31.9314
G01 X102.3997 Y31.9036
G01 X102.4147 Y31.8974
G01 X102.4757 Y31.8756
G01 X102.4913 Y31.8709
G01 X102.5541 Y31.8551
G01 X102.5701 Y31.8520
G01 X102.6342 Y31.8425
G01 X102.6503 Y31.8409
G01 X102.7151 Y31.8377
G01 X104.0521 Y31.8377
G01 X104.1168 Y31.8409
G01 X104.1330 Y31.8425
G01 X104.1971 Y31.8520
G01 X104.2130 Y31.8551
G01 X104.2759 Y31.8709
G01 X104.2914 Y31.8756
G01 X104.3525 Y31.8974
G01 X104.3675 Y31.9036
G01 X104.4261 Y31.9314
G01 X104.4404 Y31.9390
G01 X104.4960 Y31.9723
G01 X104.5095 Y31.9814
G01 X104.5615 Y32.0200
G01 X104.5741 Y32.0303
G01 X104.6221 Y32.0738
G01 X104.6336 Y32.0853
G01 X104.6771 Y32.1333
G01 X104.6874 Y32.1458
G01 X104.7260 Y32.1979
G01 X104.7350 Y32.2114
G01 X104.7684 Y32.2670
G01 X104.7760 Y32.2813
G01 X104.8037 Y32.3399
G01 X104.8099 Y32.3549
G01 X104.8318 Y32.4159
G01 X104.8365 Y32.4315
G01 X104.8522 Y32.4943
G01 X104.8554 Y32.5103
G01 X104.8649 Y32.5744
G01 X104.8665 Y32.5905
G01 X104.8697 Y32.6553
G01 X104.8697 Y32.6715
G01 X104.8665 Y32.7362
G01 X104.8649 Y32.7524
G01 X104.8554 Y32.8165
G01 X104.8522 Y32.8324
G01 X104.8365 Y32.8953
G01 X104.8318 Y32.9108
G01 X104.8099 Y32.9719
G01 X104.8037 Y32.9869
G01 X104.7760 Y33.0455
G01 X104.7684 Y33.0598
G01 X104.7350 Y33.1154
G01 X104.7260 Y33.1289
G01 X104.6874 Y33.1809
G01 X104.6771 Y33.1935
G01 X104.6336 Y33.2415
G01 X104.6221 Y33.2530
G01 X104.5741 Y33.2965
G01 X104.5615 Y33.3068
G01 X104.5095 Y33.3454
G01 X104.4960 Y33.3544
G01 X104.4404 Y33.3878
G01 X104.4261 Y33.3954
G01 X104.3675 Y33.4231
G01 X104.3525 Y33.4293
G01 X104.2914 Y33.4512
G01 X104.2759 Y33.4559
G01 X104.2130 Y33.4716
G01 X104.1971 Y33.4748
G01 X104.1330 Y33.4843
G01 X104.1168 Y33.4859
G01 X104.0440 Y33.4893
G01 X102.7232 Y33.4893
G01 X102.6503 Y33.4859
G01 X102.6342 Y33.4843
G01 X102.5701 Y33.4748
G01 X102.5541 Y33.4716
G01 X102.4913 Y33.4559
G01 X102.4757 Y33.4512
G01 X102.4147 Y33.4293
G01 X102.3997 Y33.4231
G01 X102.3411 Y33.3954
G01 X102.3268 Y33.3878
G01 X102.2712 Y33.3544
G01 X102.2577 Y33.3454
G01 X102.2357 Y33.3291
G01 X98.9693 Y33.3291
G01 X98.9693 Y52.3176
G01 X100.8436 Y52.3176
G01 X100.9007 Y52.3202
G01 X100.9169 Y52.3218
G01 X100.9655 Y52.3290
G01 X100.9814 Y52.3322
G01 X101.0290 Y52.3441
G01 X101.0446 Y52.3489
G01 X101.0908 Y52.3654
G01 X101.1058 Y52.3716
G01 X101.1502 Y52.3926
G01 X101.1645 Y52.4003
G01 X101.2066 Y52.4255
G01 X101.2201 Y52.4345
G01 X101.2595 Y52.4638
G01 X101.2721 Y52.4741
G01 X101.3085 Y52.5070
G01 X101.3199 Y52.5185
G01 X101.3529 Y52.5549
G01 X101.3632 Y52.5674
G01 X101.3925 Y52.6069
G01 X101.4015 Y52.6204
G01 X101.4267 Y52.6625
G01 X101.4344 Y52.6768
G01 X101.4554 Y52.7212
G01 X101.4616 Y52.7362
G01 X101.4781 Y52.7824
G01 X101.4828 Y52.7980
G01 X101.4948 Y52.8456
G01 X101.4979 Y52.8615
G01 X101.5051 Y52.9101
G01 X101.5067 Y52.9262
G01 X101.5091 Y52.9753
G01 X101.5093 Y57.3976
G01 X102.2357 Y57.3976
