(G-CODE GENERATED BY FLATCAM v8.991 - www.flatcam.org - Version Date: 2019/12/27)

(Name: 002_DReg1_iso2)
(Type: G-code from Geometry)
(Units: MM)

(Created on Monday, 02 March 2020 at 18:52)

(TOOL DIAMETER: 0.331 mm)
(Feedrate: 320.0 mm/min)
(Feedrate_Z: 60.0 mm/min)
(Feedrate rapids 1500.0 mm/min)

(Z_Cut: -0.2001 mm)
(Z_Move: 2.0 mm)
(Z Toolchange: 15.0 mm)
(X,Y Toolchange: 0.0000, 0.0000 mm)
(Z Start: None mm)
(Z End: 15.0 mm)
(Steps per circle: 64)
(Preprocessor Geometry: default)

(X range:    5.6387 ...  147.7884  mm)
(Y range:    3.4985 ...   97.3882  mm)

(Spindle Speed: None RPM)
G21
G90
G94

M03 S3000


G01 F320.00
G00 Z2.0000

M03
G00 X13.2587 Y4.7461
G01 F60.00
G01 Z-0.2001
G01 F320.00
G01 X13.2587 Y4.7006
G01 X13.2624 Y4.6260
G01 X13.2669 Y4.5807
G01 X13.2778 Y4.5067
G01 X13.2867 Y4.4621
G01 X13.3049 Y4.3896
G01 X13.3181 Y4.3461
G01 X13.3433 Y4.2757
G01 X13.3607 Y4.2337
G01 X13.3927 Y4.1661
G01 X13.4141 Y4.1259
G01 X13.4525 Y4.0618
G01 X13.4778 Y4.0240
G01 X13.5223 Y3.9639
G01 X13.5512 Y3.9288
G01 X13.6014 Y3.8734
G01 X13.6336 Y3.8412
G01 X13.6890 Y3.7910
G01 X13.7241 Y3.7621
G01 X13.7842 Y3.7176
G01 X13.8220 Y3.6923
G01 X13.8861 Y3.6539
G01 X13.9263 Y3.6325
G01 X13.9939 Y3.6005
G01 X14.0359 Y3.5831
G01 X14.1063 Y3.5579
G01 X14.1498 Y3.5447
G01 X14.2223 Y3.5265
G01 X14.2669 Y3.5176
G01 X14.3409 Y3.5067
G01 X14.3862 Y3.5022
G01 X14.4609 Y3.4985
G01 X14.5063 Y3.4985
G01 X14.5810 Y3.5022
G01 X14.6263 Y3.5067
G01 X14.7002 Y3.5176
G01 X14.7448 Y3.5265
G01 X14.8174 Y3.5447
G01 X14.8609 Y3.5579
G01 X14.9313 Y3.5831
G01 X14.9733 Y3.6005
G01 X15.0409 Y3.6325
G01 X15.0810 Y3.6539
G01 X15.1452 Y3.6923
G01 X15.1830 Y3.7176
G01 X15.2430 Y3.7621
G01 X15.2782 Y3.7910
G01 X15.3336 Y3.8412
G01 X15.3658 Y3.8734
G01 X15.4160 Y3.9288
G01 X15.4448 Y3.9639
G01 X15.4894 Y4.0240
G01 X15.5146 Y4.0618
G01 X15.5531 Y4.1259
G01 X15.5745 Y4.1661
G01 X15.6065 Y4.2337
G01 X15.6239 Y4.2757
G01 X15.6491 Y4.3461
G01 X15.6623 Y4.3896
G01 X15.6805 Y4.4621
G01 X15.6893 Y4.5067
G01 X15.7003 Y4.5807
G01 X15.7048 Y4.6260
G01 X15.7084 Y4.7006
G01 X15.7084 Y4.7461
G01 X15.7048 Y4.8208
G01 X15.7003 Y4.8661
G01 X15.6893 Y4.9400
G01 X15.6805 Y4.9846
G01 X15.6623 Y5.0572
G01 X15.6491 Y5.1007
G01 X15.6239 Y5.1711
G01 X15.6065 Y5.2131
G01 X15.5745 Y5.2807
G01 X15.5531 Y5.3208
G01 X15.5146 Y5.3850
G01 X15.4894 Y5.4228
G01 X15.4448 Y5.4828
G01 X15.4160 Y5.5180
G01 X15.3658 Y5.5734
G01 X15.3336 Y5.6056
G01 X15.2782 Y5.6558
G01 X15.2430 Y5.6846
G01 X15.1830 Y5.7292
G01 X15.1452 Y5.7544
G01 X15.0810 Y5.7929
G01 X15.0409 Y5.8143
G01 X14.9733 Y5.8463
G01 X14.9313 Y5.8637
G01 X14.8609 Y5.8889
G01 X14.8174 Y5.9021
G01 X14.7448 Y5.9203
G01 X14.7002 Y5.9291
G01 X14.6263 Y5.9401
G01 X14.5810 Y5.9446
G01 X14.5063 Y5.9482
G01 X14.4609 Y5.9482
G01 X14.3862 Y5.9446
G01 X14.3409 Y5.9401
G01 X14.2669 Y5.9291
G01 X14.2223 Y5.9203
G01 X14.1498 Y5.9021
G01 X14.1063 Y5.8889
G01 X14.0359 Y5.8637
G01 X13.9939 Y5.8463
G01 X13.9263 Y5.8143
G01 X13.8861 Y5.7929
G01 X13.8220 Y5.7544
G01 X13.7842 Y5.7292
G01 X13.7241 Y5.6846
G01 X13.6890 Y5.6558
G01 X13.6336 Y5.6056
G01 X13.6014 Y5.5734
G01 X13.5512 Y5.5180
G01 X13.5223 Y5.4828
G01 X13.4778 Y5.4228
G01 X13.4525 Y5.3850
G01 X13.4141 Y5.3208
G01 X13.3927 Y5.2807
G01 X13.3607 Y5.2131
G01 X13.3433 Y5.1711
G01 X13.3181 Y5.1007
G01 X13.3049 Y5.0572
G01 X13.2867 Y4.9846
G01 X13.2778 Y4.9400
G01 X13.2669 Y4.8661
G01 X13.2624 Y4.8208
G01 X13.2587 Y4.7461
G00 Z2.0000
G00 X15.7987 Y4.7461
G01 F60.00
G01 Z-0.2001
G01 F320.00
G01 X15.7987 Y4.7006
G01 X15.8024 Y4.6260
G01 X15.8069 Y4.5807
G01 X15.8178 Y4.5067
G01 X15.8267 Y4.4621
G01 X15.8449 Y4.3896
G01 X15.8581 Y4.3461
G01 X15.8833 Y4.2757
G01 X15.9007 Y4.2337
G01 X15.9327 Y4.1661
G01 X15.9541 Y4.1259
G01 X15.9925 Y4.0618
G01 X16.0178 Y4.0240
G01 X16.0623 Y3.9639
G01 X16.0912 Y3.9288
G01 X16.1414 Y3.8734
G01 X16.1736 Y3.8412
G01 X16.2290 Y3.7910
G01 X16.2641 Y3.7621
G01 X16.3242 Y3.7176
G01 X16.3620 Y3.6923
G01 X16.4261 Y3.6539
G01 X16.4663 Y3.6325
G01 X16.5339 Y3.6005
G01 X16.5759 Y3.5831
G01 X16.6463 Y3.5579
G01 X16.6898 Y3.5447
G01 X16.7623 Y3.5265
G01 X16.8069 Y3.5176
G01 X16.8809 Y3.5067
G01 X16.9262 Y3.5022
G01 X17.0009 Y3.4985
G01 X17.0463 Y3.4985
G01 X17.1210 Y3.5022
G01 X17.1663 Y3.5067
G01 X17.2402 Y3.5176
G01 X17.2848 Y3.5265
G01 X17.3574 Y3.5447
G01 X17.4009 Y3.5579
G01 X17.4713 Y3.5831
G01 X17.5133 Y3.6005
G01 X17.5809 Y3.6325
G01 X17.6210 Y3.6539
G01 X17.6852 Y3.6923
G01 X17.7230 Y3.7176
G01 X17.7830 Y3.7621
G01 X17.8182 Y3.7910
G01 X17.8736 Y3.8412
G01 X17.9058 Y3.8734
G01 X17.9560 Y3.9288
G01 X17.9848 Y3.9639
G01 X18.0294 Y4.0240
G01 X18.0546 Y4.0618
G01 X18.0931 Y4.1259
G01 X18.1145 Y4.1661
G01 X18.1465 Y4.2337
G01 X18.1639 Y4.2757
G01 X18.1891 Y4.3461
G01 X18.2023 Y4.3896
G01 X18.2205 Y4.4621
G01 X18.2293 Y4.5067
G01 X18.2403 Y4.5807
G01 X18.2448 Y4.6260
G01 X18.2484 Y4.7006
G01 X18.2484 Y4.7461
G01 X18.2448 Y4.8208
G01 X18.2403 Y4.8661
G01 X18.2293 Y4.9400
G01 X18.2205 Y4.9846
G01 X18.2023 Y5.0572
G01 X18.1891 Y5.1007
G01 X18.1639 Y5.1711
G01 X18.1465 Y5.2131
G01 X18.1145 Y5.2807
G01 X18.0931 Y5.3208
G01 X18.0546 Y5.3850
G01 X18.0294 Y5.4228
G01 X17.9848 Y5.4828
G01 X17.9560 Y5.5180
G01 X17.9058 Y5.5734
G01 X17.8736 Y5.6056
G01 X17.8182 Y5.6558
G01 X17.7830 Y5.6846
G01 X17.7230 Y5.7292
G01 X17.6852 Y5.7544
G01 X17.6210 Y5.7929
G01 X17.5809 Y5.8143
G01 X17.5133 Y5.8463
G01 X17.4713 Y5.8637
G01 X17.4009 Y5.8889
G01 X17.3574 Y5.9021
G01 X17.2848 Y5.9203
G01 X17.2402 Y5.9291
G01 X17.1663 Y5.9401
G01 X17.1210 Y5.9446
G01 X17.0463 Y5.9482
G01 X17.0009 Y5.9482
G01 X16.9262 Y5.9446
G01 X16.8809 Y5.9401
G01 X16.8069 Y5.9291
G01 X16.7623 Y5.9203
G01 X16.6898 Y5.9021
G01 X16.6463 Y5.8889
G01 X16.5759 Y5.8637
G01 X16.5339 Y5.8463
G01 X16.4663 Y5.8143
G01 X16.4261 Y5.7929
G01 X16.3620 Y5.7544
G01 X16.3242 Y5.7292
G01 X16.2641 Y5.6846
G01 X16.2290 Y5.6558
G01 X16.1736 Y5.6056
G01 X16.1414 Y5.5734
G01 X16.0912 Y5.5180
G01 X16.0623 Y5.4828
G01 X16.0178 Y5.4228
G01 X15.9925 Y5.3850
G01 X15.9541 Y5.3208
G01 X15.9327 Y5.2807
G01 X15.9007 Y5.2131
G01 X15.8833 Y5.1711
G01 X15.8581 Y5.1007
G01 X15.8449 Y5.0572
G01 X15.8267 Y4.9846
G01 X15.8178 Y4.9400
G01 X15.8069 Y4.8661
G01 X15.8024 Y4.8208
G01 X15.7987 Y4.7461
G00 Z2.0000
G00 X27.2608 Y9.8261
G01 F60.00
G01 Z-0.2001
G01 F320.00
G01 X27.2608 Y9.7806
G01 X27.2704 Y9.5846
G01 X27.2748 Y9.5394
G01 X27.3036 Y9.3452
G01 X27.3125 Y9.3006
G01 X27.3602 Y9.1102
G01 X27.3734 Y9.0667
G01 X27.4395 Y8.8819
G01 X27.4569 Y8.8399
G01 X27.5408 Y8.6625
G01 X27.5623 Y8.6224
G01 X27.6632 Y8.4540
G01 X27.6884 Y8.4162
G01 X27.8054 Y8.2586
G01 X27.8342 Y8.2234
G01 X27.9660 Y8.0780
G01 X27.9982 Y8.0458
G01 X28.1436 Y7.9140
G01 X28.1788 Y7.8852
G01 X28.3364 Y7.7682
G01 X28.3742 Y7.7430
G01 X28.5426 Y7.6421
G01 X28.5827 Y7.6206
G01 X28.7601 Y7.5367
G01 X28.8021 Y7.5193
G01 X28.9869 Y7.4532
G01 X29.0304 Y7.4400
G01 X29.2208 Y7.3923
G01 X29.2654 Y7.3834
G01 X29.4596 Y7.3546
G01 X29.5048 Y7.3502
G01 X29.7009 Y7.3405
G01 X29.7463 Y7.3405
G01 X29.9424 Y7.3502
G01 X29.9876 Y7.3546
G01 X30.1818 Y7.3834
G01 X30.2264 Y7.3923
G01 X30.4168 Y7.4400
G01 X30.4603 Y7.4532
G01 X30.6451 Y7.5193
G01 X30.6871 Y7.5367
G01 X30.8645 Y7.6206
G01 X30.9046 Y7.6421
G01 X31.0730 Y7.7430
G01 X31.1108 Y7.7682
G01 X31.2684 Y7.8852
G01 X31.3036 Y7.9140
G01 X31.4490 Y8.0458
G01 X31.4812 Y8.0780
G01 X31.6130 Y8.2234
G01 X31.6418 Y8.2586
G01 X31.7587 Y8.4162
G01 X31.7840 Y8.4540
G01 X31.8849 Y8.6224
G01 X31.9063 Y8.6625
G01 X31.9902 Y8.8399
G01 X32.0077 Y8.8819
G01 X32.0738 Y9.0667
G01 X32.0870 Y9.1102
G01 X32.1347 Y9.3006
G01 X32.1435 Y9.3452
G01 X32.1723 Y9.5394
G01 X32.1768 Y9.5846
G01 X32.1864 Y9.7806
G01 X32.1864 Y9.8261
G01 X32.1768 Y10.0222
G01 X32.1723 Y10.0674
G01 X32.1435 Y10.2616
G01 X32.1347 Y10.3062
G01 X32.0870 Y10.4965
G01 X32.0738 Y10.5401
G01 X32.0077 Y10.7249
G01 X31.9902 Y10.7669
G01 X31.9063 Y10.9443
G01 X31.8849 Y10.9844
G01 X31.7840 Y11.1528
G01 X31.7587 Y11.1906
G01 X31.6418 Y11.3482
G01 X31.6130 Y11.3834
G01 X31.4812 Y11.5288
G01 X31.4490 Y11.5609
G01 X31.3036 Y11.6928
G01 X31.2684 Y11.7216
G01 X31.1108 Y11.8385
G01 X31.0730 Y11.8638
G01 X30.9046 Y11.9647
G01 X30.8645 Y11.9861
G01 X30.6871 Y12.0700
G01 X30.6451 Y12.0874
G01 X30.4603 Y12.1536
G01 X30.4168 Y12.1668
G01 X30.2264 Y12.2145
G01 X30.1818 Y12.2233
G01 X29.9876 Y12.2521
G01 X29.9424 Y12.2566
G01 X29.7463 Y12.2662
G01 X29.7009 Y12.2662
G01 X29.5048 Y12.2566
G01 X29.4596 Y12.2521
G01 X29.2654 Y12.2233
G01 X29.2208 Y12.2145
G01 X29.0304 Y12.1668
G01 X28.9869 Y12.1536
G01 X28.8021 Y12.0874
G01 X28.7601 Y12.0700
G01 X28.5827 Y11.9861
G01 X28.5426 Y11.9647
G01 X28.3742 Y11.8638
G01 X28.3364 Y11.8385
G01 X28.1788 Y11.7216
G01 X28.1436 Y11.6928
G01 X27.9982 Y11.5609
G01 X27.9660 Y11.5288
G01 X27.8342 Y11.3834
G01 X27.8054 Y11.3482
G01 X27.6884 Y11.1906
G01 X27.6632 Y11.1528
G01 X27.5623 Y10.9844
G01 X27.5408 Y10.9443
G01 X27.4569 Y10.7669
G01 X27.4395 Y10.7249
G01 X27.3734 Y10.5401
G01 X27.3602 Y10.4965
G01 X27.3125 Y10.3062
G01 X27.3036 Y10.2616
G01 X27.2748 Y10.0674
G01 X27.2704 Y10.0222
G01 X27.2608 Y9.8261
G00 Z2.0000
G00 X12.6998 Y21.5397
G01 F60.00
G01 Z-0.2001
G01 F320.00
G01 X41.6674 Y21.5397
G01 X41.7242 Y21.4976
G01 X41.7620 Y21.4723
G01 X41.8261 Y21.4339
G01 X41.8663 Y21.4125
G01 X41.9339 Y21.3805
G01 X41.9759 Y21.3631
G01 X42.0463 Y21.3379
G01 X42.0898 Y21.3247
G01 X42.1623 Y21.3065
G01 X42.2069 Y21.2976
G01 X42.2809 Y21.2867
G01 X42.3262 Y21.2822
G01 X42.4009 Y21.2785
G01 X42.4463 Y21.2785
G01 X42.5210 Y21.2822
G01 X42.5663 Y21.2867
G01 X42.6402 Y21.2976
G01 X42.6848 Y21.3065
G01 X42.7574 Y21.3247
G01 X42.8009 Y21.3379
G01 X42.8713 Y21.3631
G01 X42.9133 Y21.3805
G01 X42.9809 Y21.4125
G01 X43.0210 Y21.4339
G01 X43.0852 Y21.4723
G01 X43.1230 Y21.4976
G01 X43.1830 Y21.5421
G01 X43.2182 Y21.5710
G01 X43.2736 Y21.6212
G01 X43.3058 Y21.6534
G01 X43.3560 Y21.7088
G01 X43.3848 Y21.7439
G01 X43.4294 Y21.8040
G01 X43.4546 Y21.8418
G01 X43.4931 Y21.9059
G01 X43.5145 Y21.9461
G01 X43.5465 Y22.0137
G01 X43.5639 Y22.0557
G01 X43.5891 Y22.1261
G01 X43.6023 Y22.1696
G01 X43.6205 Y22.2421
G01 X43.6293 Y22.2867
G01 X43.6403 Y22.3607
G01 X43.6448 Y22.4060
G01 X43.6484 Y22.4806
G01 X43.6484 Y22.5261
G01 X43.6448 Y22.6008
G01 X43.6403 Y22.6461
G01 X43.6293 Y22.7200
G01 X43.6205 Y22.7646
G01 X43.6023 Y22.8372
G01 X43.5891 Y22.8807
G01 X43.5639 Y22.9511
G01 X43.5465 Y22.9931
G01 X43.5145 Y23.0607
G01 X43.4931 Y23.1008
G01 X43.4546 Y23.1650
G01 X43.4294 Y23.2028
G01 X43.3848 Y23.2628
G01 X43.3560 Y23.2980
G01 X43.3058 Y23.3534
G01 X43.2736 Y23.3856
G01 X43.2182 Y23.4358
G01 X43.1830 Y23.4646
G01 X43.1230 Y23.5092
G01 X43.0852 Y23.5344
G01 X43.0210 Y23.5729
G01 X42.9809 Y23.5943
G01 X42.9133 Y23.6263
G01 X42.8713 Y23.6437
G01 X42.8009 Y23.6689
G01 X42.7574 Y23.6821
G01 X42.6848 Y23.7003
G01 X42.6402 Y23.7091
G01 X42.5663 Y23.7201
G01 X42.5210 Y23.7246
G01 X42.4463 Y23.7282
G01 X42.4009 Y23.7282
G01 X42.3262 Y23.7246
G01 X42.2809 Y23.7201
G01 X42.2069 Y23.7091
G01 X42.1623 Y23.7003
G01 X42.0898 Y23.6821
G01 X42.0463 Y23.6689
G01 X41.9759 Y23.6437
G01 X41.9339 Y23.6263
G01 X41.8663 Y23.5943
G01 X41.8261 Y23.5729
G01 X41.7620 Y23.5344
G01 X41.7242 Y23.5092
G01 X41.6674 Y23.4670
G01 X12.6998 Y23.4670
G01 X12.6430 Y23.5092
G01 X12.6052 Y23.5344
G01 X12.5410 Y23.5729
G01 X12.5009 Y23.5943
G01 X12.4333 Y23.6263
G01 X12.3913 Y23.6437
G01 X12.3209 Y23.6689
G01 X12.2774 Y23.6821
G01 X12.2048 Y23.7003
G01 X12.1602 Y23.7091
G01 X12.0863 Y23.7201
G01 X12.0410 Y23.7246
G01 X11.9663 Y23.7282
G01 X11.9209 Y23.7282
G01 X11.8462 Y23.7246
G01 X11.8009 Y23.7201
G01 X11.7269 Y23.7091
G01 X11.6823 Y23.7003
G01 X11.6098 Y23.6821
G01 X11.5663 Y23.6689
G01 X11.4959 Y23.6437
G01 X11.4539 Y23.6263
G01 X11.3863 Y23.5943
G01 X11.3461 Y23.5729
G01 X11.2820 Y23.5344
G01 X11.2442 Y23.5092
G01 X11.1841 Y23.4646
G01 X11.1490 Y23.4358
G01 X11.0936 Y23.3856
G01 X11.0614 Y23.3534
G01 X11.0112 Y23.2980
G01 X10.9823 Y23.2628
G01 X10.9378 Y23.2028
G01 X10.9125 Y23.1650
G01 X10.8741 Y23.1008
G01 X10.8527 Y23.0607
G01 X10.8207 Y22.9931
G01 X10.8033 Y22.9511
G01 X10.7781 Y22.8807
G01 X10.7649 Y22.8372
G01 X10.7467 Y22.7646
G01 X10.7378 Y22.7200
G01 X10.7269 Y22.6461
G01 X10.7224 Y22.6008
G01 X10.7187 Y22.5261
G01 X10.7187 Y22.4806
G01 X10.7224 Y22.4060
G01 X10.7269 Y22.3607
G01 X10.7378 Y22.2867
G01 X10.7467 Y22.2421
G01 X10.7649 Y22.1696
G01 X10.7781 Y22.1261
G01 X10.8033 Y22.0557
G01 X10.8207 Y22.0137
G01 X10.8527 Y21.9461
G01 X10.8741 Y21.9059
G01 X10.9125 Y21.8418
G01 X10.9378 Y21.8040
G01 X10.9823 Y21.7439
G01 X11.0112 Y21.7088
G01 X11.0614 Y21.6534
G01 X11.0936 Y21.6212
G01 X11.1490 Y21.5710
G01 X11.1841 Y21.5421
G01 X11.2442 Y21.4976
G01 X11.2820 Y21.4723
G01 X11.3461 Y21.4339
G01 X11.3863 Y21.4125
G01 X11.4539 Y21.3805
G01 X11.4959 Y21.3631
G01 X11.5663 Y21.3379
G01 X11.6098 Y21.3247
G01 X11.6823 Y21.3065
G01 X11.7269 Y21.2976
G01 X11.8009 Y21.2867
G01 X11.8462 Y21.2822
G01 X11.9209 Y21.2785
G01 X11.9663 Y21.2785
G01 X12.0410 Y21.2822
G01 X12.0863 Y21.2867
G01 X12.1602 Y21.2976
G01 X12.2048 Y21.3065
G01 X12.2774 Y21.3247
G01 X12.3209 Y21.3379
G01 X12.3913 Y21.3631
G01 X12.4333 Y21.3805
G01 X12.5009 Y21.4125
G01 X12.5410 Y21.4339
G01 X12.6052 Y21.4723
G01 X12.6430 Y21.4976
G01 X12.6998 Y21.5397
G00 Z2.0000
G00 X49.0799 Y29.3672
G01 F60.00
G01 Z-0.2001
G01 F320.00
G01 X49.0799 Y23.2596
G01 X49.0378 Y23.2028
G01 X49.0125 Y23.1650
G01 X48.9741 Y23.1008
G01 X48.9527 Y23.0607
G01 X48.9207 Y22.9931
G01 X48.9033 Y22.9511
G01 X48.8781 Y22.8807
G01 X48.8649 Y22.8372
G01 X48.8467 Y22.7646
G01 X48.8378 Y22.7200
G01 X48.8269 Y22.6461
G01 X48.8224 Y22.6008
G01 X48.8187 Y22.5261
G01 X48.8187 Y22.4806
G01 X48.8224 Y22.4060
G01 X48.8269 Y22.3607
G01 X48.8378 Y22.2867
G01 X48.8467 Y22.2421
G01 X48.8649 Y22.1696
G01 X48.8781 Y22.1261
G01 X48.9033 Y22.0557
G01 X48.9207 Y22.0137
G01 X48.9527 Y21.9461
G01 X48.9741 Y21.9059
G01 X49.0125 Y21.8418
G01 X49.0378 Y21.8040
G01 X49.0823 Y21.7439
G01 X49.1112 Y21.7088
G01 X49.1614 Y21.6534
G01 X49.1936 Y21.6212
G01 X49.2490 Y21.5710
G01 X49.2841 Y21.5421
G01 X49.3442 Y21.4976
G01 X49.3820 Y21.4723
G01 X49.4461 Y21.4339
G01 X49.4863 Y21.4125
G01 X49.5539 Y21.3805
G01 X49.5959 Y21.3631
G01 X49.6663 Y21.3379
G01 X49.7098 Y21.3247
G01 X49.7823 Y21.3065
G01 X49.8269 Y21.2976
G01 X49.9009 Y21.2867
G01 X49.9462 Y21.2822
G01 X50.0209 Y21.2785
G01 X50.0663 Y21.2785
G01 X50.1410 Y21.2822
G01 X50.1863 Y21.2867
G01 X50.2602 Y21.2976
G01 X50.3048 Y21.3065
G01 X50.3774 Y21.3247
G01 X50.4209 Y21.3379
G01 X50.4913 Y21.3631
G01 X50.5333 Y21.3805
G01 X50.6009 Y21.4125
G01 X50.6410 Y21.4339
G01 X50.7052 Y21.4723
G01 X50.7430 Y21.4976
G01 X50.7998 Y21.5397
G01 X51.8274 Y21.5397
G01 X51.8842 Y21.4976
G01 X51.9220 Y21.4723
G01 X51.9861 Y21.4339
G01 X52.0263 Y21.4125
G01 X52.0939 Y21.3805
G01 X52.1359 Y21.3631
G01 X52.2063 Y21.3379
G01 X52.2498 Y21.3247
G01 X52.3223 Y21.3065
G01 X52.3669 Y21.2976
G01 X52.4409 Y21.2867
G01 X52.4862 Y21.2822
G01 X52.5609 Y21.2785
G01 X52.6063 Y21.2785
G01 X52.6810 Y21.2822
G01 X52.7263 Y21.2867
G01 X52.8002 Y21.2976
G01 X52.8448 Y21.3065
G01 X52.9174 Y21.3247
G01 X52.9609 Y21.3379
G01 X53.0313 Y21.3631
G01 X53.0733 Y21.3805
G01 X53.1409 Y21.4125
G01 X53.1810 Y21.4339
G01 X53.2452 Y21.4723
G01 X53.2830 Y21.4976
G01 X53.3430 Y21.5421
G01 X53.3782 Y21.5710
G01 X53.4336 Y21.6212
G01 X53.4658 Y21.6534
G01 X53.5160 Y21.7088
G01 X53.5448 Y21.7439
G01 X53.5894 Y21.8040
G01 X53.6146 Y21.8418
G01 X53.6531 Y21.9059
G01 X53.6745 Y21.9461
G01 X53.7065 Y22.0137
G01 X53.7239 Y22.0557
G01 X53.7491 Y22.1261
G01 X53.7623 Y22.1696
G01 X53.7805 Y22.2421
G01 X53.7893 Y22.2867
G01 X53.8003 Y22.3607
G01 X53.8048 Y22.4060
G01 X53.8084 Y22.4806
G01 X53.8084 Y22.5261
G01 X53.8048 Y22.6008
G01 X53.8003 Y22.6461
G01 X53.7893 Y22.7200
G01 X53.7805 Y22.7646
G01 X53.7623 Y22.8372
G01 X53.7491 Y22.8807
G01 X53.7239 Y22.9511
G01 X53.7065 Y22.9931
G01 X53.6745 Y23.0607
G01 X53.6531 Y23.1008
G01 X53.6146 Y23.1650
G01 X53.5894 Y23.2028
G01 X53.5448 Y23.2628
G01 X53.5160 Y23.2980
G01 X53.4658 Y23.3534
G01 X53.4336 Y23.3856
G01 X53.3782 Y23.4358
G01 X53.3430 Y23.4646
G01 X53.2830 Y23.5092
G01 X53.2452 Y23.5344
G01 X53.1810 Y23.5729
G01 X53.1409 Y23.5943
G01 X53.0733 Y23.6263
G01 X53.0313 Y23.6437
G01 X52.9609 Y23.6689
G01 X52.9174 Y23.6821
G01 X52.8448 Y23.7003
G01 X52.8002 Y23.7091
G01 X52.7263 Y23.7201
G01 X52.6810 Y23.7246
G01 X52.6063 Y23.7282
G01 X52.5609 Y23.7282
G01 X52.4862 Y23.7246
G01 X52.4409 Y23.7201
G01 X52.3669 Y23.7091
G01 X52.3223 Y23.7003
G01 X52.2498 Y23.6821
G01 X52.2063 Y23.6689
G01 X52.1359 Y23.6437
G01 X52.0939 Y23.6263
G01 X52.0263 Y23.5943
G01 X51.9861 Y23.5729
G01 X51.9220 Y23.5344
G01 X51.8842 Y23.5092
G01 X51.8274 Y23.4670
G01 X51.0072 Y23.4670
G01 X51.0072 Y24.0797
G01 X56.9074 Y24.0797
G01 X56.9642 Y24.0376
G01 X57.0020 Y24.0123
G01 X57.0661 Y23.9739
G01 X57.1063 Y23.9525
G01 X57.1739 Y23.9205
G01 X57.2159 Y23.9031
G01 X57.2863 Y23.8779
G01 X57.3298 Y23.8647
G01 X57.4023 Y23.8465
G01 X57.4469 Y23.8376
G01 X57.5209 Y23.8267
G01 X57.5662 Y23.8222
G01 X57.6409 Y23.8185
G01 X57.6863 Y23.8185
G01 X57.7610 Y23.8222
G01 X57.8063 Y23.8267
G01 X57.8802 Y23.8376
G01 X57.9248 Y23.8465
G01 X57.9974 Y23.8647
G01 X58.0409 Y23.8779
G01 X58.1113 Y23.9031
G01 X58.1533 Y23.9205
G01 X58.2209 Y23.9525
G01 X58.2610 Y23.9739
G01 X58.3252 Y24.0123
G01 X58.3630 Y24.0376
G01 X58.4230 Y24.0821
G01 X58.4582 Y24.1110
G01 X58.5136 Y24.1612
G01 X58.5458 Y24.1934
G01 X58.5960 Y24.2488
G01 X58.6248 Y24.2839
G01 X58.6694 Y24.3440
G01 X58.6946 Y24.3818
G01 X58.7331 Y24.4459
G01 X58.7545 Y24.4861
G01 X58.7865 Y24.5537
G01 X58.8039 Y24.5957
G01 X58.8291 Y24.6661
G01 X58.8423 Y24.7096
G01 X58.8605 Y24.7821
G01 X58.8693 Y24.8267
G01 X58.8803 Y24.9007
G01 X58.8848 Y24.9460
G01 X58.8884 Y25.0206
G01 X58.8884 Y25.0661
G01 X58.8848 Y25.1408
G01 X58.8803 Y25.1861
G01 X58.8693 Y25.2600
G01 X58.8605 Y25.3046
G01 X58.8423 Y25.3772
G01 X58.8291 Y25.4207
G01 X58.8039 Y25.4911
G01 X58.7865 Y25.5331
G01 X58.7545 Y25.6007
G01 X58.7331 Y25.6408
G01 X58.6946 Y25.7050
G01 X58.6694 Y25.7428
G01 X58.6248 Y25.8028
G01 X58.5960 Y25.8380
G01 X58.5458 Y25.8934
G01 X58.5136 Y25.9256
G01 X58.4582 Y25.9758
G01 X58.4230 Y26.0046
G01 X58.3630 Y26.0492
G01 X58.3252 Y26.0744
G01 X58.2610 Y26.1129
G01 X58.2209 Y26.1343
G01 X58.1533 Y26.1663
G01 X58.1113 Y26.1837
G01 X58.0409 Y26.2089
G01 X57.9974 Y26.2221
G01 X57.9248 Y26.2403
G01 X57.8802 Y26.2491
G01 X57.8063 Y26.2601
G01 X57.7610 Y26.2646
G01 X57.6863 Y26.2682
G01 X57.6409 Y26.2682
G01 X57.5662 Y26.2646
G01 X57.5209 Y26.2601
G01 X57.4469 Y26.2491
G01 X57.4023 Y26.2403
G01 X57.3298 Y26.2221
G01 X57.2863 Y26.2089
G01 X57.2159 Y26.1837
G01 X57.1739 Y26.1663
G01 X57.1063 Y26.1343
G01 X57.0661 Y26.1129
G01 X57.0020 Y26.0744
G01 X56.9642 Y26.0492
G01 X56.9074 Y26.0070
G01 X51.0072 Y26.0070
G01 X51.0072 Y29.3672
G01 X51.0494 Y29.4240
G01 X51.0746 Y29.4618
G01 X51.1131 Y29.5259
G01 X51.1345 Y29.5661
G01 X51.1665 Y29.6337
G01 X51.1839 Y29.6757
G01 X51.2091 Y29.7461
G01 X51.2223 Y29.7896
G01 X51.2405 Y29.8621
G01 X51.2493 Y29.9067
G01 X51.2603 Y29.9807
G01 X51.2648 Y30.0260
G01 X51.2684 Y30.1006
G01 X51.2684 Y30.1461
G01 X51.2648 Y30.2208
G01 X51.2603 Y30.2661
G01 X51.2493 Y30.3400
G01 X51.2405 Y30.3846
G01 X51.2223 Y30.4572
G01 X51.2091 Y30.5007
G01 X51.1839 Y30.5711
G01 X51.1665 Y30.6131
G01 X51.1345 Y30.6807
G01 X51.1131 Y30.7208
G01 X51.0746 Y30.7850
G01 X51.0494 Y30.8228
G01 X51.0048 Y30.8828
G01 X50.9760 Y30.9180
G01 X50.9258 Y30.9734
G01 X50.8936 Y31.0056
G01 X50.8382 Y31.0558
G01 X50.8030 Y31.0846
G01 X50.7430 Y31.1292
G01 X50.7052 Y31.1544
G01 X50.6410 Y31.1929
G01 X50.6009 Y31.2143
G01 X50.5333 Y31.2463
G01 X50.4913 Y31.2637
G01 X50.4209 Y31.2889
G01 X50.3774 Y31.3021
G01 X50.3048 Y31.3203
G01 X50.2602 Y31.3291
G01 X50.1863 Y31.3401
G01 X50.1410 Y31.3446
G01 X50.0663 Y31.3482
G01 X50.0209 Y31.3482
G01 X49.9462 Y31.3446
G01 X49.9009 Y31.3401
G01 X49.8269 Y31.3291
G01 X49.7823 Y31.3203
G01 X49.7098 Y31.3021
G01 X49.6663 Y31.2889
G01 X49.5959 Y31.2637
G01 X49.5539 Y31.2463
G01 X49.4863 Y31.2143
G01 X49.4461 Y31.1929
G01 X49.3820 Y31.1544
G01 X49.3442 Y31.1292
G01 X49.2841 Y31.0846
G01 X49.2490 Y31.0558
G01 X49.1936 Y31.0056
G01 X49.1614 Y30.9734
G01 X49.1112 Y30.9180
G01 X49.0823 Y30.8828
G01 X49.0378 Y30.8228
G01 X49.0125 Y30.7850
G01 X48.9741 Y30.7208
G01 X48.9527 Y30.6807
G01 X48.9207 Y30.6131
G01 X48.9033 Y30.5711
G01 X48.8781 Y30.5007
G01 X48.8649 Y30.4572
G01 X48.8467 Y30.3846
G01 X48.8378 Y30.3400
G01 X48.8269 Y30.2661
G01 X48.8224 Y30.2208
G01 X48.8187 Y30.1461
G01 X48.8187 Y30.1006
G01 X48.8224 Y30.0260
G01 X48.8269 Y29.9807
G01 X48.8378 Y29.9067
G01 X48.8467 Y29.8621
G01 X48.8649 Y29.7896
G01 X48.8781 Y29.7461
G01 X48.9033 Y29.6757
G01 X48.9207 Y29.6337
G01 X48.9527 Y29.5661
G01 X48.9741 Y29.5259
G01 X49.0125 Y29.4618
G01 X49.0378 Y29.4240
G01 X49.0799 Y29.3672
G00 Z2.0000
G00 X56.0872 Y34.5532
G01 F60.00
G01 Z-0.2001
G01 F320.00
G01 X56.0872 Y33.3135
G01 X56.1205 Y33.3584
G01 X56.1493 Y33.3935
G01 X56.1929 Y33.4416
G01 X56.2250 Y33.4737
G01 X56.2730 Y33.5172
G01 X56.3082 Y33.5461
G01 X56.3602 Y33.5847
G01 X56.3981 Y33.6100
G01 X56.4536 Y33.6433
G01 X56.4937 Y33.6647
G01 X56.5523 Y33.6924
G01 X56.5944 Y33.7098
G01 X56.6554 Y33.7317
G01 X56.6989 Y33.7449
G01 X56.7618 Y33.7606
G01 X56.8064 Y33.7695
G01 X56.8705 Y33.7790
G01 X56.9157 Y33.7834
G01 X56.9805 Y33.7866
G01 X57.0032 Y33.7872
G01 X58.3240 Y33.7872
G01 X58.3467 Y33.7866
G01 X58.4115 Y33.7834
G01 X58.4567 Y33.7790
G01 X58.5208 Y33.7695
G01 X58.5654 Y33.7606
G01 X58.6283 Y33.7449
G01 X58.6718 Y33.7317
G01 X58.7328 Y33.7098
G01 X58.7748 Y33.6924
G01 X58.8334 Y33.6647
G01 X58.8735 Y33.6433
G01 X58.9291 Y33.6100
G01 X58.9669 Y33.5847
G01 X59.0190 Y33.5461
G01 X59.0541 Y33.5172
G01 X59.1022 Y33.4737
G01 X59.1343 Y33.4416
G01 X59.1778 Y33.3935
G01 X59.2067 Y33.3584
G01 X59.2399 Y33.3135
G01 X59.2399 Y34.5532
G01 X59.2067 Y34.5084
G01 X59.1778 Y34.4732
G01 X59.1343 Y34.4252
G01 X59.1022 Y34.3931
G01 X59.0541 Y34.3495
G01 X59.0190 Y34.3207
G01 X58.9669 Y34.2821
G01 X58.9291 Y34.2568
G01 X58.8735 Y34.2235
G01 X58.8334 Y34.2021
G01 X58.7748 Y34.1743
G01 X58.7328 Y34.1569
G01 X58.6718 Y34.1351
G01 X58.6283 Y34.1219
G01 X58.5654 Y34.1062
G01 X58.5208 Y34.0973
G01 X58.4567 Y34.0878
G01 X58.4115 Y34.0833
G01 X58.3467 Y34.0801
G01 X58.3240 Y34.0796
G01 X57.0032 Y34.0796
G01 X56.9805 Y34.0801
G01 X56.9157 Y34.0833
G01 X56.8705 Y34.0878
G01 X56.8064 Y34.0973
G01 X56.7618 Y34.1062
G01 X56.6989 Y34.1219
G01 X56.6554 Y34.1351
G01 X56.5944 Y34.1569
G01 X56.5523 Y34.1743
G01 X56.4937 Y34.2021
G01 X56.4536 Y34.2235
G01 X56.3981 Y34.2568
G01 X56.3602 Y34.2821
G01 X56.3082 Y34.3207
G01 X56.2730 Y34.3495
G01 X56.2250 Y34.3931
G01 X56.1929 Y34.4252
G01 X56.1493 Y34.4732
G01 X56.1205 Y34.5084
G01 X56.0872 Y34.5532
G00 Z2.0000
G00 X59.2399 Y35.8535
G01 F60.00
G01 Z-0.2001
G01 F320.00
G01 X59.2399 Y42.1732
G01 X59.2067 Y42.1284
G01 X59.1778 Y42.0932
G01 X59.1343 Y42.0452
G01 X59.1022 Y42.0131
G01 X59.0541 Y41.9695
G01 X59.0190 Y41.9407
G01 X58.9669 Y41.9021
G01 X58.9291 Y41.8768
G01 X58.8735 Y41.8435
G01 X58.8334 Y41.8221
G01 X58.7748 Y41.7943
G01 X58.7328 Y41.7769
G01 X58.6718 Y41.7551
G01 X58.6283 Y41.7419
G01 X58.5654 Y41.7262
G01 X58.5208 Y41.7173
G01 X58.4567 Y41.7078
G01 X58.4115 Y41.7033
G01 X58.3467 Y41.7001
G01 X58.3240 Y41.6996
G01 X57.0032 Y41.6996
G01 X56.9805 Y41.7001
G01 X56.9157 Y41.7033
G01 X56.8705 Y41.7078
G01 X56.8064 Y41.7173
G01 X56.7618 Y41.7262
G01 X56.6989 Y41.7419
G01 X56.6554 Y41.7551
G01 X56.5944 Y41.7769
G01 X56.5523 Y41.7943
G01 X56.4937 Y41.8221
G01 X56.4536 Y41.8435
G01 X56.3981 Y41.8768
G01 X56.3602 Y41.9021
G01 X56.3082 Y41.9407
G01 X56.2730 Y41.9695
G01 X56.2250 Y42.0131
G01 X56.1929 Y42.0452
G01 X56.1493 Y42.0932
G01 X56.1205 Y42.1284
G01 X56.0872 Y42.1732
G01 X56.0872 Y41.2470
G01 X57.6636 Y41.2470
G01 X57.6863 Y41.2465
G01 X57.7354 Y41.2441
G01 X57.7806 Y41.2396
G01 X57.8292 Y41.2324
G01 X57.8738 Y41.2235
G01 X57.9214 Y41.2116
G01 X57.9649 Y41.1984
G01 X58.0111 Y41.1819
G01 X58.0532 Y41.1645
G01 X58.0975 Y41.1435
G01 X58.1376 Y41.1220
G01 X58.1797 Y41.0968
G01 X58.2176 Y41.0715
G01 X58.2570 Y41.0423
G01 X58.2921 Y41.0134
G01 X58.3285 Y40.9805
G01 X58.3607 Y40.9483
G01 X58.3936 Y40.9119
G01 X58.4225 Y40.8768
G01 X58.4517 Y40.8374
G01 X58.4770 Y40.7995
G01 X58.5022 Y40.7574
G01 X58.5237 Y40.7173
G01 X58.5447 Y40.6729
G01 X58.5621 Y40.6309
G01 X58.5786 Y40.5847
G01 X58.5918 Y40.5412
G01 X58.6037 Y40.4936
G01 X58.6126 Y40.4490
G01 X58.6198 Y40.4004
G01 X58.6243 Y40.3552
G01 X58.6267 Y40.3061
G01 X58.6272 Y40.2834
G01 X58.6272 Y36.2851
G01 X58.6718 Y36.2717
G01 X58.7328 Y36.2498
G01 X58.7748 Y36.2324
G01 X58.8334 Y36.2047
G01 X58.8735 Y36.1833
G01 X58.9291 Y36.1500
G01 X58.9669 Y36.1247
G01 X59.0190 Y36.0861
G01 X59.0541 Y36.0572
G01 X59.1022 Y36.0137
G01 X59.1343 Y35.9816
G01 X59.1778 Y35.9335
G01 X59.2067 Y35.8984
G01 X59.2399 Y35.8535
G00 Z2.0000
G00 X58.3240 Y31.5396
G01 F60.00
G01 Z-0.2001
G01 F320.00
G01 X58.3467 Y31.5401
G01 X58.4115 Y31.5433
G01 X58.4567 Y31.5478
G01 X58.5208 Y31.5573
G01 X58.5654 Y31.5662
G01 X58.6283 Y31.5819
G01 X58.6718 Y31.5951
G01 X58.7328 Y31.6169
G01 X58.7748 Y31.6343
G01 X58.8334 Y31.6621
G01 X58.8735 Y31.6835
G01 X58.9291 Y31.7168
G01 X58.9669 Y31.7421
G01 X59.0190 Y31.7807
G01 X59.0541 Y31.8095
G01 X59.1022 Y31.8531
G01 X59.1343 Y31.8852
G01 X59.1778 Y31.9332
G01 X59.2067 Y31.9684
G01 X59.2453 Y32.0204
G01 X59.2706 Y32.0583
G01 X59.3039 Y32.1138
G01 X59.3253 Y32.1539
G01 X59.3528 Y32.2121
G01 X59.3649 Y32.1893
G01 X59.3902 Y32.1472
G01 X59.4154 Y32.1094
G01 X59.4447 Y32.0700
G01 X59.4735 Y32.0348
G01 X59.5065 Y31.9985
G01 X59.5387 Y31.9663
G01 X59.5750 Y31.9333
G01 X59.6102 Y31.9045
G01 X59.6496 Y31.8752
G01 X59.6874 Y31.8500
G01 X59.7295 Y31.8247
G01 X59.7696 Y31.8033
G01 X59.8140 Y31.7823
G01 X59.8560 Y31.7649
G01 X59.9023 Y31.7484
G01 X59.9458 Y31.7352
G01 X59.9934 Y31.7232
G01 X60.0380 Y31.7144
G01 X60.0866 Y31.7072
G01 X60.1318 Y31.7027
G01 X60.1809 Y31.7003
G01 X60.2036 Y31.6997
G01 X64.0465 Y31.6997
G01 X64.0736 Y31.6835
G01 X64.1137 Y31.6621
G01 X64.1723 Y31.6343
G01 X64.2144 Y31.6169
G01 X64.2754 Y31.5951
G01 X64.3189 Y31.5819
G01 X64.3818 Y31.5662
G01 X64.4264 Y31.5573
G01 X64.4905 Y31.5478
G01 X64.5357 Y31.5433
G01 X64.6005 Y31.5401
G01 X64.6232 Y31.5396
G01 X65.9440 Y31.5396
G01 X65.9667 Y31.5401
G01 X66.0315 Y31.5433
G01 X66.0767 Y31.5478
G01 X66.1408 Y31.5573
G01 X66.1854 Y31.5662
G01 X66.2483 Y31.5819
G01 X66.2918 Y31.5951
G01 X66.3528 Y31.6169
G01 X66.3948 Y31.6343
G01 X66.4534 Y31.6621
G01 X66.4935 Y31.6835
G01 X66.5491 Y31.7168
G01 X66.5869 Y31.7421
G01 X66.6390 Y31.7807
G01 X66.6741 Y31.8095
G01 X66.7222 Y31.8531
G01 X66.7543 Y31.8852
G01 X66.7978 Y31.9332
G01 X66.8267 Y31.9684
G01 X66.8599 Y32.0132
G01 X66.8599 Y28.5470
G01 X66.0398 Y28.5470
G01 X65.9830 Y28.5892
G01 X65.9452 Y28.6144
G01 X65.8810 Y28.6529
G01 X65.8409 Y28.6743
G01 X65.7733 Y28.7063
G01 X65.7313 Y28.7237
G01 X65.6609 Y28.7489
G01 X65.6174 Y28.7621
G01 X65.5448 Y28.7803
G01 X65.5002 Y28.7891
G01 X65.4263 Y28.8001
G01 X65.3810 Y28.8046
G01 X65.3063 Y28.8082
G01 X65.2609 Y28.8082
G01 X65.1862 Y28.8046
G01 X65.1409 Y28.8001
G01 X65.0669 Y28.7891
G01 X65.0223 Y28.7803
G01 X64.9498 Y28.7621
G01 X64.9063 Y28.7489
G01 X64.8359 Y28.7237
G01 X64.7939 Y28.7063
G01 X64.7263 Y28.6743
G01 X64.6861 Y28.6529
G01 X64.6220 Y28.6144
G01 X64.5842 Y28.5892
G01 X64.5241 Y28.5446
G01 X64.4890 Y28.5158
G01 X64.4336 Y28.4656
G01 X64.4014 Y28.4334
G01 X64.3512 Y28.3780
G01 X64.3223 Y28.3428
G01 X64.2778 Y28.2828
G01 X64.2525 Y28.2450
G01 X64.2141 Y28.1808
G01 X64.1927 Y28.1407
G01 X64.1607 Y28.0731
G01 X64.1433 Y28.0311
G01 X64.1181 Y27.9607
G01 X64.1049 Y27.9172
G01 X64.0867 Y27.8446
G01 X64.0778 Y27.8000
G01 X64.0669 Y27.7261
G01 X64.0624 Y27.6808
G01 X64.0587 Y27.6061
G01 X64.0587 Y27.5606
G01 X64.0624 Y27.4860
G01 X64.0669 Y27.4407
G01 X64.0778 Y27.3667
G01 X64.0867 Y27.3221
G01 X64.1049 Y27.2496
G01 X64.1181 Y27.2061
G01 X64.1433 Y27.1357
G01 X64.1607 Y27.0937
G01 X64.1927 Y27.0261
G01 X64.2141 Y26.9859
G01 X64.2525 Y26.9218
G01 X64.2778 Y26.8840
G01 X64.3223 Y26.8239
G01 X64.3512 Y26.7888
G01 X64.4014 Y26.7334
G01 X64.4336 Y26.7012
G01 X64.4890 Y26.6510
G01 X64.5241 Y26.6221
G01 X64.5842 Y26.5776
G01 X64.6220 Y26.5523
G01 X64.6861 Y26.5139
G01 X64.7263 Y26.4925
G01 X64.7939 Y26.4605
G01 X64.8359 Y26.4431
G01 X64.9063 Y26.4179
G01 X64.9498 Y26.4047
G01 X65.0223 Y26.3865
G01 X65.0669 Y26.3776
G01 X65.1409 Y26.3667
G01 X65.1862 Y26.3622
G01 X65.2609 Y26.3585
G01 X65.3063 Y26.3585
G01 X65.3810 Y26.3622
G01 X65.4263 Y26.3667
G01 X65.5002 Y26.3776
G01 X65.5448 Y26.3865
G01 X65.6174 Y26.4047
G01 X65.6609 Y26.4179
G01 X65.7313 Y26.4431
G01 X65.7733 Y26.4605
G01 X65.8409 Y26.4925
G01 X65.8810 Y26.5139
G01 X65.9452 Y26.5523
G01 X65.9830 Y26.5776
G01 X66.0398 Y26.6197
G01 X67.0674 Y26.6197
G01 X67.1242 Y26.5776
G01 X67.1620 Y26.5523
G01 X67.2261 Y26.5139
G01 X67.2663 Y26.4925
G01 X67.3339 Y26.4605
G01 X67.3759 Y26.4431
G01 X67.4463 Y26.4179
G01 X67.4898 Y26.4047
G01 X67.5623 Y26.3865
G01 X67.6069 Y26.3776
G01 X67.6809 Y26.3667
G01 X67.7262 Y26.3622
G01 X67.8009 Y26.3585
G01 X67.8463 Y26.3585
G01 X67.9210 Y26.3622
G01 X67.9663 Y26.3667
G01 X68.0402 Y26.3776
G01 X68.0848 Y26.3865
G01 X68.1574 Y26.4047
G01 X68.2009 Y26.4179
G01 X68.2713 Y26.4431
G01 X68.3133 Y26.4605
G01 X68.3809 Y26.4925
G01 X68.4210 Y26.5139
G01 X68.4852 Y26.5523
G01 X68.5230 Y26.5776
G01 X68.5830 Y26.6221
G01 X68.6182 Y26.6510
G01 X68.6736 Y26.7012
G01 X68.7058 Y26.7334
G01 X68.7560 Y26.7888
G01 X68.7848 Y26.8239
G01 X68.8294 Y26.8840
G01 X68.8546 Y26.9218
G01 X68.8931 Y26.9859
G01 X68.9145 Y27.0261
G01 X68.9465 Y27.0937
G01 X68.9639 Y27.1357
G01 X68.9891 Y27.2061
G01 X69.0023 Y27.2496
G01 X69.0205 Y27.3221
G01 X69.0293 Y27.3667
G01 X69.0403 Y27.4407
G01 X69.0448 Y27.4860
G01 X69.0484 Y27.5606
G01 X69.0484 Y27.6061
G01 X69.0448 Y27.6808
G01 X69.0403 Y27.7261
G01 X69.0293 Y27.8000
G01 X69.0205 Y27.8446
G01 X69.0023 Y27.9172
G01 X68.9891 Y27.9607
G01 X68.9639 Y28.0311
G01 X68.9465 Y28.0731
G01 X68.9145 Y28.1407
G01 X68.8931 Y28.1808
G01 X68.8546 Y28.2450
G01 X68.8294 Y28.2828
G01 X68.7872 Y28.3396
G01 X68.7872 Y32.0132
G01 X68.8205 Y31.9684
G01 X68.8493 Y31.9332
G01 X68.8929 Y31.8852
G01 X68.9250 Y31.8531
G01 X68.9730 Y31.8095
G01 X69.0082 Y31.7807
G01 X69.0602 Y31.7421
G01 X69.0981 Y31.7168
G01 X69.1536 Y31.6835
G01 X69.1937 Y31.6621
G01 X69.2523 Y31.6343
G01 X69.2944 Y31.6169
G01 X69.3554 Y31.5951
G01 X69.3989 Y31.5819
G01 X69.4618 Y31.5662
G01 X69.5064 Y31.5573
G01 X69.5705 Y31.5478
G01 X69.6157 Y31.5433
G01 X69.6805 Y31.5401
G01 X69.7032 Y31.5396
G01 X71.0240 Y31.5396
G01 X71.0467 Y31.5401
G01 X71.1115 Y31.5433
G01 X71.1567 Y31.5478
G01 X71.2208 Y31.5573
G01 X71.2654 Y31.5662
G01 X71.3283 Y31.5819
G01 X71.3718 Y31.5951
G01 X71.4328 Y31.6169
G01 X71.4748 Y31.6343
G01 X71.5334 Y31.6621
G01 X71.5735 Y31.6835
G01 X71.6291 Y31.7168
G01 X71.6669 Y31.7421
G01 X71.7190 Y31.7807
G01 X71.7541 Y31.8095
G01 X71.8022 Y31.8531
G01 X71.8343 Y31.8852
G01 X71.8778 Y31.9332
G01 X71.9067 Y31.9684
G01 X71.9453 Y32.0204
G01 X71.9706 Y32.0583
G01 X72.0039 Y32.1138
G01 X72.0253 Y32.1539
G01 X72.0528 Y32.2121
G01 X72.0649 Y32.1893
G01 X72.0902 Y32.1472
G01 X72.1154 Y32.1094
G01 X72.1447 Y32.0700
G01 X72.1735 Y32.0348
G01 X72.2065 Y31.9985
G01 X72.2387 Y31.9663
G01 X72.2750 Y31.9333
G01 X72.3102 Y31.9045
G01 X72.3496 Y31.8752
G01 X72.3874 Y31.8500
G01 X72.4295 Y31.8247
G01 X72.4696 Y31.8033
G01 X72.5140 Y31.7823
G01 X72.5560 Y31.7649
G01 X72.6023 Y31.7484
G01 X72.6458 Y31.7352
G01 X72.6934 Y31.7232
G01 X72.7380 Y31.7144
G01 X72.7866 Y31.7072
G01 X72.8318 Y31.7027
G01 X72.8809 Y31.7003
G01 X72.9036 Y31.6997
G01 X76.7465 Y31.6997
G01 X76.7736 Y31.6835
G01 X76.8137 Y31.6621
G01 X76.8723 Y31.6343
G01 X76.9144 Y31.6169
G01 X76.9754 Y31.5951
G01 X77.0189 Y31.5819
G01 X77.0818 Y31.5662
G01 X77.1264 Y31.5573
G01 X77.1905 Y31.5478
G01 X77.2357 Y31.5433
G01 X77.3005 Y31.5401
G01 X77.3232 Y31.5396
G01 X78.6440 Y31.5396
G01 X78.6667 Y31.5401
G01 X78.7315 Y31.5433
G01 X78.7767 Y31.5478
G01 X78.8408 Y31.5573
G01 X78.8854 Y31.5662
G01 X78.9483 Y31.5819
G01 X78.9918 Y31.5951
G01 X79.0528 Y31.6169
G01 X79.0948 Y31.6343
G01 X79.1534 Y31.6621
G01 X79.1935 Y31.6835
G01 X79.2491 Y31.7168
G01 X79.2869 Y31.7421
G01 X79.3390 Y31.7807
G01 X79.3741 Y31.8095
G01 X79.4222 Y31.8531
G01 X79.4543 Y31.8852
G01 X79.4978 Y31.9332
G01 X79.5267 Y31.9684
G01 X79.5599 Y32.0132
G01 X79.5599 Y28.5470
G01 X78.7398 Y28.5470
G01 X78.6830 Y28.5892
G01 X78.6452 Y28.6144
G01 X78.5810 Y28.6529
G01 X78.5409 Y28.6743
G01 X78.4733 Y28.7063
G01 X78.4313 Y28.7237
G01 X78.3609 Y28.7489
G01 X78.3174 Y28.7621
G01 X78.2448 Y28.7803
G01 X78.2002 Y28.7891
G01 X78.1263 Y28.8001
G01 X78.0810 Y28.8046
G01 X78.0063 Y28.8082
G01 X77.9609 Y28.8082
G01 X77.8862 Y28.8046
G01 X77.8409 Y28.8001
G01 X77.7669 Y28.7891
G01 X77.7223 Y28.7803
G01 X77.6498 Y28.7621
G01 X77.6063 Y28.7489
G01 X77.5359 Y28.7237
G01 X77.4939 Y28.7063
G01 X77.4263 Y28.6743
G01 X77.3861 Y28.6529
G01 X77.3220 Y28.6144
G01 X77.2842 Y28.5892
G01 X77.2241 Y28.5446
G01 X77.1890 Y28.5158
G01 X77.1336 Y28.4656
G01 X77.1014 Y28.4334
G01 X77.0512 Y28.3780
G01 X77.0223 Y28.3428
G01 X76.9778 Y28.2828
G01 X76.9525 Y28.2450
G01 X76.9141 Y28.1808
G01 X76.8927 Y28.1407
G01 X76.8607 Y28.0731
G01 X76.8433 Y28.0311
G01 X76.8181 Y27.9607
G01 X76.8049 Y27.9172
G01 X76.7867 Y27.8446
G01 X76.7778 Y27.8000
G01 X76.7669 Y27.7261
G01 X76.7624 Y27.6808
G01 X76.7587 Y27.6061
G01 X76.7587 Y27.5606
G01 X76.7624 Y27.4860
G01 X76.7669 Y27.4407
G01 X76.7778 Y27.3667
G01 X76.7867 Y27.3221
G01 X76.8049 Y27.2496
G01 X76.8181 Y27.2061
G01 X76.8433 Y27.1357
G01 X76.8607 Y27.0937
G01 X76.8927 Y27.0261
G01 X76.9141 Y26.9859
G01 X76.9525 Y26.9218
G01 X76.9778 Y26.8840
G01 X77.0223 Y26.8239
G01 X77.0512 Y26.7888
G01 X77.1014 Y26.7334
G01 X77.1336 Y26.7012
G01 X77.1890 Y26.6510
G01 X77.2241 Y26.6221
G01 X77.2842 Y26.5776
G01 X77.3220 Y26.5523
G01 X77.3861 Y26.5139
G01 X77.4263 Y26.4925
G01 X77.4939 Y26.4605
G01 X77.5359 Y26.4431
G01 X77.6063 Y26.4179
G01 X77.6498 Y26.4047
G01 X77.7223 Y26.3865
G01 X77.7669 Y26.3776
G01 X77.8409 Y26.3667
G01 X77.8862 Y26.3622
G01 X77.9609 Y26.3585
G01 X78.0063 Y26.3585
G01 X78.0810 Y26.3622
G01 X78.1263 Y26.3667
G01 X78.2002 Y26.3776
G01 X78.2448 Y26.3865
G01 X78.3174 Y26.4047
G01 X78.3609 Y26.4179
G01 X78.4313 Y26.4431
G01 X78.4733 Y26.4605
G01 X78.5409 Y26.4925
G01 X78.5810 Y26.5139
G01 X78.6452 Y26.5523
G01 X78.6830 Y26.5776
G01 X78.7398 Y26.6197
G01 X79.7674 Y26.6197
G01 X79.8242 Y26.5776
G01 X79.8620 Y26.5523
G01 X79.9261 Y26.5139
G01 X79.9663 Y26.4925
G01 X80.0339 Y26.4605
G01 X80.0759 Y26.4431
G01 X80.1463 Y26.4179
G01 X80.1898 Y26.4047
G01 X80.2623 Y26.3865
G01 X80.3069 Y26.3776
G01 X80.3809 Y26.3667
G01 X80.4262 Y26.3622
G01 X80.5009 Y26.3585
G01 X80.5463 Y26.3585
G01 X80.6210 Y26.3622
G01 X80.6663 Y26.3667
G01 X80.7402 Y26.3776
G01 X80.7848 Y26.3865
G01 X80.8574 Y26.4047
G01 X80.9009 Y26.4179
G01 X80.9713 Y26.4431
G01 X81.0133 Y26.4605
G01 X81.0809 Y26.4925
G01 X81.1210 Y26.5139
G01 X81.1852 Y26.5523
G01 X81.2230 Y26.5776
G01 X81.2830 Y26.6221
G01 X81.3182 Y26.6510
G01 X81.3736 Y26.7012
G01 X81.4058 Y26.7334
G01 X81.4560 Y26.7888
G01 X81.4848 Y26.8239
G01 X81.5294 Y26.8840
G01 X81.5546 Y26.9218
G01 X81.5931 Y26.9859
G01 X81.6145 Y27.0261
G01 X81.6465 Y27.0937
G01 X81.6639 Y27.1357
G01 X81.6891 Y27.2061
G01 X81.7023 Y27.2496
G01 X81.7205 Y27.3221
G01 X81.7293 Y27.3667
G01 X81.7403 Y27.4407
G01 X81.7448 Y27.4860
G01 X81.7484 Y27.5606
G01 X81.7484 Y27.6061
G01 X81.7448 Y27.6808
G01 X81.7403 Y27.7261
G01 X81.7293 Y27.8000
G01 X81.7205 Y27.8446
G01 X81.7023 Y27.9172
G01 X81.6891 Y27.9607
G01 X81.6639 Y28.0311
G01 X81.6465 Y28.0731
G01 X81.6145 Y28.1407
G01 X81.5931 Y28.1808
G01 X81.5546 Y28.2450
G01 X81.5294 Y28.2828
G01 X81.4872 Y28.3396
G01 X81.4872 Y32.0132
G01 X81.5205 Y31.9684
G01 X81.5493 Y31.9332
G01 X81.5929 Y31.8852
G01 X81.6250 Y31.8531
G01 X81.6730 Y31.8095
G01 X81.7082 Y31.7807
G01 X81.7602 Y31.7421
G01 X81.7981 Y31.7168
G01 X81.8536 Y31.6835
G01 X81.8937 Y31.6621
G01 X81.9523 Y31.6343
G01 X81.9944 Y31.6169
G01 X82.0554 Y31.5951
G01 X82.0989 Y31.5819
G01 X82.1618 Y31.5662
G01 X82.2064 Y31.5573
G01 X82.2705 Y31.5478
G01 X82.3157 Y31.5433
G01 X82.3805 Y31.5401
G01 X82.4032 Y31.5396
G01 X83.7240 Y31.5396
G01 X83.7467 Y31.5401
G01 X83.8115 Y31.5433
G01 X83.8567 Y31.5478
G01 X83.9208 Y31.5573
G01 X83.9654 Y31.5662
G01 X84.0283 Y31.5819
G01 X84.0718 Y31.5951
G01 X84.1328 Y31.6169
G01 X84.1748 Y31.6343
G01 X84.2334 Y31.6621
G01 X84.2735 Y31.6835
G01 X84.3291 Y31.7168
G01 X84.3669 Y31.7421
G01 X84.4190 Y31.7807
G01 X84.4541 Y31.8095
G01 X84.5022 Y31.8531
G01 X84.5343 Y31.8852
G01 X84.5778 Y31.9332
G01 X84.6067 Y31.9684
G01 X84.6453 Y32.0204
G01 X84.6706 Y32.0583
G01 X84.7039 Y32.1138
G01 X84.7253 Y32.1539
G01 X84.7528 Y32.2121
G01 X84.7649 Y32.1893
G01 X84.7902 Y32.1472
G01 X84.8154 Y32.1094
G01 X84.8447 Y32.0700
G01 X84.8735 Y32.0348
G01 X84.9065 Y31.9985
G01 X84.9387 Y31.9663
G01 X84.9750 Y31.9333
G01 X85.0102 Y31.9045
G01 X85.0496 Y31.8752
G01 X85.0874 Y31.8500
G01 X85.1295 Y31.8247
G01 X85.1696 Y31.8033
G01 X85.2140 Y31.7823
G01 X85.2560 Y31.7649
G01 X85.3023 Y31.7484
G01 X85.3458 Y31.7352
G01 X85.3934 Y31.7232
G01 X85.4380 Y31.7144
G01 X85.4866 Y31.7072
G01 X85.5318 Y31.7027
G01 X85.5809 Y31.7003
G01 X85.6036 Y31.6997
G01 X89.4465 Y31.6997
G01 X89.4736 Y31.6835
G01 X89.5137 Y31.6621
G01 X89.5723 Y31.6343
G01 X89.6144 Y31.6169
G01 X89.6754 Y31.5951
G01 X89.7189 Y31.5819
G01 X89.7818 Y31.5662
G01 X89.8264 Y31.5573
G01 X89.8905 Y31.5478
G01 X89.9357 Y31.5433
G01 X90.0005 Y31.5401
G01 X90.0232 Y31.5396
G01 X91.3440 Y31.5396
G01 X91.3667 Y31.5401
G01 X91.4315 Y31.5433
G01 X91.4767 Y31.5478
G01 X91.5408 Y31.5573
G01 X91.5854 Y31.5662
G01 X91.6483 Y31.5819
G01 X91.6918 Y31.5951
G01 X91.7528 Y31.6169
G01 X91.7948 Y31.6343
G01 X91.8534 Y31.6621
G01 X91.8935 Y31.6835
G01 X91.9491 Y31.7168
G01 X91.9869 Y31.7421
G01 X92.0390 Y31.7807
G01 X92.0741 Y31.8095
G01 X92.1222 Y31.8531
G01 X92.1543 Y31.8852
G01 X92.1978 Y31.9332
G01 X92.2267 Y31.9684
G01 X92.2599 Y32.0132
G01 X92.2599 Y28.5470
G01 X91.4398 Y28.5470
G01 X91.3830 Y28.5892
G01 X91.3452 Y28.6144
G01 X91.2810 Y28.6529
G01 X91.2409 Y28.6743
G01 X91.1733 Y28.7063
G01 X91.1313 Y28.7237
G01 X91.0609 Y28.7489
G01 X91.0174 Y28.7621
G01 X90.9448 Y28.7803
G01 X90.9002 Y28.7891
G01 X90.8263 Y28.8001
G01 X90.7810 Y28.8046
G01 X90.7063 Y28.8082
G01 X90.6609 Y28.8082
G01 X90.5862 Y28.8046
G01 X90.5409 Y28.8001
G01 X90.4669 Y28.7891
G01 X90.4223 Y28.7803
G01 X90.3498 Y28.7621
G01 X90.3063 Y28.7489
G01 X90.2359 Y28.7237
G01 X90.1939 Y28.7063
G01 X90.1263 Y28.6743
G01 X90.0861 Y28.6529
G01 X90.0220 Y28.6144
G01 X89.9842 Y28.5892
G01 X89.9241 Y28.5446
G01 X89.8890 Y28.5158
G01 X89.8336 Y28.4656
G01 X89.8014 Y28.4334
G01 X89.7512 Y28.3780
G01 X89.7223 Y28.3428
G01 X89.6778 Y28.2828
G01 X89.6525 Y28.2450
G01 X89.6141 Y28.1808
G01 X89.5927 Y28.1407
G01 X89.5607 Y28.0731
G01 X89.5433 Y28.0311
G01 X89.5181 Y27.9607
G01 X89.5049 Y27.9172
G01 X89.4867 Y27.8446
G01 X89.4778 Y27.8000
G01 X89.4669 Y27.7261
G01 X89.4624 Y27.6808
G01 X89.4587 Y27.6061
G01 X89.4587 Y27.5606
G01 X89.4624 Y27.4860
G01 X89.4669 Y27.4407
G01 X89.4778 Y27.3667
G01 X89.4867 Y27.3221
G01 X89.5049 Y27.2496
G01 X89.5181 Y27.2061
G01 X89.5433 Y27.1357
G01 X89.5607 Y27.0937
G01 X89.5927 Y27.0261
G01 X89.6141 Y26.9859
G01 X89.6525 Y26.9218
G01 X89.6778 Y26.8840
G01 X89.7223 Y26.8239
G01 X89.7512 Y26.7888
G01 X89.8014 Y26.7334
G01 X89.8336 Y26.7012
G01 X89.8890 Y26.6510
G01 X89.9241 Y26.6221
G01 X89.9842 Y26.5776
G01 X90.0220 Y26.5523
G01 X90.0861 Y26.5139
G01 X90.1263 Y26.4925
G01 X90.1939 Y26.4605
G01 X90.2359 Y26.4431
G01 X90.3063 Y26.4179
G01 X90.3498 Y26.4047
G01 X90.4223 Y26.3865
G01 X90.4669 Y26.3776
G01 X90.5409 Y26.3667
G01 X90.5862 Y26.3622
G01 X90.6609 Y26.3585
G01 X90.7063 Y26.3585
G01 X90.7810 Y26.3622
G01 X90.8263 Y26.3667
G01 X90.9002 Y26.3776
G01 X90.9448 Y26.3865
G01 X91.0174 Y26.4047
G01 X91.0609 Y26.4179
G01 X91.1313 Y26.4431
G01 X91.1733 Y26.4605
G01 X91.2409 Y26.4925
G01 X91.2810 Y26.5139
G01 X91.3452 Y26.5523
G01 X91.3830 Y26.5776
G01 X91.4398 Y26.6197
G01 X92.4674 Y26.6197
G01 X92.5242 Y26.5776
G01 X92.5620 Y26.5523
G01 X92.6261 Y26.5139
G01 X92.6663 Y26.4925
G01 X92.7339 Y26.4605
G01 X92.7759 Y26.4431
G01 X92.8463 Y26.4179
G01 X92.8898 Y26.4047
G01 X92.9623 Y26.3865
G01 X93.0069 Y26.3776
G01 X93.0809 Y26.3667
G01 X93.1262 Y26.3622
G01 X93.2009 Y26.3585
G01 X93.2463 Y26.3585
G01 X93.3210 Y26.3622
G01 X93.3663 Y26.3667
G01 X93.4402 Y26.3776
G01 X93.4848 Y26.3865
G01 X93.5574 Y26.4047
G01 X93.6009 Y26.4179
G01 X93.6713 Y26.4431
G01 X93.7133 Y26.4605
G01 X93.7809 Y26.4925
G01 X93.8210 Y26.5139
G01 X93.8852 Y26.5523
G01 X93.9230 Y26.5776
G01 X93.9830 Y26.6221
G01 X94.0182 Y26.6510
G01 X94.0736 Y26.7012
G01 X94.1058 Y26.7334
G01 X94.1560 Y26.7888
G01 X94.1848 Y26.8239
G01 X94.2294 Y26.8840
G01 X94.2546 Y26.9218
G01 X94.2931 Y26.9859
G01 X94.3145 Y27.0261
G01 X94.3465 Y27.0937
G01 X94.3639 Y27.1357
G01 X94.3891 Y27.2061
G01 X94.4023 Y27.2496
G01 X94.4205 Y27.3221
G01 X94.4293 Y27.3667
G01 X94.4403 Y27.4407
G01 X94.4448 Y27.4860
G01 X94.4484 Y27.5606
G01 X94.4484 Y27.6061
G01 X94.4448 Y27.6808
G01 X94.4403 Y27.7261
G01 X94.4293 Y27.8000
G01 X94.4205 Y27.8446
G01 X94.4023 Y27.9172
G01 X94.3891 Y27.9607
G01 X94.3639 Y28.0311
G01 X94.3465 Y28.0731
G01 X94.3145 Y28.1407
G01 X94.2931 Y28.1808
G01 X94.2546 Y28.2450
G01 X94.2294 Y28.2828
G01 X94.1872 Y28.3396
G01 X94.1872 Y32.0132
G01 X94.2205 Y31.9684
G01 X94.2493 Y31.9332
G01 X94.2929 Y31.8852
G01 X94.3250 Y31.8531
G01 X94.3730 Y31.8095
G01 X94.4082 Y31.7807
G01 X94.4602 Y31.7421
G01 X94.4981 Y31.7168
G01 X94.5536 Y31.6835
G01 X94.5937 Y31.6621
G01 X94.6523 Y31.6343
G01 X94.6944 Y31.6169
G01 X94.7554 Y31.5951
G01 X94.7989 Y31.5819
G01 X94.8618 Y31.5662
G01 X94.9064 Y31.5573
G01 X94.9705 Y31.5478
G01 X95.0157 Y31.5433
G01 X95.0805 Y31.5401
G01 X95.1032 Y31.5396
G01 X96.4240 Y31.5396
G01 X96.4467 Y31.5401
G01 X96.5115 Y31.5433
G01 X96.5567 Y31.5478
G01 X96.6208 Y31.5573
G01 X96.6654 Y31.5662
G01 X96.7283 Y31.5819
G01 X96.7718 Y31.5951
G01 X96.8328 Y31.6169
G01 X96.8748 Y31.6343
G01 X96.9334 Y31.6621
G01 X96.9735 Y31.6835
G01 X97.0291 Y31.7168
G01 X97.0669 Y31.7421
G01 X97.1190 Y31.7807
G01 X97.1541 Y31.8095
G01 X97.2022 Y31.8531
G01 X97.2343 Y31.8852
G01 X97.2778 Y31.9332
G01 X97.3067 Y31.9684
G01 X97.3453 Y32.0204
G01 X97.3706 Y32.0583
G01 X97.4039 Y32.1138
G01 X97.4253 Y32.1539
G01 X97.4528 Y32.2121
G01 X97.4649 Y32.1893
G01 X97.4902 Y32.1472
G01 X97.5154 Y32.1094
G01 X97.5447 Y32.0700
G01 X97.5735 Y32.0348
G01 X97.6065 Y31.9985
G01 X97.6387 Y31.9663
G01 X97.6750 Y31.9333
G01 X97.7102 Y31.9045
G01 X97.7496 Y31.8752
G01 X97.7874 Y31.8500
G01 X97.8295 Y31.8247
G01 X97.8696 Y31.8033
G01 X97.9140 Y31.7823
G01 X97.9560 Y31.7649
G01 X98.0023 Y31.7484
G01 X98.0458 Y31.7352
G01 X98.0934 Y31.7232
G01 X98.1380 Y31.7144
G01 X98.1866 Y31.7072
G01 X98.2318 Y31.7027
G01 X98.2809 Y31.7003
G01 X98.3036 Y31.6997
G01 X102.1465 Y31.6997
G01 X102.1736 Y31.6835
G01 X102.2137 Y31.6621
G01 X102.2723 Y31.6343
G01 X102.3144 Y31.6169
G01 X102.3754 Y31.5951
G01 X102.4189 Y31.5819
G01 X102.4818 Y31.5662
G01 X102.5264 Y31.5573
G01 X102.5905 Y31.5478
G01 X102.6357 Y31.5433
G01 X102.7005 Y31.5401
G01 X102.7232 Y31.5396
G01 X104.0440 Y31.5396
G01 X104.0667 Y31.5401
G01 X104.1315 Y31.5433
G01 X104.1767 Y31.5478
G01 X104.2408 Y31.5573
G01 X104.2854 Y31.5662
G01 X104.3483 Y31.5819
G01 X104.3918 Y31.5951
G01 X104.4528 Y31.6169
G01 X104.4948 Y31.6343
G01 X104.5534 Y31.6621
G01 X104.5935 Y31.6835
G01 X104.6491 Y31.7168
G01 X104.6869 Y31.7421
G01 X104.7390 Y31.7807
G01 X104.7741 Y31.8095
G01 X104.8222 Y31.8531
G01 X104.8543 Y31.8852
G01 X104.8978 Y31.9332
G01 X104.9267 Y31.9684
G01 X104.9599 Y32.0132
G01 X104.9599 Y28.5470
G01 X104.1398 Y28.5470
G01 X104.0830 Y28.5892
G01 X104.0452 Y28.6144
G01 X103.9810 Y28.6529
G01 X103.9409 Y28.6743
G01 X103.8733 Y28.7063
G01 X103.8313 Y28.7237
G01 X103.7609 Y28.7489
G01 X103.7174 Y28.7621
G01 X103.6448 Y28.7803
G01 X103.6002 Y28.7891
G01 X103.5263 Y28.8001
G01 X103.4810 Y28.8046
G01 X103.4063 Y28.8082
G01 X103.3609 Y28.8082
G01 X103.2862 Y28.8046
G01 X103.2409 Y28.8001
G01 X103.1669 Y28.7891
G01 X103.1223 Y28.7803
G01 X103.0498 Y28.7621
G01 X103.0063 Y28.7489
G01 X102.9359 Y28.7237
G01 X102.8939 Y28.7063
G01 X102.8263 Y28.6743
G01 X102.7861 Y28.6529
G01 X102.7220 Y28.6144
G01 X102.6842 Y28.5892
G01 X102.6241 Y28.5446
G01 X102.5890 Y28.5158
G01 X102.5336 Y28.4656
G01 X102.5014 Y28.4334
G01 X102.4512 Y28.3780
G01 X102.4223 Y28.3428
G01 X102.3778 Y28.2828
G01 X102.3525 Y28.2450
G01 X102.3141 Y28.1808
G01 X102.2927 Y28.1407
G01 X102.2607 Y28.0731
G01 X102.2433 Y28.0311
G01 X102.2181 Y27.9607
G01 X102.2049 Y27.9172
G01 X102.1867 Y27.8446
G01 X102.1778 Y27.8000
G01 X102.1669 Y27.7261
G01 X102.1624 Y27.6808
G01 X102.1587 Y27.6061
G01 X102.1587 Y27.5606
G01 X102.1624 Y27.4860
G01 X102.1669 Y27.4407
G01 X102.1778 Y27.3667
G01 X102.1867 Y27.3221
G01 X102.2049 Y27.2496
G01 X102.2181 Y27.2061
G01 X102.2433 Y27.1357
G01 X102.2607 Y27.0937
G01 X102.2927 Y27.0261
G01 X102.3141 Y26.9859
G01 X102.3525 Y26.9218
G01 X102.3778 Y26.8840
G01 X102.4223 Y26.8239
G01 X102.4512 Y26.7888
G01 X102.5014 Y26.7334
G01 X102.5336 Y26.7012
G01 X102.5890 Y26.6510
G01 X102.6241 Y26.6221
G01 X102.6842 Y26.5776
G01 X102.7220 Y26.5523
G01 X102.7861 Y26.5139
G01 X102.8263 Y26.4925
G01 X102.8939 Y26.4605
G01 X102.9359 Y26.4431
G01 X103.0063 Y26.4179
G01 X103.0498 Y26.4047
G01 X103.1223 Y26.3865
G01 X103.1669 Y26.3776
G01 X103.2409 Y26.3667
G01 X103.2862 Y26.3622
G01 X103.3609 Y26.3585
G01 X103.4063 Y26.3585
G01 X103.4810 Y26.3622
G01 X103.5263 Y26.3667
G01 X103.6002 Y26.3776
G01 X103.6448 Y26.3865
G01 X103.7174 Y26.4047
G01 X103.7609 Y26.4179
G01 X103.8313 Y26.4431
G01 X103.8733 Y26.4605
G01 X103.9409 Y26.4925
G01 X103.9810 Y26.5139
G01 X104.0452 Y26.5523
G01 X104.0830 Y26.5776
G01 X104.1398 Y26.6197
G01 X105.1674 Y26.6197
G01 X105.2242 Y26.5776
G01 X105.2620 Y26.5523
G01 X105.3261 Y26.5139
G01 X105.3663 Y26.4925
G01 X105.4339 Y26.4605
G01 X105.4759 Y26.4431
G01 X105.5463 Y26.4179
G01 X105.5898 Y26.4047
G01 X105.6623 Y26.3865
G01 X105.7069 Y26.3776
G01 X105.7809 Y26.3667
G01 X105.8262 Y26.3622
G01 X105.9009 Y26.3585
G01 X105.9463 Y26.3585
G01 X106.0210 Y26.3622
G01 X106.0663 Y26.3667
G01 X106.1402 Y26.3776
G01 X106.1848 Y26.3865
G01 X106.2574 Y26.4047
G01 X106.3009 Y26.4179
G01 X106.3713 Y26.4431
G01 X106.4133 Y26.4605
G01 X106.4809 Y26.4925
G01 X106.5210 Y26.5139
G01 X106.5852 Y26.5523
G01 X106.6230 Y26.5776
G01 X106.6830 Y26.6221
G01 X106.7182 Y26.6510
G01 X106.7736 Y26.7012
G01 X106.8058 Y26.7334
G01 X106.8560 Y26.7888
G01 X106.8848 Y26.8239
G01 X106.9294 Y26.8840
G01 X106.9546 Y26.9218
G01 X106.9931 Y26.9859
G01 X107.0145 Y27.0261
G01 X107.0465 Y27.0937
G01 X107.0639 Y27.1357
G01 X107.0891 Y27.2061
G01 X107.1023 Y27.2496
G01 X107.1205 Y27.3221
G01 X107.1293 Y27.3667
G01 X107.1403 Y27.4407
G01 X107.1448 Y27.4860
G01 X107.1484 Y27.5606
G01 X107.1484 Y27.6061
G01 X107.1448 Y27.6808
G01 X107.1403 Y27.7261
G01 X107.1293 Y27.8000
G01 X107.1205 Y27.8446
G01 X107.1023 Y27.9172
G01 X107.0891 Y27.9607
G01 X107.0639 Y28.0311
G01 X107.0465 Y28.0731
G01 X107.0145 Y28.1407
G01 X106.9931 Y28.1808
G01 X106.9546 Y28.2450
G01 X106.9294 Y28.2828
G01 X106.8872 Y28.3396
G01 X106.8872 Y32.0132
G01 X106.9205 Y31.9684
G01 X106.9493 Y31.9332
G01 X106.9929 Y31.8852
G01 X107.0250 Y31.8531
G01 X107.0730 Y31.8095
G01 X107.1082 Y31.7807
G01 X107.1602 Y31.7421
G01 X107.1981 Y31.7168
G01 X107.2536 Y31.6835
G01 X107.2937 Y31.6621
G01 X107.3523 Y31.6343
G01 X107.3944 Y31.6169
G01 X107.4554 Y31.5951
G01 X107.4989 Y31.5819
G01 X107.5618 Y31.5662
G01 X107.6064 Y31.5573
G01 X107.6705 Y31.5478
G01 X107.7157 Y31.5433
G01 X107.7805 Y31.5401
G01 X107.8032 Y31.5396
G01 X109.1240 Y31.5396
G01 X109.1467 Y31.5401
G01 X109.2115 Y31.5433
G01 X109.2567 Y31.5478
G01 X109.3208 Y31.5573
G01 X109.3654 Y31.5662
G01 X109.4283 Y31.5819
G01 X109.4718 Y31.5951
G01 X109.5328 Y31.6169
G01 X109.5748 Y31.6343
G01 X109.6334 Y31.6621
G01 X109.6735 Y31.6835
G01 X109.7291 Y31.7168
G01 X109.7669 Y31.7421
G01 X109.8190 Y31.7807
G01 X109.8541 Y31.8095
G01 X109.9022 Y31.8531
G01 X109.9343 Y31.8852
G01 X109.9778 Y31.9332
G01 X110.0067 Y31.9684
G01 X110.0453 Y32.0204
G01 X110.0706 Y32.0583
G01 X110.1039 Y32.1138
G01 X110.1253 Y32.1539
G01 X110.1530 Y32.2125
G01 X110.1704 Y32.2545
G01 X110.1923 Y32.3156
G01 X110.2055 Y32.3591
G01 X110.2212 Y32.4219
G01 X110.2301 Y32.4666
G01 X110.2396 Y32.5307
G01 X110.2440 Y32.5759
G01 X110.2472 Y32.6406
G01 X110.2472 Y32.6861
G01 X110.2440 Y32.7509
G01 X110.2396 Y32.7961
G01 X110.2301 Y32.8602
G01 X110.2212 Y32.9048
G01 X110.2055 Y32.9677
G01 X110.1923 Y33.0112
G01 X110.1704 Y33.0722
G01 X110.1530 Y33.1142
G01 X110.1253 Y33.1728
G01 X110.1039 Y33.2129
G01 X110.0706 Y33.2685
G01 X110.0453 Y33.3063
G01 X110.0067 Y33.3584
G01 X109.9778 Y33.3935
G01 X109.9343 Y33.4416
G01 X109.9022 Y33.4737
G01 X109.8541 Y33.5172
G01 X109.8190 Y33.5461
G01 X109.7669 Y33.5847
G01 X109.7291 Y33.6100
G01 X109.6735 Y33.6433
G01 X109.6334 Y33.6647
G01 X109.5748 Y33.6924
G01 X109.5328 Y33.7098
G01 X109.4718 Y33.7317
G01 X109.4283 Y33.7449
G01 X109.3654 Y33.7606
G01 X109.3208 Y33.7695
G01 X109.2567 Y33.7790
G01 X109.2115 Y33.7834
G01 X109.1467 Y33.7866
G01 X109.1240 Y33.7872
G01 X107.8032 Y33.7872
G01 X107.7805 Y33.7866
G01 X107.7157 Y33.7834
G01 X107.6705 Y33.7790
G01 X107.6064 Y33.7695
G01 X107.5618 Y33.7606
G01 X107.4989 Y33.7449
G01 X107.4554 Y33.7317
G01 X107.3944 Y33.7098
G01 X107.3523 Y33.6924
G01 X107.2937 Y33.6647
G01 X107.2536 Y33.6433
G01 X107.1981 Y33.6100
G01 X107.1602 Y33.5847
G01 X107.1082 Y33.5461
G01 X107.0730 Y33.5172
G01 X107.0250 Y33.4737
G01 X106.9929 Y33.4416
G01 X106.9493 Y33.3935
G01 X106.9205 Y33.3584
G01 X106.8872 Y33.3135
G01 X106.8872 Y34.5532
G01 X106.9205 Y34.5084
G01 X106.9493 Y34.4732
G01 X106.9929 Y34.4252
G01 X107.0250 Y34.3931
G01 X107.0730 Y34.3495
G01 X107.1082 Y34.3207
G01 X107.1602 Y34.2821
G01 X107.1981 Y34.2568
G01 X107.2536 Y34.2235
G01 X107.2937 Y34.2021
G01 X107.3523 Y34.1743
G01 X107.3944 Y34.1569
G01 X107.4554 Y34.1351
G01 X107.4989 Y34.1219
G01 X107.5618 Y34.1062
G01 X107.6064 Y34.0973
G01 X107.6705 Y34.0878
G01 X107.7157 Y34.0833
G01 X107.7805 Y34.0801
G01 X107.8032 Y34.0796
G01 X109.1240 Y34.0796
G01 X109.1467 Y34.0801
G01 X109.2115 Y34.0833
G01 X109.2567 Y34.0878
G01 X109.3208 Y34.0973
G01 X109.3654 Y34.1062
G01 X109.4283 Y34.1219
G01 X109.4718 Y34.1351
G01 X109.5328 Y34.1569
G01 X109.5748 Y34.1743
G01 X109.6334 Y34.2021
G01 X109.6735 Y34.2235
G01 X109.7291 Y34.2568
G01 X109.7669 Y34.2821
G01 X109.8190 Y34.3207
G01 X109.8541 Y34.3495
G01 X109.9022 Y34.3931
G01 X109.9343 Y34.4252
G01 X109.9778 Y34.4732
G01 X110.0067 Y34.5084
G01 X110.0453 Y34.5604
G01 X110.0706 Y34.5983
G01 X110.1039 Y34.6538
G01 X110.1253 Y34.6939
G01 X110.1530 Y34.7525
G01 X110.1704 Y34.7945
G01 X110.1923 Y34.8556
G01 X110.2055 Y34.8991
G01 X110.2212 Y34.9619
G01 X110.2301 Y35.0066
G01 X110.2396 Y35.0707
G01 X110.2440 Y35.1159
G01 X110.2472 Y35.1806
G01 X110.2472 Y35.2261
G01 X110.2440 Y35.2909
G01 X110.2396 Y35.3361
G01 X110.2301 Y35.4002
G01 X110.2212 Y35.4448
G01 X110.2055 Y35.5077
G01 X110.1923 Y35.5512
G01 X110.1704 Y35.6122
G01 X110.1530 Y35.6542
G01 X110.1253 Y35.7128
G01 X110.1039 Y35.7529
G01 X110.0706 Y35.8085
G01 X110.0453 Y35.8463
G01 X110.0067 Y35.8984
G01 X109.9778 Y35.9335
G01 X109.9343 Y35.9816
G01 X109.9022 Y36.0137
G01 X109.8541 Y36.0572
G01 X109.8190 Y36.0861
G01 X109.7669 Y36.1247
G01 X109.7291 Y36.1500
G01 X109.6735 Y36.1833
G01 X109.6334 Y36.2047
G01 X109.5748 Y36.2324
G01 X109.5328 Y36.2498
G01 X109.4718 Y36.2717
G01 X109.4272 Y36.2851
G01 X109.4272 Y40.2834
G01 X109.4267 Y40.3061
G01 X109.4243 Y40.3552
G01 X109.4198 Y40.4004
G01 X109.4126 Y40.4490
G01 X109.4037 Y40.4936
G01 X109.3918 Y40.5412
G01 X109.3786 Y40.5847
G01 X109.3621 Y40.6309
G01 X109.3447 Y40.6729
G01 X109.3237 Y40.7173
G01 X109.3022 Y40.7574
G01 X109.2770 Y40.7995
G01 X109.2517 Y40.8374
G01 X109.2225 Y40.8768
G01 X109.1936 Y40.9119
G01 X109.1607 Y40.9483
G01 X109.1285 Y40.9805
G01 X109.0921 Y41.0134
G01 X109.0570 Y41.0423
G01 X109.0176 Y41.0715
G01 X108.9797 Y41.0968
G01 X108.9376 Y41.1220
G01 X108.8975 Y41.1435
G01 X108.8532 Y41.1645
G01 X108.8111 Y41.1819
G01 X108.7649 Y41.1984
G01 X108.7214 Y41.2116
G01 X108.6738 Y41.2235
G01 X108.6292 Y41.2324
G01 X108.5806 Y41.2396
G01 X108.5354 Y41.2441
G01 X108.4863 Y41.2465
G01 X108.4636 Y41.2470
G01 X106.8872 Y41.2470
G01 X106.8872 Y42.1732
G01 X106.9205 Y42.1284
G01 X106.9493 Y42.0932
G01 X106.9929 Y42.0452
G01 X107.0250 Y42.0131
G01 X107.0730 Y41.9695
G01 X107.1082 Y41.9407
G01 X107.1602 Y41.9021
G01 X107.1981 Y41.8768
G01 X107.2536 Y41.8435
G01 X107.2937 Y41.8221
G01 X107.3523 Y41.7943
G01 X107.3944 Y41.7769
G01 X107.4554 Y41.7551
G01 X107.4989 Y41.7419
G01 X107.5618 Y41.7262
G01 X107.6064 Y41.7173
G01 X107.6705 Y41.7078
G01 X107.7157 Y41.7033
G01 X107.7805 Y41.7001
G01 X107.8032 Y41.6996
G01 X109.1240 Y41.6996
G01 X109.1467 Y41.7001
G01 X109.2115 Y41.7033
G01 X109.2567 Y41.7078
G01 X109.3208 Y41.7173
G01 X109.3654 Y41.7262
G01 X109.4283 Y41.7419
G01 X109.4718 Y41.7551
G01 X109.5328 Y41.7769
G01 X109.5748 Y41.7943
G01 X109.6334 Y41.8221
G01 X109.6735 Y41.8435
G01 X109.7291 Y41.8768
G01 X109.7669 Y41.9021
G01 X109.8190 Y41.9407
G01 X109.8541 Y41.9695
G01 X109.9022 Y42.0131
G01 X109.9343 Y42.0452
G01 X109.9778 Y42.0932
G01 X110.0067 Y42.1284
G01 X110.0453 Y42.1804
G01 X110.0706 Y42.2183
G01 X110.1039 Y42.2738
G01 X110.1253 Y42.3139
G01 X110.1530 Y42.3725
G01 X110.1704 Y42.4145
G01 X110.1923 Y42.4756
G01 X110.2055 Y42.5191
G01 X110.2212 Y42.5819
G01 X110.2301 Y42.6266
G01 X110.2396 Y42.6907
G01 X110.2440 Y42.7359
G01 X110.2472 Y42.8006
G01 X110.2472 Y42.8461
G01 X110.2440 Y42.9109
G01 X110.2396 Y42.9561
G01 X110.2301 Y43.0202
G01 X110.2212 Y43.0648
G01 X110.2055 Y43.1277
G01 X110.1923 Y43.1712
G01 X110.1704 Y43.2322
G01 X110.1530 Y43.2742
G01 X110.1253 Y43.3328
G01 X110.1039 Y43.3729
G01 X110.0706 Y43.4285
G01 X110.0453 Y43.4663
G01 X110.0067 Y43.5184
G01 X109.9778 Y43.5535
G01 X109.9343 Y43.6016
G01 X109.9022 Y43.6337
G01 X109.8541 Y43.6772
G01 X109.8190 Y43.7061
G01 X109.7669 Y43.7447
G01 X109.7291 Y43.7700
G01 X109.6735 Y43.8033
G01 X109.6334 Y43.8247
G01 X109.5748 Y43.8524
G01 X109.5328 Y43.8698
G01 X109.4718 Y43.8917
G01 X109.4283 Y43.9049
G01 X109.3654 Y43.9206
G01 X109.3208 Y43.9295
G01 X109.2567 Y43.9390
G01 X109.2115 Y43.9434
G01 X109.1467 Y43.9466
G01 X109.1240 Y43.9472
G01 X107.8032 Y43.9472
G01 X107.7805 Y43.9466
G01 X107.7157 Y43.9434
G01 X107.6705 Y43.9390
G01 X107.6064 Y43.9295
G01 X107.5618 Y43.9206
G01 X107.4989 Y43.9049
G01 X107.4554 Y43.8917
G01 X107.3944 Y43.8698
G01 X107.3523 Y43.8524
G01 X107.2937 Y43.8247
G01 X107.2536 Y43.8033
G01 X107.1981 Y43.7700
G01 X107.1602 Y43.7447
G01 X107.1082 Y43.7061
G01 X107.0730 Y43.6772
G01 X107.0250 Y43.6337
G01 X106.9929 Y43.6016
G01 X106.9493 Y43.5535
G01 X106.9205 Y43.5184
G01 X106.8872 Y43.4735
G01 X106.8872 Y47.2532
G01 X106.9205 Y47.2084
G01 X106.9493 Y47.1732
G01 X106.9929 Y47.1252
G01 X107.0250 Y47.0931
G01 X107.0730 Y47.0495
G01 X107.1082 Y47.0207
G01 X107.1602 Y46.9821
G01 X107.1981 Y46.9568
G01 X107.2536 Y46.9235
G01 X107.2937 Y46.9021
G01 X107.3523 Y46.8743
G01 X107.3944 Y46.8569
G01 X107.4554 Y46.8351
G01 X107.4989 Y46.8219
G01 X107.5618 Y46.8062
G01 X107.6064 Y46.7973
G01 X107.6705 Y46.7878
G01 X107.7157 Y46.7833
G01 X107.7805 Y46.7801
G01 X107.8032 Y46.7796
G01 X109.1240 Y46.7796
G01 X109.1467 Y46.7801
G01 X109.2115 Y46.7833
G01 X109.2567 Y46.7878
G01 X109.3208 Y46.7973
G01 X109.3654 Y46.8062
G01 X109.4283 Y46.8219
G01 X109.4718 Y46.8351
G01 X109.5328 Y46.8569
G01 X109.5748 Y46.8743
G01 X109.6334 Y46.9021
G01 X109.6735 Y46.9235
G01 X109.7291 Y46.9568
G01 X109.7669 Y46.9821
G01 X109.8190 Y47.0207
G01 X109.8541 Y47.0495
G01 X109.9022 Y47.0931
G01 X109.9343 Y47.1252
G01 X109.9778 Y47.1732
G01 X110.0067 Y47.2084
G01 X110.0453 Y47.2604
G01 X110.0706 Y47.2983
G01 X110.1039 Y47.3538
G01 X110.1253 Y47.3939
G01 X110.1530 Y47.4525
G01 X110.1704 Y47.4945
G01 X110.1923 Y47.5556
G01 X110.2055 Y47.5991
G01 X110.2212 Y47.6619
G01 X110.2301 Y47.7066
G01 X110.2396 Y47.7707
G01 X110.2440 Y47.8159
G01 X110.2472 Y47.8806
G01 X110.2472 Y47.9261
G01 X110.2440 Y47.9909
G01 X110.2396 Y48.0361
G01 X110.2301 Y48.1002
G01 X110.2212 Y48.1448
G01 X110.2055 Y48.2077
G01 X110.1923 Y48.2512
G01 X110.1704 Y48.3122
G01 X110.1530 Y48.3542
G01 X110.1253 Y48.4128
G01 X110.1039 Y48.4529
G01 X110.0706 Y48.5085
G01 X110.0453 Y48.5463
G01 X110.0067 Y48.5984
G01 X109.9778 Y48.6335
G01 X109.9343 Y48.6816
G01 X109.9022 Y48.7137
G01 X109.8541 Y48.7572
G01 X109.8190 Y48.7861
G01 X109.7669 Y48.8247
G01 X109.7291 Y48.8500
G01 X109.6735 Y48.8833
G01 X109.6334 Y48.9047
G01 X109.5748 Y48.9324
G01 X109.5328 Y48.9498
G01 X109.4718 Y48.9717
G01 X109.4272 Y48.9851
G01 X109.4272 Y49.3616
G01 X109.4718 Y49.3751
G01 X109.5328 Y49.3969
G01 X109.5748 Y49.4143
G01 X109.6334 Y49.4421
G01 X109.6735 Y49.4635
G01 X109.7291 Y49.4968
G01 X109.7669 Y49.5221
G01 X109.8190 Y49.5607
G01 X109.8541 Y49.5895
G01 X109.9022 Y49.6331
G01 X109.9343 Y49.6652
G01 X109.9778 Y49.7132
G01 X110.0067 Y49.7484
G01 X110.0453 Y49.8004
G01 X110.0706 Y49.8383
G01 X110.1039 Y49.8938
G01 X110.1253 Y49.9339
G01 X110.1530 Y49.9925
G01 X110.1704 Y50.0345
G01 X110.1923 Y50.0956
G01 X110.2055 Y50.1391
G01 X110.2212 Y50.2019
G01 X110.2301 Y50.2466
G01 X110.2396 Y50.3107
G01 X110.2440 Y50.3559
G01 X110.2472 Y50.4206
G01 X110.2472 Y50.4661
G01 X110.2440 Y50.5309
G01 X110.2396 Y50.5761
G01 X110.2301 Y50.6402
G01 X110.2212 Y50.6848
G01 X110.2055 Y50.7477
G01 X110.1923 Y50.7912
G01 X110.1704 Y50.8522
G01 X110.1530 Y50.8942
G01 X110.1253 Y50.9528
G01 X110.1039 Y50.9929
G01 X110.0706 Y51.0485
G01 X110.0453 Y51.0863
G01 X110.0067 Y51.1384
G01 X109.9778 Y51.1735
G01 X109.9343 Y51.2216
G01 X109.9022 Y51.2537
G01 X109.8541 Y51.2972
G01 X109.8190 Y51.3261
G01 X109.7669 Y51.3647
G01 X109.7291 Y51.3900
G01 X109.6735 Y51.4233
G01 X109.6334 Y51.4447
G01 X109.5748 Y51.4724
G01 X109.5328 Y51.4898
G01 X109.4718 Y51.5117
G01 X109.4272 Y51.5251
G01 X109.4272 Y54.5597
G01 X111.0036 Y54.5597
G01 X111.0263 Y54.5603
G01 X111.0754 Y54.5627
G01 X111.1206 Y54.5672
G01 X111.1692 Y54.5744
G01 X111.2138 Y54.5832
G01 X111.2614 Y54.5952
G01 X111.3049 Y54.6084
G01 X111.3511 Y54.6249
G01 X111.3932 Y54.6423
G01 X111.4375 Y54.6633
G01 X111.4776 Y54.6847
G01 X111.5197 Y54.7100
G01 X111.5576 Y54.7352
G01 X111.5970 Y54.7645
G01 X111.6321 Y54.7933
G01 X111.6685 Y54.8263
G01 X111.7007 Y54.8585
G01 X111.7336 Y54.8948
G01 X111.7625 Y54.9300
G01 X111.7917 Y54.9694
G01 X111.8170 Y55.0072
G01 X111.8422 Y55.0493
G01 X111.8637 Y55.0894
G01 X111.8847 Y55.1338
G01 X111.9021 Y55.1758
G01 X111.9186 Y55.2221
G01 X111.9318 Y55.2656
G01 X111.9437 Y55.3132
G01 X111.9526 Y55.3578
G01 X111.9598 Y55.4064
G01 X111.9643 Y55.4516
G01 X111.9667 Y55.5006
G01 X111.9672 Y55.5234
G01 X111.9672 Y67.4672
G01 X112.0094 Y67.5240
G01 X112.0346 Y67.5618
G01 X112.0731 Y67.6259
G01 X112.0945 Y67.6661
G01 X112.1265 Y67.7337
G01 X112.1439 Y67.7757
G01 X112.1691 Y67.8461
G01 X112.1823 Y67.8896
G01 X112.2005 Y67.9621
G01 X112.2093 Y68.0067
G01 X112.2203 Y68.0807
G01 X112.2248 Y68.1260
G01 X112.2284 Y68.2006
G01 X112.2284 Y68.2461
G01 X112.2248 Y68.3208
G01 X112.2203 Y68.3661
G01 X112.2093 Y68.4400
G01 X112.2005 Y68.4846
G01 X112.1823 Y68.5572
G01 X112.1691 Y68.6007
G01 X112.1439 Y68.6711
G01 X112.1265 Y68.7131
G01 X112.0945 Y68.7807
G01 X112.0731 Y68.8208
G01 X112.0346 Y68.8850
G01 X112.0094 Y68.9228
G01 X111.9648 Y68.9828
G01 X111.9360 Y69.0180
G01 X111.8858 Y69.0734
G01 X111.8536 Y69.1056
G01 X111.7982 Y69.1558
G01 X111.7630 Y69.1846
G01 X111.7030 Y69.2292
G01 X111.6652 Y69.2544
G01 X111.6010 Y69.2929
G01 X111.5609 Y69.3143
G01 X111.4933 Y69.3463
G01 X111.4513 Y69.3637
G01 X111.3809 Y69.3889
G01 X111.3374 Y69.4021
G01 X111.2648 Y69.4203
G01 X111.2202 Y69.4291
G01 X111.1463 Y69.4401
G01 X111.1010 Y69.4446
G01 X111.0263 Y69.4482
G01 X110.9809 Y69.4482
G01 X110.9062 Y69.4446
G01 X110.8609 Y69.4401
G01 X110.7869 Y69.4291
G01 X110.7423 Y69.4203
G01 X110.6698 Y69.4021
G01 X110.6263 Y69.3889
G01 X110.5559 Y69.3637
G01 X110.5139 Y69.3463
G01 X110.4463 Y69.3143
G01 X110.4061 Y69.2929
G01 X110.3420 Y69.2544
G01 X110.3042 Y69.2292
G01 X110.2441 Y69.1846
G01 X110.2090 Y69.1558
G01 X110.1536 Y69.1056
G01 X110.1214 Y69.0734
G01 X110.0712 Y69.0180
G01 X110.0423 Y68.9828
G01 X109.9978 Y68.9228
G01 X109.9725 Y68.8850
G01 X109.9341 Y68.8208
G01 X109.9127 Y68.7807
G01 X109.8807 Y68.7131
G01 X109.8633 Y68.6711
G01 X109.8381 Y68.6007
G01 X109.8249 Y68.5572
G01 X109.8067 Y68.4846
G01 X109.7978 Y68.4400
G01 X109.7869 Y68.3661
G01 X109.7824 Y68.3208
G01 X109.7787 Y68.2461
G01 X109.7787 Y68.2006
G01 X109.7824 Y68.1260
G01 X109.7869 Y68.0807
G01 X109.7978 Y68.0067
G01 X109.8067 Y67.9621
G01 X109.8249 Y67.8896
G01 X109.8381 Y67.8461
G01 X109.8633 Y67.7757
G01 X109.8807 Y67.7337
G01 X109.9127 Y67.6661
G01 X109.9341 Y67.6259
G01 X109.9725 Y67.5618
G01 X109.9978 Y67.5240
G01 X110.0399 Y67.4672
G01 X110.0399 Y66.3335
G01 X110.0067 Y66.3784
G01 X109.9778 Y66.4135
G01 X109.9343 Y66.4616
G01 X109.9022 Y66.4937
G01 X109.8541 Y66.5372
G01 X109.8190 Y66.5661
G01 X109.7669 Y66.6047
G01 X109.7291 Y66.6300
G01 X109.6735 Y66.6633
G01 X109.6334 Y66.6847
G01 X109.5748 Y66.7124
G01 X109.5328 Y66.7298
G01 X109.4718 Y66.7517
G01 X109.4272 Y66.7651
G01 X109.4272 Y69.7997
G01 X111.0036 Y69.7997
G01 X111.0263 Y69.8003
G01 X111.0754 Y69.8027
G01 X111.1206 Y69.8072
G01 X111.1692 Y69.8144
G01 X111.2138 Y69.8232
G01 X111.2614 Y69.8352
G01 X111.3049 Y69.8484
G01 X111.3511 Y69.8649
G01 X111.3932 Y69.8823
G01 X111.4375 Y69.9033
G01 X111.4776 Y69.9247
G01 X111.5197 Y69.9500
G01 X111.5576 Y69.9752
G01 X111.5970 Y70.0045
G01 X111.6321 Y70.0333
G01 X111.6685 Y70.0663
G01 X111.7007 Y70.0985
G01 X111.7336 Y70.1348
G01 X111.7625 Y70.1700
G01 X111.7917 Y70.2094
G01 X111.8170 Y70.2472
G01 X111.8422 Y70.2893
G01 X111.8637 Y70.3294
G01 X111.8847 Y70.3738
G01 X111.9021 Y70.4158
G01 X111.9186 Y70.4621
G01 X111.9318 Y70.5056
G01 X111.9437 Y70.5532
G01 X111.9526 Y70.5978
G01 X111.9598 Y70.6464
G01 X111.9643 Y70.6916
G01 X111.9667 Y70.7406
G01 X111.9672 Y70.7634
G01 X111.9672 Y80.1672
G01 X112.0094 Y80.2240
G01 X112.0346 Y80.2618
G01 X112.0731 Y80.3259
G01 X112.0945 Y80.3661
G01 X112.1265 Y80.4337
G01 X112.1439 Y80.4757
G01 X112.1691 Y80.5461
G01 X112.1823 Y80.5896
G01 X112.2005 Y80.6621
G01 X112.2093 Y80.7067
G01 X112.2203 Y80.7807
G01 X112.2248 Y80.8260
G01 X112.2284 Y80.9006
G01 X112.2284 Y80.9461
G01 X112.2248 Y81.0208
G01 X112.2203 Y81.0661
G01 X112.2093 Y81.1400
G01 X112.2005 Y81.1846
G01 X112.1823 Y81.2572
G01 X112.1691 Y81.3007
G01 X112.1439 Y81.3711
G01 X112.1265 Y81.4131
G01 X112.0945 Y81.4807
G01 X112.0731 Y81.5208
G01 X112.0346 Y81.5850
G01 X112.0094 Y81.6228
G01 X111.9648 Y81.6828
G01 X111.9360 Y81.7180
G01 X111.8858 Y81.7734
G01 X111.8536 Y81.8056
G01 X111.7982 Y81.8558
G01 X111.7630 Y81.8846
G01 X111.7030 Y81.9292
G01 X111.6652 Y81.9544
G01 X111.6010 Y81.9929
G01 X111.5609 Y82.0143
G01 X111.4933 Y82.0463
G01 X111.4513 Y82.0637
G01 X111.3809 Y82.0889
G01 X111.3374 Y82.1021
G01 X111.2648 Y82.1203
G01 X111.2202 Y82.1291
G01 X111.1463 Y82.1401
G01 X111.1010 Y82.1446
G01 X111.0263 Y82.1482
G01 X110.9809 Y82.1482
G01 X110.9062 Y82.1446
G01 X110.8609 Y82.1401
G01 X110.7869 Y82.1291
G01 X110.7423 Y82.1203
G01 X110.6698 Y82.1021
G01 X110.6263 Y82.0889
G01 X110.5559 Y82.0637
G01 X110.5139 Y82.0463
G01 X110.4463 Y82.0143
G01 X110.4061 Y81.9929
G01 X110.3420 Y81.9544
G01 X110.3042 Y81.9292
G01 X110.2441 Y81.8846
G01 X110.2090 Y81.8558
G01 X110.1536 Y81.8056
G01 X110.1214 Y81.7734
G01 X110.0712 Y81.7180
G01 X110.0423 Y81.6828
G01 X109.9978 Y81.6228
G01 X109.9725 Y81.5850
G01 X109.9341 Y81.5208
G01 X109.9127 Y81.4807
G01 X109.8807 Y81.4131
G01 X109.8633 Y81.3711
G01 X109.8381 Y81.3007
G01 X109.8249 Y81.2572
G01 X109.8067 Y81.1846
G01 X109.7978 Y81.1400
G01 X109.7869 Y81.0661
G01 X109.7824 Y81.0208
G01 X109.7787 Y80.9461
G01 X109.7787 Y80.9006
G01 X109.7824 Y80.8260
G01 X109.7869 Y80.7807
G01 X109.7978 Y80.7067
G01 X109.8067 Y80.6621
G01 X109.8249 Y80.5896
G01 X109.8381 Y80.5461
G01 X109.8633 Y80.4757
G01 X109.8807 Y80.4337
G01 X109.9127 Y80.3661
G01 X109.9341 Y80.3259
G01 X109.9725 Y80.2618
G01 X109.9978 Y80.2240
G01 X110.0399 Y80.1672
G01 X110.0399 Y73.9535
G01 X110.0067 Y73.9984
G01 X109.9778 Y74.0335
G01 X109.9343 Y74.0816
G01 X109.9022 Y74.1137
G01 X109.8541 Y74.1572
G01 X109.8190 Y74.1861
G01 X109.7669 Y74.2247
G01 X109.7291 Y74.2500
G01 X109.6735 Y74.2833
G01 X109.6334 Y74.3047
G01 X109.5748 Y74.3324
G01 X109.5328 Y74.3498
G01 X109.4718 Y74.3717
G01 X109.4283 Y74.3849
G01 X109.3654 Y74.4006
G01 X109.3208 Y74.4095
G01 X109.2567 Y74.4190
G01 X109.2115 Y74.4234
G01 X109.1467 Y74.4266
G01 X109.1240 Y74.4272
G01 X107.8032 Y74.4272
G01 X107.7805 Y74.4266
G01 X107.7157 Y74.4234
G01 X107.6705 Y74.4190
G01 X107.6064 Y74.4095
G01 X107.5618 Y74.4006
G01 X107.4989 Y74.3849
G01 X107.4554 Y74.3717
G01 X107.3944 Y74.3498
G01 X107.3523 Y74.3324
G01 X107.2937 Y74.3047
G01 X107.2536 Y74.2833
G01 X107.1981 Y74.2500
G01 X107.1602 Y74.2247
G01 X107.1082 Y74.1861
G01 X107.0730 Y74.1572
G01 X107.0250 Y74.1137
G01 X106.9929 Y74.0816
G01 X106.9493 Y74.0335
G01 X106.9205 Y73.9984
G01 X106.8872 Y73.9535
G01 X106.8872 Y77.4197
G01 X107.7074 Y77.4197
G01 X107.7642 Y77.3776
G01 X107.8020 Y77.3523
G01 X107.8661 Y77.3139
G01 X107.9063 Y77.2925
G01 X107.9739 Y77.2605
G01 X108.0159 Y77.2431
G01 X108.0863 Y77.2179
G01 X108.1298 Y77.2047
G01 X108.2023 Y77.1865
G01 X108.2469 Y77.1776
G01 X108.3209 Y77.1667
G01 X108.3662 Y77.1622
G01 X108.4409 Y77.1585
G01 X108.4863 Y77.1585
G01 X108.5610 Y77.1622
G01 X108.6063 Y77.1667
G01 X108.6802 Y77.1776
G01 X108.7248 Y77.1865
G01 X108.7974 Y77.2047
G01 X108.8409 Y77.2179
G01 X108.9113 Y77.2431
G01 X108.9533 Y77.2605
G01 X109.0209 Y77.2925
G01 X109.0610 Y77.3139
G01 X109.1252 Y77.3523
G01 X109.1630 Y77.3776
G01 X109.2230 Y77.4221
G01 X109.2582 Y77.4510
G01 X109.3136 Y77.5012
G01 X109.3458 Y77.5334
G01 X109.3960 Y77.5888
G01 X109.4248 Y77.6239
G01 X109.4694 Y77.6840
G01 X109.4946 Y77.7218
G01 X109.5331 Y77.7859
G01 X109.5545 Y77.8261
G01 X109.5865 Y77.8937
G01 X109.6039 Y77.9357
G01 X109.6291 Y78.0061
G01 X109.6423 Y78.0496
G01 X109.6605 Y78.1221
G01 X109.6693 Y78.1667
G01 X109.6803 Y78.2407
G01 X109.6848 Y78.2860
G01 X109.6884 Y78.3606
G01 X109.6884 Y78.4061
G01 X109.6848 Y78.4808
G01 X109.6803 Y78.5261
G01 X109.6693 Y78.6000
G01 X109.6605 Y78.6446
G01 X109.6423 Y78.7172
G01 X109.6291 Y78.7607
G01 X109.6039 Y78.8311
G01 X109.5865 Y78.8731
G01 X109.5545 Y78.9407
G01 X109.5331 Y78.9808
G01 X109.4946 Y79.0450
G01 X109.4694 Y79.0828
G01 X109.4248 Y79.1428
G01 X109.3960 Y79.1780
G01 X109.3458 Y79.2334
G01 X109.3136 Y79.2656
G01 X109.2582 Y79.3158
G01 X109.2230 Y79.3446
G01 X109.1630 Y79.3892
G01 X109.1252 Y79.4144
G01 X109.0610 Y79.4529
G01 X109.0209 Y79.4743
G01 X108.9533 Y79.5063
G01 X108.9113 Y79.5237
G01 X108.8409 Y79.5489
G01 X108.7974 Y79.5621
G01 X108.7248 Y79.5803
G01 X108.6802 Y79.5891
G01 X108.6063 Y79.6001
G01 X108.5610 Y79.6046
G01 X108.4863 Y79.6082
G01 X108.4409 Y79.6082
G01 X108.3662 Y79.6046
G01 X108.3209 Y79.6001
G01 X108.2469 Y79.5891
G01 X108.2023 Y79.5803
G01 X108.1298 Y79.5621
G01 X108.0863 Y79.5489
G01 X108.0159 Y79.5237
G01 X107.9739 Y79.5063
G01 X107.9063 Y79.4743
G01 X107.8661 Y79.4529
G01 X107.8020 Y79.4144
G01 X107.7642 Y79.3892
G01 X107.7074 Y79.3470
G01 X105.9236 Y79.3470
G01 X105.9009 Y79.3465
G01 X105.8518 Y79.3441
G01 X105.8066 Y79.3396
G01 X105.7580 Y79.3324
G01 X105.7134 Y79.3235
G01 X105.6658 Y79.3116
G01 X105.6223 Y79.2984
G01 X105.5760 Y79.2819
G01 X105.5340 Y79.2645
G01 X105.4896 Y79.2435
G01 X105.4495 Y79.2220
G01 X105.4074 Y79.1968
G01 X105.3696 Y79.1715
G01 X105.3302 Y79.1423
G01 X105.2950 Y79.1134
G01 X105.2587 Y79.0805
G01 X105.2265 Y79.0483
G01 X105.1935 Y79.0119
G01 X105.1647 Y78.9768
G01 X105.1354 Y78.9374
G01 X105.1102 Y78.8995
G01 X105.0849 Y78.8574
G01 X105.0635 Y78.8173
G01 X105.0425 Y78.7729
G01 X105.0251 Y78.7309
G01 X105.0086 Y78.6847
G01 X104.9954 Y78.6412
G01 X104.9834 Y78.5936
G01 X104.9746 Y78.5490
G01 X104.9674 Y78.5004
G01 X104.9629 Y78.4552
G01 X104.9605 Y78.4061
G01 X104.9599 Y78.3834
G01 X104.9599 Y74.2670
G01 X104.6206 Y74.2670
G01 X104.5935 Y74.2833
G01 X104.5534 Y74.3047
G01 X104.4948 Y74.3324
G01 X104.4528 Y74.3498
G01 X104.3918 Y74.3717
G01 X104.3483 Y74.3849
G01 X104.2854 Y74.4006
G01 X104.2408 Y74.4095
G01 X104.1767 Y74.4190
G01 X104.1315 Y74.4234
G01 X104.0667 Y74.4266
G01 X104.0440 Y74.4272
G01 X102.7232 Y74.4272
G01 X102.7005 Y74.4266
G01 X102.6357 Y74.4234
G01 X102.5905 Y74.4190
G01 X102.5264 Y74.4095
G01 X102.4818 Y74.4006
G01 X102.4189 Y74.3849
G01 X102.3754 Y74.3717
G01 X102.3144 Y74.3498
G01 X102.2723 Y74.3324
G01 X102.2137 Y74.3047
G01 X102.1736 Y74.2833
G01 X102.1181 Y74.2500
G01 X102.0802 Y74.2247
G01 X102.0282 Y74.1861
G01 X101.9930 Y74.1572
G01 X101.9450 Y74.1137
G01 X101.9129 Y74.0816
G01 X101.8693 Y74.0335
G01 X101.8405 Y73.9984
G01 X101.8019 Y73.9463
G01 X101.7766 Y73.9085
G01 X101.7433 Y73.8529
G01 X101.7219 Y73.8128
G01 X101.6942 Y73.7542
G01 X101.6767 Y73.7122
G01 X101.6549 Y73.6512
G01 X101.6417 Y73.6077
G01 X101.6260 Y73.5448
G01 X101.6171 Y73.5002
G01 X101.6076 Y73.4361
G01 X101.6031 Y73.3909
G01 X101.5999 Y73.3261
G01 X101.5999 Y73.2806
G01 X101.6031 Y73.2159
G01 X101.6076 Y73.1707
G01 X101.6171 Y73.1066
G01 X101.6260 Y73.0619
G01 X101.6417 Y72.9991
G01 X101.6549 Y72.9556
G01 X101.6767 Y72.8945
G01 X101.6942 Y72.8525
G01 X101.7219 Y72.7939
G01 X101.7433 Y72.7538
G01 X101.7766 Y72.6983
G01 X101.8019 Y72.6604
G01 X101.8405 Y72.6084
G01 X101.8693 Y72.5732
G01 X101.9129 Y72.5252
G01 X101.9450 Y72.4931
G01 X101.9930 Y72.4495
G01 X102.0282 Y72.4207
G01 X102.0802 Y72.3821
G01 X102.1181 Y72.3568
G01 X102.1736 Y72.3235
G01 X102.2137 Y72.3021
G01 X102.2723 Y72.2743
G01 X102.3144 Y72.2569
G01 X102.3754 Y72.2351
G01 X102.4189 Y72.2219
G01 X102.4818 Y72.2062
G01 X102.5264 Y72.1973
G01 X102.5905 Y72.1878
G01 X102.6357 Y72.1833
G01 X102.7005 Y72.1801
G01 X102.7232 Y72.1796
G01 X104.0440 Y72.1796
G01 X104.0667 Y72.1801
G01 X104.1315 Y72.1833
G01 X104.1767 Y72.1878
G01 X104.2408 Y72.1973
G01 X104.2854 Y72.2062
G01 X104.3483 Y72.2219
G01 X104.3918 Y72.2351
G01 X104.4528 Y72.2569
G01 X104.4948 Y72.2743
G01 X104.5534 Y72.3021
G01 X104.5935 Y72.3235
G01 X104.6206 Y72.3397
G01 X105.9236 Y72.3397
G01 X105.9463 Y72.3403
G01 X105.9954 Y72.3427
G01 X106.0406 Y72.3472
G01 X106.0892 Y72.3544
G01 X106.1338 Y72.3632
G01 X106.1814 Y72.3752
G01 X106.2249 Y72.3884
G01 X106.2711 Y72.4049
G01 X106.3132 Y72.4223
G01 X106.3575 Y72.4433
G01 X106.3976 Y72.4647
G01 X106.4397 Y72.4900
G01 X106.4776 Y72.5152
G01 X106.5170 Y72.5445
G01 X106.5521 Y72.5733
G01 X106.5885 Y72.6063
G01 X106.6207 Y72.6385
G01 X106.6536 Y72.6748
G01 X106.6825 Y72.7100
G01 X106.7117 Y72.7494
G01 X106.7370 Y72.7872
G01 X106.7622 Y72.8293
G01 X106.7744 Y72.8521
G01 X106.8019 Y72.7939
G01 X106.8233 Y72.7538
G01 X106.8566 Y72.6983
G01 X106.8819 Y72.6604
G01 X106.9205 Y72.6084
G01 X106.9493 Y72.5732
G01 X106.9929 Y72.5252
G01 X107.0250 Y72.4931
G01 X107.0730 Y72.4495
G01 X107.1082 Y72.4207
G01 X107.1602 Y72.3821
G01 X107.1981 Y72.3568
G01 X107.2536 Y72.3235
G01 X107.2937 Y72.3021
G01 X107.3523 Y72.2743
G01 X107.3944 Y72.2569
G01 X107.4554 Y72.2351
G01 X107.4989 Y72.2219
G01 X107.5618 Y72.2062
G01 X107.6064 Y72.1973
G01 X107.6705 Y72.1878
G01 X107.7157 Y72.1833
G01 X107.7805 Y72.1801
G01 X107.8032 Y72.1796
G01 X109.1240 Y72.1796
G01 X109.1467 Y72.1801
G01 X109.2115 Y72.1833
G01 X109.2567 Y72.1878
G01 X109.3208 Y72.1973
G01 X109.3654 Y72.2062
G01 X109.4283 Y72.2219
G01 X109.4718 Y72.2351
G01 X109.5328 Y72.2569
G01 X109.5748 Y72.2743
G01 X109.6334 Y72.3021
G01 X109.6735 Y72.3235
G01 X109.7291 Y72.3568
G01 X109.7669 Y72.3821
G01 X109.8190 Y72.4207
G01 X109.8541 Y72.4495
G01 X109.9022 Y72.4931
G01 X109.9343 Y72.5252
G01 X109.9778 Y72.5732
G01 X110.0067 Y72.6084
G01 X110.0399 Y72.6532
G01 X110.0399 Y71.7270
G01 X108.4636 Y71.7270
G01 X108.4409 Y71.7265
G01 X108.3918 Y71.7241
G01 X108.3466 Y71.7196
G01 X108.2980 Y71.7124
G01 X108.2534 Y71.7035
G01 X108.2058 Y71.6916
G01 X108.1623 Y71.6784
G01 X108.1160 Y71.6619
G01 X108.0740 Y71.6445
G01 X108.0296 Y71.6235
G01 X107.9895 Y71.6020
G01 X107.9474 Y71.5768
G01 X107.9096 Y71.5515
G01 X107.8702 Y71.5223
G01 X107.8350 Y71.4934
G01 X107.7987 Y71.4605
G01 X107.7665 Y71.4283
G01 X107.7335 Y71.3919
G01 X107.7047 Y71.3568
G01 X107.6754 Y71.3174
G01 X107.6502 Y71.2795
G01 X107.6249 Y71.2374
G01 X107.6035 Y71.1973
G01 X107.5825 Y71.1529
G01 X107.5651 Y71.1109
G01 X107.5486 Y71.0647
G01 X107.5354 Y71.0212
G01 X107.5234 Y70.9736
G01 X107.5146 Y70.9290
G01 X107.5074 Y70.8804
G01 X107.5029 Y70.8352
G01 X107.5005 Y70.7861
G01 X107.4999 Y70.7634
G01 X107.4999 Y66.7651
G01 X107.4554 Y66.7517
G01 X107.3944 Y66.7298
G01 X107.3523 Y66.7124
G01 X107.2937 Y66.6847
G01 X107.2536 Y66.6633
G01 X107.2265 Y66.6470
G01 X105.9236 Y66.6470
G01 X105.9009 Y66.6465
G01 X105.8518 Y66.6441
G01 X105.8066 Y66.6396
G01 X105.7580 Y66.6324
G01 X105.7134 Y66.6235
G01 X105.6658 Y66.6116
G01 X105.6223 Y66.5984
G01 X105.5760 Y66.5819
G01 X105.5340 Y66.5645
G01 X105.4896 Y66.5435
G01 X105.4495 Y66.5220
G01 X105.4074 Y66.4968
G01 X105.3696 Y66.4715
G01 X105.3302 Y66.4423
G01 X105.2950 Y66.4134
G01 X105.2587 Y66.3805
G01 X105.2265 Y66.3483
G01 X105.1935 Y66.3119
G01 X105.1647 Y66.2768
G01 X105.1354 Y66.2374
G01 X105.1102 Y66.1995
G01 X105.0849 Y66.1574
G01 X105.0728 Y66.1347
G01 X105.0453 Y66.1928
G01 X105.0239 Y66.2329
G01 X104.9906 Y66.2885
G01 X104.9653 Y66.3263
G01 X104.9267 Y66.3784
G01 X104.8978 Y66.4135
G01 X104.8543 Y66.4616
G01 X104.8222 Y66.4937
G01 X104.7741 Y66.5372
G01 X104.7390 Y66.5661
G01 X104.6869 Y66.6047
G01 X104.6491 Y66.6300
G01 X104.5935 Y66.6633
G01 X104.5534 Y66.6847
G01 X104.4948 Y66.7124
G01 X104.4528 Y66.7298
G01 X104.3918 Y66.7517
G01 X104.3483 Y66.7649
G01 X104.2854 Y66.7806
G01 X104.2408 Y66.7895
G01 X104.1767 Y66.7990
G01 X104.1315 Y66.8034
G01 X104.0667 Y66.8066
G01 X104.0440 Y66.8072
G01 X102.7232 Y66.8072
G01 X102.7005 Y66.8066
G01 X102.6357 Y66.8034
G01 X102.5905 Y66.7990
G01 X102.5264 Y66.7895
G01 X102.4818 Y66.7806
G01 X102.4189 Y66.7649
G01 X102.3754 Y66.7517
G01 X102.3144 Y66.7298
G01 X102.2723 Y66.7124
G01 X102.2137 Y66.6847
G01 X102.1736 Y66.6633
G01 X102.1465 Y66.6470
G01 X100.8436 Y66.6470
G01 X100.8209 Y66.6465
G01 X100.7718 Y66.6441
G01 X100.7266 Y66.6396
G01 X100.6780 Y66.6324
G01 X100.6334 Y66.6235
G01 X100.5858 Y66.6116
G01 X100.5423 Y66.5984
G01 X100.4960 Y66.5819
G01 X100.4540 Y66.5645
G01 X100.4096 Y66.5435
G01 X100.3695 Y66.5220
G01 X100.3274 Y66.4968
G01 X100.2896 Y66.4715
G01 X100.2502 Y66.4423
G01 X100.2150 Y66.4134
G01 X100.1787 Y66.3805
G01 X100.1465 Y66.3483
G01 X100.1135 Y66.3119
G01 X100.0847 Y66.2768
G01 X100.0554 Y66.2374
G01 X100.0302 Y66.1995
G01 X100.0049 Y66.1574
G01 X99.9835 Y66.1173
G01 X99.9625 Y66.0729
G01 X99.9451 Y66.0309
G01 X99.9286 Y65.9847
G01 X99.9154 Y65.9412
G01 X99.9034 Y65.8936
G01 X99.8946 Y65.8490
G01 X99.8874 Y65.8004
G01 X99.8829 Y65.7552
G01 X99.8805 Y65.7061
G01 X99.8799 Y65.6834
G01 X99.8799 Y61.3596
G01 X99.8378 Y61.3028
G01 X99.8125 Y61.2650
G01 X99.7741 Y61.2008
G01 X99.7527 Y61.1607
G01 X99.7207 Y61.0931
G01 X99.7033 Y61.0511
G01 X99.6781 Y60.9807
G01 X99.6649 Y60.9372
G01 X99.6467 Y60.8646
G01 X99.6378 Y60.8200
G01 X99.6269 Y60.7461
G01 X99.6224 Y60.7008
G01 X99.6187 Y60.6261
G01 X99.6187 Y60.5806
G01 X99.6224 Y60.5060
G01 X99.6269 Y60.4607
G01 X99.6378 Y60.3867
G01 X99.6467 Y60.3421
G01 X99.6649 Y60.2696
G01 X99.6781 Y60.2261
G01 X99.7033 Y60.1557
G01 X99.7207 Y60.1137
G01 X99.7527 Y60.0461
G01 X99.7741 Y60.0059
G01 X99.8125 Y59.9418
G01 X99.8378 Y59.9040
G01 X99.8823 Y59.8439
G01 X99.9112 Y59.8088
G01 X99.9614 Y59.7534
G01 X99.9936 Y59.7212
G01 X100.0490 Y59.6710
G01 X100.0841 Y59.6421
G01 X100.1442 Y59.5976
G01 X100.1820 Y59.5723
G01 X100.2461 Y59.5339
G01 X100.2863 Y59.5125
G01 X100.3539 Y59.4805
G01 X100.3959 Y59.4631
G01 X100.4663 Y59.4379
G01 X100.5098 Y59.4247
G01 X100.5823 Y59.4065
G01 X100.6269 Y59.3976
G01 X100.7009 Y59.3867
G01 X100.7462 Y59.3822
G01 X100.8209 Y59.3785
G01 X100.8663 Y59.3785
G01 X100.9410 Y59.3822
G01 X100.9863 Y59.3867
G01 X101.0602 Y59.3976
G01 X101.1048 Y59.4065
G01 X101.1774 Y59.4247
G01 X101.2209 Y59.4379
G01 X101.2913 Y59.4631
G01 X101.3333 Y59.4805
G01 X101.4009 Y59.5125
G01 X101.4410 Y59.5339
G01 X101.5052 Y59.5723
G01 X101.5430 Y59.5976
G01 X101.6030 Y59.6421
G01 X101.6382 Y59.6710
G01 X101.6936 Y59.7212
G01 X101.7258 Y59.7534
G01 X101.7760 Y59.8088
G01 X101.8048 Y59.8439
G01 X101.8494 Y59.9040
G01 X101.8746 Y59.9418
G01 X101.9131 Y60.0059
G01 X101.9345 Y60.0461
G01 X101.9665 Y60.1137
G01 X101.9839 Y60.1557
G01 X102.0091 Y60.2261
G01 X102.0223 Y60.2696
G01 X102.0405 Y60.3421
G01 X102.0493 Y60.3867
G01 X102.0603 Y60.4607
G01 X102.0648 Y60.5060
G01 X102.0684 Y60.5806
G01 X102.0684 Y60.6261
G01 X102.0648 Y60.7008
G01 X102.0603 Y60.7461
G01 X102.0493 Y60.8200
G01 X102.0405 Y60.8646
G01 X102.0223 Y60.9372
G01 X102.0091 Y60.9807
G01 X101.9839 Y61.0511
G01 X101.9665 Y61.0931
G01 X101.9345 Y61.1607
G01 X101.9131 Y61.2008
G01 X101.8746 Y61.2650
G01 X101.8494 Y61.3028
G01 X101.8072 Y61.3596
G01 X101.8072 Y62.4932
G01 X101.8405 Y62.4484
G01 X101.8693 Y62.4132
G01 X101.9129 Y62.3652
G01 X101.9450 Y62.3331
G01 X101.9930 Y62.2895
G01 X102.0282 Y62.2607
G01 X102.0802 Y62.2221
G01 X102.1181 Y62.1968
G01 X102.1736 Y62.1635
G01 X102.2137 Y62.1421
G01 X102.2723 Y62.1143
G01 X102.3144 Y62.0969
G01 X102.3754 Y62.0751
G01 X102.4189 Y62.0619
G01 X102.4818 Y62.0462
G01 X102.5264 Y62.0373
G01 X102.5905 Y62.0278
G01 X102.6357 Y62.0233
G01 X102.7005 Y62.0201
G01 X102.7232 Y62.0196
G01 X104.0440 Y62.0196
G01 X104.0667 Y62.0201
G01 X104.1315 Y62.0233
G01 X104.1767 Y62.0278
G01 X104.2408 Y62.0373
G01 X104.2854 Y62.0462
G01 X104.3483 Y62.0619
G01 X104.3918 Y62.0751
G01 X104.4528 Y62.0969
G01 X104.4948 Y62.1143
G01 X104.5534 Y62.1421
G01 X104.5935 Y62.1635
G01 X104.6491 Y62.1968
G01 X104.6869 Y62.2221
G01 X104.7390 Y62.2607
G01 X104.7741 Y62.2895
G01 X104.8222 Y62.3331
G01 X104.8543 Y62.3652
G01 X104.8978 Y62.4132
G01 X104.9267 Y62.4484
G01 X104.9599 Y62.4932
G01 X104.9599 Y58.7135
G01 X104.9267 Y58.7584
G01 X104.8978 Y58.7935
G01 X104.8543 Y58.8416
G01 X104.8222 Y58.8737
G01 X104.7741 Y58.9172
G01 X104.7390 Y58.9461
G01 X104.6869 Y58.9847
G01 X104.6491 Y59.0100
G01 X104.5935 Y59.0433
G01 X104.5534 Y59.0647
G01 X104.4948 Y59.0924
G01 X104.4528 Y59.1098
G01 X104.3918 Y59.1317
G01 X104.3483 Y59.1449
G01 X104.2854 Y59.1606
G01 X104.2408 Y59.1695
G01 X104.1767 Y59.1790
G01 X104.1315 Y59.1834
G01 X104.0667 Y59.1866
G01 X104.0440 Y59.1872
G01 X102.7232 Y59.1872
G01 X102.7005 Y59.1866
G01 X102.6357 Y59.1834
G01 X102.5905 Y59.1790
G01 X102.5264 Y59.1695
G01 X102.4818 Y59.1606
G01 X102.4189 Y59.1449
G01 X102.3754 Y59.1317
G01 X102.3144 Y59.1098
G01 X102.2723 Y59.0924
G01 X102.2137 Y59.0647
G01 X102.1736 Y59.0433
G01 X102.1465 Y59.0270
G01 X100.8436 Y59.0270
G01 X100.8209 Y59.0265
G01 X100.7718 Y59.0241
G01 X100.7266 Y59.0196
G01 X100.6780 Y59.0124
G01 X100.6334 Y59.0035
G01 X100.5858 Y58.9916
G01 X100.5423 Y58.9784
G01 X100.4960 Y58.9619
G01 X100.4540 Y58.9445
G01 X100.4096 Y58.9235
G01 X100.3695 Y58.9020
G01 X100.3274 Y58.8768
G01 X100.2896 Y58.8515
G01 X100.2502 Y58.8223
G01 X100.2150 Y58.7934
G01 X100.1787 Y58.7605
G01 X100.1465 Y58.7283
G01 X100.1135 Y58.6919
G01 X100.0847 Y58.6568
G01 X100.0554 Y58.6174
G01 X100.0302 Y58.5795
G01 X100.0049 Y58.5374
G01 X99.9835 Y58.4973
G01 X99.9625 Y58.4529
G01 X99.9451 Y58.4109
G01 X99.9286 Y58.3647
G01 X99.9154 Y58.3212
G01 X99.9034 Y58.2736
G01 X99.8946 Y58.2290
G01 X99.8874 Y58.1804
G01 X99.8829 Y58.1352
G01 X99.8805 Y58.0861
G01 X99.8799 Y58.0634
G01 X99.8799 Y53.9470
G01 X98.3036 Y53.9470
G01 X98.2809 Y53.9465
G01 X98.2318 Y53.9441
G01 X98.1866 Y53.9396
G01 X98.1380 Y53.9324
G01 X98.0934 Y53.9235
G01 X98.0458 Y53.9116
G01 X98.0023 Y53.8984
G01 X97.9560 Y53.8819
G01 X97.9140 Y53.8645
G01 X97.8696 Y53.8435
G01 X97.8295 Y53.8220
G01 X97.7874 Y53.7968
G01 X97.7496 Y53.7715
G01 X97.7102 Y53.7423
G01 X97.6750 Y53.7134
G01 X97.6387 Y53.6805
G01 X97.6065 Y53.6483
G01 X97.5735 Y53.6119
G01 X97.5447 Y53.5768
G01 X97.5154 Y53.5374
G01 X97.4902 Y53.4995
G01 X97.4649 Y53.4574
G01 X97.4435 Y53.4173
G01 X97.4225 Y53.3729
G01 X97.4051 Y53.3309
G01 X97.3886 Y53.2847
G01 X97.3754 Y53.2412
G01 X97.3634 Y53.1936
G01 X97.3546 Y53.1490
G01 X97.3474 Y53.1004
G01 X97.3429 Y53.0552
G01 X97.3405 Y53.0061
G01 X97.3399 Y52.9834
G01 X97.3399 Y51.0935
G01 X97.3067 Y51.1384
G01 X97.2778 Y51.1735
G01 X97.2343 Y51.2216
G01 X97.2022 Y51.2537
G01 X97.1541 Y51.2972
G01 X97.1190 Y51.3261
G01 X97.0669 Y51.3647
G01 X97.0291 Y51.3900
G01 X96.9735 Y51.4233
G01 X96.9334 Y51.4447
G01 X96.8748 Y51.4724
G01 X96.8328 Y51.4898
G01 X96.7718 Y51.5117
G01 X96.7272 Y51.5251
G01 X96.7272 Y54.5597
G01 X98.3036 Y54.5597
G01 X98.3263 Y54.5603
G01 X98.3754 Y54.5627
G01 X98.4206 Y54.5672
G01 X98.4692 Y54.5744
G01 X98.5138 Y54.5832
G01 X98.5614 Y54.5952
G01 X98.6049 Y54.6084
G01 X98.6511 Y54.6249
G01 X98.6932 Y54.6423
G01 X98.7375 Y54.6633
G01 X98.7776 Y54.6847
G01 X98.8197 Y54.7100
G01 X98.8576 Y54.7352
G01 X98.8970 Y54.7645
G01 X98.9321 Y54.7933
G01 X98.9685 Y54.8263
G01 X99.0007 Y54.8585
G01 X99.0336 Y54.8948
G01 X99.0625 Y54.9300
G01 X99.0917 Y54.9694
G01 X99.1170 Y55.0072
G01 X99.1422 Y55.0493
G01 X99.1637 Y55.0894
G01 X99.1847 Y55.1338
G01 X99.2021 Y55.1758
G01 X99.2186 Y55.2221
G01 X99.2318 Y55.2656
G01 X99.2437 Y55.3132
G01 X99.2526 Y55.3578
G01 X99.2598 Y55.4064
G01 X99.2643 Y55.4516
G01 X99.2667 Y55.5006
G01 X99.2672 Y55.5234
G01 X99.2672 Y67.4672
G01 X99.3094 Y67.5240
G01 X99.3346 Y67.5618
G01 X99.3731 Y67.6259
G01 X99.3945 Y67.6661
G01 X99.4265 Y67.7337
G01 X99.4439 Y67.7757
G01 X99.4691 Y67.8461
G01 X99.4823 Y67.8896
G01 X99.5005 Y67.9621
G01 X99.5093 Y68.0067
G01 X99.5203 Y68.0807
G01 X99.5248 Y68.1260
G01 X99.5284 Y68.2006
G01 X99.5284 Y68.2461
G01 X99.5248 Y68.3208
G01 X99.5203 Y68.3661
G01 X99.5093 Y68.4400
G01 X99.5005 Y68.4846
G01 X99.4823 Y68.5572
G01 X99.4691 Y68.6007
G01 X99.4439 Y68.6711
G01 X99.4265 Y68.7131
G01 X99.3945 Y68.7807
G01 X99.3731 Y68.8208
G01 X99.3346 Y68.8850
G01 X99.3094 Y68.9228
G01 X99.2648 Y68.9828
G01 X99.2360 Y69.0180
G01 X99.1858 Y69.0734
G01 X99.1536 Y69.1056
G01 X99.0982 Y69.1558
G01 X99.0630 Y69.1846
G01 X99.0030 Y69.2292
G01 X98.9652 Y69.2544
G01 X98.9010 Y69.2929
G01 X98.8609 Y69.3143
G01 X98.7933 Y69.3463
G01 X98.7513 Y69.3637
G01 X98.6809 Y69.3889
G01 X98.6374 Y69.4021
G01 X98.5648 Y69.4203
G01 X98.5202 Y69.4291
G01 X98.4463 Y69.4401
G01 X98.4010 Y69.4446
G01 X98.3263 Y69.4482
G01 X98.2809 Y69.4482
G01 X98.2062 Y69.4446
G01 X98.1609 Y69.4401
G01 X98.0869 Y69.4291
G01 X98.0423 Y69.4203
G01 X97.9698 Y69.4021
G01 X97.9263 Y69.3889
G01 X97.8559 Y69.3637
G01 X97.8139 Y69.3463
G01 X97.7463 Y69.3143
G01 X97.7061 Y69.2929
G01 X97.6420 Y69.2544
G01 X97.6042 Y69.2292
G01 X97.5441 Y69.1846
G01 X97.5090 Y69.1558
G01 X97.4536 Y69.1056
G01 X97.4214 Y69.0734
G01 X97.3712 Y69.0180
G01 X97.3423 Y68.9828
G01 X97.2978 Y68.9228
G01 X97.2725 Y68.8850
G01 X97.2341 Y68.8208
G01 X97.2127 Y68.7807
G01 X97.1807 Y68.7131
G01 X97.1633 Y68.6711
G01 X97.1381 Y68.6007
G01 X97.1249 Y68.5572
G01 X97.1067 Y68.4846
G01 X97.0978 Y68.4400
G01 X97.0869 Y68.3661
G01 X97.0824 Y68.3208
G01 X97.0787 Y68.2461
G01 X97.0787 Y68.2006
G01 X97.0824 Y68.1260
G01 X97.0869 Y68.0807
G01 X97.0978 Y68.0067
G01 X97.1067 Y67.9621
G01 X97.1249 Y67.8896
G01 X97.1381 Y67.8461
G01 X97.1633 Y67.7757
G01 X97.1807 Y67.7337
G01 X97.2127 Y67.6661
G01 X97.2341 Y67.6259
G01 X97.2725 Y67.5618
G01 X97.2978 Y67.5240
G01 X97.3399 Y67.4672
G01 X97.3399 Y66.3335
G01 X97.3067 Y66.3784
G01 X97.2778 Y66.4135
G01 X97.2343 Y66.4616
G01 X97.2022 Y66.4937
G01 X97.1541 Y66.5372
G01 X97.1190 Y66.5661
G01 X97.0669 Y66.6047
G01 X97.0291 Y66.6300
G01 X96.9735 Y66.6633
G01 X96.9334 Y66.6847
G01 X96.8748 Y66.7124
G01 X96.8328 Y66.7298
G01 X96.7718 Y66.7517
G01 X96.7272 Y66.7651
G01 X96.7272 Y69.7997
G01 X98.3036 Y69.7997
G01 X98.3263 Y69.8003
G01 X98.3754 Y69.8027
G01 X98.4206 Y69.8072
G01 X98.4692 Y69.8144
G01 X98.5138 Y69.8232
G01 X98.5614 Y69.8352
G01 X98.6049 Y69.8484
G01 X98.6511 Y69.8649
G01 X98.6932 Y69.8823
G01 X98.7375 Y69.9033
G01 X98.7776 Y69.9247
G01 X98.8197 Y69.9500
G01 X98.8576 Y69.9752
G01 X98.8970 Y70.0045
G01 X98.9321 Y70.0333
G01 X98.9685 Y70.0663
G01 X99.0007 Y70.0985
G01 X99.0336 Y70.1348
G01 X99.0625 Y70.1700
G01 X99.0917 Y70.2094
G01 X99.1170 Y70.2472
G01 X99.1422 Y70.2893
G01 X99.1637 Y70.3294
G01 X99.1847 Y70.3738
G01 X99.2021 Y70.4158
G01 X99.2186 Y70.4621
G01 X99.2318 Y70.5056
G01 X99.2437 Y70.5532
G01 X99.2526 Y70.5978
G01 X99.2598 Y70.6464
G01 X99.2643 Y70.6916
G01 X99.2667 Y70.7406
G01 X99.2672 Y70.7634
G01 X99.2672 Y80.1672
G01 X99.3094 Y80.2240
G01 X99.3346 Y80.2618
G01 X99.3731 Y80.3259
G01 X99.3945 Y80.3661
G01 X99.4265 Y80.4337
G01 X99.4439 Y80.4757
G01 X99.4691 Y80.5461
G01 X99.4823 Y80.5896
G01 X99.5005 Y80.6621
G01 X99.5093 Y80.7067
G01 X99.5203 Y80.7807
G01 X99.5248 Y80.8260
G01 X99.5284 Y80.9006
G01 X99.5284 Y80.9461
G01 X99.5248 Y81.0208
G01 X99.5203 Y81.0661
G01 X99.5093 Y81.1400
G01 X99.5005 Y81.1846
G01 X99.4823 Y81.2572
G01 X99.4691 Y81.3007
G01 X99.4439 Y81.3711
G01 X99.4265 Y81.4131
G01 X99.3945 Y81.4807
G01 X99.3731 Y81.5208
G01 X99.3346 Y81.5850
G01 X99.3094 Y81.6228
G01 X99.2648 Y81.6828
G01 X99.2360 Y81.7180
G01 X99.1858 Y81.7734
G01 X99.1536 Y81.8056
G01 X99.0982 Y81.8558
G01 X99.0630 Y81.8846
G01 X99.0030 Y81.9292
G01 X98.9652 Y81.9544
G01 X98.9010 Y81.9929
G01 X98.8609 Y82.0143
G01 X98.7933 Y82.0463
G01 X98.7513 Y82.0637
G01 X98.6809 Y82.0889
G01 X98.6374 Y82.1021
G01 X98.5648 Y82.1203
G01 X98.5202 Y82.1291
G01 X98.4463 Y82.1401
G01 X98.4010 Y82.1446
G01 X98.3263 Y82.1482
G01 X98.2809 Y82.1482
G01 X98.2062 Y82.1446
G01 X98.1609 Y82.1401
G01 X98.0869 Y82.1291
G01 X98.0423 Y82.1203
G01 X97.9698 Y82.1021
G01 X97.9263 Y82.0889
G01 X97.8559 Y82.0637
G01 X97.8139 Y82.0463
G01 X97.7463 Y82.0143
G01 X97.7061 Y81.9929
G01 X97.6420 Y81.9544
G01 X97.6042 Y81.9292
G01 X97.5441 Y81.8846
G01 X97.5090 Y81.8558
G01 X97.4536 Y81.8056
G01 X97.4214 Y81.7734
G01 X97.3712 Y81.7180
G01 X97.3423 Y81.6828
G01 X97.2978 Y81.6228
G01 X97.2725 Y81.5850
G01 X97.2341 Y81.5208
G01 X97.2127 Y81.4807
G01 X97.1807 Y81.4131
G01 X97.1633 Y81.3711
G01 X97.1381 Y81.3007
G01 X97.1249 Y81.2572
G01 X97.1067 Y81.1846
G01 X97.0978 Y81.1400
G01 X97.0869 Y81.0661
G01 X97.0824 Y81.0208
G01 X97.0787 Y80.9461
G01 X97.0787 Y80.9006
G01 X97.0824 Y80.8260
G01 X97.0869 Y80.7807
G01 X97.0978 Y80.7067
G01 X97.1067 Y80.6621
G01 X97.1249 Y80.5896
G01 X97.1381 Y80.5461
G01 X97.1633 Y80.4757
G01 X97.1807 Y80.4337
G01 X97.2127 Y80.3661
G01 X97.2341 Y80.3259
G01 X97.2725 Y80.2618
G01 X97.2978 Y80.2240
G01 X97.3399 Y80.1672
G01 X97.3399 Y73.9535
G01 X97.3067 Y73.9984
G01 X97.2778 Y74.0335
G01 X97.2343 Y74.0816
G01 X97.2022 Y74.1137
G01 X97.1541 Y74.1572
G01 X97.1190 Y74.1861
G01 X97.0669 Y74.2247
G01 X97.0291 Y74.2500
G01 X96.9735 Y74.2833
G01 X96.9334 Y74.3047
G01 X96.8748 Y74.3324
G01 X96.8328 Y74.3498
G01 X96.7718 Y74.3717
G01 X96.7283 Y74.3849
G01 X96.6654 Y74.4006
G01 X96.6208 Y74.4095
G01 X96.5567 Y74.4190
G01 X96.5115 Y74.4234
G01 X96.4467 Y74.4266
G01 X96.4240 Y74.4272
G01 X95.1032 Y74.4272
G01 X95.0805 Y74.4266
G01 X95.0157 Y74.4234
G01 X94.9705 Y74.4190
G01 X94.9064 Y74.4095
G01 X94.8618 Y74.4006
G01 X94.7989 Y74.3849
G01 X94.7554 Y74.3717
G01 X94.6944 Y74.3498
G01 X94.6523 Y74.3324
G01 X94.5937 Y74.3047
G01 X94.5536 Y74.2833
G01 X94.4981 Y74.2500
G01 X94.4602 Y74.2247
G01 X94.4082 Y74.1861
G01 X94.3730 Y74.1572
G01 X94.3250 Y74.1137
G01 X94.2929 Y74.0816
G01 X94.2493 Y74.0335
G01 X94.2205 Y73.9984
G01 X94.1872 Y73.9535
G01 X94.1872 Y77.4197
G01 X95.0074 Y77.4197
G01 X95.0642 Y77.3776
G01 X95.1020 Y77.3523
G01 X95.1661 Y77.3139
G01 X95.2063 Y77.2925
G01 X95.2739 Y77.2605
G01 X95.3159 Y77.2431
G01 X95.3863 Y77.2179
G01 X95.4298 Y77.2047
G01 X95.5023 Y77.1865
G01 X95.5469 Y77.1776
G01 X95.6209 Y77.1667
G01 X95.6662 Y77.1622
G01 X95.7409 Y77.1585
G01 X95.7863 Y77.1585
G01 X95.8610 Y77.1622
G01 X95.9063 Y77.1667
G01 X95.9802 Y77.1776
G01 X96.0248 Y77.1865
G01 X96.0974 Y77.2047
G01 X96.1409 Y77.2179
G01 X96.2113 Y77.2431
G01 X96.2533 Y77.2605
G01 X96.3209 Y77.2925
G01 X96.3610 Y77.3139
G01 X96.4252 Y77.3523
G01 X96.4630 Y77.3776
G01 X96.5230 Y77.4221
G01 X96.5582 Y77.4510
G01 X96.6136 Y77.5012
G01 X96.6458 Y77.5334
G01 X96.6960 Y77.5888
G01 X96.7248 Y77.6239
G01 X96.7694 Y77.6840
G01 X96.7946 Y77.7218
G01 X96.8331 Y77.7859
G01 X96.8545 Y77.8261
G01 X96.8865 Y77.8937
G01 X96.9039 Y77.9357
G01 X96.9291 Y78.0061
G01 X96.9423 Y78.0496
G01 X96.9605 Y78.1221
G01 X96.9693 Y78.1667
G01 X96.9803 Y78.2407
G01 X96.9848 Y78.2860
G01 X96.9884 Y78.3606
G01 X96.9884 Y78.4061
G01 X96.9848 Y78.4808
G01 X96.9803 Y78.5261
G01 X96.9693 Y78.6000
G01 X96.9605 Y78.6446
G01 X96.9423 Y78.7172
G01 X96.9291 Y78.7607
G01 X96.9039 Y78.8311
G01 X96.8865 Y78.8731
G01 X96.8545 Y78.9407
G01 X96.8331 Y78.9808
G01 X96.7946 Y79.0450
G01 X96.7694 Y79.0828
G01 X96.7248 Y79.1428
G01 X96.6960 Y79.1780
G01 X96.6458 Y79.2334
G01 X96.6136 Y79.2656
G01 X96.5582 Y79.3158
G01 X96.5230 Y79.3446
G01 X96.4630 Y79.3892
G01 X96.4252 Y79.4144
G01 X96.3610 Y79.4529
G01 X96.3209 Y79.4743
G01 X96.2533 Y79.5063
G01 X96.2113 Y79.5237
G01 X96.1409 Y79.5489
G01 X96.0974 Y79.5621
G01 X96.0248 Y79.5803
G01 X95.9802 Y79.5891
G01 X95.9063 Y79.6001
G01 X95.8610 Y79.6046
G01 X95.7863 Y79.6082
G01 X95.7409 Y79.6082
G01 X95.6662 Y79.6046
G01 X95.6209 Y79.6001
G01 X95.5469 Y79.5891
G01 X95.5023 Y79.5803
G01 X95.4298 Y79.5621
G01 X95.3863 Y79.5489
G01 X95.3159 Y79.5237
G01 X95.2739 Y79.5063
G01 X95.2063 Y79.4743
G01 X95.1661 Y79.4529
G01 X95.1020 Y79.4144
G01 X95.0642 Y79.3892
G01 X95.0074 Y79.3470
G01 X93.2236 Y79.3470
G01 X93.2009 Y79.3465
G01 X93.1518 Y79.3441
G01 X93.1066 Y79.3396
G01 X93.0580 Y79.3324
G01 X93.0134 Y79.3235
G01 X92.9658 Y79.3116
G01 X92.9223 Y79.2984
G01 X92.8760 Y79.2819
G01 X92.8340 Y79.2645
G01 X92.7896 Y79.2435
G01 X92.7495 Y79.2220
G01 X92.7074 Y79.1968
G01 X92.6696 Y79.1715
G01 X92.6302 Y79.1423
G01 X92.5950 Y79.1134
G01 X92.5587 Y79.0805
G01 X92.5265 Y79.0483
G01 X92.4935 Y79.0119
G01 X92.4647 Y78.9768
G01 X92.4354 Y78.9374
G01 X92.4102 Y78.8995
G01 X92.3849 Y78.8574
G01 X92.3635 Y78.8173
G01 X92.3425 Y78.7729
G01 X92.3251 Y78.7309
G01 X92.3086 Y78.6847
G01 X92.2954 Y78.6412
G01 X92.2834 Y78.5936
G01 X92.2746 Y78.5490
G01 X92.2674 Y78.5004
G01 X92.2629 Y78.4552
G01 X92.2605 Y78.4061
G01 X92.2599 Y78.3834
G01 X92.2599 Y74.2670
G01 X91.9206 Y74.2670
G01 X91.8935 Y74.2833
G01 X91.8534 Y74.3047
G01 X91.7948 Y74.3324
G01 X91.7528 Y74.3498
G01 X91.6918 Y74.3717
G01 X91.6483 Y74.3849
G01 X91.5854 Y74.4006
G01 X91.5408 Y74.4095
G01 X91.4767 Y74.4190
G01 X91.4315 Y74.4234
G01 X91.3667 Y74.4266
G01 X91.3440 Y74.4272
G01 X90.0232 Y74.4272
G01 X90.0005 Y74.4266
G01 X89.9357 Y74.4234
G01 X89.8905 Y74.4190
G01 X89.8264 Y74.4095
G01 X89.7818 Y74.4006
G01 X89.7189 Y74.3849
G01 X89.6754 Y74.3717
G01 X89.6144 Y74.3498
G01 X89.5723 Y74.3324
G01 X89.5137 Y74.3047
G01 X89.4736 Y74.2833
G01 X89.4181 Y74.2500
G01 X89.3802 Y74.2247
G01 X89.3282 Y74.1861
G01 X89.2930 Y74.1572
G01 X89.2450 Y74.1137
G01 X89.2129 Y74.0816
G01 X89.1693 Y74.0335
G01 X89.1405 Y73.9984
G01 X89.1019 Y73.9463
G01 X89.0766 Y73.9085
G01 X89.0433 Y73.8529
G01 X89.0219 Y73.8128
G01 X88.9942 Y73.7542
G01 X88.9767 Y73.7122
G01 X88.9549 Y73.6512
G01 X88.9417 Y73.6077
G01 X88.9260 Y73.5448
G01 X88.9171 Y73.5002
G01 X88.9076 Y73.4361
G01 X88.9031 Y73.3909
G01 X88.8999 Y73.3261
G01 X88.8999 Y73.2806
G01 X88.9031 Y73.2159
G01 X88.9076 Y73.1707
G01 X88.9171 Y73.1066
G01 X88.9260 Y73.0619
G01 X88.9417 Y72.9991
G01 X88.9549 Y72.9556
G01 X88.9767 Y72.8945
G01 X88.9942 Y72.8525
G01 X89.0219 Y72.7939
G01 X89.0433 Y72.7538
G01 X89.0766 Y72.6983
G01 X89.1019 Y72.6604
G01 X89.1405 Y72.6084
G01 X89.1693 Y72.5732
G01 X89.2129 Y72.5252
G01 X89.2450 Y72.4931
G01 X89.2930 Y72.4495
G01 X89.3282 Y72.4207
G01 X89.3802 Y72.3821
G01 X89.4181 Y72.3568
G01 X89.4736 Y72.3235
G01 X89.5137 Y72.3021
G01 X89.5723 Y72.2743
G01 X89.6144 Y72.2569
G01 X89.6754 Y72.2351
G01 X89.7189 Y72.2219
G01 X89.7818 Y72.2062
G01 X89.8264 Y72.1973
G01 X89.8905 Y72.1878
G01 X89.9357 Y72.1833
G01 X90.0005 Y72.1801
G01 X90.0232 Y72.1796
G01 X91.3440 Y72.1796
G01 X91.3667 Y72.1801
G01 X91.4315 Y72.1833
G01 X91.4767 Y72.1878
G01 X91.5408 Y72.1973
G01 X91.5854 Y72.2062
G01 X91.6483 Y72.2219
G01 X91.6918 Y72.2351
G01 X91.7528 Y72.2569
G01 X91.7948 Y72.2743
G01 X91.8534 Y72.3021
G01 X91.8935 Y72.3235
G01 X91.9206 Y72.3397
G01 X93.2236 Y72.3397
G01 X93.2463 Y72.3403
G01 X93.2954 Y72.3427
G01 X93.3406 Y72.3472
G01 X93.3892 Y72.3544
G01 X93.4338 Y72.3632
G01 X93.4814 Y72.3752
G01 X93.5249 Y72.3884
G01 X93.5711 Y72.4049
G01 X93.6132 Y72.4223
G01 X93.6575 Y72.4433
G01 X93.6976 Y72.4647
G01 X93.7397 Y72.4900
G01 X93.7776 Y72.5152
G01 X93.8170 Y72.5445
G01 X93.8521 Y72.5733
G01 X93.8885 Y72.6063
G01 X93.9207 Y72.6385
G01 X93.9536 Y72.6748
G01 X93.9825 Y72.7100
G01 X94.0117 Y72.7494
G01 X94.0370 Y72.7872
G01 X94.0622 Y72.8293
G01 X94.0744 Y72.8521
G01 X94.1019 Y72.7939
G01 X94.1233 Y72.7538
G01 X94.1566 Y72.6983
G01 X94.1819 Y72.6604
G01 X94.2205 Y72.6084
G01 X94.2493 Y72.5732
G01 X94.2929 Y72.5252
G01 X94.3250 Y72.4931
G01 X94.3730 Y72.4495
G01 X94.4082 Y72.4207
G01 X94.4602 Y72.3821
G01 X94.4981 Y72.3568
G01 X94.5536 Y72.3235
G01 X94.5937 Y72.3021
G01 X94.6523 Y72.2743
G01 X94.6944 Y72.2569
G01 X94.7554 Y72.2351
G01 X94.7989 Y72.2219
G01 X94.8618 Y72.2062
G01 X94.9064 Y72.1973
G01 X94.9705 Y72.1878
G01 X95.0157 Y72.1833
G01 X95.0805 Y72.1801
G01 X95.1032 Y72.1796
G01 X96.4240 Y72.1796
G01 X96.4467 Y72.1801
G01 X96.5115 Y72.1833
G01 X96.5567 Y72.1878
G01 X96.6208 Y72.1973
G01 X96.6654 Y72.2062
G01 X96.7283 Y72.2219
G01 X96.7718 Y72.2351
G01 X96.8328 Y72.2569
G01 X96.8748 Y72.2743
G01 X96.9334 Y72.3021
G01 X96.9735 Y72.3235
G01 X97.0291 Y72.3568
G01 X97.0669 Y72.3821
G01 X97.1190 Y72.4207
G01 X97.1541 Y72.4495
G01 X97.2022 Y72.4931
G01 X97.2343 Y72.5252
G01 X97.2778 Y72.5732
G01 X97.3067 Y72.6084
G01 X97.3399 Y72.6532
G01 X97.3399 Y71.7270
G01 X95.7636 Y71.7270
G01 X95.7409 Y71.7265
G01 X95.6918 Y71.7241
G01 X95.6466 Y71.7196
G01 X95.5980 Y71.7124
G01 X95.5534 Y71.7035
G01 X95.5058 Y71.6916
G01 X95.4623 Y71.6784
G01 X95.4160 Y71.6619
G01 X95.3740 Y71.6445
G01 X95.3296 Y71.6235
G01 X95.2895 Y71.6020
G01 X95.2474 Y71.5768
G01 X95.2096 Y71.5515
G01 X95.1702 Y71.5223
G01 X95.1350 Y71.4934
G01 X95.0987 Y71.4605
G01 X95.0665 Y71.4283
G01 X95.0335 Y71.3919
G01 X95.0047 Y71.3568
G01 X94.9754 Y71.3174
G01 X94.9502 Y71.2795
G01 X94.9249 Y71.2374
G01 X94.9035 Y71.1973
G01 X94.8825 Y71.1529
G01 X94.8651 Y71.1109
G01 X94.8486 Y71.0647
G01 X94.8354 Y71.0212
G01 X94.8234 Y70.9736
G01 X94.8146 Y70.9290
G01 X94.8074 Y70.8804
G01 X94.8029 Y70.8352
G01 X94.8005 Y70.7861
G01 X94.7999 Y70.7634
G01 X94.7999 Y66.7651
G01 X94.7554 Y66.7517
G01 X94.6944 Y66.7298
G01 X94.6523 Y66.7124
G01 X94.5937 Y66.6847
G01 X94.5536 Y66.6633
G01 X94.5265 Y66.6470
G01 X93.2236 Y66.6470
G01 X93.2009 Y66.6465
G01 X93.1518 Y66.6441
G01 X93.1066 Y66.6396
G01 X93.0580 Y66.6324
G01 X93.0134 Y66.6235
G01 X92.9658 Y66.6116
G01 X92.9223 Y66.5984
G01 X92.8760 Y66.5819
G01 X92.8340 Y66.5645
G01 X92.7896 Y66.5435
G01 X92.7495 Y66.5220
G01 X92.7074 Y66.4968
G01 X92.6696 Y66.4715
G01 X92.6302 Y66.4423
G01 X92.5950 Y66.4134
G01 X92.5587 Y66.3805
G01 X92.5265 Y66.3483
G01 X92.4935 Y66.3119
G01 X92.4647 Y66.2768
G01 X92.4354 Y66.2374
G01 X92.4102 Y66.1995
G01 X92.3849 Y66.1574
G01 X92.3728 Y66.1347
G01 X92.3453 Y66.1928
G01 X92.3239 Y66.2329
G01 X92.2906 Y66.2885
G01 X92.2653 Y66.3263
G01 X92.2267 Y66.3784
G01 X92.1978 Y66.4135
G01 X92.1543 Y66.4616
G01 X92.1222 Y66.4937
G01 X92.0741 Y66.5372
G01 X92.0390 Y66.5661
G01 X91.9869 Y66.6047
G01 X91.9491 Y66.6300
G01 X91.8935 Y66.6633
G01 X91.8534 Y66.6847
G01 X91.7948 Y66.7124
G01 X91.7528 Y66.7298
G01 X91.6918 Y66.7517
G01 X91.6483 Y66.7649
G01 X91.5854 Y66.7806
G01 X91.5408 Y66.7895
G01 X91.4767 Y66.7990
G01 X91.4315 Y66.8034
G01 X91.3667 Y66.8066
G01 X91.3440 Y66.8072
G01 X90.0232 Y66.8072
G01 X90.0005 Y66.8066
G01 X89.9357 Y66.8034
G01 X89.8905 Y66.7990
G01 X89.8264 Y66.7895
G01 X89.7818 Y66.7806
G01 X89.7189 Y66.7649
G01 X89.6754 Y66.7517
