(G-CODE GENERATED BY FLATCAM v8.991 - www.flatcam.org - Version Date: 2019/12/27)

(Name: 004_DReg1_drill)
(Type: G-code from Excellon)
(Units: MM)

(Created on Monday, 02 March 2020 at 18:52)

(Feedrate: 300.0 mm/min)
(Feedrate rapids 1500.0 mm/min)

(Z_Cut: -1.9000000000000001 mm)
(Z_Move: 2.0 mm)
(Z Toolchange: 15.0 mm)
(X,Y Toolchange: 0.0000, 0.0000 mm)
(Z Start: None mm)
(Z End: 0.5 mm)
(Steps per circle: 64)
(Preprocessor Excellon: default)

(X range:    6.4191 ...  146.9700  mm)
(Y range:    4.2789 ...   96.6079  mm)

(Spindle Speed: None RPM)
G21
G90
G94

M03 S3000


G01 F300.00
G00 Z2.0000

M03
G00 X146.5636 Y7.2634
G01 Z-1.9000
G01 Z0
G00 Z2.0000
G00 X108.4636 Y32.6634
G01 Z-1.9000
G01 Z0
G00 Z2.0000
G00 X108.4636 Y35.2034
G01 Z-1.9000
G01 Z0
G00 Z2.0000
G00 X108.4636 Y42.8234
G01 Z-1.9000
G01 Z0
G00 Z2.0000
G00 X108.4636 Y47.9034
G01 Z-1.9000
G01 Z0
G00 Z2.0000
G00 X108.4636 Y50.4434
G01 Z-1.9000
G01 Z0
G00 Z2.0000
G00 X108.4636 Y58.0634
G01 Z-1.9000
G01 Z0
G00 Z2.0000
G00 X108.4636 Y63.1434
G01 Z-1.9000
G01 Z0
G00 Z2.0000
G00 X108.4636 Y65.6834
G01 Z-1.9000
G01 Z0
G00 Z2.0000
G00 X108.4636 Y73.3034
G01 Z-1.9000
G01 Z0
G00 Z2.0000
G00 X108.4636 Y78.3834
G01 Z-1.9000
G01 Z0
G00 Z2.0000
G00 X111.0036 Y80.9234
G01 Z-1.9000
G01 Z0
G00 Z2.0000
G00 X103.3836 Y80.9234
G01 Z-1.9000
G01 Z0
G00 Z2.0000
G00 X100.8436 Y78.3834
G01 Z-1.9000
G01 Z0
G00 Z2.0000
G00 X98.3036 Y80.9234
G01 Z-1.9000
G01 Z0
G00 Z2.0000
G00 X95.7636 Y78.3834
G01 Z-1.9000
G01 Z0
G00 Z2.0000
G00 X90.6836 Y80.9234
G01 Z-1.9000
G01 Z0
G00 Z2.0000
G00 X88.1436 Y78.3834
G01 Z-1.9000
G01 Z0
G00 Z2.0000
G00 X85.6036 Y80.9234
G01 Z-1.9000
G01 Z0
G00 Z2.0000
G00 X83.0636 Y78.3834
G01 Z-1.9000
G01 Z0
G00 Z2.0000
G00 X77.9836 Y80.9234
G01 Z-1.9000
G01 Z0
G00 Z2.0000
G00 X75.4436 Y78.3834
G01 Z-1.9000
G01 Z0
G00 Z2.0000
G00 X72.9036 Y80.9234
G01 Z-1.9000
G01 Z0
G00 Z2.0000
G00 X65.2836 Y80.9234
G01 Z-1.9000
G01 Z0
G00 Z2.0000
G00 X62.7436 Y78.3834
G01 Z-1.9000
G01 Z0
G00 Z2.0000
G00 X60.2036 Y80.9234
G01 Z-1.9000
G01 Z0
G00 Z2.0000
G00 X57.6636 Y78.3834
G01 Z-1.9000
G01 Z0
G00 Z2.0000
G00 X52.5836 Y80.9234
G01 Z-1.9000
G01 Z0
G00 Z2.0000
G00 X50.0436 Y78.3834
G01 Z-1.9000
G01 Z0
G00 Z2.0000
G00 X52.5836 Y75.8434
G01 Z-1.9000
G01 Z0
G00 Z2.0000
G00 X52.5836 Y73.3034
G01 Z-1.9000
G01 Z0
G00 Z2.0000
G00 X57.6636 Y73.3034
G01 Z-1.9000
G01 Z0
G00 Z2.0000
G00 X57.6636 Y65.6834
G01 Z-1.9000
G01 Z0
G00 Z2.0000
G00 X57.6636 Y63.1434
G01 Z-1.9000
G01 Z0
G00 Z2.0000
G00 X52.5836 Y65.6834
G01 Z-1.9000
G01 Z0
G00 Z2.0000
G00 X52.5836 Y63.1434
G01 Z-1.9000
G01 Z0
G00 Z2.0000
G00 X52.5836 Y58.0634
G01 Z-1.9000
G01 Z0
G00 Z2.0000
G00 X57.6636 Y58.0634
G01 Z-1.9000
G01 Z0
G00 Z2.0000
G00 X57.6636 Y50.4434
G01 Z-1.9000
G01 Z0
G00 Z2.0000
G00 X57.6636 Y47.9034
G01 Z-1.9000
G01 Z0
G00 Z2.0000
G00 X52.5836 Y50.4434
G01 Z-1.9000
G01 Z0
G00 Z2.0000
G00 X52.5836 Y47.9034
G01 Z-1.9000
G01 Z0
G00 Z2.0000
G00 X52.5836 Y42.8234
G01 Z-1.9000
G01 Z0
G00 Z2.0000
G00 X57.6636 Y42.8234
G01 Z-1.9000
G01 Z0
G00 Z2.0000
G00 X57.6636 Y35.2034
G01 Z-1.9000
G01 Z0
G00 Z2.0000
G00 X57.6636 Y32.6634
G01 Z-1.9000
G01 Z0
G00 Z2.0000
G00 X52.5836 Y35.2034
G01 Z-1.9000
G01 Z0
G00 Z2.0000
G00 X52.5836 Y32.6634
G01 Z-1.9000
G01 Z0
G00 Z2.0000
G00 X42.4236 Y27.5834
G01 Z-1.9000
G01 Z0
G00 Z2.0000
G00 X11.9436 Y22.5034
G01 Z-1.9000
G01 Z0
G00 Z2.0000
G00 X6.8636 Y22.5034
G01 Z-1.9000
G01 Z0
G00 Z2.0000
G00 X42.4236 Y22.5034
G01 Z-1.9000
G01 Z0
G00 Z2.0000
G00 X50.0436 Y22.5034
G01 Z-1.9000
G01 Z0
G00 Z2.0000
G00 X52.5836 Y22.5034
G01 Z-1.9000
G01 Z0
G00 Z2.0000
G00 X55.1236 Y27.5834
G01 Z-1.9000
G01 Z0
G00 Z2.0000
G00 X62.7436 Y22.5034
G01 Z-1.9000
G01 Z0
G00 Z2.0000
G00 X65.2836 Y22.5034
G01 Z-1.9000
G01 Z0
G00 Z2.0000
G00 X67.8236 Y27.5834
G01 Z-1.9000
G01 Z0
G00 Z2.0000
G00 X65.2836 Y32.6634
G01 Z-1.9000
G01 Z0
G00 Z2.0000
G00 X65.2836 Y35.2034
G01 Z-1.9000
G01 Z0
G00 Z2.0000
G00 X70.3636 Y32.6634
G01 Z-1.9000
G01 Z0
G00 Z2.0000
G00 X70.3636 Y35.2034
G01 Z-1.9000
G01 Z0
G00 Z2.0000
G00 X70.3636 Y42.8234
G01 Z-1.9000
G01 Z0
G00 Z2.0000
G00 X65.2836 Y42.8234
G01 Z-1.9000
G01 Z0
G00 Z2.0000
G00 X65.2836 Y47.9034
G01 Z-1.9000
G01 Z0
G00 Z2.0000
G00 X65.2836 Y50.4434
G01 Z-1.9000
G01 Z0
G00 Z2.0000
G00 X70.3636 Y47.9034
G01 Z-1.9000
G01 Z0
G00 Z2.0000
G00 X70.3636 Y50.4434
G01 Z-1.9000
G01 Z0
G00 Z2.0000
G00 X70.3636 Y58.0634
G01 Z-1.9000
G01 Z0
G00 Z2.0000
G00 X65.2836 Y58.0634
G01 Z-1.9000
G01 Z0
G00 Z2.0000
G00 X65.2836 Y63.1434
G01 Z-1.9000
G01 Z0
G00 Z2.0000
G00 X65.2836 Y65.6834
G01 Z-1.9000
G01 Z0
G00 Z2.0000
G00 X70.3636 Y63.1434
G01 Z-1.9000
G01 Z0
G00 Z2.0000
G00 X70.3636 Y65.6834
G01 Z-1.9000
G01 Z0
G00 Z2.0000
G00 X70.3636 Y73.3034
G01 Z-1.9000
G01 Z0
G00 Z2.0000
G00 X65.2836 Y73.3034
G01 Z-1.9000
G01 Z0
G00 Z2.0000
G00 X62.7436 Y75.8434
G01 Z-1.9000
G01 Z0
G00 Z2.0000
G00 X65.2836 Y75.8434
G01 Z-1.9000
G01 Z0
G00 Z2.0000
G00 X70.3636 Y78.3834
G01 Z-1.9000
G01 Z0
G00 Z2.0000
G00 X75.4436 Y75.8434
G01 Z-1.9000
G01 Z0
G00 Z2.0000
G00 X77.9836 Y75.8434
G01 Z-1.9000
G01 Z0
G00 Z2.0000
G00 X77.9836 Y73.3034
G01 Z-1.9000
G01 Z0
G00 Z2.0000
G00 X83.0636 Y73.3034
G01 Z-1.9000
G01 Z0
G00 Z2.0000
G00 X83.0636 Y65.6834
G01 Z-1.9000
G01 Z0
G00 Z2.0000
G00 X83.0636 Y63.1434
G01 Z-1.9000
G01 Z0
G00 Z2.0000
G00 X77.9836 Y65.6834
G01 Z-1.9000
G01 Z0
G00 Z2.0000
G00 X77.9836 Y63.1434
G01 Z-1.9000
G01 Z0
G00 Z2.0000
G00 X77.9836 Y58.0634
G01 Z-1.9000
G01 Z0
G00 Z2.0000
G00 X83.0636 Y58.0634
G01 Z-1.9000
G01 Z0
G00 Z2.0000
G00 X83.0636 Y50.4434
G01 Z-1.9000
G01 Z0
G00 Z2.0000
G00 X83.0636 Y47.9034
G01 Z-1.9000
G01 Z0
G00 Z2.0000
G00 X77.9836 Y50.4434
G01 Z-1.9000
G01 Z0
G00 Z2.0000
G00 X77.9836 Y47.9034
G01 Z-1.9000
G01 Z0
G00 Z2.0000
G00 X77.9836 Y42.8234
G01 Z-1.9000
G01 Z0
G00 Z2.0000
G00 X83.0636 Y42.8234
G01 Z-1.9000
G01 Z0
G00 Z2.0000
G00 X83.0636 Y35.2034
G01 Z-1.9000
G01 Z0
G00 Z2.0000
G00 X83.0636 Y32.6634
G01 Z-1.9000
G01 Z0
G00 Z2.0000
G00 X77.9836 Y35.2034
G01 Z-1.9000
G01 Z0
G00 Z2.0000
G00 X77.9836 Y32.6634
G01 Z-1.9000
G01 Z0
G00 Z2.0000
G00 X80.5236 Y27.5834
G01 Z-1.9000
G01 Z0
G00 Z2.0000
G00 X75.4436 Y22.5034
G01 Z-1.9000
G01 Z0
G00 Z2.0000
G00 X77.9836 Y22.5034
G01 Z-1.9000
G01 Z0
G00 Z2.0000
G00 X88.1436 Y22.5034
G01 Z-1.9000
G01 Z0
G00 Z2.0000
G00 X90.6836 Y22.5034
G01 Z-1.9000
G01 Z0
G00 Z2.0000
G00 X93.2236 Y27.5834
G01 Z-1.9000
G01 Z0
G00 Z2.0000
G00 X90.6836 Y32.6634
G01 Z-1.9000
G01 Z0
G00 Z2.0000
G00 X90.6836 Y35.2034
G01 Z-1.9000
G01 Z0
G00 Z2.0000
G00 X95.7636 Y32.6634
G01 Z-1.9000
G01 Z0
G00 Z2.0000
G00 X95.7636 Y35.2034
G01 Z-1.9000
G01 Z0
G00 Z2.0000
G00 X95.7636 Y42.8234
G01 Z-1.9000
G01 Z0
G00 Z2.0000
G00 X90.6836 Y42.8234
G01 Z-1.9000
G01 Z0
G00 Z2.0000
G00 X90.6836 Y47.9034
G01 Z-1.9000
G01 Z0
G00 Z2.0000
G00 X90.6836 Y50.4434
G01 Z-1.9000
G01 Z0
G00 Z2.0000
G00 X95.7636 Y47.9034
G01 Z-1.9000
G01 Z0
G00 Z2.0000
G00 X95.7636 Y50.4434
G01 Z-1.9000
G01 Z0
G00 Z2.0000
G00 X95.7636 Y58.0634
G01 Z-1.9000
G01 Z0
G00 Z2.0000
G00 X90.6836 Y58.0634
G01 Z-1.9000
G01 Z0
G00 Z2.0000
G00 X90.6836 Y63.1434
G01 Z-1.9000
G01 Z0
G00 Z2.0000
G00 X90.6836 Y65.6834
G01 Z-1.9000
G01 Z0
G00 Z2.0000
G00 X95.7636 Y63.1434
G01 Z-1.9000
G01 Z0
G00 Z2.0000
G00 X95.7636 Y65.6834
G01 Z-1.9000
G01 Z0
G00 Z2.0000
G00 X90.6836 Y73.3034
G01 Z-1.9000
G01 Z0
G00 Z2.0000
G00 X88.1436 Y75.8434
G01 Z-1.9000
G01 Z0
G00 Z2.0000
G00 X90.6836 Y75.8434
G01 Z-1.9000
G01 Z0
G00 Z2.0000
G00 X95.7636 Y73.3034
G01 Z-1.9000
G01 Z0
G00 Z2.0000
G00 X100.8436 Y75.8434
G01 Z-1.9000
G01 Z0
G00 Z2.0000
G00 X103.3836 Y75.8434
G01 Z-1.9000
G01 Z0
G00 Z2.0000
G00 X103.3836 Y73.3034
G01 Z-1.9000
G01 Z0
G00 Z2.0000
G00 X103.3836 Y65.6834
G01 Z-1.9000
G01 Z0
G00 Z2.0000
G00 X103.3836 Y63.1434
G01 Z-1.9000
G01 Z0
G00 Z2.0000
G00 X103.3836 Y58.0634
G01 Z-1.9000
G01 Z0
G00 Z2.0000
G00 X103.3836 Y50.4434
G01 Z-1.9000
G01 Z0
G00 Z2.0000
G00 X103.3836 Y47.9034
G01 Z-1.9000
G01 Z0
G00 Z2.0000
G00 X103.3836 Y42.8234
G01 Z-1.9000
G01 Z0
G00 Z2.0000
G00 X103.3836 Y35.2034
G01 Z-1.9000
G01 Z0
G00 Z2.0000
G00 X103.3836 Y32.6634
G01 Z-1.9000
G01 Z0
G00 Z2.0000
G00 X105.9236 Y27.5834
G01 Z-1.9000
G01 Z0
G00 Z2.0000
G00 X100.8436 Y22.5034
G01 Z-1.9000
G01 Z0
G00 Z2.0000
G00 X103.3836 Y22.5034
G01 Z-1.9000
G01 Z0
G00 Z2.0000
M03
G00 X111.0036 Y25.0434
G01 Z-1.9000
G01 Z0
G00 Z2.0000
G00 X111.0036 Y30.1234
G01 Z-1.9000
G01 Z0
G00 Z2.0000
G00 X111.0036 Y68.2234
G01 Z-1.9000
G01 Z0
G00 Z2.0000
G00 X108.4636 Y96.1634
G01 Z-1.9000
G01 Z0
G00 Z2.0000
G00 X105.9236 Y96.1634
G01 Z-1.9000
G01 Z0
G00 Z2.0000
G00 X103.3836 Y96.1634
G01 Z-1.9000
G01 Z0
G00 Z2.0000
G00 X100.8436 Y96.1634
G01 Z-1.9000
G01 Z0
G00 Z2.0000
G00 X98.3036 Y96.1634
G01 Z-1.9000
G01 Z0
G00 Z2.0000
G00 X95.7636 Y96.1634
G01 Z-1.9000
G01 Z0
G00 Z2.0000
G00 X93.2236 Y96.1634
G01 Z-1.9000
G01 Z0
G00 Z2.0000
G00 X90.6836 Y96.1634
G01 Z-1.9000
G01 Z0
G00 Z2.0000
G00 X88.1436 Y96.1634
G01 Z-1.9000
G01 Z0
G00 Z2.0000
G00 X85.6036 Y96.1634
G01 Z-1.9000
G01 Z0
G00 Z2.0000
G00 X19.5636 Y96.1634
G01 Z-1.9000
G01 Z0
G00 Z2.0000
G00 X17.0236 Y96.1634
G01 Z-1.9000
G01 Z0
G00 Z2.0000
G00 X14.4836 Y96.1634
G01 Z-1.9000
G01 Z0
G00 Z2.0000
G00 X9.4036 Y96.1634
G01 Z-1.9000
G01 Z0
G00 Z2.0000
G00 X6.8636 Y96.1634
G01 Z-1.9000
G01 Z0
G00 Z2.0000
G00 X50.0436 Y60.6034
G01 Z-1.9000
G01 Z0
G00 Z2.0000
G00 X62.7436 Y60.6034
G01 Z-1.9000
G01 Z0
G00 Z2.0000
G00 X60.2036 Y68.2234
G01 Z-1.9000
G01 Z0
G00 Z2.0000
G00 X72.9036 Y68.2234
G01 Z-1.9000
G01 Z0
G00 Z2.0000
G00 X75.4436 Y60.6034
G01 Z-1.9000
G01 Z0
G00 Z2.0000
G00 X88.1436 Y60.6034
G01 Z-1.9000
G01 Z0
G00 Z2.0000
G00 X85.6036 Y68.2234
G01 Z-1.9000
G01 Z0
G00 Z2.0000
G00 X98.3036 Y68.2234
G01 Z-1.9000
G01 Z0
G00 Z2.0000
G00 X100.8436 Y60.6034
G01 Z-1.9000
G01 Z0
G00 Z2.0000
G00 X100.8436 Y45.3634
G01 Z-1.9000
G01 Z0
G00 Z2.0000
G00 X100.8436 Y37.7434
G01 Z-1.9000
G01 Z0
G00 Z2.0000
G00 X88.1436 Y37.7434
G01 Z-1.9000
G01 Z0
G00 Z2.0000
G00 X88.1436 Y45.3634
G01 Z-1.9000
G01 Z0
G00 Z2.0000
G00 X75.4436 Y45.3634
G01 Z-1.9000
G01 Z0
G00 Z2.0000
G00 X75.4436 Y37.7434
G01 Z-1.9000
G01 Z0
G00 Z2.0000
G00 X62.7436 Y37.7434
G01 Z-1.9000
G01 Z0
G00 Z2.0000
G00 X62.7436 Y45.3634
G01 Z-1.9000
G01 Z0
G00 Z2.0000
G00 X50.0436 Y45.3634
G01 Z-1.9000
G01 Z0
G00 Z2.0000
G00 X50.0436 Y37.7434
G01 Z-1.9000
G01 Z0
G00 Z2.0000
G00 X50.0436 Y30.1234
G01 Z-1.9000
G01 Z0
G00 Z2.0000
G00 X9.4036 Y4.7234
G01 Z-1.9000
G01 Z0
G00 Z2.0000
G00 X6.8636 Y4.7234
G01 Z-1.9000
G01 Z0
G00 Z2.0000
G00 X14.4836 Y4.7234
G01 Z-1.9000
G01 Z0
G00 Z2.0000
G00 X17.0236 Y4.7234
G01 Z-1.9000
G01 Z0
G00 Z2.0000
G00 X29.7236 Y9.8034
G01 Z-1.9000
G01 Z0
G00 Z2.0000
G00 X52.5836 Y27.5834
G01 Z-1.9000
G01 Z0
G00 Z2.0000
G00 X57.6636 Y25.0434
G01 Z-1.9000
G01 Z0
G00 Z2.0000
G00 X60.2036 Y25.0434
G01 Z-1.9000
G01 Z0
G00 Z2.0000
G00 X60.2036 Y30.1234
G01 Z-1.9000
G01 Z0
G00 Z2.0000
G00 X62.7436 Y30.1234
G01 Z-1.9000
G01 Z0
G00 Z2.0000
G00 X65.2836 Y27.5834
G01 Z-1.9000
G01 Z0
G00 Z2.0000
G00 X70.3636 Y25.0434
G01 Z-1.9000
G01 Z0
G00 Z2.0000
G00 X72.9036 Y25.0434
G01 Z-1.9000
G01 Z0
G00 Z2.0000
G00 X72.9036 Y30.1234
G01 Z-1.9000
G01 Z0
G00 Z2.0000
G00 X75.4436 Y30.1234
G01 Z-1.9000
G01 Z0
G00 Z2.0000
G00 X77.9836 Y27.5834
G01 Z-1.9000
G01 Z0
G00 Z2.0000
G00 X85.6036 Y30.1234
G01 Z-1.9000
G01 Z0
G00 Z2.0000
G00 X88.1436 Y30.1234
G01 Z-1.9000
G01 Z0
G00 Z2.0000
G00 X90.6836 Y27.5834
G01 Z-1.9000
G01 Z0
G00 Z2.0000
G00 X85.6036 Y25.0434
G01 Z-1.9000
G01 Z0
G00 Z2.0000
G00 X83.0636 Y25.0434
G01 Z-1.9000
G01 Z0
G00 Z2.0000
G00 X67.8236 Y4.7234
G01 Z-1.9000
G01 Z0
G00 Z2.0000
G00 X70.3636 Y4.7234
G01 Z-1.9000
G01 Z0
G00 Z2.0000
G00 X72.9036 Y4.7234
G01 Z-1.9000
G01 Z0
G00 Z2.0000
G00 X80.5236 Y4.7234
G01 Z-1.9000
G01 Z0
G00 Z2.0000
G00 X83.0636 Y4.7234
G01 Z-1.9000
G01 Z0
G00 Z2.0000
G00 X85.6036 Y4.7234
G01 Z-1.9000
G01 Z0
G00 Z2.0000
G00 X88.1436 Y4.7234
G01 Z-1.9000
G01 Z0
G00 Z2.0000
G00 X90.6836 Y4.7234
G01 Z-1.9000
G01 Z0
G00 Z2.0000
G00 X93.2236 Y4.7234
G01 Z-1.9000
G01 Z0
G00 Z2.0000
G00 X95.7636 Y4.7234
G01 Z-1.9000
G01 Z0
G00 Z2.0000
G00 X98.3036 Y4.7234
G01 Z-1.9000
G01 Z0
G00 Z2.0000
G00 X100.8436 Y4.7234
G01 Z-1.9000
G01 Z0
G00 Z2.0000
G00 X103.3836 Y4.7234
G01 Z-1.9000
G01 Z0
G00 Z2.0000
G00 X105.9236 Y4.7234
G01 Z-1.9000
G01 Z0
G00 Z2.0000
G00 X98.3036 Y25.0434
G01 Z-1.9000
G01 Z0
G00 Z2.0000
G00 X95.7636 Y25.0434
G01 Z-1.9000
G01 Z0
G00 Z2.0000
G00 X98.3036 Y30.1234
G01 Z-1.9000
G01 Z0
G00 Z2.0000
G00 X100.8436 Y30.1234
G01 Z-1.9000
G01 Z0
G00 Z2.0000
G00 X103.3836 Y27.5834
G01 Z-1.9000
G01 Z0
G00 Z2.0000
G00 X108.4636 Y25.0434
G01 Z-1.9000
G01 Z0
G00 Z2.0000
M05
G00 Z0.50
G00 X0.0 Y0.0

