(G-CODE GENERATED BY FLATCAM v8.991 - www.flatcam.org - Version Date: 2019/12/27)

(Name: 001_ALU)
(Type: G-code from Geometry)
(Units: MM)

(Created on Saturday, 07 March 2020 at 19:56)

(TOOL DIAMETER: 0.331 mm)
(Feedrate: 320.0 mm/min)
(Feedrate_Z: 60.0 mm/min)
(Feedrate rapids 1500.0 mm/min)

(Z_Cut: -0.2001 mm)
(Z_Move: 2.0 mm)
(Z Toolchange: 15.0 mm)
(X,Y Toolchange: 0.0000, 0.0000 mm)
(Z Start: None mm)
(Z End: 15.0 mm)
(Steps per circle: 64)
(Preprocessor Geometry: default)

(X range:    5.9363 ...  147.4909  mm)
(Y range:    3.7961 ...   97.0907  mm)

(Spindle Speed: None RPM)
G21
G90
G94

M03 S3000


G01 F320.00
G00 Z2.0000

M03
G00 X13.5563 Y4.7315
G01 F60.00
G01 Z-0.2001
G01 F320.00
G01 X13.5563 Y4.7153
G01 X13.5600 Y4.6406
G01 X13.5616 Y4.6244
G01 X13.5725 Y4.5504
G01 X13.5757 Y4.5345
G01 X13.5939 Y4.4620
G01 X13.5986 Y4.4464
G01 X13.6238 Y4.3760
G01 X13.6300 Y4.3610
G01 X13.6620 Y4.2934
G01 X13.6696 Y4.2791
G01 X13.7081 Y4.2150
G01 X13.7171 Y4.2015
G01 X13.7616 Y4.1414
G01 X13.7719 Y4.1288
G01 X13.8221 Y4.0734
G01 X13.8336 Y4.0619
G01 X13.8890 Y4.0117
G01 X13.9016 Y4.0014
G01 X13.9617 Y3.9569
G01 X13.9752 Y3.9479
G01 X14.0393 Y3.9094
G01 X14.0536 Y3.9018
G01 X14.1212 Y3.8698
G01 X14.1362 Y3.8636
G01 X14.2066 Y3.8384
G01 X14.2222 Y3.8337
G01 X14.2947 Y3.8155
G01 X14.3106 Y3.8123
G01 X14.3846 Y3.8013
G01 X14.4008 Y3.7998
G01 X14.4755 Y3.7961
G01 X14.4917 Y3.7961
G01 X14.5664 Y3.7998
G01 X14.5826 Y3.8013
G01 X14.6565 Y3.8123
G01 X14.6725 Y3.8155
G01 X14.7450 Y3.8337
G01 X14.7605 Y3.8384
G01 X14.8309 Y3.8636
G01 X14.8460 Y3.8698
G01 X14.9136 Y3.9018
G01 X14.9279 Y3.9094
G01 X14.9920 Y3.9479
G01 X15.0055 Y3.9569
G01 X15.0656 Y4.0014
G01 X15.0781 Y4.0117
G01 X15.1335 Y4.0619
G01 X15.1450 Y4.0734
G01 X15.1952 Y4.1288
G01 X15.2056 Y4.1414
G01 X15.2501 Y4.2015
G01 X15.2591 Y4.2150
G01 X15.2976 Y4.2791
G01 X15.3052 Y4.2934
G01 X15.3372 Y4.3610
G01 X15.3434 Y4.3760
G01 X15.3686 Y4.4464
G01 X15.3733 Y4.4620
G01 X15.3915 Y4.5345
G01 X15.3947 Y4.5504
G01 X15.4056 Y4.6244
G01 X15.4072 Y4.6406
G01 X15.4109 Y4.7153
G01 X15.4109 Y4.7315
G01 X15.4072 Y4.8062
G01 X15.4056 Y4.8224
G01 X15.3947 Y4.8963
G01 X15.3915 Y4.9123
G01 X15.3733 Y4.9848
G01 X15.3686 Y5.0003
G01 X15.3434 Y5.0707
G01 X15.3372 Y5.0857
G01 X15.3052 Y5.1533
G01 X15.2976 Y5.1677
G01 X15.2591 Y5.2318
G01 X15.2501 Y5.2453
G01 X15.2056 Y5.3054
G01 X15.1952 Y5.3179
G01 X15.1450 Y5.3733
G01 X15.1335 Y5.3848
G01 X15.0781 Y5.4350
G01 X15.0656 Y5.4453
G01 X15.0055 Y5.4899
G01 X14.9920 Y5.4989
G01 X14.9279 Y5.5374
G01 X14.9136 Y5.5450
G01 X14.8460 Y5.5770
G01 X14.8309 Y5.5832
G01 X14.7605 Y5.6084
G01 X14.7450 Y5.6131
G01 X14.6725 Y5.6313
G01 X14.6565 Y5.6344
G01 X14.5826 Y5.6454
G01 X14.5664 Y5.6470
G01 X14.4917 Y5.6507
G01 X14.4755 Y5.6507
G01 X14.4008 Y5.6470
G01 X14.3846 Y5.6454
G01 X14.3106 Y5.6344
G01 X14.2947 Y5.6313
G01 X14.2222 Y5.6131
G01 X14.2066 Y5.6084
G01 X14.1362 Y5.5832
G01 X14.1212 Y5.5770
G01 X14.0536 Y5.5450
G01 X14.0393 Y5.5374
G01 X13.9752 Y5.4989
G01 X13.9617 Y5.4899
G01 X13.9016 Y5.4453
G01 X13.8890 Y5.4350
G01 X13.8336 Y5.3848
G01 X13.8221 Y5.3733
G01 X13.7719 Y5.3179
G01 X13.7616 Y5.3054
G01 X13.7171 Y5.2453
G01 X13.7081 Y5.2318
G01 X13.6696 Y5.1677
G01 X13.6620 Y5.1533
G01 X13.6300 Y5.0857
G01 X13.6238 Y5.0707
G01 X13.5986 Y5.0003
G01 X13.5939 Y4.9848
G01 X13.5757 Y4.9123
G01 X13.5725 Y4.8963
G01 X13.5616 Y4.8224
G01 X13.5600 Y4.8062
G01 X13.5563 Y4.7315
G00 Z2.0000
G00 X16.0963 Y4.7315
G01 F60.00
G01 Z-0.2001
G01 F320.00
G01 X16.0963 Y4.7153
G01 X16.1000 Y4.6406
G01 X16.1016 Y4.6244
G01 X16.1125 Y4.5504
G01 X16.1157 Y4.5345
G01 X16.1339 Y4.4620
G01 X16.1386 Y4.4464
G01 X16.1638 Y4.3760
G01 X16.1700 Y4.3610
G01 X16.2020 Y4.2934
G01 X16.2096 Y4.2791
G01 X16.2481 Y4.2150
G01 X16.2571 Y4.2015
G01 X16.3016 Y4.1414
G01 X16.3119 Y4.1288
G01 X16.3621 Y4.0734
G01 X16.3736 Y4.0619
G01 X16.4290 Y4.0117
G01 X16.4416 Y4.0014
G01 X16.5017 Y3.9569
G01 X16.5152 Y3.9479
G01 X16.5793 Y3.9094
G01 X16.5936 Y3.9018
G01 X16.6612 Y3.8698
G01 X16.6762 Y3.8636
G01 X16.7466 Y3.8384
G01 X16.7622 Y3.8337
G01 X16.8347 Y3.8155
G01 X16.8506 Y3.8123
G01 X16.9246 Y3.8013
G01 X16.9408 Y3.7998
G01 X17.0155 Y3.7961
G01 X17.0317 Y3.7961
G01 X17.1064 Y3.7998
G01 X17.1226 Y3.8013
G01 X17.1965 Y3.8123
G01 X17.2125 Y3.8155
G01 X17.2850 Y3.8337
G01 X17.3005 Y3.8384
G01 X17.3709 Y3.8636
G01 X17.3860 Y3.8698
G01 X17.4536 Y3.9018
G01 X17.4679 Y3.9094
G01 X17.5320 Y3.9479
G01 X17.5455 Y3.9569
G01 X17.6056 Y4.0014
G01 X17.6181 Y4.0117
G01 X17.6735 Y4.0619
G01 X17.6850 Y4.0734
G01 X17.7352 Y4.1288
G01 X17.7456 Y4.1414
G01 X17.7901 Y4.2015
G01 X17.7991 Y4.2150
G01 X17.8376 Y4.2791
G01 X17.8452 Y4.2934
G01 X17.8772 Y4.3610
G01 X17.8834 Y4.3760
G01 X17.9086 Y4.4464
G01 X17.9133 Y4.4620
G01 X17.9315 Y4.5345
G01 X17.9347 Y4.5504
G01 X17.9456 Y4.6244
G01 X17.9472 Y4.6406
G01 X17.9509 Y4.7153
G01 X17.9509 Y4.7315
G01 X17.9472 Y4.8062
G01 X17.9456 Y4.8224
G01 X17.9347 Y4.8963
G01 X17.9315 Y4.9123
G01 X17.9133 Y4.9848
G01 X17.9086 Y5.0003
G01 X17.8834 Y5.0707
G01 X17.8772 Y5.0857
G01 X17.8452 Y5.1533
G01 X17.8376 Y5.1677
G01 X17.7991 Y5.2318
G01 X17.7901 Y5.2453
G01 X17.7456 Y5.3054
G01 X17.7352 Y5.3179
G01 X17.6850 Y5.3733
G01 X17.6735 Y5.3848
G01 X17.6181 Y5.4350
G01 X17.6056 Y5.4453
G01 X17.5455 Y5.4899
G01 X17.5320 Y5.4989
G01 X17.4679 Y5.5374
G01 X17.4536 Y5.5450
G01 X17.3860 Y5.5770
G01 X17.3709 Y5.5832
G01 X17.3005 Y5.6084
G01 X17.2850 Y5.6131
G01 X17.2125 Y5.6313
G01 X17.1965 Y5.6344
G01 X17.1226 Y5.6454
G01 X17.1064 Y5.6470
G01 X17.0317 Y5.6507
G01 X17.0155 Y5.6507
G01 X16.9408 Y5.6470
G01 X16.9246 Y5.6454
G01 X16.8506 Y5.6344
G01 X16.8347 Y5.6313
G01 X16.7622 Y5.6131
G01 X16.7466 Y5.6084
G01 X16.6762 Y5.5832
G01 X16.6612 Y5.5770
G01 X16.5936 Y5.5450
G01 X16.5793 Y5.5374
G01 X16.5152 Y5.4989
G01 X16.5017 Y5.4899
G01 X16.4416 Y5.4453
G01 X16.4290 Y5.4350
G01 X16.3736 Y5.3848
G01 X16.3621 Y5.3733
G01 X16.3119 Y5.3179
G01 X16.3016 Y5.3054
G01 X16.2571 Y5.2453
G01 X16.2481 Y5.2318
G01 X16.2096 Y5.1677
G01 X16.2020 Y5.1533
G01 X16.1700 Y5.0857
G01 X16.1638 Y5.0707
G01 X16.1386 Y5.0003
G01 X16.1339 Y4.9848
G01 X16.1157 Y4.9123
G01 X16.1125 Y4.8963
G01 X16.1016 Y4.8224
G01 X16.1000 Y4.8062
G01 X16.0963 Y4.7315
G00 Z2.0000
G00 X27.5583 Y9.8115
G01 F60.00
G01 Z-0.2001
G01 F320.00
G01 X27.5583 Y9.7953
G01 X27.5679 Y9.5992
G01 X27.5695 Y9.5831
G01 X27.5983 Y9.3889
G01 X27.6015 Y9.3730
G01 X27.6492 Y9.1826
G01 X27.6539 Y9.1671
G01 X27.7200 Y8.9823
G01 X27.7262 Y8.9673
G01 X27.8101 Y8.7898
G01 X27.8178 Y8.7755
G01 X27.9187 Y8.6072
G01 X27.9277 Y8.5937
G01 X28.0446 Y8.4360
G01 X28.0549 Y8.4235
G01 X28.1868 Y8.2780
G01 X28.1982 Y8.2665
G01 X28.3437 Y8.1347
G01 X28.3562 Y8.1244
G01 X28.5139 Y8.0075
G01 X28.5274 Y7.9985
G01 X28.6957 Y7.8976
G01 X28.7100 Y7.8899
G01 X28.8875 Y7.8060
G01 X28.9025 Y7.7998
G01 X29.0873 Y7.7337
G01 X29.1028 Y7.7290
G01 X29.2932 Y7.6813
G01 X29.3091 Y7.6781
G01 X29.5033 Y7.6493
G01 X29.5194 Y7.6477
G01 X29.7155 Y7.6381
G01 X29.7317 Y7.6381
G01 X29.9277 Y7.6477
G01 X29.9439 Y7.6493
G01 X30.1381 Y7.6781
G01 X30.1540 Y7.6813
G01 X30.3444 Y7.7290
G01 X30.3599 Y7.7337
G01 X30.5447 Y7.7998
G01 X30.5597 Y7.8060
G01 X30.7371 Y7.8899
G01 X30.7515 Y7.8976
G01 X30.9198 Y7.9985
G01 X30.9333 Y8.0075
G01 X31.0910 Y8.1244
G01 X31.1035 Y8.1347
G01 X31.2489 Y8.2665
G01 X31.2604 Y8.2780
G01 X31.3922 Y8.4235
G01 X31.4025 Y8.4360
G01 X31.5195 Y8.5937
G01 X31.5285 Y8.6072
G01 X31.6294 Y8.7755
G01 X31.6370 Y8.7898
G01 X31.7210 Y8.9673
G01 X31.7272 Y8.9823
G01 X31.7933 Y9.1671
G01 X31.7980 Y9.1826
G01 X31.8457 Y9.3730
G01 X31.8489 Y9.3889
G01 X31.8777 Y9.5831
G01 X31.8793 Y9.5992
G01 X31.8889 Y9.7953
G01 X31.8889 Y9.8115
G01 X31.8793 Y10.0075
G01 X31.8777 Y10.0237
G01 X31.8489 Y10.2178
G01 X31.8457 Y10.2338
G01 X31.7980 Y10.4242
G01 X31.7933 Y10.4397
G01 X31.7272 Y10.6245
G01 X31.7210 Y10.6395
G01 X31.6370 Y10.8169
G01 X31.6294 Y10.8313
G01 X31.5285 Y10.9996
G01 X31.5195 Y11.0131
G01 X31.4025 Y11.1708
G01 X31.3922 Y11.1833
G01 X31.2604 Y11.3287
G01 X31.2489 Y11.3402
G01 X31.1035 Y11.4720
G01 X31.0910 Y11.4823
G01 X30.9333 Y11.5992
G01 X30.9198 Y11.6083
G01 X30.7515 Y11.7092
G01 X30.7371 Y11.7168
G01 X30.5597 Y11.8007
G01 X30.5447 Y11.8070
G01 X30.3599 Y11.8731
G01 X30.3444 Y11.8778
G01 X30.1540 Y11.9255
G01 X30.1381 Y11.9287
G01 X29.9439 Y11.9575
G01 X29.9277 Y11.9590
G01 X29.7317 Y11.9687
G01 X29.7155 Y11.9687
G01 X29.5194 Y11.9590
G01 X29.5033 Y11.9575
G01 X29.3091 Y11.9287
G01 X29.2932 Y11.9255
G01 X29.1028 Y11.8778
G01 X29.0873 Y11.8731
G01 X28.9025 Y11.8070
G01 X28.8875 Y11.8007
G01 X28.7100 Y11.7168
G01 X28.6957 Y11.7092
G01 X28.5274 Y11.6083
G01 X28.5139 Y11.5992
G01 X28.3562 Y11.4823
G01 X28.3437 Y11.4720
G01 X28.1982 Y11.3402
G01 X28.1868 Y11.3287
G01 X28.0549 Y11.1833
G01 X28.0446 Y11.1708
G01 X27.9277 Y11.0131
G01 X27.9187 Y10.9996
G01 X27.8178 Y10.8313
G01 X27.8101 Y10.8169
G01 X27.7262 Y10.6395
G01 X27.7200 Y10.6245
G01 X27.6539 Y10.4397
G01 X27.6492 Y10.4242
G01 X27.6015 Y10.2338
G01 X27.5983 Y10.2178
G01 X27.5695 Y10.0237
G01 X27.5679 Y10.0075
G01 X27.5583 Y9.8115
G00 Z2.0000
G00 X12.5888 Y39.6176
G01 F60.00
G01 Z-0.2001
G01 F320.00
G01 X51.9178 Y39.6176
G01 X51.9178 Y9.8034
G01 X51.9204 Y9.7462
G01 X51.9220 Y9.7301
G01 X51.9292 Y9.6815
G01 X51.9324 Y9.6656
G01 X51.9443 Y9.6180
G01 X51.9491 Y9.6024
G01 X51.9656 Y9.5562
G01 X51.9718 Y9.5412
G01 X51.9928 Y9.4968
G01 X52.0005 Y9.4825
G01 X52.0257 Y9.4404
G01 X52.0347 Y9.4269
G01 X52.0640 Y9.3874
G01 X52.0743 Y9.3749
G01 X52.1072 Y9.3385
G01 X52.1187 Y9.3270
G01 X52.1551 Y9.2941
G01 X52.1676 Y9.2838
G01 X52.2071 Y9.2545
G01 X52.2206 Y9.2455
G01 X52.2627 Y9.2203
G01 X52.2770 Y9.2126
G01 X52.3214 Y9.1916
G01 X52.3364 Y9.1854
G01 X52.3826 Y9.1689
G01 X52.3982 Y9.1641
G01 X52.4458 Y9.1522
G01 X52.4617 Y9.1490
G01 X52.5103 Y9.1418
G01 X52.5264 Y9.1402
G01 X52.5836 Y9.1376
G01 X64.6384 Y9.1376
G01 X64.6890 Y9.0917
G01 X64.7016 Y9.0814
G01 X64.7617 Y9.0369
G01 X64.7752 Y9.0279
G01 X64.8393 Y8.9894
G01 X64.8536 Y8.9818
G01 X64.9212 Y8.9498
G01 X64.9362 Y8.9436
G01 X65.0066 Y8.9184
G01 X65.0222 Y8.9137
G01 X65.0947 Y8.8955
G01 X65.1106 Y8.8923
G01 X65.1846 Y8.8813
G01 X65.2008 Y8.8798
G01 X65.2755 Y8.8761
G01 X65.2917 Y8.8761
G01 X65.3664 Y8.8798
G01 X65.3826 Y8.8813
G01 X65.4565 Y8.8923
G01 X65.4725 Y8.8955
G01 X65.5450 Y8.9137
G01 X65.5605 Y8.9184
G01 X65.6309 Y8.9436
G01 X65.6460 Y8.9498
G01 X65.7136 Y8.9818
G01 X65.7279 Y8.9894
G01 X65.7920 Y9.0279
G01 X65.8055 Y9.0369
G01 X65.8656 Y9.0814
G01 X65.8781 Y9.0917
G01 X65.9335 Y9.1419
G01 X65.9450 Y9.1534
G01 X65.9952 Y9.2088
G01 X66.0056 Y9.2214
G01 X66.0501 Y9.2815
G01 X66.0591 Y9.2950
G01 X66.0976 Y9.3591
G01 X66.1052 Y9.3734
G01 X66.1372 Y9.4410
G01 X66.1434 Y9.4560
G01 X66.1686 Y9.5264
G01 X66.1733 Y9.5420
G01 X66.1915 Y9.6145
G01 X66.1947 Y9.6304
G01 X66.2056 Y9.7044
G01 X66.2072 Y9.7206
G01 X66.2109 Y9.7953
G01 X66.2109 Y9.8115
G01 X66.2072 Y9.8862
G01 X66.2056 Y9.9024
G01 X66.1947 Y9.9763
G01 X66.1915 Y9.9923
G01 X66.1733 Y10.0648
G01 X66.1686 Y10.0803
G01 X66.1434 Y10.1507
G01 X66.1372 Y10.1657
G01 X66.1052 Y10.2333
G01 X66.0976 Y10.2477
G01 X66.0591 Y10.3118
G01 X66.0501 Y10.3253
G01 X66.0056 Y10.3854
G01 X65.9952 Y10.3979
G01 X65.9450 Y10.4533
G01 X65.9335 Y10.4648
G01 X65.8781 Y10.5150
G01 X65.8656 Y10.5253
G01 X65.8055 Y10.5699
G01 X65.7920 Y10.5789
G01 X65.7279 Y10.6174
G01 X65.7136 Y10.6250
G01 X65.6460 Y10.6570
G01 X65.6309 Y10.6632
G01 X65.5605 Y10.6884
G01 X65.5450 Y10.6931
G01 X65.4725 Y10.7113
G01 X65.4565 Y10.7144
G01 X65.3826 Y10.7254
G01 X65.3664 Y10.7270
G01 X65.2917 Y10.7307
G01 X65.2755 Y10.7307
G01 X65.2008 Y10.7270
G01 X65.1846 Y10.7254
G01 X65.1106 Y10.7144
G01 X65.0947 Y10.7113
G01 X65.0222 Y10.6931
G01 X65.0066 Y10.6884
G01 X64.9362 Y10.6632
G01 X64.9212 Y10.6570
G01 X64.8536 Y10.6250
G01 X64.8393 Y10.6174
G01 X64.7752 Y10.5789
G01 X64.7617 Y10.5699
G01 X64.7016 Y10.5253
G01 X64.6890 Y10.5150
G01 X64.6384 Y10.4691
G01 X53.2493 Y10.4691
G01 X53.2493 Y40.2834
G01 X53.2467 Y40.3405
G01 X53.2451 Y40.3567
G01 X53.2379 Y40.4053
G01 X53.2348 Y40.4212
G01 X53.2228 Y40.4688
G01 X53.2181 Y40.4844
G01 X53.2016 Y40.5306
G01 X53.1954 Y40.5456
G01 X53.1744 Y40.5900
G01 X53.1667 Y40.6043
G01 X53.1415 Y40.6464
G01 X53.1325 Y40.6599
G01 X53.1032 Y40.6993
G01 X53.0929 Y40.7119
G01 X53.0599 Y40.7483
G01 X53.0485 Y40.7597
G01 X53.0121 Y40.7927
G01 X52.9995 Y40.8030
G01 X52.9601 Y40.8323
G01 X52.9466 Y40.8413
G01 X52.9045 Y40.8665
G01 X52.8902 Y40.8742
G01 X52.8458 Y40.8952
G01 X52.8308 Y40.9014
G01 X52.7846 Y40.9179
G01 X52.7690 Y40.9226
G01 X52.7214 Y40.9346
G01 X52.7055 Y40.9377
G01 X52.6569 Y40.9449
G01 X52.6407 Y40.9465
G01 X52.5836 Y40.9491
G01 X12.5888 Y40.9491
G01 X12.5381 Y40.9950
G01 X12.5256 Y41.0053
G01 X12.4655 Y41.0499
G01 X12.4520 Y41.0589
G01 X12.3879 Y41.0974
G01 X12.3736 Y41.1050
G01 X12.3060 Y41.1370
G01 X12.2909 Y41.1432
G01 X12.2205 Y41.1684
G01 X12.2050 Y41.1731
G01 X12.1325 Y41.1913
G01 X12.1165 Y41.1944
G01 X12.0426 Y41.2054
G01 X12.0264 Y41.2070
G01 X11.9517 Y41.2107
G01 X11.9355 Y41.2107
G01 X11.8608 Y41.2070
G01 X11.8446 Y41.2054
G01 X11.7706 Y41.1944
G01 X11.7547 Y41.1913
G01 X11.6822 Y41.1731
G01 X11.6666 Y41.1684
G01 X11.5962 Y41.1432
G01 X11.5812 Y41.1370
G01 X11.5136 Y41.1050
G01 X11.4993 Y41.0974
G01 X11.4352 Y41.0589
G01 X11.4217 Y41.0499
G01 X11.3616 Y41.0053
G01 X11.3490 Y40.9950
G01 X11.2936 Y40.9448
G01 X11.2821 Y40.9333
G01 X11.2319 Y40.8779
G01 X11.2216 Y40.8654
G01 X11.1771 Y40.8053
G01 X11.1681 Y40.7918
G01 X11.1296 Y40.7277
G01 X11.1220 Y40.7133
G01 X11.0900 Y40.6457
G01 X11.0838 Y40.6307
G01 X11.0586 Y40.5603
G01 X11.0539 Y40.5448
G01 X11.0357 Y40.4723
G01 X11.0325 Y40.4563
G01 X11.0216 Y40.3824
G01 X11.0200 Y40.3662
G01 X11.0163 Y40.2915
G01 X11.0163 Y40.2753
G01 X11.0200 Y40.2006
G01 X11.0216 Y40.1844
G01 X11.0325 Y40.1104
G01 X11.0357 Y40.0945
G01 X11.0539 Y40.0220
G01 X11.0586 Y40.0064
G01 X11.0838 Y39.9360
G01 X11.0900 Y39.9210
G01 X11.1220 Y39.8534
G01 X11.1296 Y39.8391
G01 X11.1681 Y39.7750
G01 X11.1771 Y39.7615
G01 X11.2216 Y39.7014
G01 X11.2319 Y39.6888
G01 X11.2821 Y39.6334
G01 X11.2936 Y39.6219
G01 X11.3490 Y39.5717
G01 X11.3616 Y39.5614
G01 X11.4217 Y39.5169
G01 X11.4352 Y39.5079
G01 X11.4993 Y39.4694
G01 X11.5136 Y39.4618
G01 X11.5812 Y39.4298
G01 X11.5962 Y39.4236
G01 X11.6666 Y39.3984
G01 X11.6822 Y39.3937
G01 X11.7547 Y39.3755
G01 X11.7706 Y39.3723
G01 X11.8446 Y39.3613
G01 X11.8608 Y39.3598
G01 X11.9355 Y39.3561
G01 X11.9517 Y39.3561
G01 X12.0264 Y39.3598
G01 X12.0426 Y39.3613
G01 X12.1165 Y39.3723
G01 X12.1325 Y39.3755
G01 X12.2050 Y39.3937
G01 X12.2205 Y39.3984
G01 X12.2909 Y39.4236
G01 X12.3060 Y39.4298
G01 X12.3736 Y39.4618
G01 X12.3879 Y39.4694
G01 X12.4520 Y39.5079
G01 X12.4655 Y39.5169
G01 X12.5256 Y39.5614
G01 X12.5381 Y39.5717
G01 X12.5888 Y39.6176
G00 Z2.0000
G00 X6.1978 Y39.6382
G01 F60.00
G01 Z-0.2001
G01 F320.00
G01 X6.1978 Y5.3686
G01 X6.1519 Y5.3179
G01 X6.1416 Y5.3054
G01 X6.0971 Y5.2453
G01 X6.0881 Y5.2318
G01 X6.0496 Y5.1677
G01 X6.0420 Y5.1533
G01 X6.0100 Y5.0857
G01 X6.0038 Y5.0707
G01 X5.9786 Y5.0003
G01 X5.9739 Y4.9848
G01 X5.9557 Y4.9123
G01 X5.9525 Y4.8963
G01 X5.9416 Y4.8224
G01 X5.9400 Y4.8062
G01 X5.9363 Y4.7315
G01 X5.9363 Y4.7153
G01 X5.9400 Y4.6406
G01 X5.9416 Y4.6244
G01 X5.9525 Y4.5504
G01 X5.9557 Y4.5345
G01 X5.9739 Y4.4620
G01 X5.9786 Y4.4464
G01 X6.0038 Y4.3760
G01 X6.0100 Y4.3610
G01 X6.0420 Y4.2934
G01 X6.0496 Y4.2791
G01 X6.0881 Y4.2150
G01 X6.0971 Y4.2015
G01 X6.1416 Y4.1414
G01 X6.1519 Y4.1288
G01 X6.2021 Y4.0734
G01 X6.2136 Y4.0619
G01 X6.2690 Y4.0117
G01 X6.2816 Y4.0014
G01 X6.3417 Y3.9569
G01 X6.3552 Y3.9479
G01 X6.4193 Y3.9094
G01 X6.4336 Y3.9018
G01 X6.5012 Y3.8698
G01 X6.5162 Y3.8636
G01 X6.5866 Y3.8384
G01 X6.6022 Y3.8337
G01 X6.6747 Y3.8155
G01 X6.6906 Y3.8123
G01 X6.7646 Y3.8013
G01 X6.7808 Y3.7998
G01 X6.8555 Y3.7961
G01 X6.8717 Y3.7961
G01 X6.9464 Y3.7998
G01 X6.9626 Y3.8013
G01 X7.0365 Y3.8123
G01 X7.0525 Y3.8155
G01 X7.1250 Y3.8337
G01 X7.1405 Y3.8384
G01 X7.2109 Y3.8636
G01 X7.2260 Y3.8698
G01 X7.2936 Y3.9018
G01 X7.3079 Y3.9094
G01 X7.3720 Y3.9479
G01 X7.3855 Y3.9569
G01 X7.4456 Y4.0014
G01 X7.4581 Y4.0117
G01 X7.5135 Y4.0619
G01 X7.5250 Y4.0734
G01 X7.5752 Y4.1288
G01 X7.5856 Y4.1414
G01 X7.6301 Y4.2015
G01 X7.6391 Y4.2150
G01 X7.6776 Y4.2791
G01 X7.6852 Y4.2934
G01 X7.7172 Y4.3610
G01 X7.7234 Y4.3760
G01 X7.7486 Y4.4464
G01 X7.7533 Y4.4620
G01 X7.7715 Y4.5345
G01 X7.7747 Y4.5504
G01 X7.7856 Y4.6244
G01 X7.7872 Y4.6406
G01 X7.7909 Y4.7153
G01 X7.7909 Y4.7315
G01 X7.7872 Y4.8062
G01 X7.7856 Y4.8224
G01 X7.7747 Y4.8963
G01 X7.7715 Y4.9123
G01 X7.7533 Y4.9848
G01 X7.7486 Y5.0003
G01 X7.7234 Y5.0707
G01 X7.7172 Y5.0857
G01 X7.6852 Y5.1533
G01 X7.6776 Y5.1677
G01 X7.6391 Y5.2318
G01 X7.6301 Y5.2453
G01 X7.5856 Y5.3054
G01 X7.5752 Y5.3179
G01 X7.5293 Y5.3686
G01 X7.5293 Y39.6382
G01 X7.5752 Y39.6888
G01 X7.5856 Y39.7014
G01 X7.6301 Y39.7615
G01 X7.6391 Y39.7750
G01 X7.6776 Y39.8391
G01 X7.6852 Y39.8534
G01 X7.7172 Y39.9210
G01 X7.7234 Y39.9360
G01 X7.7486 Y40.0064
G01 X7.7533 Y40.0220
G01 X7.7715 Y40.0945
G01 X7.7747 Y40.1104
G01 X7.7856 Y40.1844
G01 X7.7872 Y40.2006
G01 X7.7909 Y40.2753
G01 X7.7909 Y40.2915
G01 X7.7872 Y40.3662
G01 X7.7856 Y40.3824
G01 X7.7747 Y40.4563
G01 X7.7715 Y40.4723
G01 X7.7533 Y40.5448
G01 X7.7486 Y40.5603
G01 X7.7234 Y40.6307
G01 X7.7172 Y40.6457
G01 X7.6852 Y40.7133
G01 X7.6776 Y40.7277
G01 X7.6391 Y40.7918
G01 X7.6301 Y40.8053
G01 X7.5856 Y40.8654
G01 X7.5752 Y40.8779
G01 X7.5293 Y40.9286
G01 X7.5293 Y59.9582
G01 X7.5752 Y60.0088
G01 X7.5856 Y60.0214
G01 X7.6301 Y60.0815
G01 X7.6391 Y60.0950
G01 X7.6776 Y60.1591
G01 X7.6852 Y60.1734
G01 X7.7172 Y60.2410
G01 X7.7234 Y60.2560
G01 X7.7486 Y60.3264
G01 X7.7533 Y60.3420
G01 X7.7715 Y60.4145
G01 X7.7747 Y60.4304
G01 X7.7856 Y60.5044
G01 X7.7872 Y60.5206
G01 X7.7909 Y60.5953
G01 X7.7909 Y60.6115
G01 X7.7872 Y60.6862
G01 X7.7856 Y60.7024
G01 X7.7747 Y60.7763
G01 X7.7715 Y60.7923
G01 X7.7533 Y60.8648
G01 X7.7486 Y60.8803
G01 X7.7234 Y60.9507
G01 X7.7172 Y60.9657
G01 X7.6852 Y61.0333
G01 X7.6776 Y61.0477
G01 X7.6391 Y61.1118
G01 X7.6301 Y61.1253
G01 X7.5856 Y61.1854
G01 X7.5752 Y61.1979
G01 X7.5293 Y61.2486
G01 X7.5293 Y77.7382
G01 X7.5752 Y77.7888
G01 X7.5856 Y77.8014
G01 X7.6301 Y77.8615
G01 X7.6391 Y77.8750
G01 X7.6776 Y77.9391
G01 X7.6852 Y77.9534
G01 X7.7172 Y78.0210
G01 X7.7234 Y78.0360
G01 X7.7486 Y78.1064
G01 X7.7533 Y78.1220
G01 X7.7715 Y78.1945
G01 X7.7747 Y78.2104
G01 X7.7856 Y78.2844
G01 X7.7872 Y78.3006
G01 X7.7909 Y78.3753
G01 X7.7909 Y78.3915
G01 X7.7872 Y78.4662
G01 X7.7856 Y78.4824
G01 X7.7747 Y78.5563
G01 X7.7715 Y78.5723
G01 X7.7533 Y78.6448
G01 X7.7486 Y78.6603
G01 X7.7234 Y78.7307
G01 X7.7172 Y78.7457
G01 X7.6852 Y78.8133
G01 X7.6776 Y78.8277
G01 X7.6391 Y78.8918
G01 X7.6301 Y78.9053
G01 X7.5856 Y78.9654
G01 X7.5752 Y78.9779
G01 X7.5293 Y79.0286
G01 X7.5293 Y95.5182
G01 X7.5752 Y95.5688
G01 X7.5856 Y95.5814
G01 X7.6301 Y95.6415
G01 X7.6391 Y95.6550
G01 X7.6776 Y95.7191
G01 X7.6852 Y95.7334
G01 X7.7172 Y95.8010
G01 X7.7234 Y95.8160
G01 X7.7486 Y95.8864
G01 X7.7533 Y95.9020
G01 X7.7715 Y95.9745
G01 X7.7747 Y95.9904
G01 X7.7856 Y96.0644
G01 X7.7872 Y96.0806
G01 X7.7909 Y96.1553
G01 X7.7909 Y96.1715
G01 X7.7872 Y96.2462
G01 X7.7856 Y96.2624
G01 X7.7747 Y96.3363
G01 X7.7715 Y96.3523
G01 X7.7533 Y96.4248
G01 X7.7486 Y96.4403
G01 X7.7234 Y96.5107
G01 X7.7172 Y96.5257
G01 X7.6852 Y96.5933
G01 X7.6776 Y96.6077
G01 X7.6391 Y96.6718
G01 X7.6301 Y96.6853
G01 X7.5856 Y96.7454
G01 X7.5752 Y96.7579
G01 X7.5250 Y96.8133
G01 X7.5135 Y96.8248
G01 X7.4581 Y96.8750
G01 X7.4456 Y96.8853
G01 X7.3855 Y96.9299
G01 X7.3720 Y96.9389
G01 X7.3079 Y96.9774
G01 X7.2936 Y96.9850
G01 X7.2260 Y97.0170
G01 X7.2109 Y97.0232
G01 X7.1405 Y97.0484
G01 X7.1250 Y97.0531
G01 X7.0525 Y97.0713
G01 X7.0365 Y97.0744
G01 X6.9626 Y97.0854
G01 X6.9464 Y97.0870
G01 X6.8717 Y97.0907
G01 X6.8555 Y97.0907
G01 X6.7808 Y97.0870
G01 X6.7646 Y97.0854
G01 X6.6906 Y97.0744
G01 X6.6747 Y97.0713
G01 X6.6022 Y97.0531
G01 X6.5866 Y97.0484
G01 X6.5162 Y97.0232
G01 X6.5012 Y97.0170
G01 X6.4336 Y96.9850
G01 X6.4193 Y96.9774
G01 X6.3552 Y96.9389
G01 X6.3417 Y96.9299
G01 X6.2816 Y96.8853
G01 X6.2690 Y96.8750
G01 X6.2136 Y96.8248
G01 X6.2021 Y96.8133
G01 X6.1519 Y96.7579
G01 X6.1416 Y96.7454
G01 X6.0971 Y96.6853
G01 X6.0881 Y96.6718
G01 X6.0496 Y96.6077
G01 X6.0420 Y96.5933
G01 X6.0100 Y96.5257
G01 X6.0038 Y96.5107
G01 X5.9786 Y96.4403
G01 X5.9739 Y96.4248
G01 X5.9557 Y96.3523
G01 X5.9525 Y96.3363
G01 X5.9416 Y96.2624
G01 X5.9400 Y96.2462
G01 X5.9363 Y96.1715
G01 X5.9363 Y96.1553
G01 X5.9400 Y96.0806
G01 X5.9416 Y96.0644
G01 X5.9525 Y95.9904
G01 X5.9557 Y95.9745
G01 X5.9739 Y95.9020
G01 X5.9786 Y95.8864
G01 X6.0038 Y95.8160
G01 X6.0100 Y95.8010
G01 X6.0420 Y95.7334
G01 X6.0496 Y95.7191
G01 X6.0881 Y95.6550
G01 X6.0971 Y95.6415
G01 X6.1416 Y95.5814
G01 X6.1519 Y95.5688
G01 X6.1978 Y95.5182
G01 X6.1978 Y79.0286
G01 X6.1519 Y78.9779
G01 X6.1416 Y78.9654
G01 X6.0971 Y78.9053
G01 X6.0881 Y78.8918
G01 X6.0496 Y78.8277
G01 X6.0420 Y78.8133
G01 X6.0100 Y78.7457
G01 X6.0038 Y78.7307
G01 X5.9786 Y78.6603
G01 X5.9739 Y78.6448
G01 X5.9557 Y78.5723
G01 X5.9525 Y78.5563
G01 X5.9416 Y78.4824
G01 X5.9400 Y78.4662
G01 X5.9363 Y78.3915
G01 X5.9363 Y78.3753
G01 X5.9400 Y78.3006
G01 X5.9416 Y78.2844
G01 X5.9525 Y78.2104
G01 X5.9557 Y78.1945
G01 X5.9739 Y78.1220
G01 X5.9786 Y78.1064
G01 X6.0038 Y78.0360
G01 X6.0100 Y78.0210
G01 X6.0420 Y77.9534
G01 X6.0496 Y77.9391
G01 X6.0881 Y77.8750
G01 X6.0971 Y77.8615
G01 X6.1416 Y77.8014
G01 X6.1519 Y77.7888
G01 X6.1978 Y77.7382
G01 X6.1978 Y61.2486
G01 X6.1519 Y61.1979
G01 X6.1416 Y61.1854
G01 X6.0971 Y61.1253
G01 X6.0881 Y61.1118
G01 X6.0496 Y61.0477
G01 X6.0420 Y61.0333
G01 X6.0100 Y60.9657
G01 X6.0038 Y60.9507
G01 X5.9786 Y60.8803
G01 X5.9739 Y60.8648
G01 X5.9557 Y60.7923
G01 X5.9525 Y60.7763
G01 X5.9416 Y60.7024
G01 X5.9400 Y60.6862
G01 X5.9363 Y60.6115
G01 X5.9363 Y60.5953
G01 X5.9400 Y60.5206
G01 X5.9416 Y60.5044
G01 X5.9525 Y60.4304
G01 X5.9557 Y60.4145
G01 X5.9739 Y60.3420
G01 X5.9786 Y60.3264
G01 X6.0038 Y60.2560
G01 X6.0100 Y60.2410
G01 X6.0420 Y60.1734
G01 X6.0496 Y60.1591
G01 X6.0881 Y60.0950
G01 X6.0971 Y60.0815
G01 X6.1416 Y60.0214
G01 X6.1519 Y60.0088
G01 X6.1978 Y59.9582
G01 X6.1978 Y40.9286
G01 X6.1519 Y40.8779
G01 X6.1416 Y40.8654
G01 X6.0971 Y40.8053
G01 X6.0881 Y40.7918
G01 X6.0496 Y40.7277
G01 X6.0420 Y40.7133
G01 X6.0100 Y40.6457
G01 X6.0038 Y40.6307
G01 X5.9786 Y40.5603
G01 X5.9739 Y40.5448
G01 X5.9557 Y40.4723
G01 X5.9525 Y40.4563
G01 X5.9416 Y40.3824
G01 X5.9400 Y40.3662
G01 X5.9363 Y40.2915
G01 X5.9363 Y40.2753
G01 X5.9400 Y40.2006
G01 X5.9416 Y40.1844
G01 X5.9525 Y40.1104
G01 X5.9557 Y40.0945
G01 X5.9739 Y40.0220
G01 X5.9786 Y40.0064
G01 X6.0038 Y39.9360
G01 X6.0100 Y39.9210
G01 X6.0420 Y39.8534
G01 X6.0496 Y39.8391
G01 X6.0881 Y39.7750
G01 X6.0971 Y39.7615
G01 X6.1416 Y39.7014
G01 X6.1519 Y39.6888
G01 X6.1978 Y39.6382
G00 Z2.0000
G00 X12.5888 Y59.9376
G01 F60.00
G01 Z-0.2001
G01 F320.00
G01 X16.3578 Y59.9376
G01 X16.3580 Y50.4353
G01 X16.3604 Y50.3862
G01 X16.3620 Y50.3701
G01 X16.3692 Y50.3215
G01 X16.3724 Y50.3056
G01 X16.3843 Y50.2580
G01 X16.3891 Y50.2424
G01 X16.4056 Y50.1962
G01 X16.4118 Y50.1812
G01 X16.4328 Y50.1368
G01 X16.4405 Y50.1225
G01 X16.4657 Y50.0804
G01 X16.4747 Y50.0669
G01 X16.5040 Y50.0274
G01 X16.5143 Y50.0149
G01 X16.5472 Y49.9785
G01 X16.5587 Y49.9670
G01 X16.5951 Y49.9341
G01 X16.6076 Y49.9238
G01 X16.6471 Y49.8945
G01 X16.6606 Y49.8855
G01 X16.7027 Y49.8603
G01 X16.7170 Y49.8526
G01 X16.7614 Y49.8316
G01 X16.7764 Y49.8254
G01 X16.8226 Y49.8089
G01 X16.8382 Y49.8041
G01 X16.8858 Y49.7922
G01 X16.9017 Y49.7890
G01 X16.9503 Y49.7818
G01 X16.9664 Y49.7802
G01 X17.0236 Y49.7776
G01 X49.3778 Y49.7776
G01 X49.3778 Y49.0512
G01 X49.3616 Y49.0293
G01 X49.3525 Y49.0158
G01 X49.3192 Y48.9602
G01 X49.3116 Y48.9459
G01 X49.2839 Y48.8873
G01 X49.2776 Y48.8723
G01 X49.2558 Y48.8112
G01 X49.2511 Y48.7957
G01 X49.2353 Y48.7328
G01 X49.2322 Y48.7169
G01 X49.2227 Y48.6528
G01 X49.2211 Y48.6366
G01 X49.2177 Y48.5638
G01 X49.2177 Y47.2430
G01 X49.2211 Y47.1701
G01 X49.2227 Y47.1540
G01 X49.2322 Y47.0899
G01 X49.2353 Y47.0739
G01 X49.2511 Y47.0111
G01 X49.2558 Y46.9955
G01 X49.2776 Y46.9345
G01 X49.2839 Y46.9195
G01 X49.3116 Y46.8609
G01 X49.3192 Y46.8466
G01 X49.3525 Y46.7910
G01 X49.3616 Y46.7775
G01 X49.4002 Y46.7254
G01 X49.4105 Y46.7129
G01 X49.4540 Y46.6649
G01 X49.4655 Y46.6534
G01 X49.5135 Y46.6099
G01 X49.5260 Y46.5996
G01 X49.5781 Y46.5610
G01 X49.5916 Y46.5519
G01 X49.6472 Y46.5186
G01 X49.6615 Y46.5110
G01 X49.7201 Y46.4832
G01 X49.7351 Y46.4770
G01 X49.7961 Y46.4552
G01 X49.8117 Y46.4505
G01 X49.8745 Y46.4347
G01 X49.8905 Y46.4316
G01 X49.9546 Y46.4221
G01 X49.9707 Y46.4205
G01 X50.0355 Y46.4173
G01 X50.0517 Y46.4173
G01 X50.1164 Y46.4205
G01 X50.1326 Y46.4221
G01 X50.1967 Y46.4316
G01 X50.2126 Y46.4347
G01 X50.2755 Y46.4505
G01 X50.2910 Y46.4552
G01 X50.3521 Y46.4770
G01 X50.3671 Y46.4832
G01 X50.4257 Y46.5110
G01 X50.4400 Y46.5186
G01 X50.4956 Y46.5519
G01 X50.5091 Y46.5610
G01 X50.5611 Y46.5996
G01 X50.5737 Y46.6099
G01 X50.6217 Y46.6534
G01 X50.6332 Y46.6649
G01 X50.6767 Y46.7129
G01 X50.6870 Y46.7254
G01 X50.7256 Y46.7775
G01 X50.7346 Y46.7910
G01 X50.7680 Y46.8466
G01 X50.7756 Y46.8609
G01 X50.8033 Y46.9195
G01 X50.8095 Y46.9345
G01 X50.8314 Y46.9955
G01 X50.8361 Y47.0111
G01 X50.8518 Y47.0739
G01 X50.8550 Y47.0899
G01 X50.8645 Y47.1540
G01 X50.8661 Y47.1701
G01 X50.8695 Y47.2430
G01 X50.8693 Y48.5719
G01 X50.8661 Y48.6366
G01 X50.8645 Y48.6528
G01 X50.8550 Y48.7169
G01 X50.8518 Y48.7328
G01 X50.8361 Y48.7957
G01 X50.8314 Y48.8112
G01 X50.8095 Y48.8723
G01 X50.8033 Y48.8873
G01 X50.7756 Y48.9459
G01 X50.7680 Y48.9602
G01 X50.7346 Y49.0158
G01 X50.7256 Y49.0293
G01 X50.7093 Y49.0512
G01 X50.7093 Y50.4434
G01 X50.7067 Y50.5005
G01 X50.7051 Y50.5167
G01 X50.6979 Y50.5653
G01 X50.6948 Y50.5812
G01 X50.6828 Y50.6288
G01 X50.6781 Y50.6444
G01 X50.6616 Y50.6906
G01 X50.6554 Y50.7056
G01 X50.6344 Y50.7500
G01 X50.6267 Y50.7643
G01 X50.6015 Y50.8064
G01 X50.5925 Y50.8199
G01 X50.5632 Y50.8593
G01 X50.5529 Y50.8719
G01 X50.5199 Y50.9083
G01 X50.5085 Y50.9197
G01 X50.4721 Y50.9527
G01 X50.4595 Y50.9630
G01 X50.4201 Y50.9923
G01 X50.4066 Y51.0013
G01 X50.3645 Y51.0265
G01 X50.3502 Y51.0342
G01 X50.3058 Y51.0552
G01 X50.2908 Y51.0614
G01 X50.2446 Y51.0779
G01 X50.2290 Y51.0826
G01 X50.1814 Y51.0946
G01 X50.1655 Y51.0977
G01 X50.1169 Y51.1049
G01 X50.1007 Y51.1065
G01 X50.0436 Y51.1091
G01 X17.6893 Y51.1091
G01 X17.6893 Y59.9582
G01 X17.7352 Y60.0088
G01 X17.7456 Y60.0214
G01 X17.7901 Y60.0815
G01 X17.7991 Y60.0950
G01 X17.8376 Y60.1591
G01 X17.8452 Y60.1734
G01 X17.8772 Y60.2410
G01 X17.8834 Y60.2560
G01 X17.9086 Y60.3264
G01 X17.9133 Y60.3420
G01 X17.9315 Y60.4145
G01 X17.9347 Y60.4304
G01 X17.9456 Y60.5044
G01 X17.9472 Y60.5206
G01 X17.9509 Y60.5953
G01 X17.9509 Y60.6115
G01 X17.9472 Y60.6862
G01 X17.9456 Y60.7024
G01 X17.9347 Y60.7763
G01 X17.9315 Y60.7923
G01 X17.9133 Y60.8648
G01 X17.9086 Y60.8803
G01 X17.8834 Y60.9507
G01 X17.8772 Y60.9657
G01 X17.8452 Y61.0333
G01 X17.8376 Y61.0477
G01 X17.7991 Y61.1118
G01 X17.7901 Y61.1253
G01 X17.7456 Y61.1854
G01 X17.7352 Y61.1979
G01 X17.6850 Y61.2533
G01 X17.6735 Y61.2648
G01 X17.6181 Y61.3150
G01 X17.6056 Y61.3253
G01 X17.5455 Y61.3699
G01 X17.5320 Y61.3789
G01 X17.4679 Y61.4174
G01 X17.4536 Y61.4250
G01 X17.3860 Y61.4570
G01 X17.3709 Y61.4632
G01 X17.3005 Y61.4884
G01 X17.2850 Y61.4931
G01 X17.2125 Y61.5113
G01 X17.1965 Y61.5144
G01 X17.1226 Y61.5254
G01 X17.1064 Y61.5270
G01 X17.0317 Y61.5307
G01 X17.0155 Y61.5307
G01 X16.9408 Y61.5270
G01 X16.9246 Y61.5254
G01 X16.8506 Y61.5144
G01 X16.8347 Y61.5113
G01 X16.7622 Y61.4931
G01 X16.7466 Y61.4884
G01 X16.6762 Y61.4632
G01 X16.6612 Y61.4570
G01 X16.5936 Y61.4250
G01 X16.5793 Y61.4174
G01 X16.5152 Y61.3789
G01 X16.5017 Y61.3699
G01 X16.4416 Y61.3253
G01 X16.4290 Y61.3150
G01 X16.3784 Y61.2691
G01 X12.5888 Y61.2691
G01 X12.5381 Y61.3150
G01 X12.5256 Y61.3253
G01 X12.4655 Y61.3699
G01 X12.4520 Y61.3789
G01 X12.3879 Y61.4174
G01 X12.3736 Y61.4250
G01 X12.3060 Y61.4570
G01 X12.2909 Y61.4632
G01 X12.2205 Y61.4884
G01 X12.2050 Y61.4931
G01 X12.1325 Y61.5113
G01 X12.1165 Y61.5144
G01 X12.0426 Y61.5254
G01 X12.0264 Y61.5270
G01 X11.9517 Y61.5307
G01 X11.9355 Y61.5307
G01 X11.8608 Y61.5270
G01 X11.8446 Y61.5254
G01 X11.7706 Y61.5144
G01 X11.7547 Y61.5113
G01 X11.6822 Y61.4931
G01 X11.6666 Y61.4884
G01 X11.5962 Y61.4632
G01 X11.5812 Y61.4570
G01 X11.5136 Y61.4250
G01 X11.4993 Y61.4174
G01 X11.4352 Y61.3789
G01 X11.4217 Y61.3699
G01 X11.3616 Y61.3253
G01 X11.3490 Y61.3150
G01 X11.2936 Y61.2648
G01 X11.2821 Y61.2533
G01 X11.2319 Y61.1979
G01 X11.2216 Y61.1854
G01 X11.1771 Y61.1253
G01 X11.1681 Y61.1118
G01 X11.1296 Y61.0477
G01 X11.1220 Y61.0333
G01 X11.0900 Y60.9657
G01 X11.0838 Y60.9507
G01 X11.0586 Y60.8803
G01 X11.0539 Y60.8648
G01 X11.0357 Y60.7923
G01 X11.0325 Y60.7763
G01 X11.0216 Y60.7024
G01 X11.0200 Y60.6862
G01 X11.0163 Y60.6115
G01 X11.0163 Y60.5953
G01 X11.0200 Y60.5206
G01 X11.0216 Y60.5044
G01 X11.0325 Y60.4304
G01 X11.0357 Y60.4145
G01 X11.0539 Y60.3420
G01 X11.0586 Y60.3264
G01 X11.0838 Y60.2560
G01 X11.0900 Y60.2410
G01 X11.1220 Y60.1734
G01 X11.1296 Y60.1591
G01 X11.1681 Y60.0950
G01 X11.1771 Y60.0815
G01 X11.2216 Y60.0214
G01 X11.2319 Y60.0088
G01 X11.2821 Y59.9534
G01 X11.2936 Y59.9419
G01 X11.3490 Y59.8917
G01 X11.3616 Y59.8814
G01 X11.4217 Y59.8369
G01 X11.4352 Y59.8279
G01 X11.4993 Y59.7894
G01 X11.5136 Y59.7818
G01 X11.5812 Y59.7498
G01 X11.5962 Y59.7436
G01 X11.6666 Y59.7184
G01 X11.6822 Y59.7137
G01 X11.7547 Y59.6955
G01 X11.7706 Y59.6923
G01 X11.8446 Y59.6813
G01 X11.8608 Y59.6798
G01 X11.9355 Y59.6761
G01 X11.9517 Y59.6761
G01 X12.0264 Y59.6798
G01 X12.0426 Y59.6813
G01 X12.1165 Y59.6923
G01 X12.1325 Y59.6955
G01 X12.2050 Y59.7137
G01 X12.2205 Y59.7184
G01 X12.2909 Y59.7436
G01 X12.3060 Y59.7498
G01 X12.3736 Y59.7818
G01 X12.3879 Y59.7894
G01 X12.4520 Y59.8279
G01 X12.4655 Y59.8369
G01 X12.5256 Y59.8814
G01 X12.5381 Y59.8917
G01 X12.5888 Y59.9376
G00 Z2.0000
G00 X22.7488 Y59.9376
G01 F60.00
G01 Z-0.2001
G01 F320.00
G01 X69.7184 Y59.9376
G01 X69.7690 Y59.8917
G01 X69.7816 Y59.8814
G01 X69.8417 Y59.8369
G01 X69.8552 Y59.8279
G01 X69.9193 Y59.7894
G01 X69.9336 Y59.7818
G01 X70.0012 Y59.7498
G01 X70.0162 Y59.7436
G01 X70.0866 Y59.7184
G01 X70.1022 Y59.7137
G01 X70.1747 Y59.6955
G01 X70.1906 Y59.6923
G01 X70.2646 Y59.6813
G01 X70.2808 Y59.6798
G01 X70.3555 Y59.6761
G01 X70.3717 Y59.6761
G01 X70.4464 Y59.6798
G01 X70.4626 Y59.6813
G01 X70.5365 Y59.6923
G01 X70.5525 Y59.6955
G01 X70.6250 Y59.7137
G01 X70.6405 Y59.7184
G01 X70.7109 Y59.7436
G01 X70.7260 Y59.7498
G01 X70.7936 Y59.7818
G01 X70.8079 Y59.7894
G01 X70.8720 Y59.8279
G01 X70.8855 Y59.8369
G01 X70.9456 Y59.8814
G01 X70.9581 Y59.8917
G01 X71.0088 Y59.9376
G01 X87.4984 Y59.9376
G01 X87.5490 Y59.8917
G01 X87.5616 Y59.8814
G01 X87.6217 Y59.8369
G01 X87.6352 Y59.8279
G01 X87.6993 Y59.7894
G01 X87.7136 Y59.7818
G01 X87.7812 Y59.7498
G01 X87.7962 Y59.7436
G01 X87.8666 Y59.7184
G01 X87.8822 Y59.7137
G01 X87.9547 Y59.6955
G01 X87.9706 Y59.6923
G01 X88.0446 Y59.6813
G01 X88.0608 Y59.6798
G01 X88.1355 Y59.6761
G01 X88.1517 Y59.6761
G01 X88.2264 Y59.6798
G01 X88.2426 Y59.6813
G01 X88.3165 Y59.6923
G01 X88.3325 Y59.6955
G01 X88.4050 Y59.7137
G01 X88.4205 Y59.7184
G01 X88.4909 Y59.7436
G01 X88.5060 Y59.7498
G01 X88.5736 Y59.7818
G01 X88.5879 Y59.7894
G01 X88.6520 Y59.8279
G01 X88.6655 Y59.8369
G01 X88.7256 Y59.8814
G01 X88.7381 Y59.8917
G01 X88.7935 Y59.9419
G01 X88.8050 Y59.9534
G01 X88.8552 Y60.0088
G01 X88.8656 Y60.0214
G01 X88.9101 Y60.0815
G01 X88.9191 Y60.0950
G01 X88.9576 Y60.1591
G01 X88.9652 Y60.1734
G01 X88.9972 Y60.2410
G01 X89.0034 Y60.2560
G01 X89.0286 Y60.3264
G01 X89.0333 Y60.3420
G01 X89.0515 Y60.4145
G01 X89.0547 Y60.4304
G01 X89.0656 Y60.5044
G01 X89.0672 Y60.5206
G01 X89.0709 Y60.5953
G01 X89.0709 Y60.6115
G01 X89.0672 Y60.6862
G01 X89.0656 Y60.7024
G01 X89.0547 Y60.7763
G01 X89.0515 Y60.7923
G01 X89.0333 Y60.8648
G01 X89.0286 Y60.8803
G01 X89.0034 Y60.9507
G01 X88.9972 Y60.9657
G01 X88.9652 Y61.0333
G01 X88.9576 Y61.0477
G01 X88.9191 Y61.1118
G01 X88.9101 Y61.1253
G01 X88.8656 Y61.1854
G01 X88.8552 Y61.1979
G01 X88.8050 Y61.2533
G01 X88.7935 Y61.2648
G01 X88.7381 Y61.3150
G01 X88.7256 Y61.3253
G01 X88.6655 Y61.3699
G01 X88.6520 Y61.3789
G01 X88.5879 Y61.4174
G01 X88.5736 Y61.4250
G01 X88.5060 Y61.4570
G01 X88.4909 Y61.4632
G01 X88.4205 Y61.4884
G01 X88.4050 Y61.4931
G01 X88.3325 Y61.5113
G01 X88.3165 Y61.5144
G01 X88.2426 Y61.5254
G01 X88.2264 Y61.5270
G01 X88.1517 Y61.5307
G01 X88.1355 Y61.5307
G01 X88.0608 Y61.5270
G01 X88.0446 Y61.5254
G01 X87.9706 Y61.5144
G01 X87.9547 Y61.5113
G01 X87.8822 Y61.4931
G01 X87.8666 Y61.4884
G01 X87.7962 Y61.4632
G01 X87.7812 Y61.4570
G01 X87.7136 Y61.4250
G01 X87.6993 Y61.4174
G01 X87.6352 Y61.3789
G01 X87.6217 Y61.3699
G01 X87.5616 Y61.3253
G01 X87.5490 Y61.3150
G01 X87.4984 Y61.2691
G01 X81.1893 Y61.2691
G01 X81.1893 Y62.3176
G01 X81.2568 Y62.3209
G01 X81.2730 Y62.3225
G01 X81.3371 Y62.3320
G01 X81.3530 Y62.3351
G01 X81.4159 Y62.3509
G01 X81.4314 Y62.3556
G01 X81.4925 Y62.3774
G01 X81.5075 Y62.3836
G01 X81.5661 Y62.4114
G01 X81.5804 Y62.4190
G01 X81.6360 Y62.4523
G01 X81.6495 Y62.4614
G01 X81.7015 Y62.5000
G01 X81.7141 Y62.5103
G01 X81.7621 Y62.5538
G01 X81.7736 Y62.5653
G01 X81.8171 Y62.6133
G01 X81.8274 Y62.6258
G01 X81.8660 Y62.6779
G01 X81.8750 Y62.6914
G01 X81.9084 Y62.7470
G01 X81.9160 Y62.7613
G01 X81.9437 Y62.8199
G01 X81.9499 Y62.8349
G01 X81.9718 Y62.8959
G01 X81.9765 Y62.9115
G01 X81.9922 Y62.9743
G01 X81.9954 Y62.9903
G01 X82.0049 Y63.0544
G01 X82.0065 Y63.0705
G01 X82.0097 Y63.1353
G01 X82.0097 Y63.1515
G01 X82.0065 Y63.2162
G01 X82.0049 Y63.2324
G01 X81.9954 Y63.2965
G01 X81.9922 Y63.3124
G01 X81.9765 Y63.3753
G01 X81.9718 Y63.3908
G01 X81.9499 Y63.4519
G01 X81.9437 Y63.4669
G01 X81.9160 Y63.5255
G01 X81.9084 Y63.5398
G01 X81.8750 Y63.5954
G01 X81.8660 Y63.6089
G01 X81.8274 Y63.6609
G01 X81.8171 Y63.6735
G01 X81.7736 Y63.7215
G01 X81.7621 Y63.7330
G01 X81.7141 Y63.7765
G01 X81.7015 Y63.7868
G01 X81.6495 Y63.8254
G01 X81.6360 Y63.8344
G01 X81.5804 Y63.8678
G01 X81.5661 Y63.8754
G01 X81.5075 Y63.9031
G01 X81.4925 Y63.9093
G01 X81.4314 Y63.9312
G01 X81.4159 Y63.9359
G01 X81.3530 Y63.9516
G01 X81.3371 Y63.9548
G01 X81.2730 Y63.9643
G01 X81.2568 Y63.9659
G01 X81.1840 Y63.9693
G01 X79.8632 Y63.9693
G01 X79.7903 Y63.9659
G01 X79.7742 Y63.9643
G01 X79.7101 Y63.9548
G01 X79.6941 Y63.9516
G01 X79.6313 Y63.9359
G01 X79.6157 Y63.9312
G01 X79.5547 Y63.9093
G01 X79.5397 Y63.9031
G01 X79.4811 Y63.8754
G01 X79.4668 Y63.8678
G01 X79.4112 Y63.8344
G01 X79.3977 Y63.8254
G01 X79.3757 Y63.8091
G01 X68.9714 Y63.8091
G01 X68.9495 Y63.8254
G01 X68.9360 Y63.8344
G01 X68.8804 Y63.8678
G01 X68.8661 Y63.8754
G01 X68.8075 Y63.9031
G01 X68.7925 Y63.9093
G01 X68.7314 Y63.9312
G01 X68.7159 Y63.9359
G01 X68.6530 Y63.9516
G01 X68.6371 Y63.9548
G01 X68.5730 Y63.9643
G01 X68.5568 Y63.9659
G01 X68.4840 Y63.9693
G01 X67.1632 Y63.9693
G01 X67.0903 Y63.9659
G01 X67.0742 Y63.9643
G01 X67.0101 Y63.9548
G01 X66.9941 Y63.9516
G01 X66.9313 Y63.9359
G01 X66.9157 Y63.9312
G01 X66.8547 Y63.9093
G01 X66.8397 Y63.9031
G01 X66.7811 Y63.8754
G01 X66.7668 Y63.8678
G01 X66.7112 Y63.8344
G01 X66.6977 Y63.8254
G01 X66.6456 Y63.7868
G01 X66.6331 Y63.7765
G01 X66.5851 Y63.7330
G01 X66.5736 Y63.7215
G01 X66.5301 Y63.6735
G01 X66.5198 Y63.6609
G01 X66.4812 Y63.6089
G01 X66.4721 Y63.5954
G01 X66.4388 Y63.5398
G01 X66.4312 Y63.5255
G01 X66.4035 Y63.4669
G01 X66.3972 Y63.4519
G01 X66.3754 Y63.3908
G01 X66.3707 Y63.3753
G01 X66.3549 Y63.3124
G01 X66.3518 Y63.2965
G01 X66.3423 Y63.2324
G01 X66.3407 Y63.2162
G01 X66.3375 Y63.1515
G01 X66.3375 Y63.1353
G01 X66.3407 Y63.0705
G01 X66.3423 Y63.0544
G01 X66.3518 Y62.9903
G01 X66.3549 Y62.9743
G01 X66.3707 Y62.9115
G01 X66.3754 Y62.8959
G01 X66.3972 Y62.8349
G01 X66.4035 Y62.8199
G01 X66.4312 Y62.7613
G01 X66.4388 Y62.7470
G01 X66.4721 Y62.6914
G01 X66.4812 Y62.6779
G01 X66.5198 Y62.6258
G01 X66.5301 Y62.6133
G01 X66.5736 Y62.5653
G01 X66.5851 Y62.5538
G01 X66.6331 Y62.5103
G01 X66.6456 Y62.5000
G01 X66.6977 Y62.4614
G01 X66.7112 Y62.4523
G01 X66.7668 Y62.4190
G01 X66.7811 Y62.4114
G01 X66.8397 Y62.3836
G01 X66.8547 Y62.3774
G01 X66.9157 Y62.3556
G01 X66.9313 Y62.3509
G01 X66.9941 Y62.3351
G01 X67.0101 Y62.3320
G01 X67.0742 Y62.3225
G01 X67.0903 Y62.3209
G01 X67.1578 Y62.3176
G01 X67.1578 Y61.2691
G01 X22.7488 Y61.2691
G01 X22.6981 Y61.3150
G01 X22.6856 Y61.3253
G01 X22.6255 Y61.3699
G01 X22.6120 Y61.3789
G01 X22.5479 Y61.4174
G01 X22.5336 Y61.4250
G01 X22.4660 Y61.4570
G01 X22.4509 Y61.4632
G01 X22.3805 Y61.4884
G01 X22.3650 Y61.4931
G01 X22.2925 Y61.5113
G01 X22.2765 Y61.5144
G01 X22.2026 Y61.5254
G01 X22.1864 Y61.5270
G01 X22.1117 Y61.5307
G01 X22.0955 Y61.5307
G01 X22.0208 Y61.5270
G01 X22.0046 Y61.5254
G01 X21.9306 Y61.5144
G01 X21.9147 Y61.5113
G01 X21.8422 Y61.4931
G01 X21.8266 Y61.4884
G01 X21.7562 Y61.4632
G01 X21.7412 Y61.4570
G01 X21.6736 Y61.4250
G01 X21.6593 Y61.4174
G01 X21.5952 Y61.3789
G01 X21.5817 Y61.3699
G01 X21.5216 Y61.3253
G01 X21.5090 Y61.3150
G01 X21.4536 Y61.2648
G01 X21.4421 Y61.2533
G01 X21.3919 Y61.1979
G01 X21.3816 Y61.1854
G01 X21.3371 Y61.1253
G01 X21.3281 Y61.1118
G01 X21.2896 Y61.0477
G01 X21.2820 Y61.0333
G01 X21.2500 Y60.9657
G01 X21.2438 Y60.9507
G01 X21.2186 Y60.8803
G01 X21.2139 Y60.8648
G01 X21.1957 Y60.7923
G01 X21.1925 Y60.7763
G01 X21.1816 Y60.7024
G01 X21.1800 Y60.6862
G01 X21.1763 Y60.6115
G01 X21.1763 Y60.5953
G01 X21.1800 Y60.5206
G01 X21.1816 Y60.5044
G01 X21.1925 Y60.4304
G01 X21.1957 Y60.4145
G01 X21.2139 Y60.3420
G01 X21.2186 Y60.3264
G01 X21.2438 Y60.2560
G01 X21.2500 Y60.2410
G01 X21.2820 Y60.1734
G01 X21.2896 Y60.1591
G01 X21.3281 Y60.0950
G01 X21.3371 Y60.0815
G01 X21.3816 Y60.0214
G01 X21.3919 Y60.0088
G01 X21.4421 Y59.9534
G01 X21.4536 Y59.9419
G01 X21.5090 Y59.8917
G01 X21.5216 Y59.8814
G01 X21.5817 Y59.8369
G01 X21.5952 Y59.8279
G01 X21.6593 Y59.7894
G01 X21.6736 Y59.7818
G01 X21.7412 Y59.7498
G01 X21.7562 Y59.7436
G01 X21.8266 Y59.7184
G01 X21.8422 Y59.7137
G01 X21.9147 Y59.6955
G01 X21.9306 Y59.6923
G01 X22.0046 Y59.6813
G01 X22.0208 Y59.6798
G01 X22.0955 Y59.6761
G01 X22.1117 Y59.6761
G01 X22.1864 Y59.6798
G01 X22.2026 Y59.6813
G01 X22.2765 Y59.6923
G01 X22.2925 Y59.6955
G01 X22.3650 Y59.7137
G01 X22.3805 Y59.7184
G01 X22.4509 Y59.7436
G01 X22.4660 Y59.7498
G01 X22.5336 Y59.7818
G01 X22.5479 Y59.7894
G01 X22.6120 Y59.8279
G01 X22.6255 Y59.8369
G01 X22.6856 Y59.8814
G01 X22.6981 Y59.8917
G01 X22.7488 Y59.9376
G00 Z2.0000
G00 X22.7488 Y62.4776
G01 F60.00
G01 Z-0.2001
G01 F320.00
G01 X61.5957 Y62.4776
G01 X61.6177 Y62.4614
G01 X61.6312 Y62.4523
G01 X61.6868 Y62.4190
G01 X61.7011 Y62.4114
G01 X61.7597 Y62.3836
G01 X61.7747 Y62.3774
G01 X61.8357 Y62.3556
G01 X61.8513 Y62.3509
G01 X61.9141 Y62.3351
G01 X61.9301 Y62.3320
G01 X61.9942 Y62.3225
G01 X62.0103 Y62.3209
G01 X62.0832 Y62.3175
G01 X63.4040 Y62.3175
G01 X63.4768 Y62.3209
G01 X63.4930 Y62.3225
G01 X63.5571 Y62.3320
G01 X63.5730 Y62.3351
G01 X63.6359 Y62.3509
G01 X63.6514 Y62.3556
G01 X63.7125 Y62.3774
G01 X63.7275 Y62.3836
G01 X63.7861 Y62.4114
G01 X63.8004 Y62.4190
G01 X63.8560 Y62.4523
G01 X63.8695 Y62.4614
G01 X63.9215 Y62.5000
G01 X63.9341 Y62.5103
G01 X63.9821 Y62.5538
G01 X63.9936 Y62.5653
G01 X64.0371 Y62.6133
G01 X64.0474 Y62.6258
G01 X64.0860 Y62.6779
G01 X64.0950 Y62.6914
G01 X64.1284 Y62.7470
G01 X64.1360 Y62.7613
G01 X64.1637 Y62.8199
G01 X64.1699 Y62.8349
G01 X64.1918 Y62.8959
G01 X64.1965 Y62.9115
G01 X64.2122 Y62.9743
G01 X64.2154 Y62.9903
G01 X64.2249 Y63.0544
G01 X64.2265 Y63.0705
G01 X64.2297 Y63.1353
G01 X64.2297 Y63.1515
G01 X64.2265 Y63.2162
G01 X64.2249 Y63.2324
G01 X64.2154 Y63.2965
G01 X64.2122 Y63.3124
G01 X64.1965 Y63.3753
G01 X64.1918 Y63.3908
G01 X64.1699 Y63.4519
G01 X64.1637 Y63.4669
G01 X64.1360 Y63.5255
G01 X64.1284 Y63.5398
G01 X64.0950 Y63.5954
G01 X64.0860 Y63.6089
G01 X64.0474 Y63.6609
G01 X64.0371 Y63.6735
G01 X63.9936 Y63.7215
G01 X63.9821 Y63.7330
G01 X63.9341 Y63.7765
G01 X63.9215 Y63.7868
G01 X63.8695 Y63.8254
G01 X63.8560 Y63.8344
G01 X63.8004 Y63.8678
G01 X63.7861 Y63.8754
G01 X63.7275 Y63.9031
G01 X63.7125 Y63.9093
G01 X63.6514 Y63.9312
G01 X63.6359 Y63.9359
G01 X63.5730 Y63.9516
G01 X63.5571 Y63.9548
G01 X63.4930 Y63.9643
G01 X63.4768 Y63.9659
G01 X63.4040 Y63.9693
G01 X62.0832 Y63.9693
G01 X62.0103 Y63.9659
G01 X61.9942 Y63.9643
G01 X61.9301 Y63.9548
G01 X61.9141 Y63.9516
G01 X61.8513 Y63.9359
G01 X61.8357 Y63.9312
G01 X61.7747 Y63.9093
G01 X61.7597 Y63.9031
G01 X61.7011 Y63.8754
G01 X61.6868 Y63.8678
G01 X61.6312 Y63.8344
G01 X61.6177 Y63.8254
G01 X61.5957 Y63.8091
G01 X22.7488 Y63.8091
G01 X22.6981 Y63.8550
G01 X22.6856 Y63.8653
G01 X22.6255 Y63.9099
G01 X22.6120 Y63.9189
G01 X22.5479 Y63.9574
G01 X22.5336 Y63.9650
G01 X22.4660 Y63.9970
G01 X22.4509 Y64.0032
G01 X22.3805 Y64.0284
G01 X22.3650 Y64.0331
G01 X22.2925 Y64.0513
G01 X22.2765 Y64.0544
G01 X22.2026 Y64.0654
G01 X22.1864 Y64.0670
G01 X22.1117 Y64.0707
G01 X22.0955 Y64.0707
G01 X22.0208 Y64.0670
G01 X22.0046 Y64.0654
G01 X21.9306 Y64.0544
G01 X21.9147 Y64.0513
G01 X21.8422 Y64.0331
G01 X21.8266 Y64.0284
G01 X21.7562 Y64.0032
G01 X21.7412 Y63.9970
G01 X21.6736 Y63.9650
G01 X21.6593 Y63.9574
G01 X21.5952 Y63.9189
G01 X21.5817 Y63.9099
G01 X21.5216 Y63.8653
G01 X21.5090 Y63.8550
G01 X21.4536 Y63.8048
G01 X21.4421 Y63.7933
G01 X21.3919 Y63.7379
G01 X21.3816 Y63.7254
G01 X21.3371 Y63.6653
G01 X21.3281 Y63.6518
G01 X21.2896 Y63.5877
G01 X21.2820 Y63.5733
G01 X21.2500 Y63.5057
G01 X21.2438 Y63.4907
G01 X21.2186 Y63.4203
G01 X21.2139 Y63.4048
G01 X21.1957 Y63.3323
G01 X21.1925 Y63.3163
G01 X21.1816 Y63.2424
G01 X21.1800 Y63.2262
G01 X21.1763 Y63.1515
G01 X21.1763 Y63.1353
G01 X21.1800 Y63.0606
G01 X21.1816 Y63.0444
G01 X21.1925 Y62.9704
G01 X21.1957 Y62.9545
G01 X21.2139 Y62.8820
G01 X21.2186 Y62.8664
G01 X21.2438 Y62.7960
G01 X21.2500 Y62.7810
G01 X21.2820 Y62.7134
G01 X21.2896 Y62.6991
G01 X21.3281 Y62.6350
G01 X21.3371 Y62.6215
G01 X21.3816 Y62.5614
G01 X21.3919 Y62.5488
G01 X21.4421 Y62.4934
G01 X21.4536 Y62.4819
G01 X21.5090 Y62.4317
G01 X21.5216 Y62.4214
G01 X21.5817 Y62.3769
G01 X21.5952 Y62.3679
G01 X21.6593 Y62.3294
G01 X21.6736 Y62.3218
G01 X21.7412 Y62.2898
G01 X21.7562 Y62.2836
G01 X21.8266 Y62.2584
G01 X21.8422 Y62.2537
G01 X21.9147 Y62.2355
G01 X21.9306 Y62.2323
G01 X22.0046 Y62.2213
G01 X22.0208 Y62.2198
G01 X22.0955 Y62.2161
G01 X22.1117 Y62.2161
G01 X22.1864 Y62.2198
G01 X22.2026 Y62.2213
G01 X22.2765 Y62.2323
G01 X22.2925 Y62.2355
G01 X22.3650 Y62.2537
G01 X22.3805 Y62.2584
G01 X22.4509 Y62.2836
G01 X22.4660 Y62.2898
G01 X22.5336 Y62.3218
G01 X22.5479 Y62.3294
G01 X22.6120 Y62.3679
G01 X22.6255 Y62.3769
G01 X22.6856 Y62.4214
G01 X22.6981 Y62.4317
G01 X22.7488 Y62.4776
G00 Z2.0000
G00 X22.7488 Y70.0976
G01 F60.00
G01 Z-0.2001
G01 F320.00
G01 X87.4778 Y70.0976
G01 X87.4778 Y63.8091
G01 X86.7514 Y63.8091
G01 X86.7295 Y63.8254
G01 X86.7160 Y63.8344
G01 X86.6604 Y63.8678
G01 X86.6461 Y63.8754
G01 X86.5875 Y63.9031
G01 X86.5725 Y63.9093
G01 X86.5114 Y63.9312
G01 X86.4959 Y63.9359
G01 X86.4330 Y63.9516
G01 X86.4171 Y63.9548
G01 X86.3530 Y63.9643
G01 X86.3368 Y63.9659
G01 X86.2640 Y63.9693
G01 X84.9432 Y63.9693
G01 X84.8703 Y63.9659
G01 X84.8542 Y63.9643
G01 X84.7901 Y63.9548
G01 X84.7741 Y63.9516
G01 X84.7113 Y63.9359
G01 X84.6957 Y63.9312
G01 X84.6347 Y63.9093
G01 X84.6197 Y63.9031
G01 X84.5611 Y63.8754
G01 X84.5468 Y63.8678
G01 X84.4912 Y63.8344
G01 X84.4777 Y63.8254
G01 X84.4256 Y63.7868
G01 X84.4131 Y63.7765
G01 X84.3651 Y63.7330
G01 X84.3536 Y63.7215
G01 X84.3101 Y63.6735
G01 X84.2998 Y63.6609
G01 X84.2612 Y63.6089
G01 X84.2521 Y63.5954
G01 X84.2188 Y63.5398
G01 X84.2112 Y63.5255
G01 X84.1835 Y63.4669
G01 X84.1772 Y63.4519
G01 X84.1554 Y63.3908
G01 X84.1507 Y63.3753
G01 X84.1349 Y63.3124
G01 X84.1318 Y63.2965
G01 X84.1223 Y63.2324
G01 X84.1207 Y63.2162
G01 X84.1175 Y63.1515
G01 X84.1175 Y63.1353
G01 X84.1207 Y63.0705
G01 X84.1223 Y63.0544
G01 X84.1318 Y62.9903
G01 X84.1349 Y62.9743
G01 X84.1507 Y62.9115
G01 X84.1554 Y62.8959
G01 X84.1772 Y62.8349
G01 X84.1835 Y62.8199
G01 X84.2112 Y62.7613
G01 X84.2188 Y62.7470
G01 X84.2521 Y62.6914
G01 X84.2612 Y62.6779
G01 X84.2998 Y62.6258
G01 X84.3101 Y62.6133
G01 X84.3536 Y62.5653
G01 X84.3651 Y62.5538
G01 X84.4131 Y62.5103
G01 X84.4256 Y62.5000
G01 X84.4777 Y62.4614
G01 X84.4912 Y62.4523
G01 X84.5468 Y62.4190
G01 X84.5611 Y62.4114
G01 X84.6197 Y62.3836
G01 X84.6347 Y62.3774
G01 X84.6957 Y62.3556
G01 X84.7113 Y62.3509
G01 X84.7741 Y62.3351
G01 X84.7901 Y62.3320
G01 X84.8542 Y62.3225
G01 X84.8703 Y62.3209
G01 X84.9432 Y62.3175
G01 X86.2640 Y62.3175
G01 X86.3368 Y62.3209
G01 X86.3530 Y62.3225
G01 X86.4171 Y62.3320
G01 X86.4330 Y62.3351
G01 X86.4959 Y62.3509
G01 X86.5114 Y62.3556
G01 X86.5725 Y62.3774
G01 X86.5875 Y62.3836
G01 X86.6461 Y62.4114
G01 X86.6604 Y62.4190
G01 X86.7160 Y62.4523
G01 X86.7295 Y62.4614
G01 X86.7514 Y62.4776
G01 X88.1436 Y62.4776
G01 X88.2007 Y62.4802
G01 X88.2169 Y62.4818
G01 X88.2655 Y62.4890
G01 X88.2814 Y62.4922
G01 X88.3290 Y62.5041
G01 X88.3446 Y62.5089
G01 X88.3908 Y62.5254
G01 X88.4058 Y62.5316
G01 X88.4502 Y62.5526
G01 X88.4645 Y62.5603
G01 X88.5066 Y62.5855
G01 X88.5201 Y62.5945
G01 X88.5595 Y62.6238
G01 X88.5721 Y62.6341
G01 X88.6085 Y62.6670
G01 X88.6199 Y62.6785
G01 X88.6529 Y62.7149
G01 X88.6632 Y62.7274
G01 X88.6925 Y62.7669
G01 X88.7015 Y62.7804
G01 X88.7267 Y62.8225
G01 X88.7344 Y62.8368
G01 X88.7554 Y62.8812
G01 X88.7616 Y62.8962
G01 X88.7781 Y62.9424
G01 X88.7828 Y62.9580
G01 X88.7948 Y63.0056
G01 X88.7979 Y63.0215
G01 X88.8051 Y63.0701
G01 X88.8067 Y63.0862
G01 X88.8093 Y63.1434
G01 X88.8093 Y70.7634
G01 X88.8067 Y70.8205
G01 X88.8051 Y70.8367
G01 X88.7979 Y70.8853
G01 X88.7948 Y70.9012
G01 X88.7828 Y70.9488
G01 X88.7781 Y70.9644
G01 X88.7616 Y71.0106
G01 X88.7554 Y71.0256
G01 X88.7344 Y71.0700
G01 X88.7267 Y71.0843
G01 X88.7015 Y71.1264
G01 X88.6925 Y71.1399
G01 X88.6632 Y71.1793
G01 X88.6529 Y71.1919
G01 X88.6199 Y71.2283
G01 X88.6085 Y71.2397
G01 X88.5721 Y71.2727
G01 X88.5595 Y71.2830
G01 X88.5201 Y71.3123
G01 X88.5066 Y71.3213
G01 X88.4645 Y71.3465
G01 X88.4502 Y71.3542
G01 X88.4058 Y71.3752
G01 X88.3908 Y71.3814
G01 X88.3446 Y71.3979
G01 X88.3290 Y71.4026
G01 X88.2814 Y71.4146
G01 X88.2655 Y71.4177
G01 X88.2169 Y71.4249
G01 X88.2007 Y71.4265
G01 X88.1436 Y71.4291
G01 X22.7488 Y71.4291
G01 X22.6981 Y71.4750
G01 X22.6856 Y71.4853
G01 X22.6255 Y71.5299
G01 X22.6120 Y71.5389
G01 X22.5479 Y71.5774
G01 X22.5336 Y71.5850
G01 X22.4660 Y71.6170
G01 X22.4509 Y71.6232
G01 X22.3805 Y71.6484
G01 X22.3650 Y71.6531
G01 X22.2925 Y71.6713
G01 X22.2765 Y71.6744
G01 X22.2026 Y71.6854
G01 X22.1864 Y71.6870
G01 X22.1117 Y71.6907
G01 X22.0955 Y71.6907
G01 X22.0208 Y71.6870
G01 X22.0046 Y71.6854
G01 X21.9306 Y71.6744
G01 X21.9147 Y71.6713
G01 X21.8422 Y71.6531
G01 X21.8266 Y71.6484
G01 X21.7562 Y71.6232
G01 X21.7412 Y71.6170
G01 X21.6736 Y71.5850
G01 X21.6593 Y71.5774
G01 X21.5952 Y71.5389
G01 X21.5817 Y71.5299
G01 X21.5216 Y71.4853
G01 X21.5090 Y71.4750
G01 X21.4536 Y71.4248
G01 X21.4421 Y71.4133
G01 X21.3919 Y71.3579
G01 X21.3816 Y71.3454
G01 X21.3371 Y71.2853
G01 X21.3281 Y71.2718
G01 X21.2896 Y71.2077
G01 X21.2820 Y71.1933
G01 X21.2500 Y71.1257
G01 X21.2438 Y71.1107
G01 X21.2186 Y71.0403
G01 X21.2139 Y71.0248
G01 X21.1957 Y70.9523
G01 X21.1925 Y70.9363
G01 X21.1816 Y70.8624
G01 X21.1800 Y70.8462
G01 X21.1763 Y70.7715
G01 X21.1763 Y70.7553
G01 X21.1800 Y70.6806
G01 X21.1816 Y70.6644
G01 X21.1925 Y70.5904
G01 X21.1957 Y70.5745
G01 X21.2139 Y70.5020
G01 X21.2186 Y70.4864
G01 X21.2438 Y70.4160
G01 X21.2500 Y70.4010
G01 X21.2820 Y70.3334
G01 X21.2896 Y70.3191
G01 X21.3281 Y70.2550
G01 X21.3371 Y70.2415
G01 X21.3816 Y70.1814
G01 X21.3919 Y70.1688
G01 X21.4421 Y70.1134
G01 X21.4536 Y70.1019
G01 X21.5090 Y70.0517
G01 X21.5216 Y70.0414
G01 X21.5817 Y69.9969
G01 X21.5952 Y69.9879
G01 X21.6593 Y69.9494
G01 X21.6736 Y69.9418
G01 X21.7412 Y69.9098
G01 X21.7562 Y69.9036
G01 X21.8266 Y69.8784
G01 X21.8422 Y69.8737
G01 X21.9147 Y69.8555
G01 X21.9306 Y69.8523
G01 X22.0046 Y69.8413
G01 X22.0208 Y69.8398
G01 X22.0955 Y69.8361
G01 X22.1117 Y69.8361
G01 X22.1864 Y69.8398
G01 X22.2026 Y69.8413
G01 X22.2765 Y69.8523
G01 X22.2925 Y69.8555
G01 X22.3650 Y69.8737
G01 X22.3805 Y69.8784
G01 X22.4509 Y69.9036
G01 X22.4660 Y69.9098
G01 X22.5336 Y69.9418
G01 X22.5479 Y69.9494
G01 X22.6120 Y69.9879
G01 X22.6255 Y69.9969
G01 X22.6856 Y70.0414
G01 X22.6981 Y70.0517
G01 X22.7488 Y70.0976
G00 Z2.0000
G00 X22.7488 Y72.6376
G01 F60.00
G01 Z-0.2001
G01 F320.00
G01 X90.0178 Y72.6376
G01 X90.0178 Y58.0634
G01 X90.0204 Y58.0062
G01 X90.0220 Y57.9901
G01 X90.0292 Y57.9415
G01 X90.0324 Y57.9256
G01 X90.0443 Y57.8780
G01 X90.0491 Y57.8624
G01 X90.0656 Y57.8162
G01 X90.0718 Y57.8012
G01 X90.0928 Y57.7568
G01 X90.1005 Y57.7425
G01 X90.1257 Y57.7004
G01 X90.1347 Y57.6869
G01 X90.1640 Y57.6474
G01 X90.1743 Y57.6349
G01 X90.2072 Y57.5985
G01 X90.2187 Y57.5870
G01 X90.2551 Y57.5541
G01 X90.2676 Y57.5438
G01 X90.3071 Y57.5145
G01 X90.3206 Y57.5055
G01 X90.3627 Y57.4803
G01 X90.3770 Y57.4726
G01 X90.4214 Y57.4516
G01 X90.4364 Y57.4454
G01 X90.4826 Y57.4289
G01 X90.4982 Y57.4241
G01 X90.5458 Y57.4122
G01 X90.5617 Y57.4090
G01 X90.6103 Y57.4018
G01 X90.6264 Y57.4002
G01 X90.6836 Y57.3976
G01 X100.8436 Y57.3976
G01 X100.9007 Y57.4002
G01 X100.9169 Y57.4018
G01 X100.9655 Y57.4090
G01 X100.9814 Y57.4122
G01 X101.0290 Y57.4241
G01 X101.0446 Y57.4289
G01 X101.0908 Y57.4454
G01 X101.1058 Y57.4516
G01 X101.1502 Y57.4726
G01 X101.1645 Y57.4803
G01 X101.2066 Y57.5055
G01 X101.2201 Y57.5145
G01 X101.2595 Y57.5438
G01 X101.2721 Y57.5541
G01 X101.3085 Y57.5870
G01 X101.3199 Y57.5985
G01 X101.3529 Y57.6349
G01 X101.3632 Y57.6474
G01 X101.3925 Y57.6869
G01 X101.4015 Y57.7004
G01 X101.4267 Y57.7425
G01 X101.4344 Y57.7568
G01 X101.4554 Y57.8012
G01 X101.4616 Y57.8162
G01 X101.4781 Y57.8624
G01 X101.4828 Y57.8780
G01 X101.4948 Y57.9256
G01 X101.4979 Y57.9415
G01 X101.5051 Y57.9901
G01 X101.5067 Y58.0062
G01 X101.5093 Y58.0634
G01 X101.5093 Y59.7776
G01 X101.5768 Y59.7809
G01 X101.5930 Y59.7825
G01 X101.6571 Y59.7920
G01 X101.6730 Y59.7951
G01 X101.7359 Y59.8109
G01 X101.7514 Y59.8156
G01 X101.8125 Y59.8374
G01 X101.8275 Y59.8436
G01 X101.8861 Y59.8714
G01 X101.9004 Y59.8790
G01 X101.9560 Y59.9123
G01 X101.9695 Y59.9214
G01 X102.0215 Y59.9600
G01 X102.0341 Y59.9703
G01 X102.0821 Y60.0138
G01 X102.0936 Y60.0253
G01 X102.1371 Y60.0733
G01 X102.1474 Y60.0858
G01 X102.1860 Y60.1379
G01 X102.1950 Y60.1514
G01 X102.2284 Y60.2070
G01 X102.2360 Y60.2213
G01 X102.2637 Y60.2799
G01 X102.2699 Y60.2949
G01 X102.2918 Y60.3559
G01 X102.2965 Y60.3715
G01 X102.3122 Y60.4343
G01 X102.3154 Y60.4503
G01 X102.3249 Y60.5144
G01 X102.3265 Y60.5305
G01 X102.3297 Y60.5953
G01 X102.3297 Y60.6115
G01 X102.3265 Y60.6762
G01 X102.3249 Y60.6924
G01 X102.3154 Y60.7565
G01 X102.3122 Y60.7724
G01 X102.2965 Y60.8353
G01 X102.2918 Y60.8508
G01 X102.2699 Y60.9119
G01 X102.2637 Y60.9269
G01 X102.2360 Y60.9855
G01 X102.2284 Y60.9998
G01 X102.1950 Y61.0554
G01 X102.1860 Y61.0689
G01 X102.1474 Y61.1209
G01 X102.1371 Y61.1335
G01 X102.0936 Y61.1815
G01 X102.0821 Y61.1930
G01 X102.0341 Y61.2365
G01 X102.0215 Y61.2468
G01 X101.9695 Y61.2854
G01 X101.9560 Y61.2944
G01 X101.9004 Y61.3278
G01 X101.8861 Y61.3354
G01 X101.8275 Y61.3631
G01 X101.8125 Y61.3693
G01 X101.7514 Y61.3912
G01 X101.7359 Y61.3959
G01 X101.6730 Y61.4116
G01 X101.6571 Y61.4148
G01 X101.5930 Y61.4243
G01 X101.5768 Y61.4259
G01 X101.5040 Y61.4293
G01 X100.1832 Y61.4293
G01 X100.1103 Y61.4259
G01 X100.0942 Y61.4243
G01 X100.0301 Y61.4148
G01 X100.0141 Y61.4116
G01 X99.9513 Y61.3959
G01 X99.9357 Y61.3912
G01 X99.8747 Y61.3693
G01 X99.8597 Y61.3631
G01 X99.8011 Y61.3354
G01 X99.7868 Y61.3278
G01 X99.7312 Y61.2944
G01 X99.7177 Y61.2854
G01 X99.6656 Y61.2468
G01 X99.6531 Y61.2365
G01 X99.6051 Y61.1930
G01 X99.5936 Y61.1815
G01 X99.5501 Y61.1335
G01 X99.5398 Y61.1209
G01 X99.5012 Y61.0689
G01 X99.4921 Y61.0554
G01 X99.4588 Y60.9998
G01 X99.4512 Y60.9855
G01 X99.4235 Y60.9269
G01 X99.4172 Y60.9119
G01 X99.3954 Y60.8508
G01 X99.3907 Y60.8353
G01 X99.3749 Y60.7724
G01 X99.3718 Y60.7565
G01 X99.3623 Y60.6924
G01 X99.3607 Y60.6762
G01 X99.3575 Y60.6115
G01 X99.3575 Y60.5953
G01 X99.3607 Y60.5305
G01 X99.3623 Y60.5144
G01 X99.3718 Y60.4503
G01 X99.3749 Y60.4343
G01 X99.3907 Y60.3715
G01 X99.3954 Y60.3559
G01 X99.4172 Y60.2949
G01 X99.4235 Y60.2799
G01 X99.4512 Y60.2213
G01 X99.4588 Y60.2070
G01 X99.4921 Y60.1514
G01 X99.5012 Y60.1379
G01 X99.5398 Y60.0858
G01 X99.5501 Y60.0733
G01 X99.5936 Y60.0253
G01 X99.6051 Y60.0138
G01 X99.6531 Y59.9703
G01 X99.6656 Y59.9600
G01 X99.7177 Y59.9214
G01 X99.7312 Y59.9123
G01 X99.7868 Y59.8790
G01 X99.8011 Y59.8714
G01 X99.8597 Y59.8436
G01 X99.8747 Y59.8374
G01 X99.9357 Y59.8156
G01 X99.9513 Y59.8109
G01 X100.0141 Y59.7951
G01 X100.0301 Y59.7920
G01 X100.0942 Y59.7825
G01 X100.1103 Y59.7809
G01 X100.1778 Y59.7776
G01 X100.1778 Y58.7291
G01 X91.3493 Y58.7291
G01 X91.3491 Y73.3115
G01 X91.3467 Y73.3605
G01 X91.3451 Y73.3767
G01 X91.3379 Y73.4253
G01 X91.3348 Y73.4412
G01 X91.3228 Y73.4888
G01 X91.3181 Y73.5044
G01 X91.3016 Y73.5506
G01 X91.2954 Y73.5656
G01 X91.2744 Y73.6100
G01 X91.2667 Y73.6243
G01 X91.2415 Y73.6664
G01 X91.2325 Y73.6799
G01 X91.2032 Y73.7193
G01 X91.1929 Y73.7319
G01 X91.1599 Y73.7683
G01 X91.1485 Y73.7797
G01 X91.1121 Y73.8127
G01 X91.0995 Y73.8230
G01 X91.0601 Y73.8523
G01 X91.0466 Y73.8613
G01 X91.0045 Y73.8865
G01 X90.9902 Y73.8942
G01 X90.9458 Y73.9152
G01 X90.9308 Y73.9214
G01 X90.8846 Y73.9379
G01 X90.8690 Y73.9426
G01 X90.8214 Y73.9546
G01 X90.8055 Y73.9577
G01 X90.7569 Y73.9649
G01 X90.7407 Y73.9665
G01 X90.6836 Y73.9691
G01 X22.7488 Y73.9691
G01 X22.6981 Y74.0150
G01 X22.6856 Y74.0253
G01 X22.6255 Y74.0699
G01 X22.6120 Y74.0789
G01 X22.5479 Y74.1174
G01 X22.5336 Y74.1250
G01 X22.4660 Y74.1570
G01 X22.4509 Y74.1632
G01 X22.3805 Y74.1884
G01 X22.3650 Y74.1931
G01 X22.2925 Y74.2113
G01 X22.2765 Y74.2144
G01 X22.2026 Y74.2254
G01 X22.1864 Y74.2270
G01 X22.1117 Y74.2307
G01 X22.0955 Y74.2307
G01 X22.0208 Y74.2270
G01 X22.0046 Y74.2254
G01 X21.9306 Y74.2144
G01 X21.9147 Y74.2113
G01 X21.8422 Y74.1931
G01 X21.8266 Y74.1884
G01 X21.7562 Y74.1632
G01 X21.7412 Y74.1570
G01 X21.6736 Y74.1250
G01 X21.6593 Y74.1174
G01 X21.5952 Y74.0789
G01 X21.5817 Y74.0699
G01 X21.5216 Y74.0253
G01 X21.5090 Y74.0150
G01 X21.4536 Y73.9648
G01 X21.4421 Y73.9533
G01 X21.3919 Y73.8979
G01 X21.3816 Y73.8854
G01 X21.3371 Y73.8253
G01 X21.3281 Y73.8118
G01 X21.2896 Y73.7477
G01 X21.2820 Y73.7333
G01 X21.2500 Y73.6657
G01 X21.2438 Y73.6507
G01 X21.2186 Y73.5803
G01 X21.2139 Y73.5648
G01 X21.1957 Y73.4923
G01 X21.1925 Y73.4763
G01 X21.1816 Y73.4024
G01 X21.1800 Y73.3862
G01 X21.1763 Y73.3115
G01 X21.1763 Y73.2953
G01 X21.1800 Y73.2206
G01 X21.1816 Y73.2044
G01 X21.1925 Y73.1304
G01 X21.1957 Y73.1145
G01 X21.2139 Y73.0420
G01 X21.2186 Y73.0264
G01 X21.2438 Y72.9560
G01 X21.2500 Y72.9410
G01 X21.2820 Y72.8734
G01 X21.2896 Y72.8591
G01 X21.3281 Y72.7950
G01 X21.3371 Y72.7815
G01 X21.3816 Y72.7214
G01 X21.3919 Y72.7088
G01 X21.4421 Y72.6534
G01 X21.4536 Y72.6419
G01 X21.5090 Y72.5917
G01 X21.5216 Y72.5814
G01 X21.5817 Y72.5369
G01 X21.5952 Y72.5279
G01 X21.6593 Y72.4894
G01 X21.6736 Y72.4818
G01 X21.7412 Y72.4498
G01 X21.7562 Y72.4436
G01 X21.8266 Y72.4184
G01 X21.8422 Y72.4137
G01 X21.9147 Y72.3955
G01 X21.9306 Y72.3923
G01 X22.0046 Y72.3813
G01 X22.0208 Y72.3798
G01 X22.0955 Y72.3761
G01 X22.1117 Y72.3761
G01 X22.1864 Y72.3798
G01 X22.2026 Y72.3813
G01 X22.2765 Y72.3923
G01 X22.2925 Y72.3955
G01 X22.3650 Y72.4137
G01 X22.3805 Y72.4184
G01 X22.4509 Y72.4436
G01 X22.4660 Y72.4498
G01 X22.5336 Y72.4818
G01 X22.5479 Y72.4894
G01 X22.6120 Y72.5279
G01 X22.6255 Y72.5369
G01 X22.6856 Y72.5814
G01 X22.6981 Y72.5917
G01 X22.7488 Y72.6376
G00 Z2.0000
G00 X22.7488 Y77.7176
G01 F60.00
G01 Z-0.2001
G01 F320.00
G01 X74.7778 Y77.7176
G01 X74.7778 Y75.8434
G01 X74.7804 Y75.7862
G01 X74.7820 Y75.7701
G01 X74.7892 Y75.7215
G01 X74.7924 Y75.7056
G01 X74.8043 Y75.6580
G01 X74.8091 Y75.6424
G01 X74.8256 Y75.5962
G01 X74.8318 Y75.5812
G01 X74.8528 Y75.5368
G01 X74.8605 Y75.5225
G01 X74.8857 Y75.4804
G01 X74.8947 Y75.4669
G01 X74.9240 Y75.4274
G01 X74.9343 Y75.4149
G01 X74.9672 Y75.3785
G01 X74.9787 Y75.3670
G01 X75.0151 Y75.3341
G01 X75.0276 Y75.3238
G01 X75.0671 Y75.2945
G01 X75.0806 Y75.2855
G01 X75.1227 Y75.2603
G01 X75.1370 Y75.2526
G01 X75.1814 Y75.2316
G01 X75.1964 Y75.2254
G01 X75.2426 Y75.2089
G01 X75.2582 Y75.2041
G01 X75.3058 Y75.1922
G01 X75.3217 Y75.1890
G01 X75.3703 Y75.1818
G01 X75.3864 Y75.1802
G01 X75.4436 Y75.1776
G01 X77.1578 Y75.1776
G01 X77.1611 Y75.1101
G01 X77.1627 Y75.0940
G01 X77.1722 Y75.0299
G01 X77.1753 Y75.0139
G01 X77.1911 Y74.9511
G01 X77.1958 Y74.9355
G01 X77.2176 Y74.8745
G01 X77.2239 Y74.8595
G01 X77.2516 Y74.8009
G01 X77.2592 Y74.7866
G01 X77.2925 Y74.7310
G01 X77.3016 Y74.7175
G01 X77.3402 Y74.6654
G01 X77.3505 Y74.6529
G01 X77.3940 Y74.6049
G01 X77.4055 Y74.5934
G01 X77.4535 Y74.5499
G01 X77.4660 Y74.5396
G01 X77.5181 Y74.5010
G01 X77.5316 Y74.4919
G01 X77.5872 Y74.4586
G01 X77.6015 Y74.4510
G01 X77.6601 Y74.4232
G01 X77.6751 Y74.4170
G01 X77.7361 Y74.3952
G01 X77.7517 Y74.3905
G01 X77.8145 Y74.3747
G01 X77.8305 Y74.3716
G01 X77.8946 Y74.3621
G01 X77.9107 Y74.3605
G01 X77.9755 Y74.3573
G01 X77.9917 Y74.3573
G01 X78.0564 Y74.3605
G01 X78.0726 Y74.3621
G01 X78.1367 Y74.3716
G01 X78.1526 Y74.3747
G01 X78.2155 Y74.3905
G01 X78.2310 Y74.3952
G01 X78.2921 Y74.4170
G01 X78.3071 Y74.4232
G01 X78.3657 Y74.4510
G01 X78.3800 Y74.4586
G01 X78.4356 Y74.4919
G01 X78.4491 Y74.5010
G01 X78.5011 Y74.5396
G01 X78.5137 Y74.5499
G01 X78.5617 Y74.5934
G01 X78.5732 Y74.6049
G01 X78.6167 Y74.6529
G01 X78.6270 Y74.6654
G01 X78.6656 Y74.7175
G01 X78.6746 Y74.7310
G01 X78.7080 Y74.7866
G01 X78.7156 Y74.8009
G01 X78.7433 Y74.8595
G01 X78.7495 Y74.8745
G01 X78.7714 Y74.9355
G01 X78.7761 Y74.9511
G01 X78.7918 Y75.0139
G01 X78.7950 Y75.0299
G01 X78.8045 Y75.0940
G01 X78.8061 Y75.1101
G01 X78.8095 Y75.1830
G01 X78.8095 Y76.5038
G01 X78.8061 Y76.5766
G01 X78.8045 Y76.5928
G01 X78.7950 Y76.6569
G01 X78.7918 Y76.6728
G01 X78.7761 Y76.7357
G01 X78.7714 Y76.7512
G01 X78.7495 Y76.8123
G01 X78.7433 Y76.8273
G01 X78.7156 Y76.8859
G01 X78.7080 Y76.9002
G01 X78.6746 Y76.9558
G01 X78.6656 Y76.9693
G01 X78.6270 Y77.0213
G01 X78.6167 Y77.0339
G01 X78.5732 Y77.0819
G01 X78.5617 Y77.0934
G01 X78.5137 Y77.1369
G01 X78.5011 Y77.1472
G01 X78.4491 Y77.1858
G01 X78.4356 Y77.1948
G01 X78.3800 Y77.2282
G01 X78.3657 Y77.2358
G01 X78.3071 Y77.2635
G01 X78.2921 Y77.2697
G01 X78.2310 Y77.2916
G01 X78.2155 Y77.2963
G01 X78.1526 Y77.3120
G01 X78.1367 Y77.3152
G01 X78.0726 Y77.3247
G01 X78.0564 Y77.3263
G01 X77.9917 Y77.3295
G01 X77.9755 Y77.3295
G01 X77.9107 Y77.3263
G01 X77.8946 Y77.3247
G01 X77.8305 Y77.3152
G01 X77.8145 Y77.3120
G01 X77.7517 Y77.2963
G01 X77.7361 Y77.2916
G01 X77.6751 Y77.2697
G01 X77.6601 Y77.2635
G01 X77.6015 Y77.2358
G01 X77.5872 Y77.2282
G01 X77.5316 Y77.1948
G01 X77.5181 Y77.1858
G01 X77.4660 Y77.1472
G01 X77.4535 Y77.1369
G01 X77.4055 Y77.0934
G01 X77.3940 Y77.0819
G01 X77.3505 Y77.0339
G01 X77.3402 Y77.0213
G01 X77.3016 Y76.9693
G01 X77.2925 Y76.9558
G01 X77.2592 Y76.9002
G01 X77.2516 Y76.8859
G01 X77.2239 Y76.8273
G01 X77.2176 Y76.8123
G01 X77.1958 Y76.7512
G01 X77.1911 Y76.7357
G01 X77.1753 Y76.6728
G01 X77.1722 Y76.6569
G01 X77.1627 Y76.5928
G01 X77.1611 Y76.5766
G01 X77.1578 Y76.5091
G01 X76.1093 Y76.5091
G01 X76.1093 Y87.8776
G01 X82.3978 Y87.8776
G01 X82.3978 Y83.4634
G01 X82.4004 Y83.4062
G01 X82.4020 Y83.3901
G01 X82.4092 Y83.3415
G01 X82.4124 Y83.3256
G01 X82.4243 Y83.2780
G01 X82.4291 Y83.2624
G01 X82.4456 Y83.2162
G01 X82.4518 Y83.2012
G01 X82.4728 Y83.1568
G01 X82.4805 Y83.1425
G01 X82.5057 Y83.1004
G01 X82.5147 Y83.0869
G01 X82.5440 Y83.0474
G01 X82.5543 Y83.0349
G01 X82.5872 Y82.9985
G01 X82.5987 Y82.9870
G01 X82.6351 Y82.9541
G01 X82.6476 Y82.9438
G01 X82.6871 Y82.9145
G01 X82.7006 Y82.9055
G01 X82.7427 Y82.8803
G01 X82.7570 Y82.8726
G01 X82.8014 Y82.8516
G01 X82.8164 Y82.8454
G01 X82.8626 Y82.8289
G01 X82.8782 Y82.8241
G01 X82.9258 Y82.8122
G01 X82.9417 Y82.8090
G01 X82.9903 Y82.8018
G01 X83.0064 Y82.8002
G01 X83.0636 Y82.7976
G01 X97.6378 Y82.7976
G01 X97.6378 Y71.4086
G01 X97.5919 Y71.3579
G01 X97.5816 Y71.3454
G01 X97.5371 Y71.2853
G01 X97.5281 Y71.2718
G01 X97.4896 Y71.2077
G01 X97.4820 Y71.1933
G01 X97.4500 Y71.1257
G01 X97.4438 Y71.1107
G01 X97.4186 Y71.0403
G01 X97.4139 Y71.0248
G01 X97.3957 Y70.9523
G01 X97.3925 Y70.9363
G01 X97.3816 Y70.8624
G01 X97.3800 Y70.8462
G01 X97.3763 Y70.7715
G01 X97.3763 Y70.7553
G01 X97.3800 Y70.6806
G01 X97.3816 Y70.6644
G01 X97.3925 Y70.5904
G01 X97.3957 Y70.5745
G01 X97.4139 Y70.5020
G01 X97.4186 Y70.4864
G01 X97.4438 Y70.4160
G01 X97.4500 Y70.4010
G01 X97.4820 Y70.3334
G01 X97.4896 Y70.3191
G01 X97.5281 Y70.2550
G01 X97.5371 Y70.2415
G01 X97.5816 Y70.1814
G01 X97.5919 Y70.1688
G01 X97.6378 Y70.1182
G01 X97.6378 Y63.7886
G01 X97.5919 Y63.7379
G01 X97.5816 Y63.7254
G01 X97.5371 Y63.6653
G01 X97.5281 Y63.6518
G01 X97.4896 Y63.5877
G01 X97.4820 Y63.5733
G01 X97.4500 Y63.5057
G01 X97.4438 Y63.4907
G01 X97.4186 Y63.4203
G01 X97.4139 Y63.4048
G01 X97.3957 Y63.3323
G01 X97.3925 Y63.3163
G01 X97.3816 Y63.2424
G01 X97.3800 Y63.2262
G01 X97.3763 Y63.1515
G01 X97.3763 Y63.1353
G01 X97.3800 Y63.0606
G01 X97.3816 Y63.0444
G01 X97.3925 Y62.9704
G01 X97.3957 Y62.9545
G01 X97.4139 Y62.8820
G01 X97.4186 Y62.8664
G01 X97.4438 Y62.7960
G01 X97.4500 Y62.7810
G01 X97.4820 Y62.7134
G01 X97.4896 Y62.6991
G01 X97.5281 Y62.6350
G01 X97.5371 Y62.6215
G01 X97.5816 Y62.5614
G01 X97.5919 Y62.5488
G01 X97.6421 Y62.4934
G01 X97.6536 Y62.4819
G01 X97.7090 Y62.4317
G01 X97.7216 Y62.4214
G01 X97.7817 Y62.3769
G01 X97.7952 Y62.3679
G01 X97.8593 Y62.3294
G01 X97.8736 Y62.3218
G01 X97.9412 Y62.2898
G01 X97.9562 Y62.2836
G01 X98.0266 Y62.2584
G01 X98.0422 Y62.2537
G01 X98.1147 Y62.2355
G01 X98.1306 Y62.2323
G01 X98.2046 Y62.2213
G01 X98.2208 Y62.2198
G01 X98.2955 Y62.2161
G01 X98.3117 Y62.2161
G01 X98.3864 Y62.2198
G01 X98.4026 Y62.2213
G01 X98.4765 Y62.2323
G01 X98.4925 Y62.2355
G01 X98.5650 Y62.2537
G01 X98.5805 Y62.2584
G01 X98.6509 Y62.2836
G01 X98.6660 Y62.2898
G01 X98.7336 Y62.3218
G01 X98.7479 Y62.3294
G01 X98.8120 Y62.3679
G01 X98.8255 Y62.3769
G01 X98.8856 Y62.4214
G01 X98.8981 Y62.4317
G01 X98.9535 Y62.4819
G01 X98.9650 Y62.4934
G01 X99.0152 Y62.5488
G01 X99.0256 Y62.5614
G01 X99.0701 Y62.6215
G01 X99.0791 Y62.6350
G01 X99.1176 Y62.6991
G01 X99.1252 Y62.7134
G01 X99.1572 Y62.7810
G01 X99.1634 Y62.7960
G01 X99.1886 Y62.8664
G01 X99.1933 Y62.8820
G01 X99.2115 Y62.9545
G01 X99.2147 Y62.9704
G01 X99.2256 Y63.0444
G01 X99.2272 Y63.0606
G01 X99.2309 Y63.1353
G01 X99.2309 Y63.1515
G01 X99.2272 Y63.2262
G01 X99.2256 Y63.2424
G01 X99.2147 Y63.3163
G01 X99.2115 Y63.3323
G01 X99.1933 Y63.4048
G01 X99.1886 Y63.4203
G01 X99.1634 Y63.4907
G01 X99.1572 Y63.5057
G01 X99.1252 Y63.5733
G01 X99.1176 Y63.5877
G01 X99.0791 Y63.6518
G01 X99.0701 Y63.6653
G01 X99.0256 Y63.7254
G01 X99.0152 Y63.7379
G01 X98.9693 Y63.7886
G01 X98.9693 Y70.1182
G01 X99.0152 Y70.1688
G01 X99.0256 Y70.1814
G01 X99.0701 Y70.2415
G01 X99.0791 Y70.2550
G01 X99.1176 Y70.3191
G01 X99.1252 Y70.3334
G01 X99.1572 Y70.4010
G01 X99.1634 Y70.4160
G01 X99.1886 Y70.4864
G01 X99.1933 Y70.5020
G01 X99.2115 Y70.5745
G01 X99.2147 Y70.5904
G01 X99.2256 Y70.6644
G01 X99.2272 Y70.6806
G01 X99.2309 Y70.7553
G01 X99.2309 Y70.7715
G01 X99.2272 Y70.8462
G01 X99.2256 Y70.8624
G01 X99.2147 Y70.9363
G01 X99.2115 Y70.9523
G01 X99.1933 Y71.0248
G01 X99.1886 Y71.0403
G01 X99.1634 Y71.1107
G01 X99.1572 Y71.1257
G01 X99.1252 Y71.1933
G01 X99.1176 Y71.2077
G01 X99.0791 Y71.2718
G01 X99.0701 Y71.2853
G01 X99.0256 Y71.3454
G01 X99.0152 Y71.3579
G01 X98.9693 Y71.4086
G01 X98.9693 Y83.4634
G01 X98.9667 Y83.5205
G01 X98.9651 Y83.5367
G01 X98.9579 Y83.5853
G01 X98.9548 Y83.6012
G01 X98.9428 Y83.6488
G01 X98.9381 Y83.6644
G01 X98.9216 Y83.7106
G01 X98.9154 Y83.7256
G01 X98.8944 Y83.7700
G01 X98.8867 Y83.7843
G01 X98.8615 Y83.8264
G01 X98.8525 Y83.8399
G01 X98.8232 Y83.8793
G01 X98.8129 Y83.8919
G01 X98.7799 Y83.9283
G01 X98.7685 Y83.9397
G01 X98.7321 Y83.9727
G01 X98.7195 Y83.9830
G01 X98.6801 Y84.0123
G01 X98.6666 Y84.0213
G01 X98.6245 Y84.0465
G01 X98.6102 Y84.0542
G01 X98.5658 Y84.0752
G01 X98.5508 Y84.0814
G01 X98.5046 Y84.0979
G01 X98.4890 Y84.1026
G01 X98.4414 Y84.1146
G01 X98.4255 Y84.1177
G01 X98.3769 Y84.1249
G01 X98.3607 Y84.1265
G01 X98.3036 Y84.1291
G01 X83.7293 Y84.1291
G01 X83.7293 Y88.5434
G01 X83.7267 Y88.6005
G01 X83.7251 Y88.6167
G01 X83.7179 Y88.6653
G01 X83.7148 Y88.6812
G01 X83.7028 Y88.7288
G01 X83.6981 Y88.7444
G01 X83.6816 Y88.7906
G01 X83.6754 Y88.8056
G01 X83.6544 Y88.8500
G01 X83.6467 Y88.8643
G01 X83.6215 Y88.9064
G01 X83.6125 Y88.9199
G01 X83.5832 Y88.9593
G01 X83.5729 Y88.9719
G01 X83.5399 Y89.0083
G01 X83.5285 Y89.0197
G01 X83.4921 Y89.0527
G01 X83.4795 Y89.0630
G01 X83.4401 Y89.0923
G01 X83.4266 Y89.1013
G01 X83.3845 Y89.1265
G01 X83.3702 Y89.1342
G01 X83.3258 Y89.1552
G01 X83.3108 Y89.1614
G01 X83.2646 Y89.1779
G01 X83.2490 Y89.1826
G01 X83.2014 Y89.1946
G01 X83.1855 Y89.1977
G01 X83.1369 Y89.2049
G01 X83.1207 Y89.2065
G01 X83.0636 Y89.2091
G01 X75.4355 Y89.2089
G01 X75.3864 Y89.2065
G01 X75.3703 Y89.2049
G01 X75.3217 Y89.1977
G01 X75.3058 Y89.1946
G01 X75.2582 Y89.1826
G01 X75.2426 Y89.1779
G01 X75.1964 Y89.1614
G01 X75.1814 Y89.1552
G01 X75.1370 Y89.1342
G01 X75.1227 Y89.1265
G01 X75.0806 Y89.1013
G01 X75.0671 Y89.0923
G01 X75.0276 Y89.0630
G01 X75.0151 Y89.0527
G01 X74.9787 Y89.0197
G01 X74.9672 Y89.0083
G01 X74.9343 Y88.9719
G01 X74.9240 Y88.9593
G01 X74.8947 Y88.9199
G01 X74.8857 Y88.9064
G01 X74.8605 Y88.8643
G01 X74.8528 Y88.8500
G01 X74.8318 Y88.8056
G01 X74.8256 Y88.7906
G01 X74.8091 Y88.7444
G01 X74.8043 Y88.7288
G01 X74.7924 Y88.6812
G01 X74.7892 Y88.6653
G01 X74.7820 Y88.6167
G01 X74.7804 Y88.6005
G01 X74.7778 Y88.5434
G01 X74.7778 Y79.0491
G01 X22.7488 Y79.0491
G01 X22.6981 Y79.0950
G01 X22.6856 Y79.1053
G01 X22.6255 Y79.1499
G01 X22.6120 Y79.1589
G01 X22.5479 Y79.1974
G01 X22.5336 Y79.2050
G01 X22.4660 Y79.2370
G01 X22.4509 Y79.2432
G01 X22.3805 Y79.2684
G01 X22.3650 Y79.2731
G01 X22.2925 Y79.2913
G01 X22.2765 Y79.2944
G01 X22.2026 Y79.3054
G01 X22.1864 Y79.3070
G01 X22.1117 Y79.3107
G01 X22.0955 Y79.3107
G01 X22.0208 Y79.3070
G01 X22.0046 Y79.3054
G01 X21.9306 Y79.2944
G01 X21.9147 Y79.2913
G01 X21.8422 Y79.2731
G01 X21.8266 Y79.2684
G01 X21.7562 Y79.2432
G01 X21.7412 Y79.2370
G01 X21.6736 Y79.2050
G01 X21.6593 Y79.1974
G01 X21.5952 Y79.1589
G01 X21.5817 Y79.1499
G01 X21.5216 Y79.1053
G01 X21.5090 Y79.0950
G01 X21.4536 Y79.0448
G01 X21.4421 Y79.0333
G01 X21.3919 Y78.9779
G01 X21.3816 Y78.9654
G01 X21.3371 Y78.9053
G01 X21.3281 Y78.8918
G01 X21.2896 Y78.8277
G01 X21.2820 Y78.8133
G01 X21.2500 Y78.7457
G01 X21.2438 Y78.7307
G01 X21.2186 Y78.6603
G01 X21.2139 Y78.6448
G01 X21.1957 Y78.5723
G01 X21.1925 Y78.5563
G01 X21.1816 Y78.4824
G01 X21.1800 Y78.4662
G01 X21.1763 Y78.3915
G01 X21.1763 Y78.3753
G01 X21.1800 Y78.3006
G01 X21.1816 Y78.2844
G01 X21.1925 Y78.2104
G01 X21.1957 Y78.1945
G01 X21.2139 Y78.1220
G01 X21.2186 Y78.1064
G01 X21.2438 Y78.0360
G01 X21.2500 Y78.0210
G01 X21.2820 Y77.9534
G01 X21.2896 Y77.9391
G01 X21.3281 Y77.8750
G01 X21.3371 Y77.8615
G01 X21.3816 Y77.8014
G01 X21.3919 Y77.7888
G01 X21.4421 Y77.7334
G01 X21.4536 Y77.7219
G01 X21.5090 Y77.6717
G01 X21.5216 Y77.6614
G01 X21.5817 Y77.6169
G01 X21.5952 Y77.6079
G01 X21.6593 Y77.5694
G01 X21.6736 Y77.5618
G01 X21.7412 Y77.5298
G01 X21.7562 Y77.5236
G01 X21.8266 Y77.4984
G01 X21.8422 Y77.4937
G01 X21.9147 Y77.4755
G01 X21.9306 Y77.4723
G01 X22.0046 Y77.4613
G01 X22.0208 Y77.4598
G01 X22.0955 Y77.4561
G01 X22.1117 Y77.4561
G01 X22.1864 Y77.4598
G01 X22.2026 Y77.4613
G01 X22.2765 Y77.4723
G01 X22.2925 Y77.4755
G01 X22.3650 Y77.4937
G01 X22.3805 Y77.4984
G01 X22.4509 Y77.5236
G01 X22.4660 Y77.5298
G01 X22.5336 Y77.5618
G01 X22.5479 Y77.5694
G01 X22.6120 Y77.6079
G01 X22.6255 Y77.6169
G01 X22.6856 Y77.6614
G01 X22.6981 Y77.6717
G01 X22.7488 Y77.7176
G00 Z2.0000
G00 X22.7488 Y80.2576
G01 F60.00
G01 Z-0.2001
G01 F320.00
G01 X69.5378 Y80.2576
G01 X69.5411 Y80.1901
G01 X69.5427 Y80.1740
G01 X69.5522 Y80.1099
G01 X69.5553 Y80.0939
G01 X69.5711 Y80.0311
G01 X69.5758 Y80.0155
G01 X69.5976 Y79.9545
G01 X69.6039 Y79.9395
G01 X69.6316 Y79.8809
G01 X69.6392 Y79.8666
G01 X69.6725 Y79.8110
G01 X69.6816 Y79.7975
G01 X69.7202 Y79.7454
G01 X69.7305 Y79.7329
G01 X69.7740 Y79.6849
G01 X69.7855 Y79.6734
G01 X69.8335 Y79.6299
G01 X69.8460 Y79.6196
G01 X69.8981 Y79.5810
G01 X69.9116 Y79.5719
G01 X69.9672 Y79.5386
G01 X69.9815 Y79.5310
G01 X70.0401 Y79.5032
G01 X70.0551 Y79.4970
G01 X70.1161 Y79.4752
G01 X70.1317 Y79.4705
G01 X70.1945 Y79.4547
G01 X70.2105 Y79.4516
G01 X70.2746 Y79.4421
G01 X70.2907 Y79.4405
G01 X70.3555 Y79.4373
G01 X70.3717 Y79.4373
G01 X70.4364 Y79.4405
G01 X70.4526 Y79.4421
G01 X70.5167 Y79.4516
G01 X70.5326 Y79.4547
G01 X70.5955 Y79.4705
G01 X70.6110 Y79.4752
G01 X70.6721 Y79.4970
G01 X70.6871 Y79.5032
G01 X70.7457 Y79.5310
G01 X70.7600 Y79.5386
G01 X70.8156 Y79.5719
G01 X70.8291 Y79.5810
G01 X70.8811 Y79.6196
G01 X70.8937 Y79.6299
G01 X70.9417 Y79.6734
G01 X70.9532 Y79.6849
G01 X70.9967 Y79.7329
G01 X71.0070 Y79.7454
G01 X71.0456 Y79.7975
G01 X71.0546 Y79.8110
G01 X71.0880 Y79.8666
G01 X71.0956 Y79.8809
G01 X71.1233 Y79.9395
G01 X71.1295 Y79.9545
G01 X71.1514 Y80.0155
G01 X71.1561 Y80.0311
G01 X71.1718 Y80.0939
G01 X71.1750 Y80.1099
G01 X71.1845 Y80.1740
G01 X71.1861 Y80.1901
G01 X71.1893 Y80.2549
G01 X71.1893 Y81.5919
G01 X71.1861 Y81.6566
G01 X71.1845 Y81.6728
G01 X71.1750 Y81.7369
G01 X71.1718 Y81.7528
G01 X71.1561 Y81.8157
G01 X71.1514 Y81.8312
G01 X71.1295 Y81.8923
G01 X71.1233 Y81.9073
G01 X71.0956 Y81.9659
G01 X71.0880 Y81.9802
G01 X71.0546 Y82.0358
G01 X71.0456 Y82.0493
G01 X71.0070 Y82.1013
G01 X70.9967 Y82.1139
G01 X70.9532 Y82.1619
G01 X70.9417 Y82.1734
G01 X70.8937 Y82.2169
G01 X70.8811 Y82.2272
G01 X70.8291 Y82.2658
G01 X70.8156 Y82.2748
G01 X70.7600 Y82.3082
G01 X70.7457 Y82.3158
G01 X70.6871 Y82.3435
G01 X70.6721 Y82.3497
G01 X70.6110 Y82.3716
G01 X70.5955 Y82.3763
G01 X70.5326 Y82.3920
G01 X70.5167 Y82.3952
G01 X70.4526 Y82.4047
G01 X70.4364 Y82.4063
G01 X70.3717 Y82.4095
G01 X70.3555 Y82.4095
G01 X70.2907 Y82.4063
G01 X70.2746 Y82.4047
G01 X70.2105 Y82.3952
G01 X70.1945 Y82.3920
G01 X70.1317 Y82.3763
G01 X70.1161 Y82.3716
G01 X70.0551 Y82.3497
G01 X70.0401 Y82.3435
G01 X69.9815 Y82.3158
G01 X69.9672 Y82.3082
G01 X69.9116 Y82.2748
G01 X69.8981 Y82.2658
G01 X69.8460 Y82.2272
G01 X69.8335 Y82.2169
G01 X69.7855 Y82.1734
G01 X69.7740 Y82.1619
G01 X69.7305 Y82.1139
G01 X69.7202 Y82.1013
G01 X69.6816 Y82.0493
G01 X69.6725 Y82.0358
G01 X69.6392 Y81.9802
G01 X69.6316 Y81.9659
G01 X69.6039 Y81.9073
G01 X69.5976 Y81.8923
G01 X69.5758 Y81.8312
G01 X69.5711 Y81.8157
G01 X69.5553 Y81.7528
G01 X69.5522 Y81.7369
G01 X69.5427 Y81.6728
G01 X69.5411 Y81.6566
G01 X69.5378 Y81.5891
G01 X22.7488 Y81.5891
G01 X22.6981 Y81.6350
G01 X22.6856 Y81.6453
G01 X22.6255 Y81.6899
G01 X22.6120 Y81.6989
G01 X22.5479 Y81.7374
G01 X22.5336 Y81.7450
G01 X22.4660 Y81.7770
G01 X22.4509 Y81.7832
G01 X22.3805 Y81.8084
G01 X22.3650 Y81.8131
G01 X22.2925 Y81.8313
G01 X22.2765 Y81.8344
G01 X22.2026 Y81.8454
G01 X22.1864 Y81.8470
G01 X22.1117 Y81.8507
G01 X22.0955 Y81.8507
G01 X22.0208 Y81.8470
G01 X22.0046 Y81.8454
G01 X21.9306 Y81.8344
G01 X21.9147 Y81.8313
G01 X21.8422 Y81.8131
G01 X21.8266 Y81.8084
G01 X21.7562 Y81.7832
G01 X21.7412 Y81.7770
G01 X21.6736 Y81.7450
G01 X21.6593 Y81.7374
G01 X21.5952 Y81.6989
G01 X21.5817 Y81.6899
G01 X21.5216 Y81.6453
G01 X21.5090 Y81.6350
G01 X21.4536 Y81.5848
G01 X21.4421 Y81.5733
G01 X21.3919 Y81.5179
G01 X21.3816 Y81.5054
G01 X21.3371 Y81.4453
G01 X21.3281 Y81.4318
G01 X21.2896 Y81.3677
G01 X21.2820 Y81.3533
G01 X21.2500 Y81.2857
G01 X21.2438 Y81.2707
G01 X21.2186 Y81.2003
G01 X21.2139 Y81.1848
G01 X21.1957 Y81.1123
G01 X21.1925 Y81.0963
G01 X21.1816 Y81.0224
G01 X21.1800 Y81.0062
G01 X21.1763 Y80.9315
G01 X21.1763 Y80.9153
G01 X21.1800 Y80.8406
G01 X21.1816 Y80.8244
G01 X21.1925 Y80.7504
G01 X21.1957 Y80.7345
G01 X21.2139 Y80.6620
G01 X21.2186 Y80.6464
G01 X21.2438 Y80.5760
G01 X21.2500 Y80.5610
G01 X21.2820 Y80.4934
G01 X21.2896 Y80.4791
G01 X21.3281 Y80.4150
G01 X21.3371 Y80.4015
G01 X21.3816 Y80.3414
G01 X21.3919 Y80.3288
G01 X21.4421 Y80.2734
G01 X21.4536 Y80.2619
G01 X21.5090 Y80.2117
G01 X21.5216 Y80.2014
G01 X21.5817 Y80.1569
G01 X21.5952 Y80.1479
G01 X21.6593 Y80.1094
G01 X21.6736 Y80.1018
G01 X21.7412 Y80.0698
G01 X21.7562 Y80.0636
G01 X21.8266 Y80.0384
G01 X21.8422 Y80.0337
G01 X21.9147 Y80.0155
G01 X21.9306 Y80.0123
G01 X22.0046 Y80.0013
G01 X22.0208 Y79.9998
G01 X22.0955 Y79.9961
G01 X22.1117 Y79.9961
G01 X22.1864 Y79.9998
G01 X22.2026 Y80.0013
G01 X22.2765 Y80.0123
G01 X22.2925 Y80.0155
G01 X22.3650 Y80.0337
G01 X22.3805 Y80.0384
G01 X22.4509 Y80.0636
G01 X22.4660 Y80.0698
G01 X22.5336 Y80.1018
G01 X22.5479 Y80.1094
G01 X22.6120 Y80.1479
G01 X22.6255 Y80.1569
G01 X22.6856 Y80.2014
G01 X22.6981 Y80.2117
G01 X22.7488 Y80.2576
G00 Z2.0000
G00 X13.8178 Y80.2782
G01 F60.00
G01 Z-0.2001
G01 F320.00
G01 X13.8178 Y63.7886
G01 X13.7719 Y63.7379
G01 X13.7616 Y63.7254
G01 X13.7171 Y63.6653
G01 X13.7081 Y63.6518
G01 X13.6696 Y63.5877
G01 X13.6620 Y63.5733
G01 X13.6300 Y63.5057
G01 X13.6238 Y63.4907
G01 X13.5986 Y63.4203
G01 X13.5939 Y63.4048
G01 X13.5757 Y63.3323
G01 X13.5725 Y63.3163
G01 X13.5616 Y63.2424
G01 X13.5600 Y63.2262
G01 X13.5563 Y63.1515
G01 X13.5563 Y63.1353
G01 X13.5600 Y63.0606
G01 X13.5616 Y63.0444
G01 X13.5725 Y62.9704
G01 X13.5757 Y62.9545
G01 X13.5939 Y62.8820
G01 X13.5986 Y62.8664
G01 X13.6238 Y62.7960
G01 X13.6300 Y62.7810
G01 X13.6620 Y62.7134
G01 X13.6696 Y62.6991
G01 X13.7081 Y62.6350
G01 X13.7171 Y62.6215
G01 X13.7616 Y62.5614
G01 X13.7719 Y62.5488
G01 X13.8221 Y62.4934
G01 X13.8336 Y62.4819
G01 X13.8890 Y62.4317
G01 X13.9016 Y62.4214
G01 X13.9617 Y62.3769
G01 X13.9752 Y62.3679
G01 X14.0393 Y62.3294
G01 X14.0536 Y62.3218
G01 X14.1212 Y62.2898
G01 X14.1362 Y62.2836
G01 X14.2066 Y62.2584
G01 X14.2222 Y62.2537
G01 X14.2947 Y62.2355
G01 X14.3106 Y62.2323
G01 X14.3846 Y62.2213
G01 X14.4008 Y62.2198
G01 X14.4755 Y62.2161
G01 X14.4917 Y62.2161
G01 X14.5664 Y62.2198
G01 X14.5826 Y62.2213
G01 X14.6565 Y62.2323
G01 X14.6725 Y62.2355
G01 X14.7450 Y62.2537
G01 X14.7605 Y62.2584
G01 X14.8309 Y62.2836
G01 X14.8460 Y62.2898
G01 X14.9136 Y62.3218
G01 X14.9279 Y62.3294
G01 X14.9920 Y62.3679
G01 X15.0055 Y62.3769
G01 X15.0656 Y62.4214
G01 X15.0781 Y62.4317
G01 X15.1335 Y62.4819
G01 X15.1450 Y62.4934
G01 X15.1952 Y62.5488
G01 X15.2056 Y62.5614
G01 X15.2501 Y62.6215
G01 X15.2591 Y62.6350
G01 X15.2976 Y62.6991
G01 X15.3052 Y62.7134
G01 X15.3372 Y62.7810
G01 X15.3434 Y62.7960
G01 X15.3686 Y62.8664
G01 X15.3733 Y62.8820
G01 X15.3915 Y62.9545
G01 X15.3947 Y62.9704
G01 X15.4056 Y63.0444
G01 X15.4072 Y63.0606
G01 X15.4109 Y63.1353
G01 X15.4109 Y63.1515
G01 X15.4072 Y63.2262
G01 X15.4056 Y63.2424
G01 X15.3947 Y63.3163
G01 X15.3915 Y63.3323
G01 X15.3733 Y63.4048
G01 X15.3686 Y63.4203
G01 X15.3434 Y63.4907
G01 X15.3372 Y63.5057
G01 X15.3052 Y63.5733
G01 X15.2976 Y63.5877
G01 X15.2591 Y63.6518
G01 X15.2501 Y63.6653
G01 X15.2056 Y63.7254
G01 X15.1952 Y63.7379
G01 X15.1493 Y63.7886
G01 X15.1493 Y80.2782
G01 X15.1952 Y80.3288
G01 X15.2056 Y80.3414
G01 X15.2501 Y80.4015
G01 X15.2591 Y80.4150
G01 X15.2976 Y80.4791
G01 X15.3052 Y80.4934
G01 X15.3372 Y80.5610
G01 X15.3434 Y80.5760
G01 X15.3686 Y80.6464
G01 X15.3733 Y80.6620
G01 X15.3915 Y80.7345
G01 X15.3947 Y80.7504
G01 X15.4056 Y80.8244
G01 X15.4072 Y80.8406
G01 X15.4109 Y80.9153
G01 X15.4109 Y80.9315
G01 X15.4072 Y81.0062
G01 X15.4056 Y81.0224
G01 X15.3947 Y81.0963
G01 X15.3915 Y81.1123
G01 X15.3733 Y81.1848
G01 X15.3686 Y81.2003
G01 X15.3434 Y81.2707
G01 X15.3372 Y81.2857
G01 X15.3052 Y81.3533
G01 X15.2976 Y81.3677
G01 X15.2591 Y81.4318
G01 X15.2501 Y81.4453
G01 X15.2056 Y81.5054
G01 X15.1952 Y81.5179
G01 X15.1493 Y81.5686
G01 X15.1493 Y95.5182
G01 X15.1952 Y95.5688
G01 X15.2056 Y95.5814
G01 X15.2501 Y95.6415
G01 X15.2591 Y95.6550
G01 X15.2976 Y95.7191
G01 X15.3052 Y95.7334
G01 X15.3372 Y95.8010
G01 X15.3434 Y95.8160
G01 X15.3686 Y95.8864
G01 X15.3733 Y95.9020
G01 X15.3915 Y95.9745
G01 X15.3947 Y95.9904
G01 X15.4056 Y96.0644
G01 X15.4072 Y96.0806
G01 X15.4109 Y96.1553
G01 X15.4109 Y96.1715
G01 X15.4072 Y96.2462
G01 X15.4056 Y96.2624
G01 X15.3947 Y96.3363
G01 X15.3915 Y96.3523
G01 X15.3733 Y96.4248
G01 X15.3686 Y96.4403
G01 X15.3434 Y96.5107
G01 X15.3372 Y96.5257
G01 X15.3052 Y96.5933
G01 X15.2976 Y96.6077
G01 X15.2591 Y96.6718
G01 X15.2501 Y96.6853
G01 X15.2056 Y96.7454
G01 X15.1952 Y96.7579
G01 X15.1450 Y96.8133
G01 X15.1335 Y96.8248
G01 X15.0781 Y96.8750
G01 X15.0656 Y96.8853
G01 X15.0055 Y96.9299
G01 X14.9920 Y96.9389
G01 X14.9279 Y96.9774
G01 X14.9136 Y96.9850
G01 X14.8460 Y97.0170
G01 X14.8309 Y97.0232
G01 X14.7605 Y97.0484
G01 X14.7450 Y97.0531
G01 X14.6725 Y97.0713
G01 X14.6565 Y97.0744
G01 X14.5826 Y97.0854
G01 X14.5664 Y97.0870
G01 X14.4917 Y97.0907
G01 X14.4755 Y97.0907
G01 X14.4008 Y97.0870
G01 X14.3846 Y97.0854
G01 X14.3106 Y97.0744
G01 X14.2947 Y97.0713
G01 X14.2222 Y97.0531
G01 X14.2066 Y97.0484
G01 X14.1362 Y97.0232
G01 X14.1212 Y97.0170
G01 X14.0536 Y96.9850
G01 X14.0393 Y96.9774
G01 X13.9752 Y96.9389
G01 X13.9617 Y96.9299
G01 X13.9016 Y96.8853
G01 X13.8890 Y96.8750
G01 X13.8336 Y96.8248
G01 X13.8221 Y96.8133
G01 X13.7719 Y96.7579
G01 X13.7616 Y96.7454
G01 X13.7171 Y96.6853
G01 X13.7081 Y96.6718
G01 X13.6696 Y96.6077
G01 X13.6620 Y96.5933
G01 X13.6300 Y96.5257
G01 X13.6238 Y96.5107
G01 X13.5986 Y96.4403
G01 X13.5939 Y96.4248
G01 X13.5757 Y96.3523
G01 X13.5725 Y96.3363
G01 X13.5616 Y96.2624
G01 X13.5600 Y96.2462
G01 X13.5563 Y96.1715
G01 X13.5563 Y96.1553
G01 X13.5600 Y96.0806
G01 X13.5616 Y96.0644
G01 X13.5725 Y95.9904
G01 X13.5757 Y95.9745
G01 X13.5939 Y95.9020
G01 X13.5986 Y95.8864
G01 X13.6238 Y95.8160
G01 X13.6300 Y95.8010
G01 X13.6620 Y95.7334
G01 X13.6696 Y95.7191
G01 X13.7081 Y95.6550
G01 X13.7171 Y95.6415
G01 X13.7616 Y95.5814
G01 X13.7719 Y95.5688
G01 X13.8178 Y95.5182
G01 X13.8178 Y81.5686
G01 X13.7719 Y81.5179
G01 X13.7616 Y81.5054
G01 X13.7171 Y81.4453
G01 X13.7081 Y81.4318
G01 X13.6696 Y81.3677
G01 X13.6620 Y81.3533
G01 X13.6300 Y81.2857
G01 X13.6238 Y81.2707
G01 X13.5986 Y81.2003
G01 X13.5939 Y81.1848
G01 X13.5757 Y81.1123
G01 X13.5725 Y81.0963
G01 X13.5616 Y81.0224
G01 X13.5600 Y81.0062
G01 X13.5563 Y80.9315
G01 X13.5563 Y80.9153
G01 X13.5600 Y80.8406
G01 X13.5616 Y80.8244
G01 X13.5725 Y80.7504
G01 X13.5757 Y80.7345
G01 X13.5939 Y80.6620
G01 X13.5986 Y80.6464
G01 X13.6238 Y80.5760
G01 X13.6300 Y80.5610
G01 X13.6620 Y80.4934
G01 X13.6696 Y80.4791
G01 X13.7081 Y80.4150
G01 X13.7171 Y80.4015
G01 X13.7616 Y80.3414
G01 X13.7719 Y80.3288
G01 X13.8178 Y80.2782
G00 Z2.0000
G00 X8.7378 Y72.6582
G01 F60.00
G01 Z-0.2001
G01 F320.00
G01 X8.7378 Y5.3686
G01 X8.6919 Y5.3179
G01 X8.6816 Y5.3054
G01 X8.6371 Y5.2453
G01 X8.6281 Y5.2318
G01 X8.5896 Y5.1677
G01 X8.5820 Y5.1533
G01 X8.5500 Y5.0857
G01 X8.5438 Y5.0707
G01 X8.5186 Y5.0003
G01 X8.5139 Y4.9848
G01 X8.4957 Y4.9123
G01 X8.4925 Y4.8963
G01 X8.4816 Y4.8224
G01 X8.4800 Y4.8062
G01 X8.4763 Y4.7315
G01 X8.4763 Y4.7153
G01 X8.4800 Y4.6406
G01 X8.4816 Y4.6244
G01 X8.4925 Y4.5504
G01 X8.4957 Y4.5345
G01 X8.5139 Y4.4620
G01 X8.5186 Y4.4464
G01 X8.5438 Y4.3760
G01 X8.5500 Y4.3610
G01 X8.5820 Y4.2934
G01 X8.5896 Y4.2791
G01 X8.6281 Y4.2150
G01 X8.6371 Y4.2015
G01 X8.6816 Y4.1414
G01 X8.6919 Y4.1288
G01 X8.7421 Y4.0734
G01 X8.7536 Y4.0619
G01 X8.8090 Y4.0117
G01 X8.8216 Y4.0014
G01 X8.8817 Y3.9569
G01 X8.8952 Y3.9479
G01 X8.9593 Y3.9094
G01 X8.9736 Y3.9018
G01 X9.0412 Y3.8698
G01 X9.0562 Y3.8636
G01 X9.1266 Y3.8384
G01 X9.1422 Y3.8337
G01 X9.2147 Y3.8155
G01 X9.2306 Y3.8123
G01 X9.3046 Y3.8013
G01 X9.3208 Y3.7998
G01 X9.3955 Y3.7961
G01 X9.4117 Y3.7961
G01 X9.4864 Y3.7998
G01 X9.5026 Y3.8013
G01 X9.5765 Y3.8123
G01 X9.5925 Y3.8155
G01 X9.6650 Y3.8337
G01 X9.6805 Y3.8384
G01 X9.7509 Y3.8636
G01 X9.7660 Y3.8698
G01 X9.8336 Y3.9018
G01 X9.8479 Y3.9094
G01 X9.9120 Y3.9479
G01 X9.9255 Y3.9569
G01 X9.9856 Y4.0014
G01 X9.9981 Y4.0117
G01 X10.0535 Y4.0619
G01 X10.0650 Y4.0734
G01 X10.1152 Y4.1288
G01 X10.1256 Y4.1414
G01 X10.1701 Y4.2015
G01 X10.1791 Y4.2150
G01 X10.2176 Y4.2791
G01 X10.2252 Y4.2934
G01 X10.2572 Y4.3610
G01 X10.2634 Y4.3760
G01 X10.2886 Y4.4464
G01 X10.2933 Y4.4620
G01 X10.3115 Y4.5345
G01 X10.3147 Y4.5504
G01 X10.3256 Y4.6244
G01 X10.3272 Y4.6406
G01 X10.3309 Y4.7153
G01 X10.3309 Y4.7315
G01 X10.3272 Y4.8062
G01 X10.3256 Y4.8224
G01 X10.3147 Y4.8963
G01 X10.3115 Y4.9123
G01 X10.2933 Y4.9848
G01 X10.2886 Y5.0003
G01 X10.2634 Y5.0707
G01 X10.2572 Y5.0857
G01 X10.2252 Y5.1533
G01 X10.2176 Y5.1677
G01 X10.1791 Y5.2318
G01 X10.1701 Y5.2453
G01 X10.1256 Y5.3054
G01 X10.1152 Y5.3179
G01 X10.0693 Y5.3686
G01 X10.0693 Y42.1576
G01 X54.4578 Y42.1576
G01 X54.4578 Y12.3434
G01 X54.4604 Y12.2862
G01 X54.4620 Y12.2701
G01 X54.4692 Y12.2215
G01 X54.4724 Y12.2056
G01 X54.4843 Y12.1580
G01 X54.4891 Y12.1424
G01 X54.5056 Y12.0962
G01 X54.5118 Y12.0812
G01 X54.5328 Y12.0368
G01 X54.5405 Y12.0225
G01 X54.5657 Y11.9804
G01 X54.5747 Y11.9669
G01 X54.6040 Y11.9274
G01 X54.6143 Y11.9149
G01 X54.6472 Y11.8785
G01 X54.6587 Y11.8670
G01 X54.6951 Y11.8341
G01 X54.7076 Y11.8238
G01 X54.7471 Y11.7945
G01 X54.7606 Y11.7855
G01 X54.8027 Y11.7603
G01 X54.8170 Y11.7526
G01 X54.8614 Y11.7316
G01 X54.8764 Y11.7254
G01 X54.9226 Y11.7089
G01 X54.9382 Y11.7041
G01 X54.9858 Y11.6922
G01 X55.0017 Y11.6890
G01 X55.0503 Y11.6818
G01 X55.0664 Y11.6802
G01 X55.1155 Y11.6778
G01 X64.6384 Y11.6776
G01 X64.6890 Y11.6317
G01 X64.7016 Y11.6214
G01 X64.7617 Y11.5769
G01 X64.7752 Y11.5679
G01 X64.8393 Y11.5294
G01 X64.8536 Y11.5218
G01 X64.9212 Y11.4898
G01 X64.9362 Y11.4836
G01 X65.0066 Y11.4584
G01 X65.0222 Y11.4537
G01 X65.0947 Y11.4355
G01 X65.1106 Y11.4323
G01 X65.1846 Y11.4213
G01 X65.2008 Y11.4198
G01 X65.2755 Y11.4161
G01 X65.2917 Y11.4161
G01 X65.3664 Y11.4198
G01 X65.3826 Y11.4213
G01 X65.4565 Y11.4323
G01 X65.4725 Y11.4355
G01 X65.5450 Y11.4537
G01 X65.5605 Y11.4584
G01 X65.6309 Y11.4836
G01 X65.6460 Y11.4898
G01 X65.7136 Y11.5218
G01 X65.7279 Y11.5294
G01 X65.7920 Y11.5679
G01 X65.8055 Y11.5769
G01 X65.8656 Y11.6214
G01 X65.8781 Y11.6317
G01 X65.9335 Y11.6819
G01 X65.9450 Y11.6934
G01 X65.9952 Y11.7488
G01 X66.0056 Y11.7614
G01 X66.0501 Y11.8215
G01 X66.0591 Y11.8350
G01 X66.0976 Y11.8991
G01 X66.1052 Y11.9134
G01 X66.1372 Y11.9810
G01 X66.1434 Y11.9960
G01 X66.1686 Y12.0664
G01 X66.1733 Y12.0820
G01 X66.1915 Y12.1545
G01 X66.1947 Y12.1704
G01 X66.2056 Y12.2444
G01 X66.2072 Y12.2606
G01 X66.2109 Y12.3353
G01 X66.2109 Y12.3515
G01 X66.2072 Y12.4262
G01 X66.2056 Y12.4424
G01 X66.1947 Y12.5163
G01 X66.1915 Y12.5323
G01 X66.1733 Y12.6048
G01 X66.1686 Y12.6203
G01 X66.1434 Y12.6907
G01 X66.1372 Y12.7057
G01 X66.1052 Y12.7733
G01 X66.0976 Y12.7877
G01 X66.0591 Y12.8518
G01 X66.0501 Y12.8653
G01 X66.0056 Y12.9254
G01 X65.9952 Y12.9379
G01 X65.9450 Y12.9933
G01 X65.9335 Y13.0048
G01 X65.8781 Y13.0550
G01 X65.8656 Y13.0653
G01 X65.8055 Y13.1099
G01 X65.7920 Y13.1189
G01 X65.7279 Y13.1574
G01 X65.7136 Y13.1650
G01 X65.6460 Y13.1970
G01 X65.6309 Y13.2032
G01 X65.5605 Y13.2284
G01 X65.5450 Y13.2331
G01 X65.4725 Y13.2513
G01 X65.4565 Y13.2544
G01 X65.3826 Y13.2654
G01 X65.3664 Y13.2670
G01 X65.2917 Y13.2707
G01 X65.2755 Y13.2707
G01 X65.2008 Y13.2670
G01 X65.1846 Y13.2654
G01 X65.1106 Y13.2544
G01 X65.0947 Y13.2513
G01 X65.0222 Y13.2331
G01 X65.0066 Y13.2284
G01 X64.9362 Y13.2032
G01 X64.9212 Y13.1970
G01 X64.8536 Y13.1650
G01 X64.8393 Y13.1574
G01 X64.7752 Y13.1189
G01 X64.7617 Y13.1099
G01 X64.7016 Y13.0653
G01 X64.6890 Y13.0550
G01 X64.6384 Y13.0091
G01 X55.7893 Y13.0091
G01 X55.7893 Y42.8234
G01 X55.7867 Y42.8805
G01 X55.7851 Y42.8967
G01 X55.7779 Y42.9453
G01 X55.7748 Y42.9612
G01 X55.7628 Y43.0088
G01 X55.7581 Y43.0244
G01 X55.7416 Y43.0706
G01 X55.7354 Y43.0856
G01 X55.7144 Y43.1300
G01 X55.7067 Y43.1443
G01 X55.6815 Y43.1864
G01 X55.6725 Y43.1999
G01 X55.6432 Y43.2393
G01 X55.6329 Y43.2519
G01 X55.5999 Y43.2883
G01 X55.5885 Y43.2997
G01 X55.5521 Y43.3327
G01 X55.5395 Y43.3430
G01 X55.5001 Y43.3723
G01 X55.4866 Y43.3813
G01 X55.4445 Y43.4065
G01 X55.4302 Y43.4142
G01 X55.3858 Y43.4352
G01 X55.3708 Y43.4414
G01 X55.3246 Y43.4579
G01 X55.3090 Y43.4626
G01 X55.2614 Y43.4746
G01 X55.2455 Y43.4777
G01 X55.1969 Y43.4849
G01 X55.1807 Y43.4865
G01 X55.1236 Y43.4891
G01 X43.0893 Y43.4891
G01 X43.0893 Y46.7555
G01 X43.1056 Y46.7775
G01 X43.1146 Y46.7910
G01 X43.1480 Y46.8466
G01 X43.1556 Y46.8609
G01 X43.1833 Y46.9195
G01 X43.1895 Y46.9345
G01 X43.2114 Y46.9955
G01 X43.2161 Y47.0111
G01 X43.2318 Y47.0739
G01 X43.2350 Y47.0899
G01 X43.2445 Y47.1540
G01 X43.2461 Y47.1701
G01 X43.2495 Y47.2430
G01 X43.2495 Y48.5638
G01 X43.2461 Y48.6366
G01 X43.2445 Y48.6528
G01 X43.2350 Y48.7169
G01 X43.2318 Y48.7328
G01 X43.2161 Y48.7957
G01 X43.2114 Y48.8112
G01 X43.1895 Y48.8723
G01 X43.1833 Y48.8873
G01 X43.1556 Y48.9459
G01 X43.1480 Y48.9602
G01 X43.1146 Y49.0158
G01 X43.1056 Y49.0293
G01 X43.0670 Y49.0813
G01 X43.0567 Y49.0939
G01 X43.0132 Y49.1419
G01 X43.0017 Y49.1534
G01 X42.9537 Y49.1969
G01 X42.9411 Y49.2072
G01 X42.8891 Y49.2458
G01 X42.8756 Y49.2548
G01 X42.8200 Y49.2882
G01 X42.8057 Y49.2958
G01 X42.7471 Y49.3235
G01 X42.7321 Y49.3297
G01 X42.6710 Y49.3516
G01 X42.6555 Y49.3563
G01 X42.5926 Y49.3720
G01 X42.5767 Y49.3752
G01 X42.5126 Y49.3847
G01 X42.4964 Y49.3863
G01 X42.4317 Y49.3895
G01 X42.4155 Y49.3895
G01 X42.3507 Y49.3863
G01 X42.3346 Y49.3847
G01 X42.2705 Y49.3752
G01 X42.2545 Y49.3720
G01 X42.1917 Y49.3563
G01 X42.1761 Y49.3516
G01 X42.1151 Y49.3297
G01 X42.1001 Y49.3235
G01 X42.0415 Y49.2958
G01 X42.0272 Y49.2882
G01 X41.9716 Y49.2548
G01 X41.9581 Y49.2458
G01 X41.9060 Y49.2072
G01 X41.8935 Y49.1969
G01 X41.8455 Y49.1534
G01 X41.8340 Y49.1419
G01 X41.7905 Y49.0939
G01 X41.7802 Y49.0813
G01 X41.7416 Y49.0293
G01 X41.7325 Y49.0158
G01 X41.6992 Y48.9602
G01 X41.6916 Y48.9459
G01 X41.6639 Y48.8873
G01 X41.6576 Y48.8723
G01 X41.6358 Y48.8112
G01 X41.6311 Y48.7957
G01 X41.6153 Y48.7328
G01 X41.6122 Y48.7169
G01 X41.6027 Y48.6528
G01 X41.6011 Y48.6366
G01 X41.5977 Y48.5638
G01 X41.5977 Y47.2430
G01 X41.6011 Y47.1701
G01 X41.6027 Y47.1540
G01 X41.6122 Y47.0899
G01 X41.6153 Y47.0739
G01 X41.6311 Y47.0111
G01 X41.6358 Y46.9955
G01 X41.6576 Y46.9345
G01 X41.6639 Y46.9195
G01 X41.6916 Y46.8609
G01 X41.6992 Y46.8466
G01 X41.7325 Y46.7910
G01 X41.7416 Y46.7775
G01 X41.7578 Y46.7555
G01 X41.7578 Y43.4891
G01 X10.0693 Y43.4891
G01 X10.0693 Y72.6582
G01 X10.1152 Y72.7088
G01 X10.1256 Y72.7214
G01 X10.1701 Y72.7815
G01 X10.1791 Y72.7950
G01 X10.2176 Y72.8591
G01 X10.2252 Y72.8734
G01 X10.2572 Y72.9410
G01 X10.2634 Y72.9560
G01 X10.2886 Y73.0264
G01 X10.2933 Y73.0420
G01 X10.3115 Y73.1145
G01 X10.3147 Y73.1304
G01 X10.3256 Y73.2044
G01 X10.3272 Y73.2206
G01 X10.3309 Y73.2953
G01 X10.3309 Y73.3115
G01 X10.3272 Y73.3862
G01 X10.3256 Y73.4024
G01 X10.3147 Y73.4763
G01 X10.3115 Y73.4923
G01 X10.2933 Y73.5648
G01 X10.2886 Y73.5803
G01 X10.2634 Y73.6507
G01 X10.2572 Y73.6657
G01 X10.2252 Y73.7333
G01 X10.2176 Y73.7477
G01 X10.1791 Y73.8118
G01 X10.1701 Y73.8253
G01 X10.1256 Y73.8854
G01 X10.1152 Y73.8979
G01 X10.0693 Y73.9486
G01 X10.0693 Y95.5182
G01 X10.1152 Y95.5688
G01 X10.1256 Y95.5814
G01 X10.1701 Y95.6415
G01 X10.1791 Y95.6550
G01 X10.2176 Y95.7191
G01 X10.2252 Y95.7334
G01 X10.2572 Y95.8010
G01 X10.2634 Y95.8160
G01 X10.2886 Y95.8864
G01 X10.2933 Y95.9020
G01 X10.3115 Y95.9745
G01 X10.3147 Y95.9904
G01 X10.3256 Y96.0644
G01 X10.3272 Y96.0806
G01 X10.3309 Y96.1553
G01 X10.3309 Y96.1715
G01 X10.3272 Y96.2462
G01 X10.3256 Y96.2624
G01 X10.3147 Y96.3363
G01 X10.3115 Y96.3523
G01 X10.2933 Y96.4248
G01 X10.2886 Y96.4403
G01 X10.2634 Y96.5107
G01 X10.2572 Y96.5257
G01 X10.2252 Y96.5933
G01 X10.2176 Y96.6077
G01 X10.1791 Y96.6718
G01 X10.1701 Y96.6853
G01 X10.1256 Y96.7454
G01 X10.1152 Y96.7579
G01 X10.0650 Y96.8133
G01 X10.0535 Y96.8248
G01 X9.9981 Y96.8750
G01 X9.9856 Y96.8853
G01 X9.9255 Y96.9299
G01 X9.9120 Y96.9389
G01 X9.8479 Y96.9774
G01 X9.8336 Y96.9850
G01 X9.7660 Y97.0170
G01 X9.7509 Y97.0232
G01 X9.6805 Y97.0484
G01 X9.6650 Y97.0531
G01 X9.5925 Y97.0713
G01 X9.5765 Y97.0744
G01 X9.5026 Y97.0854
G01 X9.4864 Y97.0870
G01 X9.4117 Y97.0907
G01 X9.3955 Y97.0907
G01 X9.3208 Y97.0870
G01 X9.3046 Y97.0854
G01 X9.2306 Y97.0744
G01 X9.2147 Y97.0713
G01 X9.1422 Y97.0531
G01 X9.1266 Y97.0484
G01 X9.0562 Y97.0232
G01 X9.0412 Y97.0170
G01 X8.9736 Y96.9850
G01 X8.9593 Y96.9774
G01 X8.8952 Y96.9389
G01 X8.8817 Y96.9299
G01 X8.8216 Y96.8853
G01 X8.8090 Y96.8750
G01 X8.7536 Y96.8248
G01 X8.7421 Y96.8133
G01 X8.6919 Y96.7579
G01 X8.6816 Y96.7454
G01 X8.6371 Y96.6853
G01 X8.6281 Y96.6718
G01 X8.5896 Y96.6077
G01 X8.5820 Y96.5933
G01 X8.5500 Y96.5257
G01 X8.5438 Y96.5107
G01 X8.5186 Y96.4403
G01 X8.5139 Y96.4248
G01 X8.4957 Y96.3523
G01 X8.4925 Y96.3363
G01 X8.4816 Y96.2624
G01 X8.4800 Y96.2462
G01 X8.4763 Y96.1715
G01 X8.4763 Y96.1553
G01 X8.4800 Y96.0806
G01 X8.4816 Y96.0644
G01 X8.4925 Y95.9904
G01 X8.4957 Y95.9745
G01 X8.5139 Y95.9020
G01 X8.5186 Y95.8864
G01 X8.5438 Y95.8160
G01 X8.5500 Y95.8010
G01 X8.5820 Y95.7334
G01 X8.5896 Y95.7191
G01 X8.6281 Y95.6550
G01 X8.6371 Y95.6415
G01 X8.6816 Y95.5814
G01 X8.6919 Y95.5688
G01 X8.7378 Y95.5182
G01 X8.7378 Y73.9486
G01 X8.6919 Y73.8979
G01 X8.6816 Y73.8854
G01 X8.6371 Y73.8253
G01 X8.6281 Y73.8118
G01 X8.5896 Y73.7477
G01 X8.5820 Y73.7333
G01 X8.5500 Y73.6657
G01 X8.5438 Y73.6507
G01 X8.5186 Y73.5803
G01 X8.5139 Y73.5648
G01 X8.4957 Y73.4923
G01 X8.4925 Y73.4763
G01 X8.4816 Y73.4024
G01 X8.4800 Y73.3862
G01 X8.4763 Y73.3115
G01 X8.4763 Y73.2953
G01 X8.4800 Y73.2206
G01 X8.4816 Y73.2044
G01 X8.4925 Y73.1304
G01 X8.4957 Y73.1145
G01 X8.5139 Y73.0420
G01 X8.5186 Y73.0264
G01 X8.5438 Y72.9560
G01 X8.5500 Y72.9410
G01 X8.5820 Y72.8734
G01 X8.5896 Y72.8591
G01 X8.6281 Y72.7950
G01 X8.6371 Y72.7815
G01 X8.6816 Y72.7214
G01 X8.6919 Y72.7088
G01 X8.7378 Y72.6582
G00 Z2.0000
G00 X16.3578 Y95.5182
G01 F60.00
G01 Z-0.2001
G01 F320.00
G01 X16.3578 Y71.4086
G01 X16.3119 Y71.3579
G01 X16.3016 Y71.3454
G01 X16.2571 Y71.2853
G01 X16.2481 Y71.2718
G01 X16.2096 Y71.2077
G01 X16.2020 Y71.1933
G01 X16.1700 Y71.1257
G01 X16.1638 Y71.1107
G01 X16.1386 Y71.0403
G01 X16.1339 Y71.0248
G01 X16.1157 Y70.9523
G01 X16.1125 Y70.9363
G01 X16.1016 Y70.8624
G01 X16.1000 Y70.8462
G01 X16.0963 Y70.7715
G01 X16.0963 Y70.7553
G01 X16.1000 Y70.6806
G01 X16.1016 Y70.6644
G01 X16.1125 Y70.5904
G01 X16.1157 Y70.5745
G01 X16.1339 Y70.5020
G01 X16.1386 Y70.4864
G01 X16.1638 Y70.4160
G01 X16.1700 Y70.4010
G01 X16.2020 Y70.3334
G01 X16.2096 Y70.3191
G01 X16.2481 Y70.2550
G01 X16.2571 Y70.2415
G01 X16.3016 Y70.1814
G01 X16.3119 Y70.1688
G01 X16.3621 Y70.1134
G01 X16.3736 Y70.1019
G01 X16.4290 Y70.0517
G01 X16.4416 Y70.0414
G01 X16.5017 Y69.9969
G01 X16.5152 Y69.9879
G01 X16.5793 Y69.9494
G01 X16.5936 Y69.9418
G01 X16.6612 Y69.9098
G01 X16.6762 Y69.9036
G01 X16.7466 Y69.8784
G01 X16.7622 Y69.8737
G01 X16.8347 Y69.8555
G01 X16.8506 Y69.8523
G01 X16.9246 Y69.8413
G01 X16.9408 Y69.8398
G01 X17.0155 Y69.8361
G01 X17.0317 Y69.8361
G01 X17.1064 Y69.8398
G01 X17.1226 Y69.8413
G01 X17.1965 Y69.8523
G01 X17.2125 Y69.8555
G01 X17.2850 Y69.8737
G01 X17.3005 Y69.8784
G01 X17.3709 Y69.9036
G01 X17.3860 Y69.9098
G01 X17.4536 Y69.9418
G01 X17.4679 Y69.9494
G01 X17.5320 Y69.9879
G01 X17.5455 Y69.9969
G01 X17.6056 Y70.0414
G01 X17.6181 Y70.0517
G01 X17.6735 Y70.1019
G01 X17.6850 Y70.1134
G01 X17.7352 Y70.1688
G01 X17.7456 Y70.1814
G01 X17.7901 Y70.2415
G01 X17.7991 Y70.2550
G01 X17.8376 Y70.3191
G01 X17.8452 Y70.3334
G01 X17.8772 Y70.4010
G01 X17.8834 Y70.4160
G01 X17.9086 Y70.4864
G01 X17.9133 Y70.5020
G01 X17.9315 Y70.5745
G01 X17.9347 Y70.5904
G01 X17.9456 Y70.6644
G01 X17.9472 Y70.6806
G01 X17.9509 Y70.7553
G01 X17.9509 Y70.7715
G01 X17.9472 Y70.8462
G01 X17.9456 Y70.8624
G01 X17.9347 Y70.9363
G01 X17.9315 Y70.9523
G01 X17.9133 Y71.0248
G01 X17.9086 Y71.0403
G01 X17.8834 Y71.1107
G01 X17.8772 Y71.1257
G01 X17.8452 Y71.1933
G01 X17.8376 Y71.2077
G01 X17.7991 Y71.2718
G01 X17.7901 Y71.2853
G01 X17.7456 Y71.3454
G01 X17.7352 Y71.3579
G01 X17.6893 Y71.4086
G01 X17.6893 Y95.5182
G01 X17.7352 Y95.5688
G01 X17.7456 Y95.5814
G01 X17.7901 Y95.6415
G01 X17.7991 Y95.6550
G01 X17.8376 Y95.7191
G01 X17.8452 Y95.7334
G01 X17.8772 Y95.8010
G01 X17.8834 Y95.8160
G01 X17.9086 Y95.8864
G01 X17.9133 Y95.9020
G01 X17.9315 Y95.9745
G01 X17.9347 Y95.9904
G01 X17.9456 Y96.0644
G01 X17.9472 Y96.0806
G01 X17.9509 Y96.1553
G01 X17.9509 Y96.1715
G01 X17.9472 Y96.2462
G01 X17.9456 Y96.2624
G01 X17.9347 Y96.3363
G01 X17.9315 Y96.3523
G01 X17.9133 Y96.4248
G01 X17.9086 Y96.4403
G01 X17.8834 Y96.5107
G01 X17.8772 Y96.5257
G01 X17.8452 Y96.5933
G01 X17.8376 Y96.6077
G01 X17.7991 Y96.6718
G01 X17.7901 Y96.6853
G01 X17.7456 Y96.7454
G01 X17.7352 Y96.7579
G01 X17.6850 Y96.8133
G01 X17.6735 Y96.8248
G01 X17.6181 Y96.8750
G01 X17.6056 Y96.8853
G01 X17.5455 Y96.9299
G01 X17.5320 Y96.9389
G01 X17.4679 Y96.9774
G01 X17.4536 Y96.9850
G01 X17.3860 Y97.0170
G01 X17.3709 Y97.0232
G01 X17.3005 Y97.0484
G01 X17.2850 Y97.0531
G01 X17.2125 Y97.0713
G01 X17.1965 Y97.0744
G01 X17.1226 Y97.0854
G01 X17.1064 Y97.0870
G01 X17.0317 Y97.0907
G01 X17.0155 Y97.0907
G01 X16.9408 Y97.0870
G01 X16.9246 Y97.0854
G01 X16.8506 Y97.0744
G01 X16.8347 Y97.0713
G01 X16.7622 Y97.0531
G01 X16.7466 Y97.0484
G01 X16.6762 Y97.0232
G01 X16.6612 Y97.0170
G01 X16.5936 Y96.9850
G01 X16.5793 Y96.9774
G01 X16.5152 Y96.9389
G01 X16.5017 Y96.9299
G01 X16.4416 Y96.8853
G01 X16.4290 Y96.8750
G01 X16.3736 Y96.8248
G01 X16.3621 Y96.8133
G01 X16.3119 Y96.7579
G01 X16.3016 Y96.7454
G01 X16.2571 Y96.6853
G01 X16.2481 Y96.6718
G01 X16.2096 Y96.6077
G01 X16.2020 Y96.5933
G01 X16.1700 Y96.5257
G01 X16.1638 Y96.5107
G01 X16.1386 Y96.4403
G01 X16.1339 Y96.4248
G01 X16.1157 Y96.3523
G01 X16.1125 Y96.3363
G01 X16.1016 Y96.2624
G01 X16.1000 Y96.2462
G01 X16.0963 Y96.1715
G01 X16.0963 Y96.1553
G01 X16.1000 Y96.0806
G01 X16.1016 Y96.0644
G01 X16.1125 Y95.9904
G01 X16.1157 Y95.9745
G01 X16.1339 Y95.9020
G01 X16.1386 Y95.8864
G01 X16.1638 Y95.8160
G01 X16.1700 Y95.8010
G01 X16.2020 Y95.7334
G01 X16.2096 Y95.7191
G01 X16.2481 Y95.6550
G01 X16.2571 Y95.6415
G01 X16.3016 Y95.5814
G01 X16.3119 Y95.5688
G01 X16.3578 Y95.5182
G00 Z2.0000
G00 X18.8978 Y95.5182
G01 F60.00
G01 Z-0.2001
G01 F320.00
G01 X18.8978 Y55.5234
G01 X18.9004 Y55.4662
G01 X18.9020 Y55.4501
G01 X18.9092 Y55.4015
G01 X18.9124 Y55.3856
G01 X18.9243 Y55.3380
G01 X18.9291 Y55.3224
G01 X18.9456 Y55.2762
G01 X18.9518 Y55.2612
G01 X18.9728 Y55.2168
G01 X18.9805 Y55.2025
G01 X19.0057 Y55.1604
G01 X19.0147 Y55.1469
G01 X19.0440 Y55.1074
G01 X19.0543 Y55.0949
G01 X19.0872 Y55.0585
G01 X19.0987 Y55.0470
G01 X19.1351 Y55.0141
G01 X19.1476 Y55.0038
G01 X19.1871 Y54.9745
G01 X19.2006 Y54.9655
G01 X19.2427 Y54.9403
G01 X19.2570 Y54.9326
G01 X19.3014 Y54.9116
G01 X19.3164 Y54.9054
G01 X19.3626 Y54.8889
G01 X19.3782 Y54.8841
G01 X19.4258 Y54.8722
G01 X19.4417 Y54.8690
G01 X19.4903 Y54.8618
G01 X19.5064 Y54.8602
G01 X19.5636 Y54.8576
G01 X49.3778 Y54.8576
G01 X49.3778 Y54.1312
G01 X49.3616 Y54.1093
G01 X49.3525 Y54.0958
G01 X49.3192 Y54.0402
G01 X49.3116 Y54.0259
G01 X49.2839 Y53.9673
G01 X49.2776 Y53.9523
G01 X49.2558 Y53.8912
G01 X49.2511 Y53.8757
G01 X49.2353 Y53.8128
G01 X49.2322 Y53.7969
G01 X49.2227 Y53.7328
G01 X49.2211 Y53.7166
G01 X49.2179 Y53.6519
G01 X49.2177 Y52.3230
G01 X49.2211 Y52.2501
G01 X49.2227 Y52.2340
G01 X49.2322 Y52.1699
G01 X49.2353 Y52.1539
G01 X49.2511 Y52.0911
G01 X49.2558 Y52.0755
G01 X49.2776 Y52.0145
G01 X49.2839 Y51.9995
G01 X49.3116 Y51.9409
G01 X49.3192 Y51.9266
G01 X49.3525 Y51.8710
G01 X49.3616 Y51.8575
G01 X49.4002 Y51.8054
G01 X49.4105 Y51.7929
G01 X49.4540 Y51.7449
G01 X49.4655 Y51.7334
G01 X49.5135 Y51.6899
G01 X49.5260 Y51.6796
G01 X49.5781 Y51.6410
G01 X49.5916 Y51.6319
G01 X49.6472 Y51.5986
G01 X49.6615 Y51.5910
G01 X49.7201 Y51.5632
G01 X49.7351 Y51.5570
G01 X49.7961 Y51.5352
G01 X49.8117 Y51.5305
G01 X49.8745 Y51.5147
G01 X49.8905 Y51.5116
G01 X49.9546 Y51.5021
G01 X49.9707 Y51.5005
G01 X50.0355 Y51.4973
G01 X50.0517 Y51.4973
G01 X50.1164 Y51.5005
G01 X50.1326 Y51.5021
