(G-CODE GENERATED BY FLATCAM v8.991 - www.flatcam.org - Version Date: 2019/12/27)

(Name: 002_ALU)
(Type: G-code from Geometry)
(Units: MM)

(Created on Saturday, 07 March 2020 at 19:57)

(TOOL DIAMETER: 0.331 mm)
(Feedrate: 320.0 mm/min)
(Feedrate_Z: 60.0 mm/min)
(Feedrate rapids 1500.0 mm/min)

(Z_Cut: -0.2001 mm)
(Z_Move: 2.0 mm)
(Z Toolchange: 15.0 mm)
(X,Y Toolchange: 0.0000, 0.0000 mm)
(Z Start: None mm)
(Z End: 15.0 mm)
(Steps per circle: 64)
(Preprocessor Geometry: default)

(X range:    5.6387 ...  147.7884  mm)
(Y range:    3.4985 ...   97.3882  mm)

(Spindle Speed: None RPM)
G21
G90
G94

M03 S3000


G01 F320.00
G00 Z2.0000

M03
G00 X13.2587 Y4.7461
G01 F60.00
G01 Z-0.2001
G01 F320.00
G01 X13.2587 Y4.7006
G01 X13.2624 Y4.6260
G01 X13.2669 Y4.5807
G01 X13.2778 Y4.5067
G01 X13.2867 Y4.4621
G01 X13.3049 Y4.3896
G01 X13.3181 Y4.3461
G01 X13.3433 Y4.2757
G01 X13.3607 Y4.2337
G01 X13.3927 Y4.1661
G01 X13.4141 Y4.1259
G01 X13.4525 Y4.0618
G01 X13.4778 Y4.0240
G01 X13.5223 Y3.9639
G01 X13.5512 Y3.9288
G01 X13.6014 Y3.8734
G01 X13.6336 Y3.8412
G01 X13.6890 Y3.7910
G01 X13.7241 Y3.7621
G01 X13.7842 Y3.7176
G01 X13.8220 Y3.6923
G01 X13.8861 Y3.6539
G01 X13.9263 Y3.6325
G01 X13.9939 Y3.6005
G01 X14.0359 Y3.5831
G01 X14.1063 Y3.5579
G01 X14.1498 Y3.5447
G01 X14.2223 Y3.5265
G01 X14.2669 Y3.5176
G01 X14.3409 Y3.5067
G01 X14.3862 Y3.5022
G01 X14.4609 Y3.4985
G01 X14.5063 Y3.4985
G01 X14.5810 Y3.5022
G01 X14.6263 Y3.5067
G01 X14.7002 Y3.5176
G01 X14.7448 Y3.5265
G01 X14.8174 Y3.5447
G01 X14.8609 Y3.5579
G01 X14.9313 Y3.5831
G01 X14.9733 Y3.6005
G01 X15.0409 Y3.6325
G01 X15.0810 Y3.6539
G01 X15.1452 Y3.6923
G01 X15.1830 Y3.7176
G01 X15.2430 Y3.7621
G01 X15.2782 Y3.7910
G01 X15.3336 Y3.8412
G01 X15.3658 Y3.8734
G01 X15.4160 Y3.9288
G01 X15.4448 Y3.9639
G01 X15.4894 Y4.0240
G01 X15.5146 Y4.0618
G01 X15.5531 Y4.1259
G01 X15.5745 Y4.1661
G01 X15.6065 Y4.2337
G01 X15.6239 Y4.2757
G01 X15.6491 Y4.3461
G01 X15.6623 Y4.3896
G01 X15.6805 Y4.4621
G01 X15.6893 Y4.5067
G01 X15.7003 Y4.5807
G01 X15.7048 Y4.6260
G01 X15.7084 Y4.7006
G01 X15.7084 Y4.7461
G01 X15.7048 Y4.8208
G01 X15.7003 Y4.8661
G01 X15.6893 Y4.9400
G01 X15.6805 Y4.9846
G01 X15.6623 Y5.0572
G01 X15.6491 Y5.1007
G01 X15.6239 Y5.1711
G01 X15.6065 Y5.2131
G01 X15.5745 Y5.2807
G01 X15.5531 Y5.3208
G01 X15.5146 Y5.3850
G01 X15.4894 Y5.4228
G01 X15.4448 Y5.4828
G01 X15.4160 Y5.5180
G01 X15.3658 Y5.5734
G01 X15.3336 Y5.6056
G01 X15.2782 Y5.6558
G01 X15.2430 Y5.6846
G01 X15.1830 Y5.7292
G01 X15.1452 Y5.7544
G01 X15.0810 Y5.7929
G01 X15.0409 Y5.8143
G01 X14.9733 Y5.8463
G01 X14.9313 Y5.8637
G01 X14.8609 Y5.8889
G01 X14.8174 Y5.9021
G01 X14.7448 Y5.9203
G01 X14.7002 Y5.9291
G01 X14.6263 Y5.9401
G01 X14.5810 Y5.9446
G01 X14.5063 Y5.9482
G01 X14.4609 Y5.9482
G01 X14.3862 Y5.9446
G01 X14.3409 Y5.9401
G01 X14.2669 Y5.9291
G01 X14.2223 Y5.9203
G01 X14.1498 Y5.9021
G01 X14.1063 Y5.8889
G01 X14.0359 Y5.8637
G01 X13.9939 Y5.8463
G01 X13.9263 Y5.8143
G01 X13.8861 Y5.7929
G01 X13.8220 Y5.7544
G01 X13.7842 Y5.7292
G01 X13.7241 Y5.6846
G01 X13.6890 Y5.6558
G01 X13.6336 Y5.6056
G01 X13.6014 Y5.5734
G01 X13.5512 Y5.5180
G01 X13.5223 Y5.4828
G01 X13.4778 Y5.4228
G01 X13.4525 Y5.3850
G01 X13.4141 Y5.3208
G01 X13.3927 Y5.2807
G01 X13.3607 Y5.2131
G01 X13.3433 Y5.1711
G01 X13.3181 Y5.1007
G01 X13.3049 Y5.0572
G01 X13.2867 Y4.9846
G01 X13.2778 Y4.9400
G01 X13.2669 Y4.8661
G01 X13.2624 Y4.8208
G01 X13.2587 Y4.7461
G00 Z2.0000
G00 X15.7987 Y4.7461
G01 F60.00
G01 Z-0.2001
G01 F320.00
G01 X15.7987 Y4.7006
G01 X15.8024 Y4.6260
G01 X15.8069 Y4.5807
G01 X15.8178 Y4.5067
G01 X15.8267 Y4.4621
G01 X15.8449 Y4.3896
G01 X15.8581 Y4.3461
G01 X15.8833 Y4.2757
G01 X15.9007 Y4.2337
G01 X15.9327 Y4.1661
G01 X15.9541 Y4.1259
G01 X15.9925 Y4.0618
G01 X16.0178 Y4.0240
G01 X16.0623 Y3.9639
G01 X16.0912 Y3.9288
G01 X16.1414 Y3.8734
G01 X16.1736 Y3.8412
G01 X16.2290 Y3.7910
G01 X16.2641 Y3.7621
G01 X16.3242 Y3.7176
G01 X16.3620 Y3.6923
G01 X16.4261 Y3.6539
G01 X16.4663 Y3.6325
G01 X16.5339 Y3.6005
G01 X16.5759 Y3.5831
G01 X16.6463 Y3.5579
G01 X16.6898 Y3.5447
G01 X16.7623 Y3.5265
G01 X16.8069 Y3.5176
G01 X16.8809 Y3.5067
G01 X16.9262 Y3.5022
G01 X17.0009 Y3.4985
G01 X17.0463 Y3.4985
G01 X17.1210 Y3.5022
G01 X17.1663 Y3.5067
G01 X17.2402 Y3.5176
G01 X17.2848 Y3.5265
G01 X17.3574 Y3.5447
G01 X17.4009 Y3.5579
G01 X17.4713 Y3.5831
G01 X17.5133 Y3.6005
G01 X17.5809 Y3.6325
G01 X17.6210 Y3.6539
G01 X17.6852 Y3.6923
G01 X17.7230 Y3.7176
G01 X17.7830 Y3.7621
G01 X17.8182 Y3.7910
G01 X17.8736 Y3.8412
G01 X17.9058 Y3.8734
G01 X17.9560 Y3.9288
G01 X17.9848 Y3.9639
G01 X18.0294 Y4.0240
G01 X18.0546 Y4.0618
G01 X18.0931 Y4.1259
G01 X18.1145 Y4.1661
G01 X18.1465 Y4.2337
G01 X18.1639 Y4.2757
G01 X18.1891 Y4.3461
G01 X18.2023 Y4.3896
G01 X18.2205 Y4.4621
G01 X18.2293 Y4.5067
G01 X18.2403 Y4.5807
G01 X18.2448 Y4.6260
G01 X18.2484 Y4.7006
G01 X18.2484 Y4.7461
G01 X18.2448 Y4.8208
G01 X18.2403 Y4.8661
G01 X18.2293 Y4.9400
G01 X18.2205 Y4.9846
G01 X18.2023 Y5.0572
G01 X18.1891 Y5.1007
G01 X18.1639 Y5.1711
G01 X18.1465 Y5.2131
G01 X18.1145 Y5.2807
G01 X18.0931 Y5.3208
G01 X18.0546 Y5.3850
G01 X18.0294 Y5.4228
G01 X17.9848 Y5.4828
G01 X17.9560 Y5.5180
G01 X17.9058 Y5.5734
G01 X17.8736 Y5.6056
G01 X17.8182 Y5.6558
G01 X17.7830 Y5.6846
G01 X17.7230 Y5.7292
G01 X17.6852 Y5.7544
G01 X17.6210 Y5.7929
G01 X17.5809 Y5.8143
G01 X17.5133 Y5.8463
G01 X17.4713 Y5.8637
G01 X17.4009 Y5.8889
G01 X17.3574 Y5.9021
G01 X17.2848 Y5.9203
G01 X17.2402 Y5.9291
G01 X17.1663 Y5.9401
G01 X17.1210 Y5.9446
G01 X17.0463 Y5.9482
G01 X17.0009 Y5.9482
G01 X16.9262 Y5.9446
G01 X16.8809 Y5.9401
G01 X16.8069 Y5.9291
G01 X16.7623 Y5.9203
G01 X16.6898 Y5.9021
G01 X16.6463 Y5.8889
G01 X16.5759 Y5.8637
G01 X16.5339 Y5.8463
G01 X16.4663 Y5.8143
G01 X16.4261 Y5.7929
G01 X16.3620 Y5.7544
G01 X16.3242 Y5.7292
G01 X16.2641 Y5.6846
G01 X16.2290 Y5.6558
G01 X16.1736 Y5.6056
G01 X16.1414 Y5.5734
G01 X16.0912 Y5.5180
G01 X16.0623 Y5.4828
G01 X16.0178 Y5.4228
G01 X15.9925 Y5.3850
G01 X15.9541 Y5.3208
G01 X15.9327 Y5.2807
G01 X15.9007 Y5.2131
G01 X15.8833 Y5.1711
G01 X15.8581 Y5.1007
G01 X15.8449 Y5.0572
G01 X15.8267 Y4.9846
G01 X15.8178 Y4.9400
G01 X15.8069 Y4.8661
G01 X15.8024 Y4.8208
G01 X15.7987 Y4.7461
G00 Z2.0000
G00 X27.2608 Y9.8261
G01 F60.00
G01 Z-0.2001
G01 F320.00
G01 X27.2608 Y9.7806
G01 X27.2704 Y9.5846
G01 X27.2748 Y9.5394
G01 X27.3036 Y9.3452
G01 X27.3125 Y9.3006
G01 X27.3602 Y9.1102
G01 X27.3734 Y9.0667
G01 X27.4395 Y8.8819
G01 X27.4569 Y8.8399
G01 X27.5408 Y8.6625
G01 X27.5623 Y8.6224
G01 X27.6632 Y8.4540
G01 X27.6884 Y8.4162
G01 X27.8054 Y8.2586
G01 X27.8342 Y8.2234
G01 X27.9660 Y8.0780
G01 X27.9982 Y8.0458
G01 X28.1436 Y7.9140
G01 X28.1788 Y7.8852
G01 X28.3364 Y7.7682
G01 X28.3742 Y7.7430
G01 X28.5426 Y7.6421
G01 X28.5827 Y7.6206
G01 X28.7601 Y7.5367
G01 X28.8021 Y7.5193
G01 X28.9869 Y7.4532
G01 X29.0304 Y7.4400
G01 X29.2208 Y7.3923
G01 X29.2654 Y7.3834
G01 X29.4596 Y7.3546
G01 X29.5048 Y7.3502
G01 X29.7009 Y7.3405
G01 X29.7463 Y7.3405
G01 X29.9424 Y7.3502
G01 X29.9876 Y7.3546
G01 X30.1818 Y7.3834
G01 X30.2264 Y7.3923
G01 X30.4168 Y7.4400
G01 X30.4603 Y7.4532
G01 X30.6451 Y7.5193
G01 X30.6871 Y7.5367
G01 X30.8645 Y7.6206
G01 X30.9046 Y7.6421
G01 X31.0730 Y7.7430
G01 X31.1108 Y7.7682
G01 X31.2684 Y7.8852
G01 X31.3036 Y7.9140
G01 X31.4490 Y8.0458
G01 X31.4812 Y8.0780
G01 X31.6130 Y8.2234
G01 X31.6418 Y8.2586
G01 X31.7587 Y8.4162
G01 X31.7840 Y8.4540
G01 X31.8849 Y8.6224
G01 X31.9063 Y8.6625
G01 X31.9902 Y8.8399
G01 X32.0077 Y8.8819
G01 X32.0738 Y9.0667
G01 X32.0870 Y9.1102
G01 X32.1347 Y9.3006
G01 X32.1435 Y9.3452
G01 X32.1723 Y9.5394
G01 X32.1768 Y9.5846
G01 X32.1864 Y9.7806
G01 X32.1864 Y9.8261
G01 X32.1768 Y10.0222
G01 X32.1723 Y10.0674
G01 X32.1435 Y10.2616
G01 X32.1347 Y10.3062
G01 X32.0870 Y10.4965
G01 X32.0738 Y10.5401
G01 X32.0077 Y10.7249
G01 X31.9902 Y10.7669
G01 X31.9063 Y10.9443
G01 X31.8849 Y10.9844
G01 X31.7840 Y11.1528
G01 X31.7587 Y11.1906
G01 X31.6418 Y11.3482
G01 X31.6130 Y11.3834
G01 X31.4812 Y11.5288
G01 X31.4490 Y11.5609
G01 X31.3036 Y11.6928
G01 X31.2684 Y11.7216
G01 X31.1108 Y11.8385
G01 X31.0730 Y11.8638
G01 X30.9046 Y11.9647
G01 X30.8645 Y11.9861
G01 X30.6871 Y12.0700
G01 X30.6451 Y12.0874
G01 X30.4603 Y12.1536
G01 X30.4168 Y12.1668
G01 X30.2264 Y12.2145
G01 X30.1818 Y12.2233
G01 X29.9876 Y12.2521
G01 X29.9424 Y12.2566
G01 X29.7463 Y12.2662
G01 X29.7009 Y12.2662
G01 X29.5048 Y12.2566
G01 X29.4596 Y12.2521
G01 X29.2654 Y12.2233
G01 X29.2208 Y12.2145
G01 X29.0304 Y12.1668
G01 X28.9869 Y12.1536
G01 X28.8021 Y12.0874
G01 X28.7601 Y12.0700
G01 X28.5827 Y11.9861
G01 X28.5426 Y11.9647
G01 X28.3742 Y11.8638
G01 X28.3364 Y11.8385
G01 X28.1788 Y11.7216
G01 X28.1436 Y11.6928
G01 X27.9982 Y11.5609
G01 X27.9660 Y11.5288
G01 X27.8342 Y11.3834
G01 X27.8054 Y11.3482
G01 X27.6884 Y11.1906
G01 X27.6632 Y11.1528
G01 X27.5623 Y10.9844
G01 X27.5408 Y10.9443
G01 X27.4569 Y10.7669
G01 X27.4395 Y10.7249
G01 X27.3734 Y10.5401
G01 X27.3602 Y10.4965
G01 X27.3125 Y10.3062
G01 X27.3036 Y10.2616
G01 X27.2748 Y10.0674
G01 X27.2704 Y10.0222
G01 X27.2608 Y9.8261
G00 Z2.0000
G00 X12.6998 Y39.3197
G01 F60.00
G01 Z-0.2001
G01 F320.00
G01 X51.6199 Y39.3197
G01 X51.6199 Y9.8034
G01 X51.6205 Y9.7806
G01 X51.6229 Y9.7316
G01 X51.6274 Y9.6864
G01 X51.6346 Y9.6378
G01 X51.6434 Y9.5932
G01 X51.6554 Y9.5456
G01 X51.6686 Y9.5021
G01 X51.6851 Y9.4558
G01 X51.7025 Y9.4138
G01 X51.7235 Y9.3694
G01 X51.7449 Y9.3293
G01 X51.7702 Y9.2872
G01 X51.7954 Y9.2494
G01 X51.8247 Y9.2100
G01 X51.8535 Y9.1748
G01 X51.8865 Y9.1385
G01 X51.9187 Y9.1063
G01 X51.9550 Y9.0733
G01 X51.9902 Y9.0445
G01 X52.0296 Y9.0152
G01 X52.0674 Y8.9900
G01 X52.1095 Y8.9647
G01 X52.1496 Y8.9433
G01 X52.1940 Y8.9223
G01 X52.2360 Y8.9049
G01 X52.2823 Y8.8884
G01 X52.3258 Y8.8752
G01 X52.3734 Y8.8632
G01 X52.4180 Y8.8544
G01 X52.4666 Y8.8472
G01 X52.5118 Y8.8427
G01 X52.5609 Y8.8403
G01 X52.5836 Y8.8397
G01 X64.5274 Y8.8397
G01 X64.5842 Y8.7976
G01 X64.6220 Y8.7723
G01 X64.6861 Y8.7339
G01 X64.7263 Y8.7125
G01 X64.7939 Y8.6805
G01 X64.8359 Y8.6631
G01 X64.9063 Y8.6379
G01 X64.9498 Y8.6247
G01 X65.0223 Y8.6065
G01 X65.0669 Y8.5976
G01 X65.1409 Y8.5867
G01 X65.1862 Y8.5822
G01 X65.2609 Y8.5785
G01 X65.3063 Y8.5785
G01 X65.3810 Y8.5822
G01 X65.4263 Y8.5867
G01 X65.5002 Y8.5976
G01 X65.5448 Y8.6065
G01 X65.6174 Y8.6247
G01 X65.6609 Y8.6379
G01 X65.7313 Y8.6631
G01 X65.7733 Y8.6805
G01 X65.8409 Y8.7125
G01 X65.8810 Y8.7339
G01 X65.9452 Y8.7723
G01 X65.9830 Y8.7976
G01 X66.0430 Y8.8421
G01 X66.0782 Y8.8710
G01 X66.1336 Y8.9212
G01 X66.1658 Y8.9534
G01 X66.2160 Y9.0088
G01 X66.2448 Y9.0439
G01 X66.2894 Y9.1040
G01 X66.3146 Y9.1418
G01 X66.3531 Y9.2059
G01 X66.3745 Y9.2461
G01 X66.4065 Y9.3137
G01 X66.4239 Y9.3557
G01 X66.4491 Y9.4261
G01 X66.4623 Y9.4696
G01 X66.4805 Y9.5421
G01 X66.4893 Y9.5867
G01 X66.5003 Y9.6607
G01 X66.5048 Y9.7060
G01 X66.5084 Y9.7806
G01 X66.5084 Y9.8261
G01 X66.5048 Y9.9008
G01 X66.5003 Y9.9461
G01 X66.4893 Y10.0200
G01 X66.4805 Y10.0646
G01 X66.4623 Y10.1372
G01 X66.4491 Y10.1807
G01 X66.4239 Y10.2511
G01 X66.4065 Y10.2931
G01 X66.3745 Y10.3607
G01 X66.3531 Y10.4008
G01 X66.3146 Y10.4650
G01 X66.2894 Y10.5028
G01 X66.2448 Y10.5628
G01 X66.2160 Y10.5980
G01 X66.1658 Y10.6534
G01 X66.1336 Y10.6856
G01 X66.0782 Y10.7358
G01 X66.0430 Y10.7646
G01 X65.9830 Y10.8092
G01 X65.9452 Y10.8344
G01 X65.8810 Y10.8729
G01 X65.8409 Y10.8943
G01 X65.7733 Y10.9263
G01 X65.7313 Y10.9437
G01 X65.6609 Y10.9689
G01 X65.6174 Y10.9821
G01 X65.5448 Y11.0003
G01 X65.5002 Y11.0091
G01 X65.4263 Y11.0201
G01 X65.3810 Y11.0246
G01 X65.3063 Y11.0282
G01 X65.2609 Y11.0282
G01 X65.1862 Y11.0246
G01 X65.1409 Y11.0201
G01 X65.0669 Y11.0091
G01 X65.0223 Y11.0003
G01 X64.9498 Y10.9821
G01 X64.9063 Y10.9689
G01 X64.8359 Y10.9437
G01 X64.7939 Y10.9263
G01 X64.7263 Y10.8943
G01 X64.6861 Y10.8729
G01 X64.6220 Y10.8344
G01 X64.5842 Y10.8092
G01 X64.5274 Y10.7670
G01 X53.5472 Y10.7670
G01 X53.5472 Y40.2834
G01 X53.5467 Y40.3061
G01 X53.5443 Y40.3552
G01 X53.5398 Y40.4004
G01 X53.5326 Y40.4490
G01 X53.5237 Y40.4936
G01 X53.5118 Y40.5412
G01 X53.4986 Y40.5847
G01 X53.4821 Y40.6309
G01 X53.4647 Y40.6729
G01 X53.4437 Y40.7173
G01 X53.4222 Y40.7574
G01 X53.3970 Y40.7995
G01 X53.3717 Y40.8374
G01 X53.3425 Y40.8768
G01 X53.3136 Y40.9119
G01 X53.2807 Y40.9483
G01 X53.2485 Y40.9805
G01 X53.2121 Y41.0134
G01 X53.1770 Y41.0423
G01 X53.1376 Y41.0715
G01 X53.0997 Y41.0968
G01 X53.0576 Y41.1220
G01 X53.0175 Y41.1435
G01 X52.9732 Y41.1645
G01 X52.9311 Y41.1819
G01 X52.8849 Y41.1984
G01 X52.8414 Y41.2116
G01 X52.7938 Y41.2235
G01 X52.7492 Y41.2324
G01 X52.7006 Y41.2396
G01 X52.6554 Y41.2441
G01 X52.6063 Y41.2465
G01 X52.5836 Y41.2470
G01 X12.6998 Y41.2470
G01 X12.6430 Y41.2892
G01 X12.6052 Y41.3144
G01 X12.5410 Y41.3529
G01 X12.5009 Y41.3743
G01 X12.4333 Y41.4063
G01 X12.3913 Y41.4237
G01 X12.3209 Y41.4489
G01 X12.2774 Y41.4621
G01 X12.2048 Y41.4803
G01 X12.1602 Y41.4891
G01 X12.0863 Y41.5001
G01 X12.0410 Y41.5046
G01 X11.9663 Y41.5082
G01 X11.9209 Y41.5082
G01 X11.8462 Y41.5046
G01 X11.8009 Y41.5001
G01 X11.7269 Y41.4891
G01 X11.6823 Y41.4803
G01 X11.6098 Y41.4621
G01 X11.5663 Y41.4489
G01 X11.4959 Y41.4237
G01 X11.4539 Y41.4063
G01 X11.3863 Y41.3743
G01 X11.3461 Y41.3529
G01 X11.2820 Y41.3144
G01 X11.2442 Y41.2892
G01 X11.1841 Y41.2446
G01 X11.1490 Y41.2158
G01 X11.0936 Y41.1656
G01 X11.0614 Y41.1334
G01 X11.0112 Y41.0780
G01 X10.9823 Y41.0428
G01 X10.9378 Y40.9828
G01 X10.9125 Y40.9450
G01 X10.8741 Y40.8808
G01 X10.8527 Y40.8407
G01 X10.8207 Y40.7731
G01 X10.8033 Y40.7311
G01 X10.7781 Y40.6607
G01 X10.7649 Y40.6172
G01 X10.7467 Y40.5446
G01 X10.7378 Y40.5000
G01 X10.7269 Y40.4261
G01 X10.7224 Y40.3808
G01 X10.7187 Y40.3061
G01 X10.7187 Y40.2606
G01 X10.7224 Y40.1860
G01 X10.7269 Y40.1407
G01 X10.7378 Y40.0667
G01 X10.7467 Y40.0221
G01 X10.7649 Y39.9496
G01 X10.7781 Y39.9061
G01 X10.8033 Y39.8357
G01 X10.8207 Y39.7937
G01 X10.8527 Y39.7261
G01 X10.8741 Y39.6859
G01 X10.9125 Y39.6218
G01 X10.9378 Y39.5840
G01 X10.9823 Y39.5239
G01 X11.0112 Y39.4888
G01 X11.0614 Y39.4334
G01 X11.0936 Y39.4012
G01 X11.1490 Y39.3510
G01 X11.1841 Y39.3221
G01 X11.2442 Y39.2776
G01 X11.2820 Y39.2523
G01 X11.3461 Y39.2139
G01 X11.3863 Y39.1925
G01 X11.4539 Y39.1605
G01 X11.4959 Y39.1431
G01 X11.5663 Y39.1179
G01 X11.6098 Y39.1047
G01 X11.6823 Y39.0865
G01 X11.7269 Y39.0776
G01 X11.8009 Y39.0667
G01 X11.8462 Y39.0622
G01 X11.9209 Y39.0585
G01 X11.9663 Y39.0585
G01 X12.0410 Y39.0622
G01 X12.0863 Y39.0667
G01 X12.1602 Y39.0776
G01 X12.2048 Y39.0865
G01 X12.2774 Y39.1047
G01 X12.3209 Y39.1179
G01 X12.3913 Y39.1431
G01 X12.4333 Y39.1605
G01 X12.5009 Y39.1925
G01 X12.5410 Y39.2139
G01 X12.6052 Y39.2523
G01 X12.6430 Y39.2776
G01 X12.6998 Y39.3197
G00 Z2.0000
G00 X5.8999 Y39.5272
G01 F60.00
G01 Z-0.2001
G01 F320.00
G01 X5.8999 Y5.4796
G01 X5.8578 Y5.4228
G01 X5.8325 Y5.3850
G01 X5.7941 Y5.3208
G01 X5.7727 Y5.2807
G01 X5.7407 Y5.2131
G01 X5.7233 Y5.1711
G01 X5.6981 Y5.1007
G01 X5.6849 Y5.0572
G01 X5.6667 Y4.9846
G01 X5.6578 Y4.9400
G01 X5.6469 Y4.8661
G01 X5.6424 Y4.8208
G01 X5.6387 Y4.7461
G01 X5.6387 Y4.7006
G01 X5.6424 Y4.6260
G01 X5.6469 Y4.5807
G01 X5.6578 Y4.5067
G01 X5.6667 Y4.4621
G01 X5.6849 Y4.3896
G01 X5.6981 Y4.3461
G01 X5.7233 Y4.2757
G01 X5.7407 Y4.2337
G01 X5.7727 Y4.1661
G01 X5.7941 Y4.1259
G01 X5.8325 Y4.0618
G01 X5.8578 Y4.0240
G01 X5.9023 Y3.9639
G01 X5.9312 Y3.9288
G01 X5.9814 Y3.8734
G01 X6.0136 Y3.8412
G01 X6.0690 Y3.7910
G01 X6.1041 Y3.7621
G01 X6.1642 Y3.7176
G01 X6.2020 Y3.6923
G01 X6.2661 Y3.6539
G01 X6.3063 Y3.6325
G01 X6.3739 Y3.6005
G01 X6.4159 Y3.5831
G01 X6.4863 Y3.5579
G01 X6.5298 Y3.5447
G01 X6.6023 Y3.5265
G01 X6.6469 Y3.5176
G01 X6.7209 Y3.5067
G01 X6.7662 Y3.5022
G01 X6.8409 Y3.4985
G01 X6.8863 Y3.4985
G01 X6.9610 Y3.5022
G01 X7.0063 Y3.5067
G01 X7.0802 Y3.5176
G01 X7.1248 Y3.5265
G01 X7.1974 Y3.5447
G01 X7.2409 Y3.5579
G01 X7.3113 Y3.5831
G01 X7.3533 Y3.6005
G01 X7.4209 Y3.6325
G01 X7.4610 Y3.6539
G01 X7.5252 Y3.6923
G01 X7.5630 Y3.7176
G01 X7.6230 Y3.7621
G01 X7.6582 Y3.7910
G01 X7.7136 Y3.8412
G01 X7.7458 Y3.8734
G01 X7.7960 Y3.9288
G01 X7.8248 Y3.9639
G01 X7.8694 Y4.0240
G01 X7.8946 Y4.0618
G01 X7.9331 Y4.1259
G01 X7.9545 Y4.1661
G01 X7.9865 Y4.2337
G01 X8.0039 Y4.2757
G01 X8.0291 Y4.3461
G01 X8.0423 Y4.3896
G01 X8.0605 Y4.4621
G01 X8.0693 Y4.5067
G01 X8.0803 Y4.5807
G01 X8.0848 Y4.6260
G01 X8.0884 Y4.7006
G01 X8.0884 Y4.7461
G01 X8.0848 Y4.8208
G01 X8.0803 Y4.8661
G01 X8.0693 Y4.9400
G01 X8.0605 Y4.9846
G01 X8.0423 Y5.0572
G01 X8.0291 Y5.1007
G01 X8.0039 Y5.1711
G01 X7.9865 Y5.2131
G01 X7.9545 Y5.2807
G01 X7.9331 Y5.3208
G01 X7.8946 Y5.3850
G01 X7.8694 Y5.4228
G01 X7.8272 Y5.4796
G01 X7.8272 Y39.5272
G01 X7.8694 Y39.5840
G01 X7.8946 Y39.6218
G01 X7.9331 Y39.6859
G01 X7.9545 Y39.7261
G01 X7.9865 Y39.7937
G01 X8.0039 Y39.8357
G01 X8.0291 Y39.9061
G01 X8.0423 Y39.9496
G01 X8.0605 Y40.0221
G01 X8.0693 Y40.0667
G01 X8.0803 Y40.1407
G01 X8.0848 Y40.1860
G01 X8.0884 Y40.2606
G01 X8.0884 Y40.3061
G01 X8.0848 Y40.3808
G01 X8.0803 Y40.4261
G01 X8.0693 Y40.5000
G01 X8.0605 Y40.5446
G01 X8.0423 Y40.6172
G01 X8.0291 Y40.6607
G01 X8.0039 Y40.7311
G01 X7.9865 Y40.7731
G01 X7.9545 Y40.8407
G01 X7.9331 Y40.8808
G01 X7.8946 Y40.9450
G01 X7.8694 Y40.9828
G01 X7.8272 Y41.0396
G01 X7.8272 Y59.8472
G01 X7.8694 Y59.9040
G01 X7.8946 Y59.9418
G01 X7.9331 Y60.0059
G01 X7.9545 Y60.0461
G01 X7.9865 Y60.1137
G01 X8.0039 Y60.1557
G01 X8.0291 Y60.2261
G01 X8.0423 Y60.2696
G01 X8.0605 Y60.3421
G01 X8.0693 Y60.3867
G01 X8.0803 Y60.4607
G01 X8.0848 Y60.5060
G01 X8.0884 Y60.5806
G01 X8.0884 Y60.6261
G01 X8.0848 Y60.7008
G01 X8.0803 Y60.7461
G01 X8.0693 Y60.8200
G01 X8.0605 Y60.8646
G01 X8.0423 Y60.9372
G01 X8.0291 Y60.9807
G01 X8.0039 Y61.0511
G01 X7.9865 Y61.0931
G01 X7.9545 Y61.1607
G01 X7.9331 Y61.2008
G01 X7.8946 Y61.2650
G01 X7.8694 Y61.3028
G01 X7.8272 Y61.3596
G01 X7.8272 Y77.6272
G01 X7.8694 Y77.6840
G01 X7.8946 Y77.7218
G01 X7.9331 Y77.7859
G01 X7.9545 Y77.8261
G01 X7.9865 Y77.8937
G01 X8.0039 Y77.9357
G01 X8.0291 Y78.0061
G01 X8.0423 Y78.0496
G01 X8.0605 Y78.1221
G01 X8.0693 Y78.1667
G01 X8.0803 Y78.2407
G01 X8.0848 Y78.2860
G01 X8.0884 Y78.3606
G01 X8.0884 Y78.4061
G01 X8.0848 Y78.4808
G01 X8.0803 Y78.5261
G01 X8.0693 Y78.6000
G01 X8.0605 Y78.6446
G01 X8.0423 Y78.7172
G01 X8.0291 Y78.7607
G01 X8.0039 Y78.8311
G01 X7.9865 Y78.8731
G01 X7.9545 Y78.9407
G01 X7.9331 Y78.9808
G01 X7.8946 Y79.0450
G01 X7.8694 Y79.0828
G01 X7.8272 Y79.1396
G01 X7.8272 Y95.4072
G01 X7.8694 Y95.4640
G01 X7.8946 Y95.5018
G01 X7.9331 Y95.5659
G01 X7.9545 Y95.6061
G01 X7.9865 Y95.6737
G01 X8.0039 Y95.7157
G01 X8.0291 Y95.7861
G01 X8.0423 Y95.8296
G01 X8.0605 Y95.9021
G01 X8.0693 Y95.9467
G01 X8.0803 Y96.0207
G01 X8.0848 Y96.0660
G01 X8.0884 Y96.1406
G01 X8.0884 Y96.1861
G01 X8.0848 Y96.2608
G01 X8.0803 Y96.3061
G01 X8.0693 Y96.3800
G01 X8.0605 Y96.4246
G01 X8.0423 Y96.4972
G01 X8.0291 Y96.5407
G01 X8.0039 Y96.6111
G01 X7.9865 Y96.6531
G01 X7.9545 Y96.7207
G01 X7.9331 Y96.7608
G01 X7.8946 Y96.8250
G01 X7.8694 Y96.8628
G01 X7.8248 Y96.9228
G01 X7.7960 Y96.9580
G01 X7.7458 Y97.0134
G01 X7.7136 Y97.0456
G01 X7.6582 Y97.0958
G01 X7.6230 Y97.1246
G01 X7.5630 Y97.1692
G01 X7.5252 Y97.1944
G01 X7.4610 Y97.2329
G01 X7.4209 Y97.2543
G01 X7.3533 Y97.2863
G01 X7.3113 Y97.3037
G01 X7.2409 Y97.3289
G01 X7.1974 Y97.3421
G01 X7.1248 Y97.3603
G01 X7.0802 Y97.3691
G01 X7.0063 Y97.3801
G01 X6.9610 Y97.3846
G01 X6.8863 Y97.3882
G01 X6.8409 Y97.3882
G01 X6.7662 Y97.3846
G01 X6.7209 Y97.3801
G01 X6.6469 Y97.3691
G01 X6.6023 Y97.3603
G01 X6.5298 Y97.3421
G01 X6.4863 Y97.3289
G01 X6.4159 Y97.3037
G01 X6.3739 Y97.2863
G01 X6.3063 Y97.2543
G01 X6.2661 Y97.2329
G01 X6.2020 Y97.1944
G01 X6.1642 Y97.1692
G01 X6.1041 Y97.1246
G01 X6.0690 Y97.0958
G01 X6.0136 Y97.0456
G01 X5.9814 Y97.0134
G01 X5.9312 Y96.9580
G01 X5.9023 Y96.9228
G01 X5.8578 Y96.8628
G01 X5.8325 Y96.8250
G01 X5.7941 Y96.7608
G01 X5.7727 Y96.7207
G01 X5.7407 Y96.6531
G01 X5.7233 Y96.6111
G01 X5.6981 Y96.5407
G01 X5.6849 Y96.4972
G01 X5.6667 Y96.4246
G01 X5.6578 Y96.3800
G01 X5.6469 Y96.3061
G01 X5.6424 Y96.2608
G01 X5.6387 Y96.1861
G01 X5.6387 Y96.1406
G01 X5.6424 Y96.0660
G01 X5.6469 Y96.0207
G01 X5.6578 Y95.9467
G01 X5.6667 Y95.9021
G01 X5.6849 Y95.8296
G01 X5.6981 Y95.7861
G01 X5.7233 Y95.7157
G01 X5.7407 Y95.6737
G01 X5.7727 Y95.6061
G01 X5.7941 Y95.5659
G01 X5.8325 Y95.5018
G01 X5.8578 Y95.4640
G01 X5.8999 Y95.4072
G01 X5.8999 Y79.1396
G01 X5.8578 Y79.0828
G01 X5.8325 Y79.0450
G01 X5.7941 Y78.9808
G01 X5.7727 Y78.9407
G01 X5.7407 Y78.8731
G01 X5.7233 Y78.8311
G01 X5.6981 Y78.7607
G01 X5.6849 Y78.7172
G01 X5.6667 Y78.6446
G01 X5.6578 Y78.6000
G01 X5.6469 Y78.5261
G01 X5.6424 Y78.4808
G01 X5.6387 Y78.4061
G01 X5.6387 Y78.3606
G01 X5.6424 Y78.2860
G01 X5.6469 Y78.2407
G01 X5.6578 Y78.1667
G01 X5.6667 Y78.1221
G01 X5.6849 Y78.0496
G01 X5.6981 Y78.0061
G01 X5.7233 Y77.9357
G01 X5.7407 Y77.8937
G01 X5.7727 Y77.8261
G01 X5.7941 Y77.7859
G01 X5.8325 Y77.7218
G01 X5.8578 Y77.6840
G01 X5.8999 Y77.6272
G01 X5.8999 Y61.3596
G01 X5.8578 Y61.3028
G01 X5.8325 Y61.2650
G01 X5.7941 Y61.2008
G01 X5.7727 Y61.1607
G01 X5.7407 Y61.0931
G01 X5.7233 Y61.0511
G01 X5.6981 Y60.9807
G01 X5.6849 Y60.9372
G01 X5.6667 Y60.8646
G01 X5.6578 Y60.8200
G01 X5.6469 Y60.7461
G01 X5.6424 Y60.7008
G01 X5.6387 Y60.6261
G01 X5.6387 Y60.5806
G01 X5.6424 Y60.5060
G01 X5.6469 Y60.4607
G01 X5.6578 Y60.3867
G01 X5.6667 Y60.3421
G01 X5.6849 Y60.2696
G01 X5.6981 Y60.2261
G01 X5.7233 Y60.1557
G01 X5.7407 Y60.1137
G01 X5.7727 Y60.0461
G01 X5.7941 Y60.0059
G01 X5.8325 Y59.9418
G01 X5.8578 Y59.9040
G01 X5.8999 Y59.8472
G01 X5.8999 Y41.0396
G01 X5.8578 Y40.9828
G01 X5.8325 Y40.9450
G01 X5.7941 Y40.8808
G01 X5.7727 Y40.8407
G01 X5.7407 Y40.7731
G01 X5.7233 Y40.7311
G01 X5.6981 Y40.6607
G01 X5.6849 Y40.6172
G01 X5.6667 Y40.5446
G01 X5.6578 Y40.5000
G01 X5.6469 Y40.4261
G01 X5.6424 Y40.3808
G01 X5.6387 Y40.3061
G01 X5.6387 Y40.2606
G01 X5.6424 Y40.1860
G01 X5.6469 Y40.1407
G01 X5.6578 Y40.0667
G01 X5.6667 Y40.0221
G01 X5.6849 Y39.9496
G01 X5.6981 Y39.9061
G01 X5.7233 Y39.8357
G01 X5.7407 Y39.7937
G01 X5.7727 Y39.7261
G01 X5.7941 Y39.6859
G01 X5.8325 Y39.6218
G01 X5.8578 Y39.5840
G01 X5.8999 Y39.5272
G00 Z2.0000
G00 X22.8598 Y59.6397
G01 F60.00
G01 Z-0.2001
G01 F320.00
G01 X69.6074 Y59.6397
G01 X69.6642 Y59.5976
G01 X69.7020 Y59.5723
G01 X69.7661 Y59.5339
G01 X69.8063 Y59.5125
G01 X69.8739 Y59.4805
G01 X69.9159 Y59.4631
G01 X69.9863 Y59.4379
G01 X70.0298 Y59.4247
G01 X70.1023 Y59.4065
G01 X70.1469 Y59.3976
G01 X70.2209 Y59.3867
G01 X70.2662 Y59.3822
G01 X70.3409 Y59.3785
G01 X70.3863 Y59.3785
G01 X70.4610 Y59.3822
G01 X70.5063 Y59.3867
G01 X70.5802 Y59.3976
G01 X70.6248 Y59.4065
G01 X70.6974 Y59.4247
G01 X70.7409 Y59.4379
G01 X70.8113 Y59.4631
G01 X70.8533 Y59.4805
G01 X70.9209 Y59.5125
G01 X70.9610 Y59.5339
G01 X71.0252 Y59.5723
G01 X71.0630 Y59.5976
G01 X71.1198 Y59.6397
G01 X87.3874 Y59.6397
G01 X87.4442 Y59.5976
G01 X87.4820 Y59.5723
G01 X87.5461 Y59.5339
G01 X87.5863 Y59.5125
G01 X87.6539 Y59.4805
G01 X87.6959 Y59.4631
G01 X87.7663 Y59.4379
G01 X87.8098 Y59.4247
G01 X87.8823 Y59.4065
G01 X87.9269 Y59.3976
G01 X88.0009 Y59.3867
G01 X88.0462 Y59.3822
G01 X88.1209 Y59.3785
G01 X88.1663 Y59.3785
G01 X88.2410 Y59.3822
G01 X88.2863 Y59.3867
G01 X88.3602 Y59.3976
G01 X88.4048 Y59.4065
G01 X88.4774 Y59.4247
G01 X88.5209 Y59.4379
G01 X88.5913 Y59.4631
G01 X88.6333 Y59.4805
G01 X88.7009 Y59.5125
G01 X88.7410 Y59.5339
G01 X88.8052 Y59.5723
G01 X88.8430 Y59.5976
G01 X88.9030 Y59.6421
G01 X88.9382 Y59.6710
G01 X88.9936 Y59.7212
G01 X89.0258 Y59.7534
G01 X89.0760 Y59.8088
G01 X89.1048 Y59.8439
G01 X89.1494 Y59.9040
G01 X89.1746 Y59.9418
G01 X89.2131 Y60.0059
G01 X89.2345 Y60.0461
G01 X89.2665 Y60.1137
G01 X89.2839 Y60.1557
G01 X89.3091 Y60.2261
G01 X89.3223 Y60.2696
G01 X89.3405 Y60.3421
G01 X89.3493 Y60.3867
G01 X89.3603 Y60.4607
G01 X89.3648 Y60.5060
G01 X89.3684 Y60.5806
G01 X89.3684 Y60.6261
G01 X89.3648 Y60.7008
G01 X89.3603 Y60.7461
G01 X89.3493 Y60.8200
G01 X89.3405 Y60.8646
G01 X89.3223 Y60.9372
G01 X89.3091 Y60.9807
G01 X89.2839 Y61.0511
G01 X89.2665 Y61.0931
G01 X89.2345 Y61.1607
G01 X89.2131 Y61.2008
G01 X89.1746 Y61.2650
G01 X89.1494 Y61.3028
G01 X89.1048 Y61.3628
G01 X89.0760 Y61.3980
G01 X89.0258 Y61.4534
G01 X88.9936 Y61.4856
G01 X88.9382 Y61.5358
G01 X88.9030 Y61.5646
G01 X88.8430 Y61.6092
G01 X88.8052 Y61.6344
G01 X88.7410 Y61.6729
G01 X88.7009 Y61.6943
G01 X88.6333 Y61.7263
G01 X88.5913 Y61.7437
G01 X88.5209 Y61.7689
G01 X88.4774 Y61.7821
G01 X88.4048 Y61.8003
G01 X88.3602 Y61.8091
G01 X88.2863 Y61.8201
G01 X88.2410 Y61.8246
G01 X88.1663 Y61.8282
G01 X88.1209 Y61.8282
G01 X88.0462 Y61.8246
G01 X88.0009 Y61.8201
G01 X87.9269 Y61.8091
G01 X87.8823 Y61.8003
G01 X87.8098 Y61.7821
G01 X87.7663 Y61.7689
G01 X87.6959 Y61.7437
G01 X87.6539 Y61.7263
G01 X87.5863 Y61.6943
G01 X87.5461 Y61.6729
G01 X87.4820 Y61.6344
G01 X87.4442 Y61.6092
G01 X87.3874 Y61.5670
G01 X81.4872 Y61.5670
G01 X81.4872 Y62.0616
G01 X81.5318 Y62.0751
G01 X81.5928 Y62.0969
G01 X81.6348 Y62.1143
G01 X81.6934 Y62.1421
G01 X81.7335 Y62.1635
G01 X81.7891 Y62.1968
G01 X81.8269 Y62.2221
G01 X81.8790 Y62.2607
G01 X81.9141 Y62.2895
G01 X81.9622 Y62.3331
G01 X81.9943 Y62.3652
G01 X82.0378 Y62.4132
G01 X82.0667 Y62.4484
G01 X82.1053 Y62.5004
G01 X82.1306 Y62.5383
G01 X82.1639 Y62.5938
G01 X82.1853 Y62.6339
G01 X82.2130 Y62.6925
G01 X82.2304 Y62.7345
G01 X82.2523 Y62.7956
G01 X82.2655 Y62.8391
G01 X82.2812 Y62.9019
G01 X82.2901 Y62.9466
G01 X82.2996 Y63.0107
G01 X82.3040 Y63.0559
G01 X82.3072 Y63.1206
G01 X82.3072 Y63.1661
G01 X82.3040 Y63.2309
G01 X82.2996 Y63.2761
G01 X82.2901 Y63.3402
G01 X82.2812 Y63.3848
G01 X82.2655 Y63.4477
G01 X82.2523 Y63.4912
G01 X82.2304 Y63.5522
G01 X82.2130 Y63.5942
G01 X82.1853 Y63.6528
G01 X82.1639 Y63.6929
G01 X82.1306 Y63.7485
G01 X82.1053 Y63.7863
G01 X82.0667 Y63.8384
G01 X82.0378 Y63.8735
G01 X81.9943 Y63.9216
G01 X81.9622 Y63.9537
G01 X81.9141 Y63.9972
G01 X81.8790 Y64.0261
G01 X81.8269 Y64.0647
G01 X81.7891 Y64.0900
G01 X81.7335 Y64.1233
G01 X81.6934 Y64.1447
G01 X81.6348 Y64.1724
G01 X81.5928 Y64.1898
G01 X81.5318 Y64.2117
G01 X81.4883 Y64.2249
G01 X81.4254 Y64.2406
G01 X81.3808 Y64.2495
G01 X81.3167 Y64.2590
G01 X81.2715 Y64.2634
G01 X81.2067 Y64.2666
G01 X81.1840 Y64.2672
G01 X79.8632 Y64.2672
G01 X79.8405 Y64.2666
G01 X79.7757 Y64.2634
G01 X79.7305 Y64.2590
G01 X79.6664 Y64.2495
G01 X79.6218 Y64.2406
G01 X79.5589 Y64.2249
G01 X79.5154 Y64.2117
G01 X79.4544 Y64.1898
G01 X79.4123 Y64.1724
G01 X79.3537 Y64.1447
G01 X79.3136 Y64.1233
G01 X79.2865 Y64.1070
G01 X69.0606 Y64.1070
G01 X69.0335 Y64.1233
G01 X68.9934 Y64.1447
G01 X68.9348 Y64.1724
G01 X68.8928 Y64.1898
G01 X68.8318 Y64.2117
G01 X68.7883 Y64.2249
G01 X68.7254 Y64.2406
G01 X68.6808 Y64.2495
G01 X68.6167 Y64.2590
G01 X68.5715 Y64.2634
G01 X68.5067 Y64.2666
G01 X68.4840 Y64.2672
G01 X67.1632 Y64.2672
G01 X67.1405 Y64.2666
G01 X67.0757 Y64.2634
G01 X67.0305 Y64.2590
G01 X66.9664 Y64.2495
G01 X66.9218 Y64.2406
G01 X66.8589 Y64.2249
G01 X66.8154 Y64.2117
G01 X66.7544 Y64.1898
G01 X66.7123 Y64.1724
G01 X66.6537 Y64.1447
G01 X66.6136 Y64.1233
G01 X66.5581 Y64.0900
G01 X66.5202 Y64.0647
G01 X66.4682 Y64.0261
G01 X66.4330 Y63.9972
G01 X66.3850 Y63.9537
G01 X66.3529 Y63.9216
G01 X66.3093 Y63.8735
G01 X66.2805 Y63.8384
G01 X66.2419 Y63.7863
G01 X66.2166 Y63.7485
G01 X66.1833 Y63.6929
G01 X66.1619 Y63.6528
G01 X66.1342 Y63.5942
G01 X66.1167 Y63.5522
G01 X66.0949 Y63.4912
G01 X66.0817 Y63.4477
G01 X66.0660 Y63.3848
G01 X66.0571 Y63.3402
G01 X66.0476 Y63.2761
G01 X66.0431 Y63.2309
G01 X66.0399 Y63.1661
G01 X66.0399 Y63.1206
G01 X66.0431 Y63.0559
G01 X66.0476 Y63.0107
G01 X66.0571 Y62.9466
G01 X66.0660 Y62.9019
G01 X66.0817 Y62.8391
G01 X66.0949 Y62.7956
G01 X66.1167 Y62.7345
G01 X66.1342 Y62.6925
G01 X66.1619 Y62.6339
G01 X66.1833 Y62.5938
G01 X66.2166 Y62.5383
G01 X66.2419 Y62.5004
G01 X66.2805 Y62.4484
G01 X66.3093 Y62.4132
G01 X66.3529 Y62.3652
G01 X66.3850 Y62.3331
G01 X66.4330 Y62.2895
G01 X66.4682 Y62.2607
G01 X66.5202 Y62.2221
G01 X66.5581 Y62.1968
G01 X66.6136 Y62.1635
G01 X66.6537 Y62.1421
G01 X66.7123 Y62.1143
G01 X66.7544 Y62.0969
G01 X66.8154 Y62.0751
G01 X66.8599 Y62.0616
G01 X66.8599 Y61.5670
G01 X22.8598 Y61.5670
G01 X22.8030 Y61.6092
G01 X22.7652 Y61.6344
G01 X22.7010 Y61.6729
G01 X22.6609 Y61.6943
G01 X22.5933 Y61.7263
G01 X22.5513 Y61.7437
G01 X22.4809 Y61.7689
G01 X22.4374 Y61.7821
G01 X22.3648 Y61.8003
G01 X22.3202 Y61.8091
G01 X22.2463 Y61.8201
G01 X22.2010 Y61.8246
G01 X22.1263 Y61.8282
G01 X22.0809 Y61.8282
G01 X22.0062 Y61.8246
G01 X21.9609 Y61.8201
G01 X21.8869 Y61.8091
G01 X21.8423 Y61.8003
G01 X21.7698 Y61.7821
G01 X21.7263 Y61.7689
G01 X21.6559 Y61.7437
G01 X21.6139 Y61.7263
G01 X21.5463 Y61.6943
G01 X21.5061 Y61.6729
G01 X21.4420 Y61.6344
G01 X21.4042 Y61.6092
G01 X21.3441 Y61.5646
G01 X21.3090 Y61.5358
G01 X21.2536 Y61.4856
G01 X21.2214 Y61.4534
G01 X21.1712 Y61.3980
G01 X21.1423 Y61.3628
G01 X21.0978 Y61.3028
G01 X21.0725 Y61.2650
G01 X21.0341 Y61.2008
G01 X21.0127 Y61.1607
G01 X20.9807 Y61.0931
G01 X20.9633 Y61.0511
G01 X20.9381 Y60.9807
G01 X20.9249 Y60.9372
G01 X20.9067 Y60.8646
G01 X20.8978 Y60.8200
G01 X20.8869 Y60.7461
G01 X20.8824 Y60.7008
G01 X20.8787 Y60.6261
G01 X20.8787 Y60.5806
G01 X20.8824 Y60.5060
G01 X20.8869 Y60.4607
G01 X20.8978 Y60.3867
G01 X20.9067 Y60.3421
G01 X20.9249 Y60.2696
G01 X20.9381 Y60.2261
G01 X20.9633 Y60.1557
G01 X20.9807 Y60.1137
G01 X21.0127 Y60.0461
G01 X21.0341 Y60.0059
G01 X21.0725 Y59.9418
G01 X21.0978 Y59.9040
G01 X21.1423 Y59.8439
G01 X21.1712 Y59.8088
G01 X21.2214 Y59.7534
G01 X21.2536 Y59.7212
G01 X21.3090 Y59.6710
G01 X21.3441 Y59.6421
G01 X21.4042 Y59.5976
G01 X21.4420 Y59.5723
G01 X21.5061 Y59.5339
G01 X21.5463 Y59.5125
G01 X21.6139 Y59.4805
G01 X21.6559 Y59.4631
G01 X21.7263 Y59.4379
G01 X21.7698 Y59.4247
G01 X21.8423 Y59.4065
G01 X21.8869 Y59.3976
G01 X21.9609 Y59.3867
G01 X22.0062 Y59.3822
G01 X22.0809 Y59.3785
G01 X22.1263 Y59.3785
G01 X22.2010 Y59.3822
G01 X22.2463 Y59.3867
G01 X22.3202 Y59.3976
G01 X22.3648 Y59.4065
G01 X22.4374 Y59.4247
G01 X22.4809 Y59.4379
G01 X22.5513 Y59.4631
G01 X22.5933 Y59.4805
G01 X22.6609 Y59.5125
G01 X22.7010 Y59.5339
G01 X22.7652 Y59.5723
G01 X22.8030 Y59.5976
G01 X22.8598 Y59.6397
G00 Z2.0000
G00 X22.8598 Y62.1797
G01 F60.00
G01 Z-0.2001
G01 F320.00
G01 X61.5065 Y62.1797
G01 X61.5336 Y62.1635
G01 X61.5737 Y62.1421
G01 X61.6323 Y62.1143
G01 X61.6744 Y62.0969
G01 X61.7354 Y62.0751
G01 X61.7789 Y62.0619
G01 X61.8418 Y62.0462
G01 X61.8864 Y62.0373
G01 X61.9505 Y62.0278
G01 X61.9957 Y62.0233
G01 X62.0605 Y62.0201
G01 X62.0832 Y62.0196
G01 X63.4040 Y62.0196
G01 X63.4267 Y62.0201
G01 X63.4915 Y62.0233
G01 X63.5367 Y62.0278
G01 X63.6008 Y62.0373
G01 X63.6454 Y62.0462
G01 X63.7083 Y62.0619
G01 X63.7518 Y62.0751
G01 X63.8128 Y62.0969
G01 X63.8548 Y62.1143
G01 X63.9134 Y62.1421
G01 X63.9535 Y62.1635
G01 X64.0091 Y62.1968
G01 X64.0469 Y62.2221
G01 X64.0990 Y62.2607
G01 X64.1341 Y62.2895
G01 X64.1822 Y62.3331
G01 X64.2143 Y62.3652
G01 X64.2578 Y62.4132
G01 X64.2867 Y62.4484
G01 X64.3253 Y62.5004
G01 X64.3506 Y62.5383
G01 X64.3839 Y62.5938
G01 X64.4053 Y62.6339
G01 X64.4330 Y62.6925
G01 X64.4504 Y62.7345
G01 X64.4723 Y62.7956
G01 X64.4855 Y62.8391
G01 X64.5012 Y62.9019
G01 X64.5101 Y62.9466
G01 X64.5196 Y63.0107
G01 X64.5240 Y63.0559
G01 X64.5272 Y63.1206
G01 X64.5272 Y63.1661
G01 X64.5240 Y63.2309
G01 X64.5196 Y63.2761
G01 X64.5101 Y63.3402
G01 X64.5012 Y63.3848
G01 X64.4855 Y63.4477
G01 X64.4723 Y63.4912
G01 X64.4504 Y63.5522
G01 X64.4330 Y63.5942
G01 X64.4053 Y63.6528
G01 X64.3839 Y63.6929
G01 X64.3506 Y63.7485
G01 X64.3253 Y63.7863
G01 X64.2867 Y63.8384
G01 X64.2578 Y63.8735
G01 X64.2143 Y63.9216
G01 X64.1822 Y63.9537
G01 X64.1341 Y63.9972
G01 X64.0990 Y64.0261
G01 X64.0469 Y64.0647
G01 X64.0091 Y64.0900
G01 X63.9535 Y64.1233
G01 X63.9134 Y64.1447
G01 X63.8548 Y64.1724
G01 X63.8128 Y64.1898
G01 X63.7518 Y64.2117
G01 X63.7083 Y64.2249
G01 X63.6454 Y64.2406
G01 X63.6008 Y64.2495
G01 X63.5367 Y64.2590
G01 X63.4915 Y64.2634
G01 X63.4267 Y64.2666
G01 X63.4040 Y64.2672
G01 X62.0832 Y64.2672
G01 X62.0605 Y64.2666
G01 X61.9957 Y64.2634
G01 X61.9505 Y64.2590
G01 X61.8864 Y64.2495
G01 X61.8418 Y64.2406
G01 X61.7789 Y64.2249
G01 X61.7354 Y64.2117
G01 X61.6744 Y64.1898
G01 X61.6323 Y64.1724
G01 X61.5737 Y64.1447
G01 X61.5336 Y64.1233
G01 X61.5065 Y64.1070
G01 X22.8598 Y64.1070
G01 X22.8030 Y64.1492
G01 X22.7652 Y64.1744
G01 X22.7010 Y64.2129
G01 X22.6609 Y64.2343
G01 X22.5933 Y64.2663
G01 X22.5513 Y64.2837
G01 X22.4809 Y64.3089
G01 X22.4374 Y64.3221
G01 X22.3648 Y64.3403
G01 X22.3202 Y64.3491
G01 X22.2463 Y64.3601
G01 X22.2010 Y64.3646
G01 X22.1263 Y64.3682
G01 X22.0809 Y64.3682
G01 X22.0062 Y64.3646
G01 X21.9609 Y64.3601
G01 X21.8869 Y64.3491
G01 X21.8423 Y64.3403
G01 X21.7698 Y64.3221
G01 X21.7263 Y64.3089
G01 X21.6559 Y64.2837
G01 X21.6139 Y64.2663
G01 X21.5463 Y64.2343
G01 X21.5061 Y64.2129
G01 X21.4420 Y64.1744
G01 X21.4042 Y64.1492
G01 X21.3441 Y64.1046
G01 X21.3090 Y64.0758
G01 X21.2536 Y64.0256
G01 X21.2214 Y63.9934
G01 X21.1712 Y63.9380
G01 X21.1423 Y63.9028
G01 X21.0978 Y63.8428
G01 X21.0725 Y63.8050
G01 X21.0341 Y63.7408
G01 X21.0127 Y63.7007
G01 X20.9807 Y63.6331
G01 X20.9633 Y63.5911
G01 X20.9381 Y63.5207
G01 X20.9249 Y63.4772
G01 X20.9067 Y63.4046
G01 X20.8978 Y63.3600
G01 X20.8869 Y63.2861
G01 X20.8824 Y63.2408
G01 X20.8787 Y63.1661
G01 X20.8787 Y63.1206
G01 X20.8824 Y63.0460
G01 X20.8869 Y63.0007
G01 X20.8978 Y62.9267
G01 X20.9067 Y62.8821
G01 X20.9249 Y62.8096
G01 X20.9381 Y62.7661
G01 X20.9633 Y62.6957
G01 X20.9807 Y62.6537
G01 X21.0127 Y62.5861
G01 X21.0341 Y62.5459
G01 X21.0725 Y62.4818
G01 X21.0978 Y62.4440
G01 X21.1423 Y62.3839
G01 X21.1712 Y62.3488
G01 X21.2214 Y62.2934
G01 X21.2536 Y62.2612
G01 X21.3090 Y62.2110
G01 X21.3441 Y62.1821
G01 X21.4042 Y62.1376
G01 X21.4420 Y62.1123
G01 X21.5061 Y62.0739
G01 X21.5463 Y62.0525
G01 X21.6139 Y62.0205
G01 X21.6559 Y62.0031
G01 X21.7263 Y61.9779
G01 X21.7698 Y61.9647
G01 X21.8423 Y61.9465
G01 X21.8869 Y61.9376
G01 X21.9609 Y61.9267
G01 X22.0062 Y61.9222
G01 X22.0809 Y61.9185
G01 X22.1263 Y61.9185
G01 X22.2010 Y61.9222
G01 X22.2463 Y61.9267
G01 X22.3202 Y61.9376
G01 X22.3648 Y61.9465
G01 X22.4374 Y61.9647
G01 X22.4809 Y61.9779
G01 X22.5513 Y62.0031
G01 X22.5933 Y62.0205
G01 X22.6609 Y62.0525
G01 X22.7010 Y62.0739
G01 X22.7652 Y62.1123
G01 X22.8030 Y62.1376
G01 X22.8598 Y62.1797
G00 Z2.0000
G00 X22.8598 Y72.3397
G01 F60.00
G01 Z-0.2001
G01 F320.00
G01 X89.7199 Y72.3397
G01 X89.7199 Y58.0634
G01 X89.7205 Y58.0406
G01 X89.7229 Y57.9916
G01 X89.7274 Y57.9464
G01 X89.7346 Y57.8978
G01 X89.7434 Y57.8532
G01 X89.7554 Y57.8056
G01 X89.7686 Y57.7621
G01 X89.7851 Y57.7158
G01 X89.8025 Y57.6738
G01 X89.8235 Y57.6294
G01 X89.8449 Y57.5893
G01 X89.8702 Y57.5472
G01 X89.8954 Y57.5094
G01 X89.9247 Y57.4700
G01 X89.9535 Y57.4348
G01 X89.9865 Y57.3985
G01 X90.0187 Y57.3663
G01 X90.0550 Y57.3333
G01 X90.0902 Y57.3045
G01 X90.1296 Y57.2752
G01 X90.1674 Y57.2500
G01 X90.2095 Y57.2247
G01 X90.2496 Y57.2033
G01 X90.2940 Y57.1823
G01 X90.3360 Y57.1649
G01 X90.3823 Y57.1484
G01 X90.4258 Y57.1352
G01 X90.4734 Y57.1232
G01 X90.5180 Y57.1144
G01 X90.5666 Y57.1072
G01 X90.6118 Y57.1027
G01 X90.6609 Y57.1003
G01 X90.6836 Y57.0997
G01 X100.8436 Y57.0997
G01 X100.8663 Y57.1003
G01 X100.9154 Y57.1027
G01 X100.9606 Y57.1072
G01 X101.0092 Y57.1144
G01 X101.0538 Y57.1232
G01 X101.1014 Y57.1352
G01 X101.1449 Y57.1484
G01 X101.1911 Y57.1649
G01 X101.2332 Y57.1823
G01 X101.2775 Y57.2033
G01 X101.3176 Y57.2247
G01 X101.3597 Y57.2500
G01 X101.3976 Y57.2752
G01 X101.4370 Y57.3045
G01 X101.4721 Y57.3333
G01 X101.5085 Y57.3663
G01 X101.5407 Y57.3985
G01 X101.5736 Y57.4348
G01 X101.6025 Y57.4700
G01 X101.6317 Y57.5094
G01 X101.6570 Y57.5472
G01 X101.6822 Y57.5893
G01 X101.7037 Y57.6294
G01 X101.7247 Y57.6738
G01 X101.7421 Y57.7158
G01 X101.7586 Y57.7621
G01 X101.7718 Y57.8056
G01 X101.7837 Y57.8532
G01 X101.7926 Y57.8978
G01 X101.7998 Y57.9464
G01 X101.8043 Y57.9916
G01 X101.8067 Y58.0406
G01 X101.8072 Y58.0634
G01 X101.8072 Y59.5216
G01 X101.8518 Y59.5351
G01 X101.9128 Y59.5569
G01 X101.9548 Y59.5743
G01 X102.0134 Y59.6021
G01 X102.0535 Y59.6235
G01 X102.1091 Y59.6568
G01 X102.1469 Y59.6821
G01 X102.1990 Y59.7207
G01 X102.2341 Y59.7495
G01 X102.2822 Y59.7931
G01 X102.3143 Y59.8252
G01 X102.3578 Y59.8732
G01 X102.3867 Y59.9084
G01 X102.4253 Y59.9604
G01 X102.4506 Y59.9983
G01 X102.4839 Y60.0538
G01 X102.5053 Y60.0939
G01 X102.5330 Y60.1525
G01 X102.5504 Y60.1945
G01 X102.5723 Y60.2556
G01 X102.5855 Y60.2991
G01 X102.6012 Y60.3619
G01 X102.6101 Y60.4066
G01 X102.6196 Y60.4707
G01 X102.6240 Y60.5159
G01 X102.6272 Y60.5806
G01 X102.6272 Y60.6261
G01 X102.6240 Y60.6909
G01 X102.6196 Y60.7361
G01 X102.6101 Y60.8002
G01 X102.6012 Y60.8448
G01 X102.5855 Y60.9077
G01 X102.5723 Y60.9512
G01 X102.5504 Y61.0122
G01 X102.5330 Y61.0542
G01 X102.5053 Y61.1128
G01 X102.4839 Y61.1529
G01 X102.4506 Y61.2085
G01 X102.4253 Y61.2463
G01 X102.3867 Y61.2984
G01 X102.3578 Y61.3335
G01 X102.3143 Y61.3816
G01 X102.2822 Y61.4137
G01 X102.2341 Y61.4572
G01 X102.1990 Y61.4861
G01 X102.1469 Y61.5247
G01 X102.1091 Y61.5500
G01 X102.0535 Y61.5833
G01 X102.0134 Y61.6047
G01 X101.9548 Y61.6324
G01 X101.9128 Y61.6498
G01 X101.8518 Y61.6717
G01 X101.8083 Y61.6849
G01 X101.7454 Y61.7006
G01 X101.7008 Y61.7095
G01 X101.6367 Y61.7190
G01 X101.5915 Y61.7234
G01 X101.5267 Y61.7266
G01 X101.5040 Y61.7272
G01 X100.1832 Y61.7272
G01 X100.1605 Y61.7266
G01 X100.0957 Y61.7234
G01 X100.0505 Y61.7190
G01 X99.9864 Y61.7095
G01 X99.9418 Y61.7006
G01 X99.8789 Y61.6849
G01 X99.8354 Y61.6717
G01 X99.7744 Y61.6498
G01 X99.7323 Y61.6324
G01 X99.6737 Y61.6047
G01 X99.6336 Y61.5833
G01 X99.5781 Y61.5500
G01 X99.5402 Y61.5247
G01 X99.4882 Y61.4861
G01 X99.4530 Y61.4572
G01 X99.4050 Y61.4137
G01 X99.3729 Y61.3816
G01 X99.3293 Y61.3335
G01 X99.3005 Y61.2984
G01 X99.2619 Y61.2463
G01 X99.2366 Y61.2085
G01 X99.2033 Y61.1529
G01 X99.1819 Y61.1128
G01 X99.1542 Y61.0542
G01 X99.1367 Y61.0122
G01 X99.1149 Y60.9512
G01 X99.1017 Y60.9077
G01 X99.0860 Y60.8448
G01 X99.0771 Y60.8002
G01 X99.0676 Y60.7361
G01 X99.0631 Y60.6909
G01 X99.0599 Y60.6261
G01 X99.0599 Y60.5806
G01 X99.0631 Y60.5159
G01 X99.0676 Y60.4707
G01 X99.0771 Y60.4066
G01 X99.0860 Y60.3619
G01 X99.1017 Y60.2991
G01 X99.1149 Y60.2556
G01 X99.1367 Y60.1945
G01 X99.1542 Y60.1525
G01 X99.1819 Y60.0939
G01 X99.2033 Y60.0538
G01 X99.2366 Y59.9983
G01 X99.2619 Y59.9604
G01 X99.3005 Y59.9084
G01 X99.3293 Y59.8732
G01 X99.3729 Y59.8252
G01 X99.4050 Y59.7931
G01 X99.4530 Y59.7495
G01 X99.4882 Y59.7207
G01 X99.5402 Y59.6821
G01 X99.5781 Y59.6568
G01 X99.6336 Y59.6235
G01 X99.6737 Y59.6021
G01 X99.7323 Y59.5743
G01 X99.7744 Y59.5569
G01 X99.8354 Y59.5351
G01 X99.8799 Y59.5216
G01 X99.8799 Y59.0270
G01 X91.6472 Y59.0270
G01 X91.6472 Y73.3034
G01 X91.6467 Y73.3261
G01 X91.6443 Y73.3752
G01 X91.6398 Y73.4204
G01 X91.6326 Y73.4690
G01 X91.6237 Y73.5136
G01 X91.6118 Y73.5612
G01 X91.5986 Y73.6047
G01 X91.5821 Y73.6509
G01 X91.5647 Y73.6929
G01 X91.5437 Y73.7373
G01 X91.5222 Y73.7774
G01 X91.4970 Y73.8195
G01 X91.4717 Y73.8574
G01 X91.4425 Y73.8968
G01 X91.4136 Y73.9319
G01 X91.3807 Y73.9683
G01 X91.3485 Y74.0005
G01 X91.3121 Y74.0334
G01 X91.2770 Y74.0623
G01 X91.2376 Y74.0915
G01 X91.1997 Y74.1168
G01 X91.1576 Y74.1420
G01 X91.1175 Y74.1635
G01 X91.0732 Y74.1845
G01 X91.0311 Y74.2019
G01 X90.9849 Y74.2184
G01 X90.9414 Y74.2316
G01 X90.8938 Y74.2435
G01 X90.8492 Y74.2524
G01 X90.8006 Y74.2596
G01 X90.7554 Y74.2641
G01 X90.7063 Y74.2665
G01 X90.6836 Y74.2670
G01 X81.1738 Y74.2670
G01 X81.2186 Y74.3003
G01 X81.2537 Y74.3291
G01 X81.3018 Y74.3727
G01 X81.3339 Y74.4048
G01 X81.3774 Y74.4528
G01 X81.4063 Y74.4880
G01 X81.4449 Y74.5400
G01 X81.4702 Y74.5779
G01 X81.5035 Y74.6334
G01 X81.5249 Y74.6735
G01 X81.5526 Y74.7321
G01 X81.5700 Y74.7741
G01 X81.5919 Y74.8352
G01 X81.6051 Y74.8787
G01 X81.6208 Y74.9415
G01 X81.6297 Y74.9862
G01 X81.6392 Y75.0503
G01 X81.6436 Y75.0955
G01 X81.6468 Y75.1602
G01 X81.6474 Y75.1830
G01 X81.6474 Y76.5038
G01 X81.6468 Y76.5265
G01 X81.6436 Y76.5913
G01 X81.6392 Y76.6365
G01 X81.6297 Y76.7006
G01 X81.6208 Y76.7452
G01 X81.6051 Y76.8081
G01 X81.5919 Y76.8516
G01 X81.5700 Y76.9126
G01 X81.5526 Y76.9546
G01 X81.5249 Y77.0132
G01 X81.5035 Y77.0533
G01 X81.4702 Y77.1089
G01 X81.4449 Y77.1467
G01 X81.4063 Y77.1988
G01 X81.3774 Y77.2339
G01 X81.3339 Y77.2820
G01 X81.3018 Y77.3141
G01 X81.2537 Y77.3576
G01 X81.2186 Y77.3865
G01 X81.1665 Y77.4251
G01 X81.1287 Y77.4504
G01 X81.0731 Y77.4837
G01 X81.0330 Y77.5051
G01 X80.9744 Y77.5328
G01 X80.9324 Y77.5502
G01 X80.8714 Y77.5721
G01 X80.8279 Y77.5853
G01 X80.7650 Y77.6010
G01 X80.7204 Y77.6099
G01 X80.6563 Y77.6194
G01 X80.6111 Y77.6238
G01 X80.5463 Y77.6270
G01 X80.5009 Y77.6270
G01 X80.4361 Y77.6238
G01 X80.3909 Y77.6194
G01 X80.3268 Y77.6099
G01 X80.2822 Y77.6010
G01 X80.2193 Y77.5853
G01 X80.1758 Y77.5721
G01 X80.1148 Y77.5502
G01 X80.0727 Y77.5328
G01 X80.0141 Y77.5051
G01 X79.9740 Y77.4837
G01 X79.9185 Y77.4504
G01 X79.8806 Y77.4251
G01 X79.8286 Y77.3865
G01 X79.7934 Y77.3576
G01 X79.7454 Y77.3141
G01 X79.7133 Y77.2820
G01 X79.6697 Y77.2339
G01 X79.6409 Y77.1988
G01 X79.6023 Y77.1467
G01 X79.5770 Y77.1089
G01 X79.5437 Y77.0533
G01 X79.5223 Y77.0132
G01 X79.4946 Y76.9546
G01 X79.4771 Y76.9126
G01 X79.4553 Y76.8516
G01 X79.4421 Y76.8081
G01 X79.4264 Y76.7452
G01 X79.4175 Y76.7006
G01 X79.4080 Y76.6365
G01 X79.4035 Y76.5913
G01 X79.4003 Y76.5265
G01 X79.3998 Y76.5038
G01 X79.3998 Y75.1830
G01 X79.4003 Y75.1602
G01 X79.4035 Y75.0955
G01 X79.4080 Y75.0503
G01 X79.4175 Y74.9862
G01 X79.4264 Y74.9415
G01 X79.4421 Y74.8787
G01 X79.4553 Y74.8352
G01 X79.4771 Y74.7741
G01 X79.4946 Y74.7321
G01 X79.5223 Y74.6735
G01 X79.5437 Y74.6334
G01 X79.5770 Y74.5779
G01 X79.6023 Y74.5400
G01 X79.6409 Y74.4880
G01 X79.6697 Y74.4528
G01 X79.7133 Y74.4048
G01 X79.7454 Y74.3727
G01 X79.7934 Y74.3291
G01 X79.8286 Y74.3003
G01 X79.8734 Y74.2670
G01 X78.6338 Y74.2670
G01 X78.6786 Y74.3003
G01 X78.7137 Y74.3291
G01 X78.7618 Y74.3727
G01 X78.7939 Y74.4048
G01 X78.8374 Y74.4528
G01 X78.8663 Y74.4880
G01 X78.9049 Y74.5400
G01 X78.9302 Y74.5779
G01 X78.9635 Y74.6334
G01 X78.9849 Y74.6735
G01 X79.0126 Y74.7321
G01 X79.0300 Y74.7741
G01 X79.0519 Y74.8352
G01 X79.0651 Y74.8787
G01 X79.0808 Y74.9415
G01 X79.0897 Y74.9862
G01 X79.0992 Y75.0503
G01 X79.1036 Y75.0955
G01 X79.1068 Y75.1602
G01 X79.1074 Y75.1830
G01 X79.1074 Y76.5038
G01 X79.1068 Y76.5265
G01 X79.1036 Y76.5913
G01 X79.0992 Y76.6365
G01 X79.0897 Y76.7006
G01 X79.0808 Y76.7452
G01 X79.0651 Y76.8081
G01 X79.0519 Y76.8516
G01 X79.0300 Y76.9126
G01 X79.0126 Y76.9546
G01 X78.9849 Y77.0132
G01 X78.9635 Y77.0533
G01 X78.9302 Y77.1089
G01 X78.9049 Y77.1467
G01 X78.8663 Y77.1988
G01 X78.8374 Y77.2339
G01 X78.7939 Y77.2820
G01 X78.7618 Y77.3141
G01 X78.7137 Y77.3576
G01 X78.6786 Y77.3865
G01 X78.6265 Y77.4251
G01 X78.5887 Y77.4504
G01 X78.5331 Y77.4837
G01 X78.4930 Y77.5051
G01 X78.4344 Y77.5328
G01 X78.3924 Y77.5502
G01 X78.3314 Y77.5721
G01 X78.2879 Y77.5853
G01 X78.2250 Y77.6010
G01 X78.1804 Y77.6099
G01 X78.1163 Y77.6194
G01 X78.0711 Y77.6238
G01 X78.0063 Y77.6270
G01 X77.9609 Y77.6270
G01 X77.8961 Y77.6238
G01 X77.8509 Y77.6194
G01 X77.7868 Y77.6099
G01 X77.7422 Y77.6010
G01 X77.6793 Y77.5853
G01 X77.6358 Y77.5721
G01 X77.5748 Y77.5502
G01 X77.5327 Y77.5328
G01 X77.4741 Y77.5051
G01 X77.4340 Y77.4837
G01 X77.3785 Y77.4504
G01 X77.3406 Y77.4251
G01 X77.2886 Y77.3865
G01 X77.2534 Y77.3576
G01 X77.2054 Y77.3141
G01 X77.1733 Y77.2820
G01 X77.1297 Y77.2339
G01 X77.1009 Y77.1988
G01 X77.0623 Y77.1467
G01 X77.0370 Y77.1089
G01 X77.0037 Y77.0533
G01 X76.9823 Y77.0132
G01 X76.9546 Y76.9546
G01 X76.9371 Y76.9126
G01 X76.9153 Y76.8516
G01 X76.9019 Y76.8070
G01 X76.4072 Y76.8070
G01 X76.4072 Y87.5797
G01 X82.0999 Y87.5797
G01 X82.0999 Y83.4634
G01 X82.1005 Y83.4406
G01 X82.1029 Y83.3916
G01 X82.1074 Y83.3464
G01 X82.1146 Y83.2978
G01 X82.1234 Y83.2532
G01 X82.1354 Y83.2056
G01 X82.1486 Y83.1621
G01 X82.1651 Y83.1158
G01 X82.1825 Y83.0738
G01 X82.2035 Y83.0294
G01 X82.2249 Y82.9893
G01 X82.2502 Y82.9472
G01 X82.2754 Y82.9094
G01 X82.3047 Y82.8700
G01 X82.3335 Y82.8348
G01 X82.3665 Y82.7985
G01 X82.3987 Y82.7663
G01 X82.4350 Y82.7333
G01 X82.4702 Y82.7045
G01 X82.5096 Y82.6752
G01 X82.5474 Y82.6500
G01 X82.5895 Y82.6247
G01 X82.6296 Y82.6033
G01 X82.6740 Y82.5823
G01 X82.7160 Y82.5649
G01 X82.7623 Y82.5484
G01 X82.8058 Y82.5352
G01 X82.8534 Y82.5232
G01 X82.8980 Y82.5144
G01 X82.9466 Y82.5072
G01 X82.9918 Y82.5027
G01 X83.0409 Y82.5003
G01 X83.0636 Y82.4997
G01 X97.3399 Y82.4997
G01 X97.3399 Y71.5196
G01 X97.2978 Y71.4628
G01 X97.2725 Y71.4250
G01 X97.2341 Y71.3608
G01 X97.2127 Y71.3207
G01 X97.1807 Y71.2531
G01 X97.1633 Y71.2111
G01 X97.1381 Y71.1407
G01 X97.1249 Y71.0972
G01 X97.1067 Y71.0246
G01 X97.0978 Y70.9800
G01 X97.0869 Y70.9061
G01 X97.0824 Y70.8608
G01 X97.0787 Y70.7861
G01 X97.0787 Y70.7406
G01 X97.0824 Y70.6660
G01 X97.0869 Y70.6207
G01 X97.0978 Y70.5467
G01 X97.1067 Y70.5021
G01 X97.1249 Y70.4296
G01 X97.1381 Y70.3861
G01 X97.1633 Y70.3157
G01 X97.1807 Y70.2737
G01 X97.2127 Y70.2061
G01 X97.2341 Y70.1659
G01 X97.2725 Y70.1018
G01 X97.2978 Y70.0640
G01 X97.3399 Y70.0072
G01 X97.3399 Y63.8996
G01 X97.2978 Y63.8428
G01 X97.2725 Y63.8050
G01 X97.2341 Y63.7408
G01 X97.2127 Y63.7007
G01 X97.1807 Y63.6331
G01 X97.1633 Y63.5911
G01 X97.1381 Y63.5207
G01 X97.1249 Y63.4772
G01 X97.1067 Y63.4046
G01 X97.0978 Y63.3600
G01 X97.0869 Y63.2861
G01 X97.0824 Y63.2408
G01 X97.0787 Y63.1661
G01 X97.0787 Y63.1206
G01 X97.0824 Y63.0460
G01 X97.0869 Y63.0007
G01 X97.0978 Y62.9267
G01 X97.1067 Y62.8821
G01 X97.1249 Y62.8096
G01 X97.1381 Y62.7661
G01 X97.1633 Y62.6957
G01 X97.1807 Y62.6537
G01 X97.2127 Y62.5861
G01 X97.2341 Y62.5459
G01 X97.2725 Y62.4818
G01 X97.2978 Y62.4440
G01 X97.3423 Y62.3839
G01 X97.3712 Y62.3488
G01 X97.4214 Y62.2934
G01 X97.4536 Y62.2612
G01 X97.5090 Y62.2110
G01 X97.5441 Y62.1821
G01 X97.6042 Y62.1376
G01 X97.6420 Y62.1123
G01 X97.7061 Y62.0739
G01 X97.7463 Y62.0525
G01 X97.8139 Y62.0205
G01 X97.8559 Y62.0031
G01 X97.9263 Y61.9779
G01 X97.9698 Y61.9647
G01 X98.0423 Y61.9465
G01 X98.0869 Y61.9376
G01 X98.1609 Y61.9267
G01 X98.2062 Y61.9222
G01 X98.2809 Y61.9185
G01 X98.3263 Y61.9185
G01 X98.4010 Y61.9222
G01 X98.4463 Y61.9267
G01 X98.5202 Y61.9376
G01 X98.5648 Y61.9465
G01 X98.6374 Y61.9647
G01 X98.6809 Y61.9779
G01 X98.7513 Y62.0031
G01 X98.7933 Y62.0205
G01 X98.8609 Y62.0525
G01 X98.9010 Y62.0739
G01 X98.9652 Y62.1123
G01 X99.0030 Y62.1376
G01 X99.0630 Y62.1821
G01 X99.0982 Y62.2110
G01 X99.1536 Y62.2612
G01 X99.1858 Y62.2934
G01 X99.2360 Y62.3488
G01 X99.2648 Y62.3839
G01 X99.3094 Y62.4440
G01 X99.3346 Y62.4818
G01 X99.3731 Y62.5459
G01 X99.3945 Y62.5861
G01 X99.4265 Y62.6537
G01 X99.4439 Y62.6957
G01 X99.4691 Y62.7661
G01 X99.4823 Y62.8096
G01 X99.5005 Y62.8821
G01 X99.5093 Y62.9267
G01 X99.5203 Y63.0007
G01 X99.5248 Y63.0460
G01 X99.5284 Y63.1206
G01 X99.5284 Y63.1661
G01 X99.5248 Y63.2408
G01 X99.5203 Y63.2861
G01 X99.5093 Y63.3600
G01 X99.5005 Y63.4046
G01 X99.4823 Y63.4772
G01 X99.4691 Y63.5207
G01 X99.4439 Y63.5911
G01 X99.4265 Y63.6331
G01 X99.3945 Y63.7007
G01 X99.3731 Y63.7408
G01 X99.3346 Y63.8050
G01 X99.3094 Y63.8428
G01 X99.2672 Y63.8996
G01 X99.2672 Y70.0072
G01 X99.3094 Y70.0640
G01 X99.3346 Y70.1018
G01 X99.3731 Y70.1659
G01 X99.3945 Y70.2061
G01 X99.4265 Y70.2737
G01 X99.4439 Y70.3157
G01 X99.4691 Y70.3861
G01 X99.4823 Y70.4296
G01 X99.5005 Y70.5021
G01 X99.5093 Y70.5467
G01 X99.5203 Y70.6207
G01 X99.5248 Y70.6660
G01 X99.5284 Y70.7406
G01 X99.5284 Y70.7861
G01 X99.5248 Y70.8608
G01 X99.5203 Y70.9061
G01 X99.5093 Y70.9800
G01 X99.5005 Y71.0246
G01 X99.4823 Y71.0972
G01 X99.4691 Y71.1407
G01 X99.4439 Y71.2111
G01 X99.4265 Y71.2531
G01 X99.3945 Y71.3207
G01 X99.3731 Y71.3608
G01 X99.3346 Y71.4250
G01 X99.3094 Y71.4628
G01 X99.2672 Y71.5196
G01 X99.2672 Y83.4634
G01 X99.2667 Y83.4861
G01 X99.2643 Y83.5352
G01 X99.2598 Y83.5804
G01 X99.2526 Y83.6290
G01 X99.2437 Y83.6736
G01 X99.2318 Y83.7212
G01 X99.2186 Y83.7647
G01 X99.2021 Y83.8109
G01 X99.1847 Y83.8529
G01 X99.1637 Y83.8973
G01 X99.1422 Y83.9374
G01 X99.1170 Y83.9795
G01 X99.0917 Y84.0174
G01 X99.0625 Y84.0568
G01 X99.0336 Y84.0919
G01 X99.0007 Y84.1283
G01 X98.9685 Y84.1605
G01 X98.9321 Y84.1934
G01 X98.8970 Y84.2223
G01 X98.8576 Y84.2515
G01 X98.8197 Y84.2768
G01 X98.7776 Y84.3020
G01 X98.7375 Y84.3235
G01 X98.6932 Y84.3445
G01 X98.6511 Y84.3619
G01 X98.6049 Y84.3784
G01 X98.5614 Y84.3916
G01 X98.5138 Y84.4035
G01 X98.4692 Y84.4124
G01 X98.4206 Y84.4196
G01 X98.3754 Y84.4241
G01 X98.3263 Y84.4265
G01 X98.3036 Y84.4270
G01 X84.0272 Y84.4270
G01 X84.0272 Y88.5434
G01 X84.0267 Y88.5661
G01 X84.0243 Y88.6152
G01 X84.0198 Y88.6604
G01 X84.0126 Y88.7090
G01 X84.0037 Y88.7536
G01 X83.9918 Y88.8012
G01 X83.9786 Y88.8447
G01 X83.9621 Y88.8909
G01 X83.9447 Y88.9329
G01 X83.9237 Y88.9773
G01 X83.9022 Y89.0174
G01 X83.8770 Y89.0595
G01 X83.8517 Y89.0974
G01 X83.8225 Y89.1368
G01 X83.7936 Y89.1719
G01 X83.7607 Y89.2083
G01 X83.7285 Y89.2405
G01 X83.6921 Y89.2734
G01 X83.6570 Y89.3023
G01 X83.6176 Y89.3315
G01 X83.5797 Y89.3568
G01 X83.5376 Y89.3820
G01 X83.4975 Y89.4035
G01 X83.4532 Y89.4245
G01 X83.4111 Y89.4419
G01 X83.3649 Y89.4584
G01 X83.3214 Y89.4716
G01 X83.2738 Y89.4835
G01 X83.2292 Y89.4924
G01 X83.1806 Y89.4996
G01 X83.1354 Y89.5041
G01 X83.0863 Y89.5065
G01 X83.0636 Y89.5070
G01 X75.4436 Y89.5070
G01 X75.4209 Y89.5065
G01 X75.3718 Y89.5041
G01 X75.3266 Y89.4996
G01 X75.2780 Y89.4924
G01 X75.2334 Y89.4835
G01 X75.1858 Y89.4716
G01 X75.1423 Y89.4584
G01 X75.0960 Y89.4419
G01 X75.0540 Y89.4245
G01 X75.0096 Y89.4035
G01 X74.9695 Y89.3820
G01 X74.9274 Y89.3568
G01 X74.8896 Y89.3315
G01 X74.8502 Y89.3023
G01 X74.8150 Y89.2734
G01 X74.7787 Y89.2405
G01 X74.7465 Y89.2083
G01 X74.7135 Y89.1719
G01 X74.6847 Y89.1368
G01 X74.6554 Y89.0974
G01 X74.6302 Y89.0595
G01 X74.6049 Y89.0174
G01 X74.5835 Y88.9773
G01 X74.5625 Y88.9329
G01 X74.5451 Y88.8909
G01 X74.5286 Y88.8447
G01 X74.5154 Y88.8012
G01 X74.5034 Y88.7536
G01 X74.4946 Y88.7090
G01 X74.4874 Y88.6604
G01 X74.4829 Y88.6152
G01 X74.4805 Y88.5661
G01 X74.4799 Y88.5434
G01 X74.4799 Y79.3470
G01 X71.0138 Y79.3470
G01 X71.0586 Y79.3803
G01 X71.0937 Y79.4091
G01 X71.1418 Y79.4527
G01 X71.1739 Y79.4848
G01 X71.2174 Y79.5328
G01 X71.2463 Y79.5680
G01 X71.2849 Y79.6200
G01 X71.3102 Y79.6579
G01 X71.3435 Y79.7134
G01 X71.3649 Y79.7535
G01 X71.3926 Y79.8121
G01 X71.4100 Y79.8541
G01 X71.4319 Y79.9152
G01 X71.4451 Y79.9587
G01 X71.4608 Y80.0215
G01 X71.4697 Y80.0662
G01 X71.4792 Y80.1303
G01 X71.4836 Y80.1755
G01 X71.4868 Y80.2402
G01 X71.4874 Y80.2630
G01 X71.4874 Y81.5838
G01 X71.4868 Y81.6065
G01 X71.4836 Y81.6713
G01 X71.4792 Y81.7165
G01 X71.4697 Y81.7806
G01 X71.4608 Y81.8252
G01 X71.4451 Y81.8881
G01 X71.4319 Y81.9316
G01 X71.4100 Y81.9926
G01 X71.3926 Y82.0346
G01 X71.3649 Y82.0932
G01 X71.3435 Y82.1333
G01 X71.3102 Y82.1889
G01 X71.2849 Y82.2267
G01 X71.2463 Y82.2788
G01 X71.2174 Y82.3139
G01 X71.1739 Y82.3620
G01 X71.1418 Y82.3941
G01 X71.0937 Y82.4376
G01 X71.0586 Y82.4665
G01 X71.0065 Y82.5051
G01 X70.9687 Y82.5304
G01 X70.9131 Y82.5637
G01 X70.8730 Y82.5851
G01 X70.8144 Y82.6128
G01 X70.7724 Y82.6302
G01 X70.7114 Y82.6521
G01 X70.6679 Y82.6653
G01 X70.6050 Y82.6810
G01 X70.5604 Y82.6899
G01 X70.4963 Y82.6994
G01 X70.4511 Y82.7038
G01 X70.3863 Y82.7070
G01 X70.3409 Y82.7070
G01 X70.2761 Y82.7038
G01 X70.2309 Y82.6994
G01 X70.1668 Y82.6899
G01 X70.1222 Y82.6810
G01 X70.0593 Y82.6653
G01 X70.0158 Y82.6521
G01 X69.9548 Y82.6302
G01 X69.9127 Y82.6128
G01 X69.8541 Y82.5851
G01 X69.8140 Y82.5637
G01 X69.7585 Y82.5304
G01 X69.7206 Y82.5051
G01 X69.6686 Y82.4665
G01 X69.6334 Y82.4376
G01 X69.5854 Y82.3941
G01 X69.5533 Y82.3620
G01 X69.5097 Y82.3139
G01 X69.4809 Y82.2788
G01 X69.4423 Y82.2267
G01 X69.4170 Y82.1889
G01 X69.3837 Y82.1333
G01 X69.3623 Y82.0932
G01 X69.3346 Y82.0346
G01 X69.3171 Y81.9926
G01 X69.2953 Y81.9316
G01 X69.2819 Y81.8870
G01 X22.8598 Y81.8870
G01 X22.8030 Y81.9292
G01 X22.7652 Y81.9544
G01 X22.7010 Y81.9929
G01 X22.6609 Y82.0143
G01 X22.5933 Y82.0463
G01 X22.5513 Y82.0637
G01 X22.4809 Y82.0889
G01 X22.4374 Y82.1021
G01 X22.3648 Y82.1203
G01 X22.3202 Y82.1291
G01 X22.2463 Y82.1401
G01 X22.2010 Y82.1446
G01 X22.1263 Y82.1482
G01 X22.0809 Y82.1482
G01 X22.0062 Y82.1446
G01 X21.9609 Y82.1401
G01 X21.8869 Y82.1291
G01 X21.8423 Y82.1203
G01 X21.7698 Y82.1021
G01 X21.7263 Y82.0889
G01 X21.6559 Y82.0637
G01 X21.6139 Y82.0463
G01 X21.5463 Y82.0143
G01 X21.5061 Y81.9929
G01 X21.4420 Y81.9544
G01 X21.4042 Y81.9292
G01 X21.3441 Y81.8846
G01 X21.3090 Y81.8558
G01 X21.2536 Y81.8056
G01 X21.2214 Y81.7734
G01 X21.1712 Y81.7180
G01 X21.1423 Y81.6828
G01 X21.0978 Y81.6228
G01 X21.0725 Y81.5850
G01 X21.0341 Y81.5208
G01 X21.0127 Y81.4807
G01 X20.9807 Y81.4131
G01 X20.9633 Y81.3711
G01 X20.9381 Y81.3007
G01 X20.9249 Y81.2572
G01 X20.9067 Y81.1846
G01 X20.8978 Y81.1400
G01 X20.8869 Y81.0661
G01 X20.8824 Y81.0208
G01 X20.8787 Y80.9461
G01 X20.8787 Y80.9006
G01 X20.8824 Y80.8260
G01 X20.8869 Y80.7807
G01 X20.8978 Y80.7067
G01 X20.9067 Y80.6621
G01 X20.9249 Y80.5896
G01 X20.9381 Y80.5461
G01 X20.9633 Y80.4757
G01 X20.9807 Y80.4337
G01 X21.0127 Y80.3661
G01 X21.0341 Y80.3259
G01 X21.0725 Y80.2618
G01 X21.0978 Y80.2240
G01 X21.1423 Y80.1639
G01 X21.1712 Y80.1288
G01 X21.2214 Y80.0734
G01 X21.2536 Y80.0412
G01 X21.3090 Y79.9910
G01 X21.3441 Y79.9621
G01 X21.4042 Y79.9176
G01 X21.4420 Y79.8923
G01 X21.5061 Y79.8539
G01 X21.5463 Y79.8325
G01 X21.6139 Y79.8005
G01 X21.6559 Y79.7831
G01 X21.7263 Y79.7579
G01 X21.7698 Y79.7447
G01 X21.8423 Y79.7265
G01 X21.8869 Y79.7176
G01 X21.9609 Y79.7067
G01 X22.0062 Y79.7022
G01 X22.0809 Y79.6985
G01 X22.1263 Y79.6985
G01 X22.2010 Y79.7022
G01 X22.2463 Y79.7067
G01 X22.3202 Y79.7176
G01 X22.3648 Y79.7265
G01 X22.4374 Y79.7447
G01 X22.4809 Y79.7579
G01 X22.5513 Y79.7831
G01 X22.5933 Y79.8005
G01 X22.6609 Y79.8325
G01 X22.7010 Y79.8539
G01 X22.7652 Y79.8923
G01 X22.8030 Y79.9176
G01 X22.8598 Y79.9597
G01 X69.2819 Y79.9597
G01 X69.2953 Y79.9152
G01 X69.3171 Y79.8541
G01 X69.3346 Y79.8121
G01 X69.3623 Y79.7535
G01 X69.3837 Y79.7134
G01 X69.4170 Y79.6579
G01 X69.4423 Y79.6200
G01 X69.4809 Y79.5680
G01 X69.5097 Y79.5328
G01 X69.5533 Y79.4848
G01 X69.5854 Y79.4527
G01 X69.6334 Y79.4091
G01 X69.6686 Y79.3803
G01 X69.7134 Y79.3470
G01 X22.8598 Y79.3470
G01 X22.8030 Y79.3892
G01 X22.7652 Y79.4144
G01 X22.7010 Y79.4529
G01 X22.6609 Y79.4743
G01 X22.5933 Y79.5063
G01 X22.5513 Y79.5237
G01 X22.4809 Y79.5489
G01 X22.4374 Y79.5621
G01 X22.3648 Y79.5803
G01 X22.3202 Y79.5891
G01 X22.2463 Y79.6001
G01 X22.2010 Y79.6046
G01 X22.1263 Y79.6082
G01 X22.0809 Y79.6082
G01 X22.0062 Y79.6046
G01 X21.9609 Y79.6001
G01 X21.8869 Y79.5891
G01 X21.8423 Y79.5803
G01 X21.7698 Y79.5621
G01 X21.7263 Y79.5489
G01 X21.6559 Y79.5237
G01 X21.6139 Y79.5063
G01 X21.5463 Y79.4743
G01 X21.5061 Y79.4529
G01 X21.4420 Y79.4144
G01 X21.4042 Y79.3892
G01 X21.3441 Y79.3446
G01 X21.3090 Y79.3158
G01 X21.2536 Y79.2656
G01 X21.2214 Y79.2334
G01 X21.1712 Y79.1780
G01 X21.1423 Y79.1428
G01 X21.0978 Y79.0828
G01 X21.0725 Y79.0450
G01 X21.0341 Y78.9808
G01 X21.0127 Y78.9407
G01 X20.9807 Y78.8731
G01 X20.9633 Y78.8311
G01 X20.9381 Y78.7607
G01 X20.9249 Y78.7172
G01 X20.9067 Y78.6446
G01 X20.8978 Y78.6000
G01 X20.8869 Y78.5261
G01 X20.8824 Y78.4808
G01 X20.8787 Y78.4061
G01 X20.8787 Y78.3606
G01 X20.8824 Y78.2860
G01 X20.8869 Y78.2407
G01 X20.8978 Y78.1667
G01 X20.9067 Y78.1221
G01 X20.9249 Y78.0496
G01 X20.9381 Y78.0061
G01 X20.9633 Y77.9357
G01 X20.9807 Y77.8937
G01 X21.0127 Y77.8261
G01 X21.0341 Y77.7859
G01 X21.0725 Y77.7218
G01 X21.0978 Y77.6840
G01 X21.1423 Y77.6239
G01 X21.1712 Y77.5888
G01 X21.2214 Y77.5334
G01 X21.2536 Y77.5012
G01 X21.3090 Y77.4510
G01 X21.3441 Y77.4221
G01 X21.4042 Y77.3776
G01 X21.4420 Y77.3523
G01 X21.5061 Y77.3139
G01 X21.5463 Y77.2925
G01 X21.6139 Y77.2605
G01 X21.6559 Y77.2431
G01 X21.7263 Y77.2179
G01 X21.7698 Y77.2047
G01 X21.8423 Y77.1865
G01 X21.8869 Y77.1776
G01 X21.9609 Y77.1667
G01 X22.0062 Y77.1622
G01 X22.0809 Y77.1585
G01 X22.1263 Y77.1585
G01 X22.2010 Y77.1622
G01 X22.2463 Y77.1667
G01 X22.3202 Y77.1776
G01 X22.3648 Y77.1865
G01 X22.4374 Y77.2047
G01 X22.4809 Y77.2179
G01 X22.5513 Y77.2431
G01 X22.5933 Y77.2605
G01 X22.6609 Y77.2925
G01 X22.7010 Y77.3139
G01 X22.7652 Y77.3523
G01 X22.8030 Y77.3776
G01 X22.8598 Y77.4197
G01 X69.7134 Y77.4197
G01 X69.6686 Y77.3865
G01 X69.6334 Y77.3576
G01 X69.5854 Y77.3141
G01 X69.5533 Y77.2820
G01 X69.5097 Y77.2339
G01 X69.4809 Y77.1988
G01 X69.4423 Y77.1467
G01 X69.4170 Y77.1089
G01 X69.3837 Y77.0533
G01 X69.3623 Y77.0132
G01 X69.3346 Y76.9546
G01 X69.3171 Y76.9126
G01 X69.2953 Y76.8516
G01 X69.2821 Y76.8081
G01 X69.2664 Y76.7452
G01 X69.2575 Y76.7006
G01 X69.2480 Y76.6365
G01 X69.2435 Y76.5913
G01 X69.2403 Y76.5265
G01 X69.2398 Y76.5038
G01 X69.2398 Y75.1830
G01 X69.2403 Y75.1602
G01 X69.2435 Y75.0955
G01 X69.2480 Y75.0503
G01 X69.2575 Y74.9862
G01 X69.2664 Y74.9415
G01 X69.2821 Y74.8787
G01 X69.2953 Y74.8352
G01 X69.3171 Y74.7741
G01 X69.3346 Y74.7321
G01 X69.3623 Y74.6735
G01 X69.3837 Y74.6334
G01 X69.4170 Y74.5779
G01 X69.4423 Y74.5400
G01 X69.4809 Y74.4880
G01 X69.5097 Y74.4528
G01 X69.5533 Y74.4048
G01 X69.5854 Y74.3727
G01 X69.6334 Y74.3291
G01 X69.6686 Y74.3003
G01 X69.7134 Y74.2670
G01 X22.8598 Y74.2670
G01 X22.8030 Y74.3092
G01 X22.7652 Y74.3344
G01 X22.7010 Y74.3729
G01 X22.6609 Y74.3943
G01 X22.5933 Y74.4263
G01 X22.5513 Y74.4437
G01 X22.4809 Y74.4689
G01 X22.4374 Y74.4821
G01 X22.3648 Y74.5003
G01 X22.3202 Y74.5091
G01 X22.2463 Y74.5201
G01 X22.2010 Y74.5246
G01 X22.1263 Y74.5282
G01 X22.0809 Y74.5282
G01 X22.0062 Y74.5246
G01 X21.9609 Y74.5201
G01 X21.8869 Y74.5091
G01 X21.8423 Y74.5003
G01 X21.7698 Y74.4821
G01 X21.7263 Y74.4689
G01 X21.6559 Y74.4437
G01 X21.6139 Y74.4263
G01 X21.5463 Y74.3943
G01 X21.5061 Y74.3729
G01 X21.4420 Y74.3344
G01 X21.4042 Y74.3092
G01 X21.3441 Y74.2646
G01 X21.3090 Y74.2358
G01 X21.2536 Y74.1856
G01 X21.2214 Y74.1534
G01 X21.1712 Y74.0980
G01 X21.1423 Y74.0628
G01 X21.0978 Y74.0028
G01 X21.0725 Y73.9650
G01 X21.0341 Y73.9008
G01 X21.0127 Y73.8607
G01 X20.9807 Y73.7931
G01 X20.9633 Y73.7511
G01 X20.9381 Y73.6807
G01 X20.9249 Y73.6372
G01 X20.9067 Y73.5646
G01 X20.8978 Y73.5200
G01 X20.8869 Y73.4461
G01 X20.8824 Y73.4008
G01 X20.8787 Y73.3261
G01 X20.8787 Y73.2806
G01 X20.8824 Y73.2060
G01 X20.8869 Y73.1607
G01 X20.8978 Y73.0867
G01 X20.9067 Y73.0421
G01 X20.9249 Y72.9696
G01 X20.9381 Y72.9261
G01 X20.9633 Y72.8557
G01 X20.9807 Y72.8137
G01 X21.0127 Y72.7461
G01 X21.0341 Y72.7059
G01 X21.0725 Y72.6418
G01 X21.0978 Y72.6040
G01 X21.1423 Y72.5439
G01 X21.1712 Y72.5088
G01 X21.2214 Y72.4534
G01 X21.2536 Y72.4212
G01 X21.3090 Y72.3710
G01 X21.3441 Y72.3421
G01 X21.4042 Y72.2976
G01 X21.4420 Y72.2723
G01 X21.5061 Y72.2339
G01 X21.5463 Y72.2125
G01 X21.6139 Y72.1805
G01 X21.6559 Y72.1631
G01 X21.7263 Y72.1379
G01 X21.7698 Y72.1247
G01 X21.8423 Y72.1065
G01 X21.8869 Y72.0976
G01 X21.9609 Y72.0867
G01 X22.0062 Y72.0822
G01 X22.0809 Y72.0785
G01 X22.1263 Y72.0785
G01 X22.2010 Y72.0822
G01 X22.2463 Y72.0867
G01 X22.3202 Y72.0976
G01 X22.3648 Y72.1065
G01 X22.4374 Y72.1247
G01 X22.4809 Y72.1379
G01 X22.5513 Y72.1631
G01 X22.5933 Y72.1805
G01 X22.6609 Y72.2125
G01 X22.7010 Y72.2339
G01 X22.7652 Y72.2723
G01 X22.8030 Y72.2976
G01 X22.8598 Y72.3397
G00 Z2.0000
G00 X13.5199 Y80.1672
G01 F60.00
G01 Z-0.2001
G01 F320.00
G01 X13.5199 Y63.8996
G01 X13.4778 Y63.8428
G01 X13.4525 Y63.8050
G01 X13.4141 Y63.7408
G01 X13.3927 Y63.7007
G01 X13.3607 Y63.6331
G01 X13.3433 Y63.5911
G01 X13.3181 Y63.5207
G01 X13.3049 Y63.4772
G01 X13.2867 Y63.4046
G01 X13.2778 Y63.3600
G01 X13.2669 Y63.2861
G01 X13.2624 Y63.2408
G01 X13.2587 Y63.1661
G01 X13.2587 Y63.1206
G01 X13.2624 Y63.0460
G01 X13.2669 Y63.0007
G01 X13.2778 Y62.9267
G01 X13.2867 Y62.8821
G01 X13.3049 Y62.8096
G01 X13.3181 Y62.7661
G01 X13.3433 Y62.6957
G01 X13.3607 Y62.6537
G01 X13.3927 Y62.5861
G01 X13.4141 Y62.5459
G01 X13.4525 Y62.4818
G01 X13.4778 Y62.4440
G01 X13.5223 Y62.3839
G01 X13.5512 Y62.3488
G01 X13.6014 Y62.2934
G01 X13.6336 Y62.2612
G01 X13.6890 Y62.2110
G01 X13.7241 Y62.1821
G01 X13.7842 Y62.1376
G01 X13.8220 Y62.1123
G01 X13.8861 Y62.0739
G01 X13.9263 Y62.0525
G01 X13.9939 Y62.0205
G01 X14.0359 Y62.0031
G01 X14.1063 Y61.9779
G01 X14.1498 Y61.9647
G01 X14.2223 Y61.9465
G01 X14.2669 Y61.9376
G01 X14.3409 Y61.9267
G01 X14.3862 Y61.9222
G01 X14.4609 Y61.9185
G01 X14.5063 Y61.9185
G01 X14.5810 Y61.9222
G01 X14.6263 Y61.9267
G01 X14.7002 Y61.9376
G01 X14.7448 Y61.9465
G01 X14.8174 Y61.9647
G01 X14.8609 Y61.9779
G01 X14.9313 Y62.0031
G01 X14.9733 Y62.0205
G01 X15.0409 Y62.0525
G01 X15.0810 Y62.0739
G01 X15.1452 Y62.1123
G01 X15.1830 Y62.1376
G01 X15.2430 Y62.1821
G01 X15.2782 Y62.2110
G01 X15.3336 Y62.2612
G01 X15.3658 Y62.2934
G01 X15.4160 Y62.3488
G01 X15.4448 Y62.3839
G01 X15.4894 Y62.4440
G01 X15.5146 Y62.4818
G01 X15.5531 Y62.5459
G01 X15.5745 Y62.5861
G01 X15.6065 Y62.6537
G01 X15.6239 Y62.6957
G01 X15.6491 Y62.7661
G01 X15.6623 Y62.8096
G01 X15.6805 Y62.8821
G01 X15.6893 Y62.9267
G01 X15.7003 Y63.0007
G01 X15.7048 Y63.0460
G01 X15.7084 Y63.1206
G01 X15.7084 Y63.1661
G01 X15.7048 Y63.2408
G01 X15.7003 Y63.2861
G01 X15.6893 Y63.3600
G01 X15.6805 Y63.4046
G01 X15.6623 Y63.4772
G01 X15.6491 Y63.5207
G01 X15.6239 Y63.5911
G01 X15.6065 Y63.6331
G01 X15.5745 Y63.7007
G01 X15.5531 Y63.7408
G01 X15.5146 Y63.8050
G01 X15.4894 Y63.8428
G01 X15.4472 Y63.8996
G01 X15.4472 Y80.1672
G01 X15.4894 Y80.2240
G01 X15.5146 Y80.2618
G01 X15.5531 Y80.3259
G01 X15.5745 Y80.3661
G01 X15.6065 Y80.4337
G01 X15.6239 Y80.4757
G01 X15.6491 Y80.5461
G01 X15.6623 Y80.5896
G01 X15.6805 Y80.6621
G01 X15.6893 Y80.7067
G01 X15.7003 Y80.7807
G01 X15.7048 Y80.8260
G01 X15.7084 Y80.9006
G01 X15.7084 Y80.9461
G01 X15.7048 Y81.0208
G01 X15.7003 Y81.0661
G01 X15.6893 Y81.1400
G01 X15.6805 Y81.1846
G01 X15.6623 Y81.2572
G01 X15.6491 Y81.3007
G01 X15.6239 Y81.3711
G01 X15.6065 Y81.4131
G01 X15.5745 Y81.4807
G01 X15.5531 Y81.5208
G01 X15.5146 Y81.5850
G01 X15.4894 Y81.6228
G01 X15.4472 Y81.6796
G01 X15.4472 Y95.4072
G01 X15.4894 Y95.4640
G01 X15.5146 Y95.5018
G01 X15.5531 Y95.5659
G01 X15.5745 Y95.6061
G01 X15.6065 Y95.6737
G01 X15.6239 Y95.7157
G01 X15.6491 Y95.7861
G01 X15.6623 Y95.8296
G01 X15.6805 Y95.9021
G01 X15.6893 Y95.9467
G01 X15.7003 Y96.0207
G01 X15.7048 Y96.0660
G01 X15.7084 Y96.1406
G01 X15.7084 Y96.1861
G01 X15.7048 Y96.2608
G01 X15.7003 Y96.3061
G01 X15.6893 Y96.3800
G01 X15.6805 Y96.4246
G01 X15.6623 Y96.4972
G01 X15.6491 Y96.5407
G01 X15.6239 Y96.6111
G01 X15.6065 Y96.6531
G01 X15.5745 Y96.7207
G01 X15.5531 Y96.7608
G01 X15.5146 Y96.8250
G01 X15.4894 Y96.8628
G01 X15.4448 Y96.9228
G01 X15.4160 Y96.9580
G01 X15.3658 Y97.0134
G01 X15.3336 Y97.0456
G01 X15.2782 Y97.0958
G01 X15.2430 Y97.1246
G01 X15.1830 Y97.1692
G01 X15.1452 Y97.1944
G01 X15.0810 Y97.2329
G01 X15.0409 Y97.2543
G01 X14.9733 Y97.2863
G01 X14.9313 Y97.3037
G01 X14.8609 Y97.3289
G01 X14.8174 Y97.3421
G01 X14.7448 Y97.3603
G01 X14.7002 Y97.3691
G01 X14.6263 Y97.3801
G01 X14.5810 Y97.3846
G01 X14.5063 Y97.3882
G01 X14.4609 Y97.3882
G01 X14.3862 Y97.3846
G01 X14.3409 Y97.3801
G01 X14.2669 Y97.3691
G01 X14.2223 Y97.3603
G01 X14.1498 Y97.3421
G01 X14.1063 Y97.3289
G01 X14.0359 Y97.3037
G01 X13.9939 Y97.2863
G01 X13.9263 Y97.2543
G01 X13.8861 Y97.2329
G01 X13.8220 Y97.1944
G01 X13.7842 Y97.1692
G01 X13.7241 Y97.1246
G01 X13.6890 Y97.0958
G01 X13.6336 Y97.0456
G01 X13.6014 Y97.0134
G01 X13.5512 Y96.9580
G01 X13.5223 Y96.9228
G01 X13.4778 Y96.8628
G01 X13.4525 Y96.8250
G01 X13.4141 Y96.7608
G01 X13.3927 Y96.7207
G01 X13.3607 Y96.6531
G01 X13.3433 Y96.6111
G01 X13.3181 Y96.5407
G01 X13.3049 Y96.4972
G01 X13.2867 Y96.4246
G01 X13.2778 Y96.3800
G01 X13.2669 Y96.3061
G01 X13.2624 Y96.2608
G01 X13.2587 Y96.1861
G01 X13.2587 Y96.1406
G01 X13.2624 Y96.0660
G01 X13.2669 Y96.0207
G01 X13.2778 Y95.9467
G01 X13.2867 Y95.9021
G01 X13.3049 Y95.8296
G01 X13.3181 Y95.7861
G01 X13.3433 Y95.7157
G01 X13.3607 Y95.6737
G01 X13.3927 Y95.6061
G01 X13.4141 Y95.5659
G01 X13.4525 Y95.5018
G01 X13.4778 Y95.4640
G01 X13.5199 Y95.4072
G01 X13.5199 Y81.6796
G01 X13.4778 Y81.6228
G01 X13.4525 Y81.5850
G01 X13.4141 Y81.5208
G01 X13.3927 Y81.4807
G01 X13.3607 Y81.4131
G01 X13.3433 Y81.3711
G01 X13.3181 Y81.3007
G01 X13.3049 Y81.2572
G01 X13.2867 Y81.1846
G01 X13.2778 Y81.1400
G01 X13.2669 Y81.0661
G01 X13.2624 Y81.0208
G01 X13.2587 Y80.9461
G01 X13.2587 Y80.9006
G01 X13.2624 Y80.8260
G01 X13.2669 Y80.7807
G01 X13.2778 Y80.7067
G01 X13.2867 Y80.6621
G01 X13.3049 Y80.5896
G01 X13.3181 Y80.5461
G01 X13.3433 Y80.4757
G01 X13.3607 Y80.4337
G01 X13.3927 Y80.3661
G01 X13.4141 Y80.3259
G01 X13.4525 Y80.2618
G01 X13.4778 Y80.2240
G01 X13.5199 Y80.1672
G00 Z2.0000
G00 X8.4399 Y72.5472
G01 F60.00
G01 Z-0.2001
G01 F320.00
G01 X8.4399 Y5.4796
G01 X8.3978 Y5.4228
G01 X8.3725 Y5.3850
G01 X8.3341 Y5.3208
G01 X8.3127 Y5.2807
G01 X8.2807 Y5.2131
G01 X8.2633 Y5.1711
G01 X8.2381 Y5.1007
G01 X8.2249 Y5.0572
G01 X8.2067 Y4.9846
G01 X8.1978 Y4.9400
G01 X8.1869 Y4.8661
G01 X8.1824 Y4.8208
G01 X8.1787 Y4.7461
G01 X8.1787 Y4.7006
G01 X8.1824 Y4.6260
G01 X8.1869 Y4.5807
G01 X8.1978 Y4.5067
G01 X8.2067 Y4.4621
G01 X8.2249 Y4.3896
G01 X8.2381 Y4.3461
G01 X8.2633 Y4.2757
G01 X8.2807 Y4.2337
G01 X8.3127 Y4.1661
G01 X8.3341 Y4.1259
G01 X8.3725 Y4.0618
G01 X8.3978 Y4.0240
G01 X8.4423 Y3.9639
G01 X8.4712 Y3.9288
G01 X8.5214 Y3.8734
G01 X8.5536 Y3.8412
G01 X8.6090 Y3.7910
G01 X8.6441 Y3.7621
G01 X8.7042 Y3.7176
G01 X8.7420 Y3.6923
G01 X8.8061 Y3.6539
G01 X8.8463 Y3.6325
G01 X8.9139 Y3.6005
G01 X8.9559 Y3.5831
G01 X9.0263 Y3.5579
G01 X9.0698 Y3.5447
G01 X9.1423 Y3.5265
G01 X9.1869 Y3.5176
G01 X9.2609 Y3.5067
G01 X9.3062 Y3.5022
G01 X9.3809 Y3.4985
G01 X9.4263 Y3.4985
G01 X9.5010 Y3.5022
G01 X9.5463 Y3.5067
G01 X9.6202 Y3.5176
G01 X9.6648 Y3.5265
G01 X9.7374 Y3.5447
G01 X9.7809 Y3.5579
G01 X9.8513 Y3.5831
G01 X9.8933 Y3.6005
G01 X9.9609 Y3.6325
G01 X10.0010 Y3.6539
G01 X10.0652 Y3.6923
G01 X10.1030 Y3.7176
G01 X10.1630 Y3.7621
G01 X10.1982 Y3.7910
G01 X10.2536 Y3.8412
G01 X10.2858 Y3.8734
G01 X10.3360 Y3.9288
G01 X10.3648 Y3.9639
G01 X10.4094 Y4.0240
G01 X10.4346 Y4.0618
G01 X10.4731 Y4.1259
G01 X10.4945 Y4.1661
G01 X10.5265 Y4.2337
G01 X10.5439 Y4.2757
G01 X10.5691 Y4.3461
G01 X10.5823 Y4.3896
G01 X10.6005 Y4.4621
G01 X10.6093 Y4.5067
G01 X10.6203 Y4.5807
G01 X10.6248 Y4.6260
G01 X10.6284 Y4.7006
G01 X10.6284 Y4.7461
G01 X10.6248 Y4.8208
G01 X10.6203 Y4.8661
G01 X10.6093 Y4.9400
G01 X10.6005 Y4.9846
G01 X10.5823 Y5.0572
G01 X10.5691 Y5.1007
G01 X10.5439 Y5.1711
G01 X10.5265 Y5.2131
G01 X10.4945 Y5.2807
G01 X10.4731 Y5.3208
G01 X10.4346 Y5.3850
G01 X10.4094 Y5.4228
G01 X10.3672 Y5.4796
G01 X10.3672 Y41.8597
G01 X54.1599 Y41.8597
G01 X54.1599 Y12.3434
G01 X54.1605 Y12.3206
G01 X54.1629 Y12.2716
G01 X54.1674 Y12.2264
G01 X54.1746 Y12.1778
G01 X54.1834 Y12.1332
G01 X54.1954 Y12.0856
G01 X54.2086 Y12.0421
G01 X54.2251 Y11.9958
G01 X54.2425 Y11.9538
G01 X54.2635 Y11.9094
G01 X54.2849 Y11.8693
G01 X54.3102 Y11.8272
G01 X54.3354 Y11.7894
G01 X54.3647 Y11.7500
G01 X54.3935 Y11.7148
G01 X54.4265 Y11.6785
G01 X54.4587 Y11.6463
G01 X54.4950 Y11.6133
G01 X54.5302 Y11.5845
G01 X54.5696 Y11.5552
G01 X54.6074 Y11.5300
G01 X54.6495 Y11.5047
G01 X54.6896 Y11.4833
G01 X54.7340 Y11.4623
G01 X54.7760 Y11.4449
G01 X54.8223 Y11.4284
G01 X54.8658 Y11.4152
G01 X54.9134 Y11.4032
G01 X54.9580 Y11.3944
G01 X55.0066 Y11.3872
G01 X55.0518 Y11.3827
G01 X55.1009 Y11.3803
G01 X55.1236 Y11.3797
G01 X64.5274 Y11.3797
G01 X64.5842 Y11.3376
G01 X64.6220 Y11.3123
G01 X64.6861 Y11.2739
G01 X64.7263 Y11.2525
G01 X64.7939 Y11.2205
G01 X64.8359 Y11.2031
G01 X64.9063 Y11.1779
G01 X64.9498 Y11.1647
G01 X65.0223 Y11.1465
G01 X65.0669 Y11.1376
G01 X65.1409 Y11.1267
G01 X65.1862 Y11.1222
G01 X65.2609 Y11.1185
G01 X65.3063 Y11.1185
G01 X65.3810 Y11.1222
G01 X65.4263 Y11.1267
G01 X65.5002 Y11.1376
G01 X65.5448 Y11.1465
G01 X65.6174 Y11.1647
G01 X65.6609 Y11.1779
G01 X65.7313 Y11.2031
G01 X65.7733 Y11.2205
G01 X65.8409 Y11.2525
G01 X65.8810 Y11.2739
G01 X65.9452 Y11.3123
G01 X65.9830 Y11.3376
G01 X66.0430 Y11.3821
G01 X66.0782 Y11.4110
G01 X66.1336 Y11.4612
G01 X66.1658 Y11.4934
G01 X66.2160 Y11.5488
G01 X66.2448 Y11.5839
G01 X66.2894 Y11.6440
G01 X66.3146 Y11.6818
G01 X66.3531 Y11.7459
G01 X66.3745 Y11.7861
G01 X66.4065 Y11.8537
G01 X66.4239 Y11.8957
G01 X66.4491 Y11.9661
G01 X66.4623 Y12.0096
G01 X66.4805 Y12.0821
G01 X66.4893 Y12.1267
G01 X66.5003 Y12.2007
G01 X66.5048 Y12.2460
G01 X66.5084 Y12.3206
G01 X66.5084 Y12.3661
G01 X66.5048 Y12.4408
G01 X66.5003 Y12.4861
G01 X66.4893 Y12.5600
G01 X66.4805 Y12.6046
G01 X66.4623 Y12.6772
G01 X66.4491 Y12.7207
G01 X66.4239 Y12.7911
G01 X66.4065 Y12.8331
G01 X66.3745 Y12.9007
G01 X66.3531 Y12.9408
G01 X66.3146 Y13.0050
G01 X66.2894 Y13.0428
G01 X66.2448 Y13.1028
G01 X66.2160 Y13.1380
G01 X66.1658 Y13.1934
G01 X66.1336 Y13.2256
G01 X66.0782 Y13.2758
G01 X66.0430 Y13.3046
G01 X65.9830 Y13.3492
G01 X65.9452 Y13.3744
G01 X65.8810 Y13.4129
G01 X65.8409 Y13.4343
G01 X65.7733 Y13.4663
G01 X65.7313 Y13.4837
G01 X65.6609 Y13.5089
G01 X65.6174 Y13.5221
G01 X65.5448 Y13.5403
G01 X65.5002 Y13.5491
G01 X65.4263 Y13.5601
G01 X65.3810 Y13.5646
G01 X65.3063 Y13.5682
G01 X65.2609 Y13.5682
G01 X65.1862 Y13.5646
G01 X65.1409 Y13.5601
G01 X65.0669 Y13.5491
G01 X65.0223 Y13.5403
G01 X64.9498 Y13.5221
G01 X64.9063 Y13.5089
G01 X64.8359 Y13.4837
G01 X64.7939 Y13.4663
G01 X64.7263 Y13.4343
G01 X64.6861 Y13.4129
G01 X64.6220 Y13.3744
G01 X64.5842 Y13.3492
G01 X64.5274 Y13.3070
G01 X56.0872 Y13.3070
G01 X56.0872 Y42.8234
G01 X56.0867 Y42.8461
G01 X56.0843 Y42.8952
G01 X56.0798 Y42.9404
G01 X56.0726 Y42.9890
G01 X56.0637 Y43.0336
G01 X56.0518 Y43.0812
G01 X56.0386 Y43.1247
G01 X56.0221 Y43.1709
G01 X56.0047 Y43.2129
G01 X55.9837 Y43.2573
G01 X55.9622 Y43.2974
G01 X55.9370 Y43.3395
G01 X55.9117 Y43.3774
G01 X55.8825 Y43.4168
G01 X55.8536 Y43.4519
G01 X55.8207 Y43.4883
G01 X55.7885 Y43.5205
G01 X55.7521 Y43.5534
G01 X55.7170 Y43.5823
G01 X55.6776 Y43.6115
G01 X55.6397 Y43.6368
G01 X55.5976 Y43.6620
G01 X55.5575 Y43.6835
G01 X55.5132 Y43.7045
G01 X55.4711 Y43.7219
G01 X55.4249 Y43.7384
G01 X55.3814 Y43.7516
G01 X55.3338 Y43.7635
G01 X55.2892 Y43.7724
G01 X55.2406 Y43.7796
G01 X55.1954 Y43.7841
G01 X55.1463 Y43.7865
G01 X55.1236 Y43.7870
G01 X43.3872 Y43.7870
G01 X43.3872 Y46.6663
G01 X43.4035 Y46.6934
G01 X43.4249 Y46.7335
G01 X43.4526 Y46.7921
G01 X43.4700 Y46.8341
G01 X43.4919 Y46.8952
G01 X43.5051 Y46.9387
G01 X43.5208 Y47.0015
G01 X43.5297 Y47.0462
G01 X43.5392 Y47.1103
G01 X43.5436 Y47.1555
G01 X43.5468 Y47.2202
G01 X43.5474 Y47.2430
G01 X43.5474 Y48.5638
G01 X43.5468 Y48.5865
G01 X43.5436 Y48.6513
G01 X43.5392 Y48.6965
G01 X43.5297 Y48.7606
G01 X43.5208 Y48.8052
G01 X43.5051 Y48.8681
G01 X43.4919 Y48.9116
G01 X43.4700 Y48.9726
G01 X43.4526 Y49.0146
G01 X43.4249 Y49.0732
G01 X43.4035 Y49.1133
G01 X43.3702 Y49.1689
G01 X43.3449 Y49.2067
G01 X43.3063 Y49.2588
G01 X43.2774 Y49.2939
G01 X43.2339 Y49.3420
G01 X43.2018 Y49.3741
G01 X43.1537 Y49.4176
G01 X43.1186 Y49.4465
G01 X43.0738 Y49.4797
G01 X49.0799 Y49.4797
G01 X49.0799 Y49.1404
G01 X49.0637 Y49.1133
G01 X49.0423 Y49.0732
G01 X49.0146 Y49.0146
G01 X48.9971 Y48.9726
G01 X48.9753 Y48.9116
G01 X48.9621 Y48.8681
G01 X48.9464 Y48.8052
G01 X48.9375 Y48.7606
G01 X48.9280 Y48.6965
G01 X48.9235 Y48.6513
G01 X48.9203 Y48.5865
G01 X48.9198 Y48.5638
G01 X48.9198 Y47.2430
G01 X48.9203 Y47.2202
G01 X48.9235 Y47.1555
G01 X48.9280 Y47.1103
G01 X48.9375 Y47.0462
G01 X48.9464 Y47.0015
G01 X48.9621 Y46.9387
G01 X48.9753 Y46.8952
G01 X48.9971 Y46.8341
G01 X49.0146 Y46.7921
G01 X49.0423 Y46.7335
G01 X49.0637 Y46.6934
G01 X49.0970 Y46.6379
G01 X49.1223 Y46.6000
G01 X49.1609 Y46.5480
G01 X49.1897 Y46.5128
G01 X49.2333 Y46.4648
G01 X49.2654 Y46.4327
G01 X49.3134 Y46.3891
G01 X49.3486 Y46.3603
G01 X49.4006 Y46.3217
G01 X49.4385 Y46.2964
G01 X49.4940 Y46.2631
G01 X49.5341 Y46.2417
G01 X49.5927 Y46.2139
G01 X49.6348 Y46.1965
G01 X49.6958 Y46.1747
G01 X49.7393 Y46.1615
G01 X49.8022 Y46.1458
G01 X49.8468 Y46.1369
G01 X49.9109 Y46.1274
G01 X49.9561 Y46.1229
G01 X50.0209 Y46.1197
G01 X50.0663 Y46.1197
G01 X50.1311 Y46.1229
G01 X50.1763 Y46.1274
G01 X50.2404 Y46.1369
G01 X50.2850 Y46.1458
G01 X50.3479 Y46.1615
G01 X50.3914 Y46.1747
G01 X50.4524 Y46.1965
G01 X50.4944 Y46.2139
G01 X50.5530 Y46.2417
G01 X50.5931 Y46.2631
G01 X50.6487 Y46.2964
G01 X50.6865 Y46.3217
G01 X50.7386 Y46.3603
G01 X50.7737 Y46.3891
G01 X50.8218 Y46.4327
G01 X50.8539 Y46.4648
G01 X50.8974 Y46.5128
G01 X50.9263 Y46.5480
G01 X50.9649 Y46.6000
G01 X50.9902 Y46.6379
G01 X51.0235 Y46.6934
G01 X51.0449 Y46.7335
G01 X51.0726 Y46.7921
G01 X51.0900 Y46.8341
G01 X51.1119 Y46.8952
G01 X51.1251 Y46.9387
G01 X51.1408 Y47.0015
G01 X51.1497 Y47.0462
G01 X51.1592 Y47.1103
G01 X51.1636 Y47.1555
G01 X51.1668 Y47.2202
G01 X51.1674 Y47.2430
G01 X51.1674 Y48.5638
G01 X51.1668 Y48.5865
G01 X51.1636 Y48.6513
G01 X51.1592 Y48.6965
G01 X51.1497 Y48.7606
G01 X51.1408 Y48.8052
G01 X51.1251 Y48.8681
G01 X51.1119 Y48.9116
G01 X51.0900 Y48.9726
G01 X51.0726 Y49.0146
G01 X51.0449 Y49.0732
G01 X51.0235 Y49.1133
G01 X51.0072 Y49.1404
G01 X51.0072 Y50.4434
G01 X51.0067 Y50.4661
G01 X51.0043 Y50.5152
G01 X50.9998 Y50.5604
G01 X50.9926 Y50.6090
G01 X50.9837 Y50.6536
G01 X50.9718 Y50.7012
G01 X50.9586 Y50.7447
G01 X50.9421 Y50.7909
G01 X50.9247 Y50.8329
G01 X50.9037 Y50.8773
G01 X50.8822 Y50.9174
G01 X50.8570 Y50.9595
G01 X50.8317 Y50.9974
G01 X50.8025 Y51.0368
G01 X50.7736 Y51.0719
G01 X50.7407 Y51.1083
G01 X50.7085 Y51.1405
G01 X50.6721 Y51.1734
G01 X50.6370 Y51.2023
G01 X50.5976 Y51.2315
G01 X50.5597 Y51.2568
G01 X50.5176 Y51.2820
G01 X50.4949 Y51.2942
G01 X50.5530 Y51.3217
G01 X50.5931 Y51.3431
G01 X50.6487 Y51.3764
G01 X50.6865 Y51.4017
G01 X50.7386 Y51.4403
G01 X50.7737 Y51.4691
G01 X50.8218 Y51.5127
G01 X50.8539 Y51.5448
G01 X50.8974 Y51.5928
G01 X50.9263 Y51.6280
G01 X50.9649 Y51.6800
G01 X50.9902 Y51.7179
G01 X51.0235 Y51.7734
G01 X51.0449 Y51.8135
G01 X51.0726 Y51.8721
G01 X51.0900 Y51.9141
G01 X51.1119 Y51.9752
G01 X51.1251 Y52.0187
G01 X51.1408 Y52.0815
G01 X51.1497 Y52.1262
G01 X51.1592 Y52.1903
G01 X51.1636 Y52.2355
G01 X51.1668 Y52.3002
G01 X51.1674 Y52.3230
G01 X51.1674 Y53.6438
G01 X51.1668 Y53.6665
G01 X51.1636 Y53.7313
G01 X51.1592 Y53.7765
G01 X51.1497 Y53.8406
G01 X51.1408 Y53.8852
G01 X51.1251 Y53.9481
G01 X51.1119 Y53.9916
G01 X51.0900 Y54.0526
G01 X51.0726 Y54.0946
G01 X51.0449 Y54.1532
G01 X51.0235 Y54.1933
G01 X51.0072 Y54.2204
G01 X51.0072 Y55.5234
G01 X51.0067 Y55.5461
G01 X51.0043 Y55.5952
G01 X50.9998 Y55.6404
G01 X50.9926 Y55.6890
G01 X50.9837 Y55.7336
G01 X50.9718 Y55.7812
G01 X50.9586 Y55.8247
G01 X50.9421 Y55.8709
G01 X50.9247 Y55.9129
G01 X50.9037 Y55.9573
G01 X50.8822 Y55.9974
G01 X50.8570 Y56.0395
G01 X50.8317 Y56.0774
G01 X50.8025 Y56.1168
G01 X50.7736 Y56.1519
G01 X50.7407 Y56.1883
G01 X50.7085 Y56.2205
G01 X50.6721 Y56.2534
G01 X50.6370 Y56.2823
G01 X50.5976 Y56.3115
G01 X50.5597 Y56.3368
G01 X50.5176 Y56.3620
G01 X50.4775 Y56.3835
G01 X50.4332 Y56.4045
G01 X50.3911 Y56.4219
G01 X50.3449 Y56.4384
G01 X50.3014 Y56.4516
G01 X50.2538 Y56.4635
G01 X50.2092 Y56.4724
G01 X50.1606 Y56.4796
G01 X50.1154 Y56.4841
G01 X50.0663 Y56.4865
G01 X50.0436 Y56.4870
G01 X20.5272 Y56.4870
G01 X20.5272 Y95.4072
G01 X20.5694 Y95.4640
G01 X20.5946 Y95.5018
G01 X20.6331 Y95.5659
G01 X20.6545 Y95.6061
G01 X20.6865 Y95.6737
G01 X20.7039 Y95.7157
G01 X20.7291 Y95.7861
G01 X20.7423 Y95.8296
G01 X20.7605 Y95.9021
G01 X20.7693 Y95.9467
G01 X20.7803 Y96.0207
G01 X20.7848 Y96.0660
G01 X20.7884 Y96.1406
G01 X20.7884 Y96.1861
G01 X20.7848 Y96.2608
G01 X20.7803 Y96.3061
G01 X20.7693 Y96.3800
G01 X20.7605 Y96.4246
G01 X20.7423 Y96.4972
G01 X20.7291 Y96.5407
G01 X20.7039 Y96.6111
G01 X20.6865 Y96.6531
G01 X20.6545 Y96.7207
G01 X20.6331 Y96.7608
G01 X20.5946 Y96.8250
G01 X20.5694 Y96.8628
G01 X20.5248 Y96.9228
G01 X20.4960 Y96.9580
G01 X20.4458 Y97.0134
G01 X20.4136 Y97.0456
G01 X20.3582 Y97.0958
G01 X20.3230 Y97.1246
G01 X20.2630 Y97.1692
G01 X20.2252 Y97.1944
G01 X20.1610 Y97.2329
G01 X20.1209 Y97.2543
G01 X20.0533 Y97.2863
G01 X20.0113 Y97.3037
G01 X19.9409 Y97.3289
G01 X19.8974 Y97.3421
G01 X19.8248 Y97.3603
G01 X19.7802 Y97.3691
G01 X19.7063 Y97.3801
G01 X19.6610 Y97.3846
G01 X19.5863 Y97.3882
G01 X19.5409 Y97.3882
G01 X19.4662 Y97.3846
G01 X19.4209 Y97.3801
G01 X19.3469 Y97.3691
G01 X19.3023 Y97.3603
G01 X19.2298 Y97.3421
G01 X19.1863 Y97.3289
G01 X19.1159 Y97.3037
G01 X19.0739 Y97.2863
G01 X19.0063 Y97.2543
G01 X18.9661 Y97.2329
G01 X18.9020 Y97.1944
G01 X18.8642 Y97.1692
G01 X18.8041 Y97.1246
G01 X18.7690 Y97.0958
G01 X18.7136 Y97.0456
G01 X18.6814 Y97.0134
G01 X18.6312 Y96.9580
G01 X18.6023 Y96.9228
G01 X18.5578 Y96.8628
G01 X18.5325 Y96.8250
G01 X18.4941 Y96.7608
G01 X18.4727 Y96.7207
G01 X18.4407 Y96.6531
G01 X18.4233 Y96.6111
G01 X18.3981 Y96.5407
G01 X18.3849 Y96.4972
G01 X18.3667 Y96.4246
G01 X18.3578 Y96.3800
G01 X18.3469 Y96.3061
G01 X18.3424 Y96.2608
G01 X18.3387 Y96.1861
G01 X18.3387 Y96.1406
G01 X18.3424 Y96.0660
G01 X18.3469 Y96.0207
G01 X18.3578 Y95.9467
G01 X18.3667 Y95.9021
G01 X18.3849 Y95.8296
G01 X18.3981 Y95.7861
G01 X18.4233 Y95.7157
G01 X18.4407 Y95.6737
G01 X18.4727 Y95.6061
G01 X18.4941 Y95.5659
G01 X18.5325 Y95.5018
G01 X18.5578 Y95.4640
G01 X18.5999 Y95.4072
G01 X18.5999 Y55.5234
G01 X18.6005 Y55.5006
G01 X18.6029 Y55.4516
G01 X18.6074 Y55.4064
G01 X18.6146 Y55.3578
G01 X18.6234 Y55.3132
G01 X18.6354 Y55.2656
G01 X18.6486 Y55.2221
G01 X18.6651 Y55.1758
G01 X18.6825 Y55.1338
G01 X18.7035 Y55.0894
G01 X18.7249 Y55.0493
G01 X18.7502 Y55.0072
G01 X18.7754 Y54.9694
G01 X18.8047 Y54.9300
G01 X18.8335 Y54.8948
G01 X18.8665 Y54.8585
G01 X18.8987 Y54.8263
G01 X18.9350 Y54.7933
G01 X18.9702 Y54.7645
G01 X19.0096 Y54.7352
G01 X19.0474 Y54.7100
G01 X19.0895 Y54.6847
G01 X19.1296 Y54.6633
G01 X19.1740 Y54.6423
G01 X19.2160 Y54.6249
G01 X19.2623 Y54.6084
G01 X19.3058 Y54.5952
G01 X19.3534 Y54.5832
G01 X19.3980 Y54.5744
G01 X19.4466 Y54.5672
G01 X19.4918 Y54.5627
G01 X19.5409 Y54.5603
G01 X19.5636 Y54.5597
G01 X41.7734 Y54.5597
G01 X41.7286 Y54.5265
G01 X41.6934 Y54.4976
G01 X41.6454 Y54.4541
G01 X41.6133 Y54.4220
G01 X41.5697 Y54.3739
G01 X41.5409 Y54.3388
G01 X41.5023 Y54.2867
G01 X41.4770 Y54.2489
G01 X41.4437 Y54.1933
G01 X41.4223 Y54.1532
G01 X41.3946 Y54.0946
G01 X41.3771 Y54.0526
G01 X41.3553 Y53.9916
G01 X41.3421 Y53.9481
G01 X41.3264 Y53.8852
G01 X41.3175 Y53.8406
G01 X41.3080 Y53.7765
G01 X41.3035 Y53.7313
G01 X41.3003 Y53.6665
G01 X41.2998 Y53.6438
G01 X41.2998 Y52.3230
G01 X41.3003 Y52.3002
G01 X41.3035 Y52.2355
G01 X41.3080 Y52.1903
G01 X41.3175 Y52.1262
G01 X41.3264 Y52.0815
G01 X41.3421 Y52.0187
G01 X41.3553 Y51.9752
G01 X41.3771 Y51.9141
G01 X41.3946 Y51.8721
G01 X41.4223 Y51.8135
G01 X41.4437 Y51.7734
G01 X41.4770 Y51.7179
G01 X41.5023 Y51.6800
G01 X41.5409 Y51.6280
G01 X41.5697 Y51.5928
G01 X41.6133 Y51.5448
G01 X41.6454 Y51.5127
G01 X41.6934 Y51.4691
G01 X41.7286 Y51.4403
G01 X41.7734 Y51.4070
G01 X17.9872 Y51.4070
G01 X17.9872 Y59.8472
G01 X18.0294 Y59.9040
G01 X18.0546 Y59.9418
G01 X18.0931 Y60.0059
G01 X18.1145 Y60.0461
G01 X18.1465 Y60.1137
G01 X18.1639 Y60.1557
G01 X18.1891 Y60.2261
G01 X18.2023 Y60.2696
G01 X18.2205 Y60.3421
G01 X18.2293 Y60.3867
G01 X18.2403 Y60.4607
G01 X18.2448 Y60.5060
G01 X18.2484 Y60.5806
G01 X18.2484 Y60.6261
G01 X18.2448 Y60.7008
G01 X18.2403 Y60.7461
G01 X18.2293 Y60.8200
G01 X18.2205 Y60.8646
G01 X18.2023 Y60.9372
G01 X18.1891 Y60.9807
G01 X18.1639 Y61.0511
G01 X18.1465 Y61.0931
G01 X18.1145 Y61.1607
G01 X18.0931 Y61.2008
G01 X18.0546 Y61.2650
G01 X18.0294 Y61.3028
G01 X17.9848 Y61.3628
G01 X17.9560 Y61.3980
G01 X17.9058 Y61.4534
G01 X17.8736 Y61.4856
G01 X17.8182 Y61.5358
G01 X17.7830 Y61.5646
G01 X17.7230 Y61.6092
G01 X17.6852 Y61.6344
G01 X17.6210 Y61.6729
G01 X17.5809 Y61.6943
G01 X17.5133 Y61.7263
G01 X17.4713 Y61.7437
G01 X17.4009 Y61.7689
G01 X17.3574 Y61.7821
G01 X17.2848 Y61.8003
G01 X17.2402 Y61.8091
G01 X17.1663 Y61.8201
G01 X17.1210 Y61.8246
G01 X17.0463 Y61.8282
G01 X17.0009 Y61.8282
G01 X16.9262 Y61.8246
G01 X16.8809 Y61.8201
G01 X16.8069 Y61.8091
G01 X16.7623 Y61.8003
G01 X16.6898 Y61.7821
G01 X16.6463 Y61.7689
G01 X16.5759 Y61.7437
G01 X16.5339 Y61.7263
G01 X16.4663 Y61.6943
G01 X16.4261 Y61.6729
G01 X16.3620 Y61.6344
G01 X16.3242 Y61.6092
G01 X16.2674 Y61.5670
G01 X12.6998 Y61.5670
G01 X12.6430 Y61.6092
G01 X12.6052 Y61.6344
G01 X12.5410 Y61.6729
G01 X12.5009 Y61.6943
G01 X12.4333 Y61.7263
G01 X12.3913 Y61.7437
G01 X12.3209 Y61.7689
G01 X12.2774 Y61.7821
G01 X12.2048 Y61.8003
G01 X12.1602 Y61.8091
G01 X12.0863 Y61.8201
G01 X12.0410 Y61.8246
G01 X11.9663 Y61.8282
G01 X11.9209 Y61.8282
G01 X11.8462 Y61.8246
G01 X11.8009 Y61.8201
G01 X11.7269 Y61.8091
G01 X11.6823 Y61.8003
G01 X11.6098 Y61.7821
G01 X11.5663 Y61.7689
G01 X11.4959 Y61.7437
G01 X11.4539 Y61.7263
G01 X11.3863 Y61.6943
G01 X11.3461 Y61.6729
G01 X11.2820 Y61.6344
G01 X11.2442 Y61.6092
G01 X11.1841 Y61.5646
G01 X11.1490 Y61.5358
G01 X11.0936 Y61.4856
G01 X11.0614 Y61.4534
G01 X11.0112 Y61.3980
G01 X10.9823 Y61.3628
G01 X10.9378 Y61.3028
G01 X10.9125 Y61.2650
G01 X10.8741 Y61.2008
G01 X10.8527 Y61.1607
G01 X10.8207 Y61.0931
G01 X10.8033 Y61.0511
G01 X10.7781 Y60.9807
G01 X10.7649 Y60.9372
G01 X10.7467 Y60.8646
G01 X10.7378 Y60.8200
G01 X10.7269 Y60.7461
G01 X10.7224 Y60.7008
G01 X10.7187 Y60.6261
G01 X10.7187 Y60.5806
G01 X10.7224 Y60.5060
G01 X10.7269 Y60.4607
G01 X10.7378 Y60.3867
G01 X10.7467 Y60.3421
G01 X10.7649 Y60.2696
G01 X10.7781 Y60.2261
G01 X10.8033 Y60.1557
G01 X10.8207 Y60.1137
G01 X10.8527 Y60.0461
G01 X10.8741 Y60.0059
G01 X10.9125 Y59.9418
G01 X10.9378 Y59.9040
G01 X10.9823 Y59.8439
G01 X11.0112 Y59.8088
G01 X11.0614 Y59.7534
G01 X11.0936 Y59.7212
G01 X11.1490 Y59.6710
G01 X11.1841 Y59.6421
G01 X11.2442 Y59.5976
G01 X11.2820 Y59.5723
G01 X11.3461 Y59.5339
G01 X11.3863 Y59.5125
G01 X11.4539 Y59.4805
G01 X11.4959 Y59.4631
G01 X11.5663 Y59.4379
G01 X11.6098 Y59.4247
G01 X11.6823 Y59.4065
G01 X11.7269 Y59.3976
G01 X11.8009 Y59.3867
G01 X11.8462 Y59.3822
G01 X11.9209 Y59.3785
G01 X11.9663 Y59.3785
G01 X12.0410 Y59.3822
G01 X12.0863 Y59.3867
G01 X12.1602 Y59.3976
G01 X12.2048 Y59.4065
G01 X12.2774 Y59.4247
G01 X12.3209 Y59.4379
G01 X12.3913 Y59.4631
G01 X12.4333 Y59.4805
G01 X12.5009 Y59.5125
G01 X12.5410 Y59.5339
G01 X12.6052 Y59.5723
G01 X12.6430 Y59.5976
G01 X12.6998 Y59.6397
G01 X16.0599 Y59.6397
G01 X16.0599 Y50.4434
G01 X16.0605 Y50.4206
G01 X16.0629 Y50.3716
G01 X16.0674 Y50.3264
G01 X16.0746 Y50.2778
G01 X16.0834 Y50.2332
G01 X16.0954 Y50.1856
G01 X16.1086 Y50.1421
G01 X16.1251 Y50.0958
G01 X16.1425 Y50.0538
G01 X16.1635 Y50.0094
G01 X16.1849 Y49.9693
G01 X16.2102 Y49.9272
G01 X16.2354 Y49.8894
G01 X16.2647 Y49.8500
G01 X16.2935 Y49.8148
G01 X16.3265 Y49.7785
G01 X16.3587 Y49.7463
G01 X16.3950 Y49.7133
G01 X16.4302 Y49.6845
G01 X16.4696 Y49.6552
G01 X16.5074 Y49.6300
G01 X16.5495 Y49.6047
G01 X16.5896 Y49.5833
G01 X16.6340 Y49.5623
G01 X16.6760 Y49.5449
G01 X16.7223 Y49.5284
G01 X16.7658 Y49.5152
G01 X16.8134 Y49.5032
G01 X16.8580 Y49.4944
G01 X16.9066 Y49.4872
G01 X16.9518 Y49.4827
G01 X17.0009 Y49.4803
G01 X17.0236 Y49.4797
G01 X41.7734 Y49.4797
G01 X41.7286 Y49.4465
G01 X41.6934 Y49.4176
G01 X41.6454 Y49.3741
G01 X41.6133 Y49.3420
G01 X41.5697 Y49.2939
G01 X41.5409 Y49.2588
G01 X41.5023 Y49.2067
G01 X41.4770 Y49.1689
G01 X41.4437 Y49.1133
G01 X41.4223 Y49.0732
G01 X41.3946 Y49.0146
G01 X41.3771 Y48.9726
G01 X41.3553 Y48.9116
G01 X41.3421 Y48.8681
G01 X41.3264 Y48.8052
G01 X41.3175 Y48.7606
G01 X41.3080 Y48.6965
G01 X41.3035 Y48.6513
G01 X41.3003 Y48.5865
G01 X41.2998 Y48.5638
G01 X41.2998 Y47.2430
G01 X41.3003 Y47.2202
G01 X41.3035 Y47.1555
G01 X41.3080 Y47.1103
G01 X41.3175 Y47.0462
G01 X41.3264 Y47.0015
G01 X41.3421 Y46.9387
G01 X41.3553 Y46.8952
G01 X41.3771 Y46.8341
G01 X41.3946 Y46.7921
G01 X41.4223 Y46.7335
G01 X41.4437 Y46.6934
G01 X41.4599 Y46.6663
G01 X41.4599 Y43.7870
G01 X10.3672 Y43.7870
G01 X10.3672 Y72.5472
G01 X10.4094 Y72.6040
G01 X10.4346 Y72.6418
G01 X10.4731 Y72.7059
G01 X10.4945 Y72.7461
G01 X10.5265 Y72.8137
G01 X10.5439 Y72.8557
G01 X10.5691 Y72.9261
G01 X10.5823 Y72.9696
G01 X10.6005 Y73.0421
G01 X10.6093 Y73.0867
G01 X10.6203 Y73.1607
G01 X10.6248 Y73.2060
G01 X10.6284 Y73.2806
G01 X10.6284 Y73.3261
G01 X10.6248 Y73.4008
G01 X10.6203 Y73.4461
G01 X10.6093 Y73.5200
G01 X10.6005 Y73.5646
G01 X10.5823 Y73.6372
G01 X10.5691 Y73.6807
G01 X10.5439 Y73.7511
G01 X10.5265 Y73.7931
G01 X10.4945 Y73.8607
G01 X10.4731 Y73.9008
G01 X10.4346 Y73.9650
G01 X10.4094 Y74.0028
G01 X10.3672 Y74.0596
G01 X10.3672 Y95.4072
G01 X10.4094 Y95.4640
G01 X10.4346 Y95.5018
G01 X10.4731 Y95.5659
G01 X10.4945 Y95.6061
G01 X10.5265 Y95.6737
G01 X10.5439 Y95.7157
G01 X10.5691 Y95.7861
G01 X10.5823 Y95.8296
G01 X10.6005 Y95.9021
G01 X10.6093 Y95.9467
G01 X10.6203 Y96.0207
G01 X10.6248 Y96.0660
G01 X10.6284 Y96.1406
G01 X10.6284 Y96.1861
G01 X10.6248 Y96.2608
G01 X10.6203 Y96.3061
G01 X10.6093 Y96.3800
G01 X10.6005 Y96.4246
G01 X10.5823 Y96.4972
G01 X10.5691 Y96.5407
G01 X10.5439 Y96.6111
G01 X10.5265 Y96.6531
G01 X10.4945 Y96.7207
G01 X10.4731 Y96.7608
G01 X10.4346 Y96.8250
G01 X10.4094 Y96.8628
G01 X10.3648 Y96.9228
G01 X10.3360 Y96.9580
G01 X10.2858 Y97.0134
G01 X10.2536 Y97.0456
G01 X10.1982 Y97.0958
G01 X10.1630 Y97.1246
G01 X10.1030 Y97.1692
G01 X10.0652 Y97.1944
G01 X10.0010 Y97.2329
G01 X9.9609 Y97.2543
G01 X9.8933 Y97.2863
G01 X9.8513 Y97.3037
G01 X9.7809 Y97.3289
G01 X9.7374 Y97.3421
G01 X9.6648 Y97.3603
G01 X9.6202 Y97.3691
G01 X9.5463 Y97.3801
G01 X9.5010 Y97.3846
G01 X9.4263 Y97.3882
G01 X9.3809 Y97.3882
G01 X9.3062 Y97.3846
G01 X9.2609 Y97.3801
G01 X9.1869 Y97.3691
G01 X9.1423 Y97.3603
G01 X9.0698 Y97.3421
G01 X9.0263 Y97.3289
G01 X8.9559 Y97.3037
G01 X8.9139 Y97.2863
G01 X8.8463 Y97.2543
G01 X8.8061 Y97.2329
G01 X8.7420 Y97.1944
G01 X8.7042 Y97.1692
G01 X8.6441 Y97.1246
G01 X8.6090 Y97.0958
G01 X8.5536 Y97.0456
G01 X8.5214 Y97.0134
G01 X8.4712 Y96.9580
G01 X8.4423 Y96.9228
G01 X8.3978 Y96.8628
G01 X8.3725 Y96.8250
G01 X8.3341 Y96.7608
G01 X8.3127 Y96.7207
G01 X8.2807 Y96.6531
G01 X8.2633 Y96.6111
G01 X8.2381 Y96.5407
G01 X8.2249 Y96.4972
G01 X8.2067 Y96.4246
G01 X8.1978 Y96.3800
G01 X8.1869 Y96.3061
G01 X8.1824 Y96.2608
G01 X8.1787 Y96.1861
G01 X8.1787 Y96.1406
G01 X8.1824 Y96.0660
G01 X8.1869 Y96.0207
G01 X8.1978 Y95.9467
G01 X8.2067 Y95.9021
G01 X8.2249 Y95.8296
G01 X8.2381 Y95.7861
G01 X8.2633 Y95.7157
G01 X8.2807 Y95.6737
G01 X8.3127 Y95.6061
G01 X8.3341 Y95.5659
G01 X8.3725 Y95.5018
G01 X8.3978 Y95.4640
G01 X8.4399 Y95.4072
G01 X8.4399 Y74.0596
G01 X8.3978 Y74.0028
G01 X8.3725 Y73.9650
G01 X8.3341 Y73.9008
G01 X8.3127 Y73.8607
G01 X8.2807 Y73.7931
G01 X8.2633 Y73.7511
G01 X8.2381 Y73.6807
G01 X8.2249 Y73.6372
G01 X8.2067 Y73.5646
G01 X8.1978 Y73.5200
G01 X8.1869 Y73.4461
G01 X8.1824 Y73.4008
G01 X8.1787 Y73.3261
G01 X8.1787 Y73.2806
G01 X8.1824 Y73.2060
G01 X8.1869 Y73.1607
G01 X8.1978 Y73.0867
G01 X8.2067 Y73.0421
G01 X8.2249 Y72.9696
G01 X8.2381 Y72.9261
G01 X8.2633 Y72.8557
G01 X8.2807 Y72.8137
G01 X8.3127 Y72.7461
G01 X8.3341 Y72.7059
G01 X8.3725 Y72.6418
G01 X8.3978 Y72.6040
G01 X8.4399 Y72.5472
G00 Z2.0000
G00 X16.0599 Y95.4072
G01 F60.00
G01 Z-0.2001
G01 F320.00
G01 X16.0599 Y71.5196
G01 X16.0178 Y71.4628
G01 X15.9925 Y71.4250
G01 X15.9541 Y71.3608
G01 X15.9327 Y71.3207
G01 X15.9007 Y71.2531
G01 X15.8833 Y71.2111
G01 X15.8581 Y71.1407
G01 X15.8449 Y71.0972
G01 X15.8267 Y71.0246
G01 X15.8178 Y70.9800
G01 X15.8069 Y70.9061
G01 X15.8024 Y70.8608
G01 X15.7987 Y70.7861
G01 X15.7987 Y70.7406
G01 X15.8024 Y70.6660
G01 X15.8069 Y70.6207
G01 X15.8178 Y70.5467
G01 X15.8267 Y70.5021
G01 X15.8449 Y70.4296
G01 X15.8581 Y70.3861
G01 X15.8833 Y70.3157
G01 X15.9007 Y70.2737
G01 X15.9327 Y70.2061
G01 X15.9541 Y70.1659
G01 X15.9925 Y70.1018
G01 X16.0178 Y70.0640
G01 X16.0623 Y70.0039
G01 X16.0912 Y69.9688
G01 X16.1414 Y69.9134
G01 X16.1736 Y69.8812
G01 X16.2290 Y69.8310
G01 X16.2641 Y69.8021
G01 X16.3242 Y69.7576
G01 X16.3620 Y69.7323
G01 X16.4261 Y69.6939
G01 X16.4663 Y69.6725
G01 X16.5339 Y69.6405
G01 X16.5759 Y69.6231
G01 X16.6463 Y69.5979
G01 X16.6898 Y69.5847
G01 X16.7623 Y69.5665
G01 X16.8069 Y69.5576
G01 X16.8809 Y69.5467
G01 X16.9262 Y69.5422
G01 X17.0009 Y69.5385
G01 X17.0463 Y69.5385
G01 X17.1210 Y69.5422
G01 X17.1663 Y69.5467
G01 X17.2402 Y69.5576
G01 X17.2848 Y69.5665
G01 X17.3574 Y69.5847
G01 X17.4009 Y69.5979
G01 X17.4713 Y69.6231
G01 X17.5133 Y69.6405
G01 X17.5809 Y69.6725
G01 X17.6210 Y69.6939
G01 X17.6852 Y69.7323
G01 X17.7230 Y69.7576
G01 X17.7830 Y69.8021
G01 X17.8182 Y69.8310
G01 X17.8736 Y69.8812
G01 X17.9058 Y69.9134
G01 X17.9560 Y69.9688
G01 X17.9848 Y70.0039
G01 X18.0294 Y70.0640
G01 X18.0546 Y70.1018
G01 X18.0931 Y70.1659
G01 X18.1145 Y70.2061
G01 X18.1465 Y70.2737
G01 X18.1639 Y70.3157
G01 X18.1891 Y70.3861
G01 X18.2023 Y70.4296
G01 X18.2205 Y70.5021
G01 X18.2293 Y70.5467
G01 X18.2403 Y70.6207
G01 X18.2448 Y70.6660
G01 X18.2484 Y70.7406
G01 X18.2484 Y70.7861
G01 X18.2448 Y70.8608
G01 X18.2403 Y70.9061
G01 X18.2293 Y70.9800
G01 X18.2205 Y71.0246
G01 X18.2023 Y71.0972
G01 X18.1891 Y71.1407
G01 X18.1639 Y71.2111
G01 X18.1465 Y71.2531
G01 X18.1145 Y71.3207
G01 X18.0931 Y71.3608
G01 X18.0546 Y71.4250
G01 X18.0294 Y71.4628
G01 X17.9872 Y71.5196
G01 X17.9872 Y95.4072
G01 X18.0294 Y95.4640
G01 X18.0546 Y95.5018
G01 X18.0931 Y95.5659
G01 X18.1145 Y95.6061
G01 X18.1465 Y95.6737
G01 X18.1639 Y95.7157
G01 X18.1891 Y95.7861
G01 X18.2023 Y95.8296
G01 X18.2205 Y95.9021
G01 X18.2293 Y95.9467
G01 X18.2403 Y96.0207
G01 X18.2448 Y96.0660
G01 X18.2484 Y96.1406
G01 X18.2484 Y96.1861
G01 X18.2448 Y96.2608
G01 X18.2403 Y96.3061
G01 X18.2293 Y96.3800
G01 X18.2205 Y96.4246
G01 X18.2023 Y96.4972
G01 X18.1891 Y96.5407
G01 X18.1639 Y96.6111
G01 X18.1465 Y96.6531
G01 X18.1145 Y96.7207
G01 X18.0931 Y96.7608
G01 X18.0546 Y96.8250
G01 X18.0294 Y96.8628
G01 X17.9848 Y96.9228
G01 X17.9560 Y96.9580
G01 X17.9058 Y97.0134
G01 X17.8736 Y97.0456
G01 X17.8182 Y97.0958
G01 X17.7830 Y97.1246
G01 X17.7230 Y97.1692
G01 X17.6852 Y97.1944
G01 X17.6210 Y97.2329
G01 X17.5809 Y97.2543
G01 X17.5133 Y97.2863
G01 X17.4713 Y97.3037
G01 X17.4009 Y97.3289
G01 X17.3574 Y97.3421
G01 X17.2848 Y97.3603
G01 X17.2402 Y97.3691
G01 X17.1663 Y97.3801
G01 X17.1210 Y97.3846
G01 X17.0463 Y97.3882
G01 X17.0009 Y97.3882
G01 X16.9262 Y97.3846
G01 X16.8809 Y97.3801
G01 X16.8069 Y97.3691
G01 X16.7623 Y97.3603
G01 X16.6898 Y97.3421
G01 X16.6463 Y97.3289
G01 X16.5759 Y97.3037
G01 X16.5339 Y97.2863
G01 X16.4663 Y97.2543
G01 X16.4261 Y97.2329
G01 X16.3620 Y97.1944
G01 X16.3242 Y97.1692
G01 X16.2641 Y97.1246
G01 X16.2290 Y97.0958
G01 X16.1736 Y97.0456
G01 X16.1414 Y97.0134
G01 X16.0912 Y96.9580
G01 X16.0623 Y96.9228
G01 X16.0178 Y96.8628
G01 X15.9925 Y96.8250
G01 X15.9541 Y96.7608
G01 X15.9327 Y96.7207
G01 X15.9007 Y96.6531
G01 X15.8833 Y96.6111
G01 X15.8581 Y96.5407
G01 X15.8449 Y96.4972
G01 X15.8267 Y96.4246
G01 X15.8178 Y96.3800
G01 X15.8069 Y96.3061
G01 X15.8024 Y96.2608
G01 X15.7987 Y96.1861
G01 X15.7987 Y96.1406
G01 X15.8024 Y96.0660
G01 X15.8069 Y96.0207
G01 X15.8178 Y95.9467
G01 X15.8267 Y95.9021
G01 X15.8449 Y95.8296
G01 X15.8581 Y95.7861
G01 X15.8833 Y95.7157
G01 X15.9007 Y95.6737
G01 X15.9327 Y95.6061
G01 X15.9541 Y95.5659
G01 X15.9925 Y95.5018
G01 X16.0178 Y95.4640
G01 X16.0599 Y95.4072
G00 Z2.0000
G00 X43.0738 Y54.5597
G01 F60.00
G01 Z-0.2001
G01 F320.00
G01 X43.1186 Y54.5265
G01 X43.1537 Y54.4976
G01 X43.2018 Y54.4541
G01 X43.2339 Y54.4220
G01 X43.2774 Y54.3739
G01 X43.3063 Y54.3388
G01 X43.3449 Y54.2867
G01 X43.3702 Y54.2489
G01 X43.4035 Y54.1933
G01 X43.4249 Y54.1532
G01 X43.4526 Y54.0946
G01 X43.4700 Y54.0526
G01 X43.4919 Y53.9916
G01 X43.5051 Y53.9481
G01 X43.5208 Y53.8852
G01 X43.5297 Y53.8406
G01 X43.5392 Y53.7765
G01 X43.5436 Y53.7313
G01 X43.5468 Y53.6665
G01 X43.5474 Y53.6438
G01 X43.5474 Y52.3230
G01 X43.5468 Y52.3002
G01 X43.5436 Y52.2355
G01 X43.5392 Y52.1903
G01 X43.5297 Y52.1262
G01 X43.5208 Y52.0815
G01 X43.5051 Y52.0187
G01 X43.4919 Y51.9752
G01 X43.4700 Y51.9141
G01 X43.4526 Y51.8721
G01 X43.4249 Y51.8135
G01 X43.4035 Y51.7734
G01 X43.3702 Y51.7179
G01 X43.3449 Y51.6800
G01 X43.3063 Y51.6280
G01 X43.2774 Y51.5928
G01 X43.2339 Y51.5448
G01 X43.2018 Y51.5127
G01 X43.1537 Y51.4691
G01 X43.1186 Y51.4403
G01 X43.0738 Y51.4070
G01 X49.3934 Y51.4070
G01 X49.3486 Y51.4403
G01 X49.3134 Y51.4691
G01 X49.2654 Y51.5127
G01 X49.2333 Y51.5448
G01 X49.1897 Y51.5928
G01 X49.1609 Y51.6280
G01 X49.1223 Y51.6800
G01 X49.0970 Y51.7179
G01 X49.0637 Y51.7734
G01 X49.0423 Y51.8135
G01 X49.0146 Y51.8721
G01 X48.9971 Y51.9141
G01 X48.9753 Y51.9752
G01 X48.9621 Y52.0187
G01 X48.9464 Y52.0815
G01 X48.9375 Y52.1262
G01 X48.9280 Y52.1903
G01 X48.9235 Y52.2355
G01 X48.9203 Y52.3002
G01 X48.9198 Y52.3230
G01 X48.9198 Y53.6438
G01 X48.9203 Y53.6665
G01 X48.9235 Y53.7313
G01 X48.9280 Y53.7765
G01 X48.9375 Y53.8406
G01 X48.9464 Y53.8852
G01 X48.9621 Y53.9481
G01 X48.9753 Y53.9916
G01 X48.9971 Y54.0526
G01 X49.0146 Y54.0946
G01 X49.0423 Y54.1532
G01 X49.0637 Y54.1933
G01 X49.0799 Y54.2204
G01 X49.0799 Y54.5597
G01 X43.0738 Y54.5597
G00 Z2.0000
G00 X52.5609 Y46.1197
G01 F60.00
G01 Z-0.2001
G01 F320.00
G01 X52.6063 Y46.1197
G01 X52.6711 Y46.1229
G01 X52.7163 Y46.1274
G01 X52.7804 Y46.1369
G01 X52.8250 Y46.1458
G01 X52.8879 Y46.1615
G01 X52.9314 Y46.1747
G01 X52.9924 Y46.1965
G01 X53.0344 Y46.2139
G01 X53.0930 Y46.2417
G01 X53.1331 Y46.2631
G01 X53.1887 Y46.2964
G01 X53.2265 Y46.3217
G01 X53.2786 Y46.3603
G01 X53.3137 Y46.3891
G01 X53.3618 Y46.4327
G01 X53.3939 Y46.4648
G01 X53.4374 Y46.5128
G01 X53.4663 Y46.5480
G01 X53.5049 Y46.6000
G01 X53.5302 Y46.6379
G01 X53.5635 Y46.6934
G01 X53.5849 Y46.7335
G01 X53.6126 Y46.7921
G01 X53.6300 Y46.8341
G01 X53.6519 Y46.8952
G01 X53.6651 Y46.9387
G01 X53.6808 Y47.0015
G01 X53.6897 Y47.0462
G01 X53.6992 Y47.1103
G01 X53.7036 Y47.1555
G01 X53.7068 Y47.2202
G01 X53.7074 Y47.2430
G01 X53.7074 Y48.5638
G01 X53.7068 Y48.5865
G01 X53.7036 Y48.6513
G01 X53.6992 Y48.6965
G01 X53.6897 Y48.7606
G01 X53.6808 Y48.8052
G01 X53.6651 Y48.8681
G01 X53.6519 Y48.9116
G01 X53.6300 Y48.9726
G01 X53.6126 Y49.0146
G01 X53.5849 Y49.0732
G01 X53.5635 Y49.1133
G01 X53.5302 Y49.1689
G01 X53.5049 Y49.2067
G01 X53.4663 Y49.2588
G01 X53.4374 Y49.2939
G01 X53.3939 Y49.3420
G01 X53.3618 Y49.3741
G01 X53.3137 Y49.4176
G01 X53.2786 Y49.4465
G01 X53.2265 Y49.4851
G01 X53.1887 Y49.5104
G01 X53.1331 Y49.5437
G01 X53.0930 Y49.5651
G01 X53.0344 Y49.5928
G01 X52.9924 Y49.6102
G01 X52.9314 Y49.6321
G01 X52.8879 Y49.6453
G01 X52.8250 Y49.6610
G01 X52.7804 Y49.6699
G01 X52.7163 Y49.6794
G01 X52.6711 Y49.6838
G01 X52.6063 Y49.6870
G01 X52.5609 Y49.6870
G01 X52.4961 Y49.6838
G01 X52.4509 Y49.6794
G01 X52.3868 Y49.6699
G01 X52.3422 Y49.6610
G01 X52.2793 Y49.6453
G01 X52.2358 Y49.6321
G01 X52.1748 Y49.6102
G01 X52.1327 Y49.5928
G01 X52.0741 Y49.5651
G01 X52.0340 Y49.5437
G01 X51.9785 Y49.5104
G01 X51.9406 Y49.4851
G01 X51.8886 Y49.4465
G01 X51.8534 Y49.4176
G01 X51.8054 Y49.3741
G01 X51.7733 Y49.3420
G01 X51.7297 Y49.2939
G01 X51.7009 Y49.2588
G01 X51.6623 Y49.2067
G01 X51.6370 Y49.1689
G01 X51.6037 Y49.1133
G01 X51.5823 Y49.0732
G01 X51.5546 Y49.0146
G01 X51.5371 Y48.9726
G01 X51.5153 Y48.9116
G01 X51.5021 Y48.8681
G01 X51.4864 Y48.8052
G01 X51.4775 Y48.7606
G01 X51.4680 Y48.6965
G01 X51.4635 Y48.6513
G01 X51.4603 Y48.5865
G01 X51.4598 Y48.5638
G01 X51.4598 Y47.2430
G01 X51.4603 Y47.2202
G01 X51.4635 Y47.1555
G01 X51.4680 Y47.1103
G01 X51.4775 Y47.0462
G01 X51.4864 Y47.0015
G01 X51.5021 Y46.9387
G01 X51.5153 Y46.8952
G01 X51.5371 Y46.8341
G01 X51.5546 Y46.7921
G01 X51.5823 Y46.7335
G01 X51.6037 Y46.6934
G01 X51.6370 Y46.6379
G01 X51.6623 Y46.6000
G01 X51.7009 Y46.5480
G01 X51.7297 Y46.5128
G01 X51.7733 Y46.4648
G01 X51.8054 Y46.4327
G01 X51.8534 Y46.3891
G01 X51.8886 Y46.3603
G01 X51.9406 Y46.3217
G01 X51.9785 Y46.2964
G01 X52.0340 Y46.2631
G01 X52.0741 Y46.2417
G01 X52.1327 Y46.2139
G01 X52.1748 Y46.1965
G01 X52.2358 Y46.1747
G01 X52.2793 Y46.1615
G01 X52.3422 Y46.1458
G01 X52.3868 Y46.1369
G01 X52.4509 Y46.1274
G01 X52.4961 Y46.1229
G01 X52.5609 Y46.1197
G00 Z2.0000
G00 X58.4198 Y54.5597
G01 F60.00
G01 Z-0.2001
G01 F320.00
G01 X61.5065 Y54.5597
G01 X61.5336 Y54.5435
G01 X61.5737 Y54.5221
G01 X61.6323 Y54.4943
G01 X61.6744 Y54.4769
G01 X61.7354 Y54.4551
G01 X61.7789 Y54.4419
G01 X61.8418 Y54.4262
G01 X61.8864 Y54.4173
G01 X61.9505 Y54.4078
G01 X61.9957 Y54.4033
