(G-CODE GENERATED BY FLATCAM v8.991 - www.flatcam.org - Version Date: 2019/12/27)

(Name: 003_ALU)
(Type: G-code from Geometry)
(Units: MM)

(Created on Saturday, 07 March 2020 at 19:57)

(TOOL DIAMETER: 0.331 mm)
(Feedrate: 320.0 mm/min)
(Feedrate_Z: 60.0 mm/min)
(Feedrate rapids 1500.0 mm/min)

(Z_Cut: -0.2001 mm)
(Z_Move: 2.0 mm)
(Z Toolchange: 15.0 mm)
(X,Y Toolchange: 0.0000, 0.0000 mm)
(Z Start: None mm)
(Z End: 15.0 mm)
(Steps per circle: 64)
(Preprocessor Geometry: default)

(X range:    5.3412 ...  148.0860  mm)
(Y range:    3.2010 ...   97.6858  mm)

(Spindle Speed: None RPM)
G21
G90
G94

M03 S3000


G01 F320.00
G00 Z2.0000

M03
G00 X12.9612 Y4.7607
G01 F60.00
G01 Z-0.2001
G01 F320.00
G01 X12.9612 Y4.6860
G01 X12.9649 Y4.6113
G01 X12.9722 Y4.5370
G01 X12.9832 Y4.4630
G01 X12.9977 Y4.3897
G01 X13.0159 Y4.3172
G01 X13.0376 Y4.2457
G01 X13.0628 Y4.1753
G01 X13.0914 Y4.1063
G01 X13.1234 Y4.0387
G01 X13.1586 Y3.9728
G01 X13.1970 Y3.9087
G01 X13.2385 Y3.8465
G01 X13.2831 Y3.7865
G01 X13.3305 Y3.7287
G01 X13.3807 Y3.6733
G01 X13.4335 Y3.6205
G01 X13.4889 Y3.5703
G01 X13.5467 Y3.5229
G01 X13.6067 Y3.4783
G01 X13.6689 Y3.4368
G01 X13.7330 Y3.3984
G01 X13.7989 Y3.3632
G01 X13.8665 Y3.3312
G01 X13.9355 Y3.3026
G01 X14.0059 Y3.2774
G01 X14.0774 Y3.2557
G01 X14.1499 Y3.2375
G01 X14.2232 Y3.2230
G01 X14.2972 Y3.2120
G01 X14.3715 Y3.2047
G01 X14.4462 Y3.2010
G01 X14.5209 Y3.2010
G01 X14.5956 Y3.2047
G01 X14.6700 Y3.2120
G01 X14.7440 Y3.2230
G01 X14.8172 Y3.2375
G01 X14.8898 Y3.2557
G01 X14.9613 Y3.2774
G01 X15.0317 Y3.3026
G01 X15.1007 Y3.3312
G01 X15.1683 Y3.3632
G01 X15.2342 Y3.3984
G01 X15.2983 Y3.4368
G01 X15.3604 Y3.4783
G01 X15.4205 Y3.5229
G01 X15.4783 Y3.5703
G01 X15.5337 Y3.6205
G01 X15.5865 Y3.6733
G01 X15.6367 Y3.7287
G01 X15.6841 Y3.7865
G01 X15.7286 Y3.8465
G01 X15.7536 Y3.8839
G01 X15.7785 Y3.8465
G01 X15.8231 Y3.7865
G01 X15.8705 Y3.7287
G01 X15.9207 Y3.6733
G01 X15.9735 Y3.6205
G01 X16.0289 Y3.5703
G01 X16.0867 Y3.5229
G01 X16.1467 Y3.4783
G01 X16.2089 Y3.4368
G01 X16.2730 Y3.3984
G01 X16.3389 Y3.3632
G01 X16.4065 Y3.3312
G01 X16.4755 Y3.3026
G01 X16.5459 Y3.2774
G01 X16.6174 Y3.2557
G01 X16.6899 Y3.2375
G01 X16.7632 Y3.2230
G01 X16.8372 Y3.2120
G01 X16.9115 Y3.2047
G01 X16.9862 Y3.2010
G01 X17.0609 Y3.2010
G01 X17.1356 Y3.2047
G01 X17.2100 Y3.2120
G01 X17.2840 Y3.2230
G01 X17.3572 Y3.2375
G01 X17.4298 Y3.2557
G01 X17.5013 Y3.2774
G01 X17.5717 Y3.3026
G01 X17.6407 Y3.3312
G01 X17.7083 Y3.3632
G01 X17.7742 Y3.3984
G01 X17.8383 Y3.4368
G01 X17.9004 Y3.4783
G01 X17.9605 Y3.5229
G01 X18.0183 Y3.5703
G01 X18.0737 Y3.6205
G01 X18.1265 Y3.6733
G01 X18.1767 Y3.7287
G01 X18.2241 Y3.7865
G01 X18.2686 Y3.8465
G01 X18.3102 Y3.9087
G01 X18.3486 Y3.9728
G01 X18.3838 Y4.0387
G01 X18.4158 Y4.1063
G01 X18.4444 Y4.1753
G01 X18.4696 Y4.2457
G01 X18.4913 Y4.3172
G01 X18.5094 Y4.3897
G01 X18.5240 Y4.4630
G01 X18.5350 Y4.5370
G01 X18.5423 Y4.6113
G01 X18.5460 Y4.6860
G01 X18.5460 Y4.7607
G01 X18.5423 Y4.8354
G01 X18.5350 Y4.9098
G01 X18.5240 Y4.9837
G01 X18.5094 Y5.0570
G01 X18.4913 Y5.1296
G01 X18.4696 Y5.2011
G01 X18.4444 Y5.2715
G01 X18.4158 Y5.3405
G01 X18.3838 Y5.4081
G01 X18.3486 Y5.4740
G01 X18.3102 Y5.5381
G01 X18.2686 Y5.6002
G01 X18.2241 Y5.6603
G01 X18.1767 Y5.7180
G01 X18.1265 Y5.7735
G01 X18.0737 Y5.8263
G01 X18.0183 Y5.8765
G01 X17.9605 Y5.9239
G01 X17.9004 Y5.9684
G01 X17.8383 Y6.0100
G01 X17.7742 Y6.0484
G01 X17.7083 Y6.0836
G01 X17.6407 Y6.1156
G01 X17.5717 Y6.1442
G01 X17.5013 Y6.1694
G01 X17.4298 Y6.1911
G01 X17.3572 Y6.2092
G01 X17.2840 Y6.2238
G01 X17.2100 Y6.2348
G01 X17.1356 Y6.2421
G01 X17.0609 Y6.2458
G01 X16.9862 Y6.2458
G01 X16.9115 Y6.2421
G01 X16.8372 Y6.2348
G01 X16.7632 Y6.2238
G01 X16.6899 Y6.2092
G01 X16.6174 Y6.1911
G01 X16.5459 Y6.1694
G01 X16.4755 Y6.1442
G01 X16.4065 Y6.1156
G01 X16.3389 Y6.0836
G01 X16.2730 Y6.0484
G01 X16.2089 Y6.0100
G01 X16.1467 Y5.9684
G01 X16.0867 Y5.9239
G01 X16.0289 Y5.8765
G01 X15.9735 Y5.8263
G01 X15.9207 Y5.7735
G01 X15.8705 Y5.7180
G01 X15.8231 Y5.6603
G01 X15.7785 Y5.6002
G01 X15.7536 Y5.5629
G01 X15.7286 Y5.6002
G01 X15.6841 Y5.6603
G01 X15.6367 Y5.7180
G01 X15.5865 Y5.7735
G01 X15.5337 Y5.8263
G01 X15.4783 Y5.8765
G01 X15.4205 Y5.9239
G01 X15.3604 Y5.9684
G01 X15.2983 Y6.0100
G01 X15.2342 Y6.0484
G01 X15.1683 Y6.0836
G01 X15.1007 Y6.1156
G01 X15.0317 Y6.1442
G01 X14.9613 Y6.1694
G01 X14.8898 Y6.1911
G01 X14.8172 Y6.2092
G01 X14.7440 Y6.2238
G01 X14.6700 Y6.2348
G01 X14.5956 Y6.2421
G01 X14.5209 Y6.2458
G01 X14.4462 Y6.2458
G01 X14.3715 Y6.2421
G01 X14.2972 Y6.2348
G01 X14.2232 Y6.2238
G01 X14.1499 Y6.2092
G01 X14.0774 Y6.1911
G01 X14.0059 Y6.1694
G01 X13.9355 Y6.1442
G01 X13.8665 Y6.1156
G01 X13.7989 Y6.0836
G01 X13.7330 Y6.0484
G01 X13.6689 Y6.0100
G01 X13.6067 Y5.9684
G01 X13.5467 Y5.9239
G01 X13.4889 Y5.8765
G01 X13.4335 Y5.8263
G01 X13.3807 Y5.7735
G01 X13.3305 Y5.7180
G01 X13.2831 Y5.6603
G01 X13.2385 Y5.6002
G01 X13.1970 Y5.5381
G01 X13.1586 Y5.4740
G01 X13.1234 Y5.4081
G01 X13.0914 Y5.3405
G01 X13.0628 Y5.2715
G01 X13.0376 Y5.2011
G01 X13.0159 Y5.1296
G01 X12.9977 Y5.0570
G01 X12.9832 Y4.9837
G01 X12.9722 Y4.9098
G01 X12.9649 Y4.8354
G01 X12.9612 Y4.7607
G00 Z2.0000
G00 X26.9632 Y9.8407
G01 F60.00
G01 Z-0.2001
G01 F320.00
G01 X26.9632 Y9.7660
G01 X26.9728 Y9.5700
G01 X26.9802 Y9.4956
G01 X27.0090 Y9.3015
G01 X27.0235 Y9.2282
G01 X27.0712 Y9.0378
G01 X27.0929 Y8.9663
G01 X27.1590 Y8.7815
G01 X27.1876 Y8.7125
G01 X27.2715 Y8.5351
G01 X27.3068 Y8.4692
G01 X27.4077 Y8.3009
G01 X27.4492 Y8.2387
G01 X27.5661 Y8.0811
G01 X27.6135 Y8.0233
G01 X27.7453 Y7.8779
G01 X27.7981 Y7.8251
G01 X27.9435 Y7.6933
G01 X28.0013 Y7.6459
G01 X28.1589 Y7.5290
G01 X28.2211 Y7.4875
G01 X28.3894 Y7.3866
G01 X28.4553 Y7.3513
G01 X28.6327 Y7.2674
G01 X28.7017 Y7.2388
G01 X28.8865 Y7.1727
G01 X28.9580 Y7.1510
G01 X29.1484 Y7.1033
G01 X29.2217 Y7.0888
G01 X29.4158 Y7.0600
G01 X29.4902 Y7.0526
G01 X29.6862 Y7.0430
G01 X29.7609 Y7.0430
G01 X29.9570 Y7.0526
G01 X30.0313 Y7.0600
G01 X30.2255 Y7.0888
G01 X30.2987 Y7.1033
G01 X30.4891 Y7.1510
G01 X30.5606 Y7.1727
G01 X30.7454 Y7.2388
G01 X30.8145 Y7.2674
G01 X30.9919 Y7.3513
G01 X31.0578 Y7.3866
G01 X31.2261 Y7.4875
G01 X31.2882 Y7.5290
G01 X31.4459 Y7.6459
G01 X31.5036 Y7.6933
G01 X31.6491 Y7.8251
G01 X31.7019 Y7.8779
G01 X31.8337 Y8.0233
G01 X31.8811 Y8.0811
G01 X31.9980 Y8.2387
G01 X32.0395 Y8.3009
G01 X32.1404 Y8.4692
G01 X32.1756 Y8.5351
G01 X32.2595 Y8.7125
G01 X32.2881 Y8.7815
G01 X32.3543 Y8.9663
G01 X32.3759 Y9.0378
G01 X32.4236 Y9.2282
G01 X32.4382 Y9.3015
G01 X32.4670 Y9.4956
G01 X32.4743 Y9.5700
G01 X32.4840 Y9.7660
G01 X32.4840 Y9.8407
G01 X32.4743 Y10.0368
G01 X32.4670 Y10.1111
G01 X32.4382 Y10.3053
G01 X32.4236 Y10.3785
G01 X32.3759 Y10.5689
G01 X32.3543 Y10.6404
G01 X32.2881 Y10.8252
G01 X32.2595 Y10.8942
G01 X32.1756 Y11.0717
G01 X32.1404 Y11.1376
G01 X32.0395 Y11.3059
G01 X31.9980 Y11.3680
G01 X31.8811 Y11.5257
G01 X31.8337 Y11.5834
G01 X31.7019 Y11.7289
G01 X31.6491 Y11.7817
G01 X31.5036 Y11.9135
G01 X31.4459 Y11.9609
G01 X31.2882 Y12.0778
G01 X31.2261 Y12.1193
G01 X31.0578 Y12.2202
G01 X30.9919 Y12.2554
G01 X30.8145 Y12.3393
G01 X30.7454 Y12.3679
G01 X30.5606 Y12.4341
G01 X30.4891 Y12.4557
G01 X30.2987 Y12.5034
G01 X30.2255 Y12.5180
G01 X30.0313 Y12.5468
G01 X29.9570 Y12.5541
G01 X29.7609 Y12.5638
G01 X29.6862 Y12.5638
G01 X29.4902 Y12.5541
G01 X29.4158 Y12.5468
G01 X29.2217 Y12.5180
G01 X29.1484 Y12.5034
G01 X28.9580 Y12.4557
G01 X28.8865 Y12.4341
G01 X28.7017 Y12.3679
G01 X28.6327 Y12.3393
G01 X28.4553 Y12.2554
G01 X28.3894 Y12.2202
G01 X28.2211 Y12.1193
G01 X28.1589 Y12.0778
G01 X28.0013 Y11.9609
G01 X27.9435 Y11.9135
G01 X27.7981 Y11.7817
G01 X27.7453 Y11.7289
G01 X27.6135 Y11.5834
G01 X27.5661 Y11.5257
G01 X27.4492 Y11.3680
G01 X27.4077 Y11.3059
G01 X27.3068 Y11.1376
G01 X27.2715 Y11.0717
G01 X27.1876 Y10.8942
G01 X27.1590 Y10.8252
G01 X27.0929 Y10.6404
G01 X27.0712 Y10.5689
G01 X27.0235 Y10.3785
G01 X27.0090 Y10.3053
G01 X26.9802 Y10.1111
G01 X26.9728 Y10.0368
G01 X26.9632 Y9.8407
G00 Z2.0000
G00 X12.7705 Y41.5618
G01 F60.00
G01 Z-0.2001
G01 F320.00
G01 X12.7958 Y41.5449
G01 X52.5836 Y41.5449
G01 X52.6209 Y41.5440
G01 X52.6700 Y41.5416
G01 X52.7443 Y41.5343
G01 X52.7929 Y41.5271
G01 X52.8662 Y41.5125
G01 X52.9138 Y41.5006
G01 X52.9853 Y41.4789
G01 X53.0315 Y41.4623
G01 X53.1005 Y41.4338
G01 X53.1449 Y41.4128
G01 X53.2108 Y41.3776
G01 X53.2529 Y41.3523
G01 X53.3150 Y41.3108
G01 X53.3544 Y41.2816
G01 X53.4122 Y41.2342
G01 X53.4486 Y41.2012
G01 X53.5014 Y41.1484
G01 X53.5344 Y41.1120
G01 X53.5818 Y41.0542
G01 X53.6110 Y41.0148
G01 X53.6525 Y40.9527
G01 X53.6778 Y40.9106
G01 X53.7130 Y40.8447
G01 X53.7340 Y40.8003
G01 X53.7626 Y40.7313
G01 X53.7791 Y40.6851
G01 X53.8008 Y40.6136
G01 X53.8127 Y40.5660
G01 X53.8273 Y40.4927
G01 X53.8345 Y40.4441
G01 X53.8418 Y40.3698
G01 X53.8442 Y40.3207
G01 X53.8451 Y40.2834
G01 X53.8451 Y11.0649
G01 X64.4314 Y11.0649
G01 X64.4441 Y11.0734
G01 X64.4314 Y11.0818
G01 X55.1236 Y11.0818
G01 X55.0862 Y11.0828
G01 X55.0372 Y11.0852
G01 X54.9628 Y11.0925
G01 X54.9143 Y11.0997
G01 X54.8410 Y11.1143
G01 X54.7934 Y11.1262
G01 X54.7219 Y11.1479
G01 X54.6757 Y11.1644
G01 X54.6067 Y11.1930
G01 X54.5623 Y11.2140
G01 X54.4964 Y11.2492
G01 X54.4543 Y11.2745
G01 X54.3922 Y11.3160
G01 X54.3527 Y11.3452
G01 X54.2950 Y11.3926
G01 X54.2586 Y11.4256
G01 X54.2058 Y11.4784
G01 X54.1728 Y11.5148
G01 X54.1254 Y11.5725
G01 X54.0962 Y11.6120
G01 X54.0547 Y11.6741
G01 X54.0294 Y11.7162
G01 X53.9942 Y11.7821
G01 X53.9732 Y11.8265
G01 X53.9446 Y11.8955
G01 X53.9281 Y11.9417
G01 X53.9064 Y12.0132
G01 X53.8945 Y12.0608
G01 X53.8799 Y12.1341
G01 X53.8727 Y12.1826
G01 X53.8654 Y12.2570
G01 X53.8630 Y12.3060
G01 X53.8620 Y12.3434
G01 X53.8620 Y41.5618
G01 X12.7705 Y41.5618
G00 Z2.0000
G00 X10.6651 Y41.1103
G01 F60.00
G01 Z-0.2001
G01 F320.00
G01 X10.6985 Y41.1602
G01 X10.7431 Y41.2203
G01 X10.7905 Y41.2780
G01 X10.8407 Y41.3335
G01 X10.8935 Y41.3863
G01 X10.9489 Y41.4365
G01 X11.0067 Y41.4839
G01 X11.0667 Y41.5284
G01 X11.1167 Y41.5618
G01 X10.6651 Y41.5618
G01 X10.6651 Y41.1103
G00 Z2.0000
G00 X8.1420 Y39.4565
G01 F60.00
G01 Z-0.2001
G01 F320.00
G01 X8.1251 Y39.4312
G01 X8.1251 Y5.5756
G01 X8.1336 Y5.5629
G01 X8.1420 Y5.5756
G01 X8.1420 Y39.4565
G00 Z2.0000
G00 X8.1420 Y59.7765
G01 F60.00
G01 Z-0.2001
G01 F320.00
G01 X8.1251 Y59.7512
G01 X8.1251 Y41.1356
G01 X8.1420 Y41.1103
G01 X8.1420 Y59.7765
G00 Z2.0000
G00 X10.6651 Y59.7765
G01 F60.00
G01 Z-0.2001
G01 F320.00
G01 X10.6651 Y44.0849
G01 X41.1620 Y44.0849
G01 X41.1620 Y46.5892
G01 X41.1530 Y46.6062
G01 X41.1253 Y46.6648
G01 X41.0967 Y46.7338
G01 X41.0748 Y46.7948
G01 X41.0531 Y46.8663
G01 X41.0374 Y46.9292
G01 X41.0228 Y47.0024
G01 X41.0133 Y47.0665
G01 X41.0060 Y47.1409
G01 X41.0028 Y47.2056
G01 X41.0019 Y47.2430
G01 X41.0019 Y48.5638
G01 X41.0028 Y48.6011
G01 X41.0060 Y48.6659
G01 X41.0133 Y48.7402
G01 X41.0228 Y48.8043
G01 X41.0374 Y48.8776
G01 X41.0531 Y48.9405
G01 X41.0748 Y49.0120
G01 X41.0967 Y49.0730
G01 X41.1253 Y49.1420
G01 X41.1441 Y49.1818
G01 X17.0236 Y49.1818
G01 X16.9862 Y49.1828
G01 X16.9372 Y49.1852
G01 X16.8628 Y49.1925
G01 X16.8143 Y49.1997
G01 X16.7410 Y49.2143
G01 X16.6934 Y49.2262
G01 X16.6219 Y49.2479
G01 X16.5757 Y49.2644
G01 X16.5067 Y49.2930
G01 X16.4623 Y49.3140
G01 X16.3964 Y49.3492
G01 X16.3543 Y49.3745
G01 X16.2922 Y49.4160
G01 X16.2527 Y49.4452
G01 X16.1950 Y49.4926
G01 X16.1586 Y49.5256
G01 X16.1058 Y49.5784
G01 X16.0728 Y49.6148
G01 X16.0254 Y49.6725
G01 X15.9962 Y49.7120
G01 X15.9547 Y49.7741
G01 X15.9294 Y49.8162
G01 X15.8942 Y49.8821
G01 X15.8732 Y49.9265
G01 X15.8446 Y49.9955
G01 X15.8281 Y50.0417
G01 X15.8064 Y50.1132
G01 X15.7945 Y50.1608
G01 X15.7799 Y50.2341
G01 X15.7727 Y50.2826
G01 X15.7654 Y50.3570
G01 X15.7630 Y50.4060
G01 X15.7620 Y50.4434
G01 X15.7620 Y59.3418
G01 X12.7958 Y59.3418
G01 X12.7583 Y59.3168
G01 X12.6942 Y59.2784
G01 X12.6283 Y59.2432
G01 X12.5607 Y59.2112
G01 X12.4917 Y59.1826
G01 X12.4213 Y59.1574
G01 X12.3498 Y59.1357
G01 X12.2772 Y59.1175
G01 X12.2040 Y59.1030
G01 X12.1300 Y59.0920
G01 X12.0556 Y59.0847
G01 X11.9809 Y59.0810
G01 X11.9062 Y59.0810
G01 X11.8315 Y59.0847
G01 X11.7572 Y59.0920
G01 X11.6832 Y59.1030
G01 X11.6099 Y59.1175
G01 X11.5374 Y59.1357
G01 X11.4659 Y59.1574
G01 X11.3955 Y59.1826
G01 X11.3265 Y59.2112
G01 X11.2589 Y59.2432
G01 X11.1930 Y59.2784
G01 X11.1289 Y59.3168
G01 X11.0667 Y59.3583
G01 X11.0067 Y59.4029
G01 X10.9489 Y59.4503
G01 X10.8935 Y59.5005
G01 X10.8407 Y59.5533
G01 X10.7905 Y59.6087
G01 X10.7431 Y59.6665
G01 X10.6985 Y59.7265
G01 X10.6651 Y59.7765
G00 Z2.0000
G00 X15.3105 Y61.8649
G01 F60.00
G01 Z-0.2001
G01 F320.00
G01 X16.1714 Y61.8649
G01 X16.2089 Y61.8900
G01 X16.2730 Y61.9284
G01 X16.3389 Y61.9636
G01 X16.4065 Y61.9956
G01 X16.4755 Y62.0242
G01 X16.5459 Y62.0494
G01 X16.6174 Y62.0711
G01 X16.6899 Y62.0892
G01 X16.7632 Y62.1038
G01 X16.8372 Y62.1148
G01 X16.9115 Y62.1221
G01 X16.9862 Y62.1258
G01 X17.0609 Y62.1258
G01 X17.1356 Y62.1221
G01 X17.2100 Y62.1148
G01 X17.2840 Y62.1038
G01 X17.3572 Y62.0892
G01 X17.4298 Y62.0711
G01 X17.5013 Y62.0494
G01 X17.5717 Y62.0242
G01 X17.6407 Y61.9956
G01 X17.7083 Y61.9636
G01 X17.7742 Y61.9284
G01 X17.8383 Y61.8900
G01 X17.9004 Y61.8484
G01 X17.9605 Y61.8039
G01 X18.0183 Y61.7565
G01 X18.0737 Y61.7063
G01 X18.1265 Y61.6535
G01 X18.1767 Y61.5980
G01 X18.2241 Y61.5403
G01 X18.2686 Y61.4802
G01 X18.3020 Y61.4303
G01 X18.3020 Y69.9365
G01 X18.2686 Y69.8865
G01 X18.2241 Y69.8265
G01 X18.1767 Y69.7687
G01 X18.1265 Y69.7133
G01 X18.0737 Y69.6605
G01 X18.0183 Y69.6103
G01 X17.9605 Y69.5629
G01 X17.9004 Y69.5183
G01 X17.8383 Y69.4768
G01 X17.7742 Y69.4384
G01 X17.7083 Y69.4032
G01 X17.6407 Y69.3712
G01 X17.5717 Y69.3426
G01 X17.5013 Y69.3174
G01 X17.4298 Y69.2957
G01 X17.3572 Y69.2775
G01 X17.2840 Y69.2630
G01 X17.2100 Y69.2520
G01 X17.1356 Y69.2447
G01 X17.0609 Y69.2410
G01 X16.9862 Y69.2410
G01 X16.9115 Y69.2447
G01 X16.8372 Y69.2520
G01 X16.7632 Y69.2630
G01 X16.6899 Y69.2775
G01 X16.6174 Y69.2957
G01 X16.5459 Y69.3174
G01 X16.4755 Y69.3426
G01 X16.4065 Y69.3712
G01 X16.3389 Y69.4032
G01 X16.2730 Y69.4384
G01 X16.2089 Y69.4768
G01 X16.1467 Y69.5183
G01 X16.0867 Y69.5629
G01 X16.0289 Y69.6103
G01 X15.9735 Y69.6605
G01 X15.9207 Y69.7133
G01 X15.8705 Y69.7687
G01 X15.8231 Y69.8265
G01 X15.7785 Y69.8865
G01 X15.7451 Y69.9365
G01 X15.7451 Y63.9956
G01 X15.7702 Y63.9581
G01 X15.8086 Y63.8940
G01 X15.8438 Y63.8281
G01 X15.8758 Y63.7605
G01 X15.9044 Y63.6915
G01 X15.9296 Y63.6211
G01 X15.9513 Y63.5496
G01 X15.9694 Y63.4770
G01 X15.9840 Y63.4037
G01 X15.9950 Y63.3298
G01 X16.0023 Y63.2554
G01 X16.0060 Y63.1807
G01 X16.0060 Y63.1060
G01 X16.0023 Y63.0313
G01 X15.9950 Y62.9570
G01 X15.9840 Y62.8830
G01 X15.9694 Y62.8097
G01 X15.9513 Y62.7372
G01 X15.9296 Y62.6657
G01 X15.9044 Y62.5953
G01 X15.8758 Y62.5263
G01 X15.8438 Y62.4587
G01 X15.8086 Y62.3928
G01 X15.7702 Y62.3287
G01 X15.7286 Y62.2665
G01 X15.6841 Y62.2065
G01 X15.6367 Y62.1487
G01 X15.5865 Y62.0933
G01 X15.5337 Y62.0405
G01 X15.4783 Y61.9903
G01 X15.4205 Y61.9429
G01 X15.3604 Y61.8983
G01 X15.3105 Y61.8649
G00 Z2.0000
G00 X20.8251 Y61.4303
G01 F60.00
G01 Z-0.2001
G01 F320.00
G01 X20.8585 Y61.4802
G01 X20.9031 Y61.5403
G01 X20.9505 Y61.5980
G01 X21.0007 Y61.6535
G01 X21.0535 Y61.7063
G01 X21.1089 Y61.7565
G01 X21.1667 Y61.8039
G01 X21.2267 Y61.8484
G01 X21.2641 Y61.8734
G01 X21.2267 Y61.8983
G01 X21.1667 Y61.9429
G01 X21.1089 Y61.9903
G01 X21.0535 Y62.0405
G01 X21.0007 Y62.0933
G01 X20.9505 Y62.1487
G01 X20.9031 Y62.2065
G01 X20.8585 Y62.2665
G01 X20.8251 Y62.3165
G01 X20.8251 Y61.4303
G00 Z2.0000
G00 X22.9431 Y61.8734
G01 F60.00
G01 Z-0.2001
G01 F320.00
G01 X22.9558 Y61.8649
G01 X61.4629 Y61.8649
G01 X61.4464 Y61.8728
G01 X61.4294 Y61.8818
G01 X22.9558 Y61.8818
G01 X22.9431 Y61.8734
G00 Z2.0000
G00 X20.8251 Y63.9703
G01 F60.00
G01 Z-0.2001
G01 F320.00
G01 X20.8585 Y64.0202
G01 X20.9031 Y64.0803
G01 X20.9505 Y64.1380
G01 X21.0007 Y64.1935
G01 X21.0535 Y64.2463
G01 X21.1089 Y64.2965
G01 X21.1667 Y64.3439
G01 X21.2267 Y64.3884
G01 X21.2889 Y64.4300
G01 X21.3530 Y64.4684
G01 X21.4189 Y64.5036
G01 X21.4865 Y64.5356
G01 X21.5555 Y64.5642
G01 X21.6259 Y64.5894
G01 X21.6974 Y64.6111
G01 X21.7699 Y64.6292
G01 X21.8432 Y64.6438
G01 X21.9172 Y64.6548
G01 X21.9915 Y64.6621
G01 X22.0662 Y64.6658
G01 X22.1409 Y64.6658
G01 X22.2156 Y64.6621
G01 X22.2900 Y64.6548
G01 X22.3640 Y64.6438
G01 X22.4372 Y64.6292
G01 X22.5098 Y64.6111
G01 X22.5813 Y64.5894
G01 X22.6517 Y64.5642
G01 X22.7207 Y64.5356
G01 X22.7883 Y64.5036
G01 X22.8542 Y64.4684
G01 X22.9183 Y64.4300
G01 X22.9558 Y64.4049
G01 X61.4294 Y64.4049
G01 X61.4452 Y64.4134
G01 X61.3805 Y64.4480
G01 X61.3249 Y64.4813
G01 X61.2628 Y64.5228
G01 X61.2107 Y64.5614
G01 X61.1530 Y64.6088
G01 X61.1050 Y64.6523
G01 X61.0521 Y64.7052
G01 X61.0086 Y64.7532
G01 X60.9612 Y64.8109
G01 X60.9226 Y64.8630
G01 X60.8811 Y64.9251
G01 X60.8478 Y64.9807
G01 X60.8126 Y65.0466
G01 X60.7849 Y65.1052
G01 X60.7563 Y65.1742
G01 X60.7344 Y65.2352
G01 X60.7127 Y65.3067
G01 X60.6970 Y65.3696
G01 X60.6824 Y65.4428
G01 X60.6729 Y65.5069
G01 X60.6656 Y65.5813
G01 X60.6624 Y65.6460
G01 X60.6624 Y65.7207
G01 X60.6656 Y65.7855
G01 X60.6729 Y65.8598
G01 X60.6824 Y65.9239
G01 X60.6970 Y65.9972
G01 X60.7127 Y66.0601
G01 X60.7344 Y66.1316
G01 X60.7563 Y66.1926
G01 X60.7849 Y66.2616
G01 X60.8126 Y66.3202
G01 X60.8478 Y66.3861
G01 X60.8811 Y66.4417
G01 X60.9226 Y66.5038
G01 X60.9612 Y66.5558
G01 X61.0086 Y66.6136
G01 X61.0521 Y66.6616
G01 X61.1050 Y66.7144
G01 X61.1530 Y66.7580
G01 X61.2107 Y66.8054
G01 X61.2628 Y66.8440
G01 X61.3249 Y66.8855
G01 X61.3805 Y66.9188
G01 X61.4464 Y66.9540
G01 X61.4820 Y66.9709
G01 X61.4820 Y68.2234
G01 X61.4830 Y68.2607
G01 X61.4854 Y68.3098
G01 X61.4927 Y68.3841
G01 X61.4999 Y68.4327
G01 X61.5145 Y68.5060
G01 X61.5264 Y68.5536
G01 X61.5481 Y68.6251
G01 X61.5646 Y68.6713
G01 X61.5932 Y68.7403
G01 X61.6142 Y68.7847
G01 X61.6494 Y68.8506
G01 X61.6747 Y68.8927
G01 X61.7162 Y68.9548
G01 X61.7454 Y68.9942
G01 X61.7928 Y69.0520
G01 X61.8258 Y69.0884
G01 X61.8786 Y69.1412
G01 X61.9150 Y69.1742
G01 X61.9727 Y69.2216
G01 X62.0122 Y69.2508
G01 X62.0743 Y69.2923
G01 X62.1164 Y69.3176
G01 X62.1823 Y69.3528
G01 X62.2267 Y69.3738
G01 X62.2957 Y69.4023
G01 X62.3419 Y69.4189
G01 X62.4134 Y69.4406
G01 X62.4610 Y69.4525
G01 X62.5343 Y69.4671
G01 X62.5828 Y69.4743
G01 X62.6572 Y69.4816
G01 X62.7062 Y69.4840
G01 X62.7436 Y69.4849
G01 X85.6036 Y69.4849
G01 X85.6409 Y69.4840
G01 X85.6900 Y69.4816
G01 X85.7643 Y69.4743
G01 X85.8129 Y69.4671
G01 X85.8862 Y69.4525
G01 X85.9338 Y69.4406
G01 X86.0053 Y69.4189
G01 X86.0515 Y69.4023
G01 X86.1205 Y69.3738
G01 X86.1649 Y69.3528
G01 X86.2308 Y69.3176
G01 X86.2729 Y69.2923
G01 X86.3350 Y69.2508
G01 X86.3744 Y69.2216
G01 X86.4322 Y69.1742
G01 X86.4686 Y69.1412
G01 X86.5214 Y69.0884
G01 X86.5544 Y69.0520
G01 X86.6018 Y68.9942
G01 X86.6310 Y68.9548
G01 X86.6725 Y68.8927
G01 X86.6978 Y68.8506
G01 X86.7330 Y68.7847
G01 X86.7540 Y68.7403
G01 X86.7826 Y68.6713
G01 X86.7991 Y68.6251
G01 X86.8208 Y68.5536
G01 X86.8327 Y68.5060
G01 X86.8473 Y68.4327
G01 X86.8545 Y68.3841
G01 X86.8618 Y68.3098
G01 X86.8642 Y68.2607
G01 X86.8651 Y68.2234
G01 X86.8651 Y66.9709
G01 X86.8820 Y66.9629
G01 X86.8820 Y69.5018
G01 X22.9558 Y69.5018
G01 X22.9183 Y69.4768
G01 X22.8542 Y69.4384
G01 X22.7883 Y69.4032
G01 X22.7207 Y69.3712
G01 X22.6517 Y69.3426
G01 X22.5813 Y69.3174
G01 X22.5098 Y69.2957
G01 X22.4372 Y69.2775
G01 X22.3640 Y69.2630
G01 X22.2900 Y69.2520
G01 X22.2156 Y69.2447
G01 X22.1409 Y69.2410
G01 X22.0662 Y69.2410
G01 X21.9915 Y69.2447
G01 X21.9172 Y69.2520
G01 X21.8432 Y69.2630
G01 X21.7699 Y69.2775
G01 X21.6974 Y69.2957
G01 X21.6259 Y69.3174
G01 X21.5555 Y69.3426
G01 X21.4865 Y69.3712
G01 X21.4189 Y69.4032
G01 X21.3530 Y69.4384
G01 X21.2889 Y69.4768
G01 X21.2267 Y69.5183
G01 X21.1667 Y69.5629
G01 X21.1089 Y69.6103
G01 X21.0535 Y69.6605
G01 X21.0007 Y69.7133
G01 X20.9505 Y69.7687
G01 X20.9031 Y69.8265
G01 X20.8585 Y69.8865
G01 X20.8251 Y69.9365
G01 X20.8251 Y63.9703
G00 Z2.0000
G00 X18.3020 Y71.5903
G01 F60.00
G01 Z-0.2001
G01 F320.00
G01 X18.3020 Y95.3112
G01 X18.2936 Y95.3239
G01 X18.2851 Y95.3112
G01 X18.2851 Y71.6156
G01 X18.3020 Y71.5903
G00 Z2.0000
G00 X21.2641 Y72.0334
G01 F60.00
G01 Z-0.2001
G01 F320.00
G01 X21.2267 Y72.0583
G01 X21.1667 Y72.1029
G01 X21.1089 Y72.1503
G01 X21.0535 Y72.2005
G01 X21.0007 Y72.2533
G01 X20.9505 Y72.3087
G01 X20.9031 Y72.3665
G01 X20.8585 Y72.4265
G01 X20.8251 Y72.4765
G01 X20.8251 Y71.5903
G01 X20.8585 Y71.6402
G01 X20.9031 Y71.7003
G01 X20.9505 Y71.7580
G01 X21.0007 Y71.8135
G01 X21.0535 Y71.8663
G01 X21.1089 Y71.9165
G01 X21.1667 Y71.9639
G01 X21.2267 Y72.0084
G01 X21.2641 Y72.0334
G00 Z2.0000
G00 X20.8251 Y74.1303
G01 F60.00
G01 Z-0.2001
G01 F320.00
G01 X20.8585 Y74.1802
G01 X20.9031 Y74.2403
G01 X20.9505 Y74.2980
G01 X21.0007 Y74.3535
G01 X21.0535 Y74.4063
G01 X21.1089 Y74.4565
G01 X21.1667 Y74.5039
G01 X21.2267 Y74.5484
G01 X21.2889 Y74.5900
G01 X21.3530 Y74.6284
G01 X21.4189 Y74.6636
G01 X21.4865 Y74.6956
G01 X21.5555 Y74.7242
G01 X21.6259 Y74.7494
G01 X21.6974 Y74.7711
G01 X21.7699 Y74.7892
G01 X21.8432 Y74.8038
G01 X21.9172 Y74.8148
G01 X21.9915 Y74.8221
G01 X22.0662 Y74.8258
G01 X22.1409 Y74.8258
G01 X22.2156 Y74.8221
G01 X22.2900 Y74.8148
G01 X22.3640 Y74.8038
G01 X22.4372 Y74.7892
G01 X22.5098 Y74.7711
G01 X22.5813 Y74.7494
G01 X22.6517 Y74.7242
G01 X22.7207 Y74.6956
G01 X22.7883 Y74.6636
G01 X22.8542 Y74.6284
G01 X22.9183 Y74.5900
G01 X22.9558 Y74.5649
G01 X69.0841 Y74.5649
G01 X69.0653 Y74.6048
G01 X69.0367 Y74.6738
G01 X69.0148 Y74.7348
G01 X68.9931 Y74.8063
G01 X68.9774 Y74.8692
G01 X68.9628 Y74.9424
G01 X68.9533 Y75.0065
G01 X68.9460 Y75.0809
G01 X68.9428 Y75.1456
G01 X68.9419 Y75.1830
G01 X68.9419 Y76.5038
G01 X68.9428 Y76.5411
G01 X68.9460 Y76.6059
G01 X68.9533 Y76.6802
G01 X68.9628 Y76.7443
G01 X68.9774 Y76.8176
G01 X68.9931 Y76.8805
G01 X69.0148 Y76.9520
G01 X69.0367 Y77.0130
G01 X69.0653 Y77.0820
G01 X69.0841 Y77.1218
G01 X22.9558 Y77.1218
G01 X22.9183 Y77.0968
G01 X22.8542 Y77.0584
G01 X22.7883 Y77.0232
G01 X22.7207 Y76.9912
G01 X22.6517 Y76.9626
G01 X22.5813 Y76.9374
G01 X22.5098 Y76.9157
G01 X22.4372 Y76.8975
G01 X22.3640 Y76.8830
G01 X22.2900 Y76.8720
G01 X22.2156 Y76.8647
G01 X22.1409 Y76.8610
G01 X22.0662 Y76.8610
G01 X21.9915 Y76.8647
G01 X21.9172 Y76.8720
G01 X21.8432 Y76.8830
G01 X21.7699 Y76.8975
G01 X21.6974 Y76.9157
G01 X21.6259 Y76.9374
G01 X21.5555 Y76.9626
G01 X21.4865 Y76.9912
G01 X21.4189 Y77.0232
G01 X21.3530 Y77.0584
G01 X21.2889 Y77.0968
G01 X21.2267 Y77.1383
G01 X21.1667 Y77.1829
G01 X21.1089 Y77.2303
G01 X21.0535 Y77.2805
G01 X21.0007 Y77.3333
G01 X20.9505 Y77.3887
G01 X20.9031 Y77.4465
G01 X20.8585 Y77.5065
G01 X20.8251 Y77.5565
G01 X20.8251 Y74.1303
G00 Z2.0000
G00 X22.9431 Y79.6534
G01 F60.00
G01 Z-0.2001
G01 F320.00
G01 X22.9558 Y79.6449
G01 X69.0841 Y79.6449
G01 X69.0761 Y79.6618
G01 X22.9558 Y79.6618
G01 X22.9431 Y79.6534
G00 Z2.0000
G00 X20.8251 Y80.0965
G01 F60.00
G01 Z-0.2001
G01 F320.00
G01 X20.8251 Y79.2103
G01 X20.8585 Y79.2602
G01 X20.9031 Y79.3203
G01 X20.9505 Y79.3780
G01 X21.0007 Y79.4335
G01 X21.0535 Y79.4863
G01 X21.1089 Y79.5365
G01 X21.1667 Y79.5839
G01 X21.2267 Y79.6284
G01 X21.2641 Y79.6534
G01 X21.2267 Y79.6783
G01 X21.1667 Y79.7229
G01 X21.1089 Y79.7703
G01 X21.0535 Y79.8205
G01 X21.0007 Y79.8733
G01 X20.9505 Y79.9287
G01 X20.9031 Y79.9865
G01 X20.8585 Y80.0465
G01 X20.8251 Y80.0965
G00 Z2.0000
G00 X15.7620 Y80.0965
G01 F60.00
G01 Z-0.2001
G01 F320.00
G01 X15.7451 Y80.0712
G01 X15.7451 Y71.5903
G01 X15.7620 Y71.6156
G01 X15.7620 Y80.0965
G00 Z2.0000
G00 X8.1420 Y77.5565
G01 F60.00
G01 Z-0.2001
G01 F320.00
G01 X8.1251 Y77.5312
G01 X8.1251 Y74.1303
G01 X8.1420 Y74.1556
G01 X8.1420 Y77.5565
G00 Z2.0000
G00 X8.1251 Y72.4765
G01 F60.00
G01 Z-0.2001
G01 F320.00
G01 X8.1251 Y61.4556
G01 X8.1420 Y61.4303
G01 X8.1420 Y72.4512
G01 X8.1251 Y72.4765
G00 Z2.0000
G00 X8.1336 Y95.3239
G01 F60.00
G01 Z-0.2001
G01 F320.00
G01 X8.1251 Y95.3112
G01 X8.1251 Y79.2356
G01 X8.1420 Y79.2103
G01 X8.1420 Y95.3112
G01 X8.1336 Y95.3239
G00 Z2.0000
G00 X15.7536 Y95.3239
G01 F60.00
G01 Z-0.2001
G01 F320.00
G01 X15.7451 Y95.3112
G01 X15.7451 Y81.7756
G01 X15.7620 Y81.7503
G01 X15.7620 Y95.3112
G01 X15.7536 Y95.3239
G00 Z2.0000
G00 X43.7031 Y54.2618
G01 F60.00
G01 Z-0.2001
G01 F320.00
G01 X43.7219 Y54.2220
G01 X43.7505 Y54.1530
G01 X43.7723 Y54.0920
G01 X43.7940 Y54.0205
G01 X43.8098 Y53.9576
G01 X43.8244 Y53.8843
G01 X43.8339 Y53.8202
G01 X43.8412 Y53.7459
G01 X43.8444 Y53.6811
G01 X43.8453 Y53.6438
G01 X43.8453 Y52.3230
G01 X43.8444 Y52.2856
G01 X43.8412 Y52.2209
G01 X43.8339 Y52.1465
G01 X43.8244 Y52.0824
G01 X43.8098 Y52.0092
G01 X43.7940 Y51.9463
G01 X43.7723 Y51.8748
G01 X43.7505 Y51.8138
G01 X43.7219 Y51.7448
G01 X43.7031 Y51.7049
G01 X48.7641 Y51.7049
G01 X48.7453 Y51.7448
G01 X48.7167 Y51.8138
G01 X48.6948 Y51.8748
G01 X48.6731 Y51.9463
G01 X48.6574 Y52.0092
G01 X48.6428 Y52.0824
G01 X48.6333 Y52.1465
G01 X48.6260 Y52.2209
G01 X48.6228 Y52.2856
G01 X48.6219 Y52.3230
G01 X48.6219 Y53.6438
G01 X48.6228 Y53.6811
G01 X48.6260 Y53.7459
G01 X48.6333 Y53.8202
G01 X48.6428 Y53.8843
G01 X48.6574 Y53.9576
G01 X48.6731 Y54.0205
G01 X48.6948 Y54.0920
G01 X48.7167 Y54.1530
G01 X48.7453 Y54.2220
G01 X48.7641 Y54.2618
G01 X43.7031 Y54.2618
G00 Z2.0000
G00 X41.1441 Y51.7049
G01 F60.00
G01 Z-0.2001
G01 F320.00
G01 X41.1253 Y51.7448
G01 X41.0967 Y51.8138
G01 X41.0748 Y51.8748
G01 X41.0531 Y51.9463
G01 X41.0374 Y52.0092
G01 X41.0228 Y52.0824
G01 X41.0133 Y52.1465
G01 X41.0060 Y52.2209
G01 X41.0028 Y52.2856
G01 X41.0019 Y52.3230
G01 X41.0019 Y53.6438
G01 X41.0028 Y53.6811
G01 X41.0060 Y53.7459
G01 X41.0133 Y53.8202
G01 X41.0228 Y53.8843
G01 X41.0374 Y53.9576
G01 X41.0531 Y54.0205
G01 X41.0748 Y54.0920
G01 X41.0967 Y54.1530
G01 X41.1253 Y54.2220
G01 X41.1441 Y54.2618
G01 X19.5636 Y54.2618
G01 X19.5262 Y54.2628
G01 X19.4772 Y54.2652
G01 X19.4028 Y54.2725
G01 X19.3543 Y54.2797
G01 X19.2810 Y54.2943
G01 X19.2334 Y54.3062
G01 X19.1619 Y54.3279
G01 X19.1157 Y54.3444
G01 X19.0467 Y54.3730
G01 X19.0023 Y54.3940
G01 X18.9364 Y54.4292
G01 X18.8943 Y54.4545
G01 X18.8322 Y54.4960
G01 X18.7927 Y54.5252
G01 X18.7350 Y54.5726
G01 X18.6986 Y54.6056
G01 X18.6458 Y54.6584
G01 X18.6128 Y54.6948
G01 X18.5654 Y54.7525
G01 X18.5362 Y54.7920
G01 X18.4947 Y54.8541
G01 X18.4694 Y54.8962
G01 X18.4342 Y54.9621
G01 X18.4132 Y55.0065
G01 X18.3846 Y55.0755
G01 X18.3681 Y55.1217
G01 X18.3464 Y55.1932
G01 X18.3345 Y55.2408
G01 X18.3199 Y55.3141
G01 X18.3127 Y55.3626
G01 X18.3054 Y55.4370
G01 X18.3030 Y55.4860
G01 X18.3020 Y55.5234
G01 X18.3020 Y59.7765
G01 X18.2851 Y59.7512
G01 X18.2851 Y51.7049
G01 X41.1441 Y51.7049
G00 Z2.0000
G00 X43.7031 Y49.1818
G01 F60.00
G01 Z-0.2001
G01 F320.00
G01 X43.7219 Y49.1420
G01 X43.7505 Y49.0730
G01 X43.7723 Y49.0120
G01 X43.7940 Y48.9405
G01 X43.8098 Y48.8776
G01 X43.8244 Y48.8043
G01 X43.8339 Y48.7402
G01 X43.8412 Y48.6659
G01 X43.8444 Y48.6011
G01 X43.8453 Y48.5638
G01 X43.8453 Y47.2430
G01 X43.8444 Y47.2056
G01 X43.8412 Y47.1409
G01 X43.8339 Y47.0665
G01 X43.8244 Y47.0024
G01 X43.8098 Y46.9292
G01 X43.7940 Y46.8663
G01 X43.7723 Y46.7948
G01 X43.7505 Y46.7338
G01 X43.7219 Y46.6648
G01 X43.6942 Y46.6062
G01 X43.6851 Y46.5892
G01 X43.6851 Y44.0849
G01 X55.1236 Y44.0849
G01 X55.1609 Y44.0840
G01 X55.2100 Y44.0816
G01 X55.2843 Y44.0743
G01 X55.3329 Y44.0671
G01 X55.4062 Y44.0525
G01 X55.4538 Y44.0406
G01 X55.5253 Y44.0189
G01 X55.5715 Y44.0023
G01 X55.6405 Y43.9738
G01 X55.6849 Y43.9528
G01 X55.7508 Y43.9176
G01 X55.7929 Y43.8923
G01 X55.8550 Y43.8508
G01 X55.8944 Y43.8216
G01 X55.9522 Y43.7742
G01 X55.9886 Y43.7412
G01 X56.0414 Y43.6884
G01 X56.0744 Y43.6520
G01 X56.1218 Y43.5942
G01 X56.1510 Y43.5548
G01 X56.1925 Y43.4927
G01 X56.2178 Y43.4506
G01 X56.2503 Y43.3896
G01 X56.2714 Y43.4405
G01 X56.3034 Y43.5081
G01 X56.3386 Y43.5740
G01 X56.3770 Y43.6381
G01 X56.4185 Y43.7002
G01 X56.4631 Y43.7603
G01 X56.5105 Y43.8180
G01 X56.5607 Y43.8735
G01 X56.6135 Y43.9263
G01 X56.6689 Y43.9765
G01 X56.7267 Y44.0239
G01 X56.7867 Y44.0684
G01 X56.8367 Y44.1018
G01 X55.1236 Y44.1018
G01 X55.0862 Y44.1028
G01 X55.0372 Y44.1052
G01 X54.9628 Y44.1125
G01 X54.9143 Y44.1197
G01 X54.8410 Y44.1343
G01 X54.7934 Y44.1462
G01 X54.7219 Y44.1679
G01 X54.6757 Y44.1844
G01 X54.6067 Y44.2130
G01 X54.5623 Y44.2340
G01 X54.4964 Y44.2692
G01 X54.4543 Y44.2945
G01 X54.3922 Y44.3360
G01 X54.3527 Y44.3652
G01 X54.2950 Y44.4126
G01 X54.2586 Y44.4456
G01 X54.2058 Y44.4984
G01 X54.1728 Y44.5348
G01 X54.1254 Y44.5925
G01 X54.0962 Y44.6320
G01 X54.0547 Y44.6941
G01 X54.0294 Y44.7362
G01 X53.9942 Y44.8021
G01 X53.9732 Y44.8465
G01 X53.9446 Y44.9155
G01 X53.9281 Y44.9617
G01 X53.9064 Y45.0332
G01 X53.8945 Y45.0808
G01 X53.8799 Y45.1541
G01 X53.8727 Y45.2026
G01 X53.8654 Y45.2770
G01 X53.8630 Y45.3260
G01 X53.8620 Y45.3634
G01 X53.8620 Y46.6227
G01 X53.8542 Y46.6062
G01 X53.8190 Y46.5403
G01 X53.7857 Y46.4847
G01 X53.7442 Y46.4226
G01 X53.7056 Y46.3705
G01 X53.6582 Y46.3128
G01 X53.6146 Y46.2648
G01 X53.5618 Y46.2119
G01 X53.5138 Y46.1684
G01 X53.4560 Y46.1210
G01 X53.4040 Y46.0824
G01 X53.3419 Y46.0409
G01 X53.2863 Y46.0076
G01 X53.2204 Y45.9724
G01 X53.1618 Y45.9446
G01 X53.0928 Y45.9161
G01 X53.0318 Y45.8942
G01 X52.9603 Y45.8725
G01 X52.8974 Y45.8568
G01 X52.8241 Y45.8422
G01 X52.7600 Y45.8327
G01 X52.6857 Y45.8254
G01 X52.6209 Y45.8222
G01 X52.5462 Y45.8222
G01 X52.4815 Y45.8254
G01 X52.4072 Y45.8327
G01 X52.3430 Y45.8422
G01 X52.2698 Y45.8568
G01 X52.2069 Y45.8725
G01 X52.1354 Y45.8942
G01 X52.0744 Y45.9161
G01 X52.0054 Y45.9446
G01 X51.9468 Y45.9724
G01 X51.8809 Y46.0076
G01 X51.8253 Y46.0409
G01 X51.7632 Y46.0824
G01 X51.7111 Y46.1210
G01 X51.6534 Y46.1684
G01 X51.6054 Y46.2119
G01 X51.5525 Y46.2648
G01 X51.5090 Y46.3128
G01 X51.4616 Y46.3705
G01 X51.4230 Y46.4226
G01 X51.3815 Y46.4847
G01 X51.3482 Y46.5403
G01 X51.3136 Y46.6050
G01 X51.2790 Y46.5403
G01 X51.2457 Y46.4847
G01 X51.2042 Y46.4226
G01 X51.1656 Y46.3705
G01 X51.1182 Y46.3128
G01 X51.0746 Y46.2648
G01 X51.0218 Y46.2119
G01 X50.9738 Y46.1684
G01 X50.9160 Y46.1210
G01 X50.8640 Y46.0824
G01 X50.8019 Y46.0409
G01 X50.7463 Y46.0076
G01 X50.6804 Y45.9724
G01 X50.6218 Y45.9446
G01 X50.5528 Y45.9161
G01 X50.4918 Y45.8942
G01 X50.4203 Y45.8725
G01 X50.3574 Y45.8568
G01 X50.2841 Y45.8422
G01 X50.2200 Y45.8327
G01 X50.1457 Y45.8254
G01 X50.0809 Y45.8222
G01 X50.0062 Y45.8222
G01 X49.9415 Y45.8254
G01 X49.8672 Y45.8327
G01 X49.8030 Y45.8422
G01 X49.7298 Y45.8568
G01 X49.6669 Y45.8725
G01 X49.5954 Y45.8942
G01 X49.5344 Y45.9161
G01 X49.4654 Y45.9446
G01 X49.4068 Y45.9724
G01 X49.3409 Y46.0076
G01 X49.2853 Y46.0409
G01 X49.2232 Y46.0824
G01 X49.1711 Y46.1210
G01 X49.1134 Y46.1684
G01 X49.0654 Y46.2119
G01 X49.0125 Y46.2648
G01 X48.9690 Y46.3128
G01 X48.9216 Y46.3705
G01 X48.8830 Y46.4226
G01 X48.8415 Y46.4847
G01 X48.8082 Y46.5403
G01 X48.7730 Y46.6062
G01 X48.7453 Y46.6648
G01 X48.7167 Y46.7338
G01 X48.6948 Y46.7948
G01 X48.6731 Y46.8663
G01 X48.6574 Y46.9292
G01 X48.6428 Y47.0024
G01 X48.6333 Y47.0665
G01 X48.6260 Y47.1409
G01 X48.6228 Y47.2056
G01 X48.6219 Y47.2430
G01 X48.6219 Y48.5638
G01 X48.6228 Y48.6011
G01 X48.6260 Y48.6659
G01 X48.6333 Y48.7402
G01 X48.6428 Y48.8043
G01 X48.6574 Y48.8776
G01 X48.6731 Y48.9405
G01 X48.6948 Y49.0120
G01 X48.7167 Y49.0730
G01 X48.7453 Y49.1420
G01 X48.7641 Y49.1818
G01 X43.7031 Y49.1818
G00 Z2.0000
G00 X51.3136 Y49.2018
G01 F60.00
G01 Z-0.2001
G01 F320.00
G01 X51.3482 Y49.2665
G01 X51.3815 Y49.3221
G01 X51.4230 Y49.3842
G01 X51.4616 Y49.4362
G01 X51.5090 Y49.4940
G01 X51.5525 Y49.5420
G01 X51.6054 Y49.5948
G01 X51.6534 Y49.6384
G01 X51.7111 Y49.6858
G01 X51.7632 Y49.7244
G01 X51.8253 Y49.7659
G01 X51.8809 Y49.7992
G01 X51.9468 Y49.8344
G01 X52.0054 Y49.8621
G01 X52.0744 Y49.8907
G01 X52.1354 Y49.9125
G01 X52.2069 Y49.9342
G01 X52.2698 Y49.9500
G01 X52.3430 Y49.9646
G01 X52.4072 Y49.9741
G01 X52.4815 Y49.9814
G01 X52.5462 Y49.9846
G01 X52.6209 Y49.9846
G01 X52.6857 Y49.9814
G01 X52.7600 Y49.9741
G01 X52.8241 Y49.9646
G01 X52.8974 Y49.9500
G01 X52.9603 Y49.9342
G01 X53.0318 Y49.9125
G01 X53.0928 Y49.8907
G01 X53.1618 Y49.8621
G01 X53.2204 Y49.8344
G01 X53.2863 Y49.7992
G01 X53.3419 Y49.7659
G01 X53.4040 Y49.7244
G01 X53.4560 Y49.6858
G01 X53.5138 Y49.6384
G01 X53.5618 Y49.5948
G01 X53.6146 Y49.5420
G01 X53.6582 Y49.4940
G01 X53.7056 Y49.4362
G01 X53.7442 Y49.3842
G01 X53.7857 Y49.3221
G01 X53.8190 Y49.2665
G01 X53.8542 Y49.2006
G01 X53.8620 Y49.1840
G01 X53.8620 Y51.7027
G01 X53.8542 Y51.6862
G01 X53.8190 Y51.6203
G01 X53.7857 Y51.5647
G01 X53.7442 Y51.5026
G01 X53.7056 Y51.4505
G01 X53.6582 Y51.3928
G01 X53.6146 Y51.3448
G01 X53.5618 Y51.2919
G01 X53.5138 Y51.2484
G01 X53.4560 Y51.2010
G01 X53.4040 Y51.1624
G01 X53.3419 Y51.1209
G01 X53.2863 Y51.0876
G01 X53.2204 Y51.0524
G01 X53.1618 Y51.0246
G01 X53.0928 Y50.9961
G01 X53.0318 Y50.9742
G01 X52.9603 Y50.9525
G01 X52.8974 Y50.9368
G01 X52.8241 Y50.9222
G01 X52.7600 Y50.9127
G01 X52.6857 Y50.9054
G01 X52.6209 Y50.9022
G01 X52.5462 Y50.9022
G01 X52.4815 Y50.9054
G01 X52.4072 Y50.9127
G01 X52.3430 Y50.9222
G01 X52.2698 Y50.9368
G01 X52.2069 Y50.9525
G01 X52.1354 Y50.9742
G01 X52.0744 Y50.9961
G01 X52.0054 Y51.0246
G01 X51.9468 Y51.0524
G01 X51.8809 Y51.0876
G01 X51.8253 Y51.1209
G01 X51.7632 Y51.1624
G01 X51.7111 Y51.2010
G01 X51.6534 Y51.2484
G01 X51.6054 Y51.2919
G01 X51.5525 Y51.3448
G01 X51.5090 Y51.3928
G01 X51.4616 Y51.4505
G01 X51.4230 Y51.5026
G01 X51.3815 Y51.5647
G01 X51.3482 Y51.6203
G01 X51.3136 Y51.6850
G01 X51.2790 Y51.6203
G01 X51.2457 Y51.5647
G01 X51.2042 Y51.5026
G01 X51.1656 Y51.4505
G01 X51.1182 Y51.3928
G01 X51.0746 Y51.3448
G01 X51.0218 Y51.2919
G01 X50.9967 Y51.2692
G01 X51.0418 Y51.2142
G01 X51.0710 Y51.1748
G01 X51.1125 Y51.1127
G01 X51.1378 Y51.0706
G01 X51.1730 Y51.0047
G01 X51.1940 Y50.9603
G01 X51.2226 Y50.8913
G01 X51.2391 Y50.8451
G01 X51.2608 Y50.7736
G01 X51.2727 Y50.7260
G01 X51.2873 Y50.6527
G01 X51.2945 Y50.6041
G01 X51.3018 Y50.5298
G01 X51.3042 Y50.4807
G01 X51.3051 Y50.4434
G01 X51.3051 Y49.2176
G01 X51.3136 Y49.2018
G00 Z2.0000
G00 X58.5158 Y54.2618
G01 F60.00
G01 Z-0.2001
G01 F320.00
G01 X61.4294 Y54.2618
G01 X61.4464 Y54.2528
G01 X61.5050 Y54.2250
G01 X61.5740 Y54.1965
G01 X61.6350 Y54.1746
G01 X61.7065 Y54.1529
G01 X61.7694 Y54.1372
G01 X61.8426 Y54.1226
G01 X61.9068 Y54.1131
G01 X61.9811 Y54.1058
G01 X62.0458 Y54.1026
G01 X62.0832 Y54.1017
G01 X63.4040 Y54.1017
G01 X63.4413 Y54.1026
G01 X63.5061 Y54.1058
G01 X63.5804 Y54.1131
G01 X63.6445 Y54.1226
G01 X63.7178 Y54.1372
G01 X63.7807 Y54.1529
G01 X63.8522 Y54.1746
G01 X63.9132 Y54.1965
G01 X63.9822 Y54.2250
G01 X64.0408 Y54.2528
G01 X64.1067 Y54.2880
G01 X64.1623 Y54.3213
G01 X64.2244 Y54.3628
G01 X64.2764 Y54.4014
G01 X64.3342 Y54.4488
G01 X64.3822 Y54.4923
G01 X64.4350 Y54.5452
G01 X64.4786 Y54.5932
G01 X64.5260 Y54.6509
G01 X64.5646 Y54.7030
G01 X64.6061 Y54.7651
G01 X64.6394 Y54.8207
G01 X64.6746 Y54.8866
G01 X64.7023 Y54.9452
G01 X64.7309 Y55.0142
G01 X64.7527 Y55.0752
G01 X64.7744 Y55.1467
G01 X64.7902 Y55.2096
G01 X64.8048 Y55.2828
G01 X64.8143 Y55.3469
G01 X64.8216 Y55.4213
G01 X64.8248 Y55.4860
G01 X64.8248 Y55.5607
G01 X64.8216 Y55.6255
G01 X64.8143 Y55.6998
G01 X64.8048 Y55.7639
G01 X64.7902 Y55.8372
G01 X64.7744 Y55.9001
G01 X64.7527 Y55.9716
G01 X64.7309 Y56.0326
G01 X64.7023 Y56.1016
G01 X64.6746 Y56.1602
G01 X64.6394 Y56.2261
G01 X64.6061 Y56.2817
G01 X64.5646 Y56.3438
G01 X64.5260 Y56.3958
G01 X64.4786 Y56.4536
G01 X64.4350 Y56.5016
G01 X64.3822 Y56.5544
G01 X64.3342 Y56.5980
G01 X64.2764 Y56.6454
G01 X64.2244 Y56.6840
G01 X64.1623 Y56.7255
G01 X64.1067 Y56.7588
G01 X64.0408 Y56.7940
G01 X63.9822 Y56.8217
G01 X63.9132 Y56.8503
G01 X63.8522 Y56.8721
G01 X63.7807 Y56.8938
G01 X63.7178 Y56.9096
G01 X63.6445 Y56.9242
G01 X63.5804 Y56.9337
G01 X63.5061 Y56.9410
G01 X63.4413 Y56.9442
G01 X63.4040 Y56.9451
G01 X62.0832 Y56.9451
G01 X62.0458 Y56.9442
G01 X61.9811 Y56.9410
G01 X61.9068 Y56.9337
G01 X61.8426 Y56.9242
G01 X61.7694 Y56.9096
G01 X61.7065 Y56.8938
G01 X61.6350 Y56.8721
G01 X61.5740 Y56.8503
G01 X61.5050 Y56.8217
G01 X61.4464 Y56.7940
G01 X61.4294 Y56.7849
G01 X58.5158 Y56.7849
G01 X58.4783 Y56.8100
G01 X58.4142 Y56.8484
G01 X58.3483 Y56.8836
G01 X58.2807 Y56.9156
G01 X58.2117 Y56.9442
G01 X58.1413 Y56.9694
G01 X58.0698 Y56.9911
G01 X57.9972 Y57.0092
G01 X57.9240 Y57.0238
G01 X57.8500 Y57.0348
G01 X57.7756 Y57.0421
G01 X57.7009 Y57.0458
G01 X57.6262 Y57.0458
G01 X57.5515 Y57.0421
G01 X57.4772 Y57.0348
G01 X57.4032 Y57.0238
G01 X57.3299 Y57.0092
G01 X57.2574 Y56.9911
G01 X57.1859 Y56.9694
G01 X57.1155 Y56.9442
G01 X57.0465 Y56.9156
G01 X56.9789 Y56.8836
G01 X56.9130 Y56.8484
G01 X56.8489 Y56.8100
G01 X56.7867 Y56.7684
G01 X56.7267 Y56.7239
G01 X56.6689 Y56.6765
G01 X56.6135 Y56.6263
G01 X56.5607 Y56.5735
G01 X56.5105 Y56.5180
G01 X56.4631 Y56.4603
G01 X56.4185 Y56.4002
G01 X56.3770 Y56.3381
G01 X56.3386 Y56.2740
G01 X56.3034 Y56.2081
G01 X56.2714 Y56.1405
G01 X56.2428 Y56.0715
G01 X56.2176 Y56.0011
G01 X56.1959 Y55.9296
G01 X56.1777 Y55.8570
G01 X56.1632 Y55.7837
G01 X56.1522 Y55.7098
G01 X56.1449 Y55.6354
G01 X56.1412 Y55.5607
G01 X56.1412 Y55.4860
G01 X56.1449 Y55.4113
G01 X56.1522 Y55.3370
G01 X56.1632 Y55.2630
G01 X56.1777 Y55.1897
G01 X56.1959 Y55.1172
G01 X56.2176 Y55.0457
G01 X56.2428 Y54.9753
G01 X56.2714 Y54.9063
G01 X56.3034 Y54.8387
G01 X56.3386 Y54.7728
G01 X56.3770 Y54.7087
G01 X56.4185 Y54.6465
G01 X56.4631 Y54.5865
G01 X56.5105 Y54.5287
G01 X56.5607 Y54.4733
G01 X56.6135 Y54.4205
G01 X56.6689 Y54.3703
G01 X56.7267 Y54.3229
G01 X56.7867 Y54.2783
G01 X56.8489 Y54.2368
G01 X56.9130 Y54.1984
G01 X56.9789 Y54.1632
G01 X57.0465 Y54.1312
G01 X57.1155 Y54.1026
G01 X57.1859 Y54.0774
G01 X57.2574 Y54.0557
G01 X57.3299 Y54.0375
G01 X57.4032 Y54.0230
G01 X57.4772 Y54.0120
G01 X57.5515 Y54.0047
G01 X57.6262 Y54.0010
G01 X57.7009 Y54.0010
G01 X57.7756 Y54.0047
G01 X57.8500 Y54.0120
G01 X57.9240 Y54.0230
G01 X57.9972 Y54.0375
G01 X58.0698 Y54.0557
G01 X58.1413 Y54.0774
G01 X58.2117 Y54.1026
G01 X58.2807 Y54.1312
G01 X58.3483 Y54.1632
G01 X58.4142 Y54.1984
G01 X58.4783 Y54.2368
G01 X58.5158 Y54.2618
G00 Z2.0000
G00 X63.4040 Y49.0217
G01 F60.00
G01 Z-0.2001
G01 F320.00
G01 X63.4413 Y49.0226
G01 X63.5061 Y49.0258
G01 X63.5804 Y49.0331
G01 X63.6445 Y49.0426
G01 X63.7178 Y49.0572
G01 X63.7807 Y49.0729
G01 X63.8522 Y49.0946
G01 X63.9132 Y49.1165
G01 X63.9822 Y49.1450
G01 X64.0408 Y49.1728
G01 X64.1067 Y49.2080
G01 X64.1623 Y49.2413
G01 X64.2244 Y49.2828
G01 X64.2764 Y49.3214
G01 X64.3342 Y49.3688
G01 X64.3822 Y49.4123
G01 X64.4350 Y49.4652
G01 X64.4786 Y49.5132
G01 X64.5260 Y49.5709
G01 X64.5646 Y49.6230
G01 X64.6061 Y49.6851
G01 X64.6394 Y49.7407
G01 X64.6746 Y49.8066
G01 X64.7023 Y49.8652
G01 X64.7309 Y49.9342
G01 X64.7527 Y49.9952
G01 X64.7744 Y50.0667
G01 X64.7902 Y50.1296
G01 X64.8048 Y50.2028
G01 X64.8143 Y50.2669
G01 X64.8216 Y50.3413
G01 X64.8248 Y50.4060
G01 X64.8248 Y50.4807
G01 X64.8216 Y50.5455
G01 X64.8143 Y50.6198
G01 X64.8048 Y50.6839
G01 X64.7902 Y50.7572
G01 X64.7744 Y50.8201
G01 X64.7527 Y50.8916
G01 X64.7309 Y50.9526
G01 X64.7023 Y51.0216
G01 X64.6746 Y51.0802
G01 X64.6394 Y51.1461
G01 X64.6061 Y51.2017
G01 X64.5646 Y51.2638
G01 X64.5260 Y51.3158
G01 X64.4786 Y51.3736
G01 X64.4350 Y51.4216
G01 X64.3822 Y51.4744
G01 X64.3342 Y51.5180
G01 X64.2764 Y51.5654
G01 X64.2244 Y51.6040
G01 X64.1623 Y51.6455
G01 X64.1067 Y51.6788
G01 X64.0408 Y51.7140
G01 X63.9822 Y51.7417
G01 X63.9132 Y51.7703
G01 X63.8522 Y51.7921
G01 X63.7807 Y51.8138
G01 X63.7178 Y51.8296
G01 X63.6445 Y51.8442
G01 X63.5804 Y51.8537
G01 X63.5061 Y51.8610
G01 X63.4413 Y51.8642
G01 X63.4040 Y51.8651
G01 X62.0832 Y51.8651
G01 X62.0458 Y51.8642
G01 X61.9811 Y51.8610
G01 X61.9068 Y51.8537
G01 X61.8426 Y51.8442
G01 X61.7694 Y51.8296
G01 X61.7065 Y51.8138
G01 X61.6350 Y51.7921
G01 X61.5740 Y51.7703
G01 X61.5050 Y51.7417
G01 X61.4464 Y51.7140
G01 X61.3805 Y51.6788
G01 X61.3249 Y51.6455
G01 X61.2628 Y51.6040
G01 X61.2107 Y51.5654
G01 X61.1530 Y51.5180
G01 X61.1050 Y51.4744
G01 X61.0521 Y51.4216
G01 X61.0086 Y51.3736
G01 X60.9612 Y51.3158
G01 X60.9226 Y51.2638
G01 X60.8811 Y51.2017
G01 X60.8478 Y51.1461
G01 X60.8126 Y51.0802
G01 X60.7849 Y51.0216
G01 X60.7563 Y50.9526
G01 X60.7344 Y50.8916
G01 X60.7127 Y50.8201
G01 X60.6970 Y50.7572
G01 X60.6824 Y50.6839
G01 X60.6729 Y50.6198
G01 X60.6656 Y50.5455
G01 X60.6624 Y50.4807
G01 X60.6624 Y50.4060
G01 X60.6656 Y50.3413
G01 X60.6729 Y50.2669
G01 X60.6824 Y50.2028
G01 X60.6970 Y50.1296
G01 X60.7127 Y50.0667
G01 X60.7344 Y49.9952
G01 X60.7563 Y49.9342
G01 X60.7849 Y49.8652
G01 X60.8126 Y49.8066
G01 X60.8478 Y49.7407
G01 X60.8811 Y49.6851
G01 X60.9226 Y49.6230
G01 X60.9612 Y49.5709
G01 X61.0086 Y49.5132
G01 X61.0521 Y49.4652
G01 X61.1050 Y49.4123
G01 X61.1530 Y49.3688
G01 X61.2107 Y49.3214
G01 X61.2628 Y49.2828
G01 X61.3249 Y49.2413
G01 X61.3805 Y49.2080
G01 X61.4464 Y49.1728
G01 X61.5050 Y49.1450
G01 X61.5740 Y49.1165
G01 X61.6350 Y49.0946
G01 X61.7065 Y49.0729
G01 X61.7694 Y49.0572
G01 X61.8426 Y49.0426
G01 X61.9068 Y49.0331
G01 X61.9811 Y49.0258
G01 X62.0458 Y49.0226
G01 X62.0832 Y49.0217
G01 X63.4040 Y49.0217
G00 Z2.0000
G00 X58.4905 Y44.1018
G01 F60.00
G01 Z-0.2001
G01 F320.00
G01 X58.5158 Y44.0849
G01 X61.4294 Y44.0849
G01 X61.4464 Y44.0940
G01 X61.4629 Y44.1018
G01 X58.4905 Y44.1018
G00 Z2.0000
G00 X61.4651 Y36.4829
G01 F60.00
G01 Z-0.2001
G01 F320.00
G01 X61.5050 Y36.5017
G01 X61.5740 Y36.5303
G01 X61.6350 Y36.5521
G01 X61.7065 Y36.5738
G01 X61.7694 Y36.5896
G01 X61.8426 Y36.6042
G01 X61.9068 Y36.6137
G01 X61.9811 Y36.6210
G01 X62.0458 Y36.6242
G01 X62.0832 Y36.6251
G01 X63.4040 Y36.6251
G01 X63.4413 Y36.6242
G01 X63.5061 Y36.6210
G01 X63.5804 Y36.6137
G01 X63.6445 Y36.6042
G01 X63.7178 Y36.5896
G01 X63.7807 Y36.5738
G01 X63.8522 Y36.5521
G01 X63.9132 Y36.5303
G01 X63.9822 Y36.5017
G01 X64.0408 Y36.4740
G01 X64.0578 Y36.4649
G01 X65.2836 Y36.4649
G01 X65.3209 Y36.4640
G01 X65.3700 Y36.4616
G01 X65.4443 Y36.4543
G01 X65.4929 Y36.4471
G01 X65.5662 Y36.4325
G01 X65.6138 Y36.4206
G01 X65.6853 Y36.3989
G01 X65.7315 Y36.3823
G01 X65.8005 Y36.3538
G01 X65.8449 Y36.3328
G01 X65.9108 Y36.2976
G01 X65.9529 Y36.2723
G01 X66.0150 Y36.2308
G01 X66.0544 Y36.2016
G01 X66.1094 Y36.1565
G01 X66.1321 Y36.1816
G01 X66.1850 Y36.2344
G01 X66.2330 Y36.2780
G01 X66.2907 Y36.3254
G01 X66.3428 Y36.3640
G01 X66.4049 Y36.4055
G01 X66.4605 Y36.4388
G01 X66.5264 Y36.4740
G01 X66.5620 Y36.4909
G01 X66.5620 Y38.9959
G01 X66.5264 Y39.0128
G01 X66.4605 Y39.0480
G01 X66.4049 Y39.0813
G01 X66.3428 Y39.1228
G01 X66.2907 Y39.1614
G01 X66.2330 Y39.2088
G01 X66.1850 Y39.2523
G01 X66.1321 Y39.3052
G01 X66.1094 Y39.3303
G01 X66.0544 Y39.2852
G01 X66.0150 Y39.2560
G01 X65.9529 Y39.2145
G01 X65.9108 Y39.1892
G01 X65.8449 Y39.1540
G01 X65.8005 Y39.1330
G01 X65.7315 Y39.1044
G01 X65.6853 Y39.0879
G01 X65.6138 Y39.0662
G01 X65.5662 Y39.0543
G01 X65.4929 Y39.0397
G01 X65.4443 Y39.0325
G01 X65.3700 Y39.0252
G01 X65.3209 Y39.0228
G01 X65.2836 Y39.0218
G01 X64.0578 Y39.0218
G01 X64.0408 Y39.0128
G01 X63.9822 Y38.9850
G01 X63.9132 Y38.9565
G01 X63.8522 Y38.9346
G01 X63.7807 Y38.9129
G01 X63.7178 Y38.8972
G01 X63.6445 Y38.8826
G01 X63.5804 Y38.8731
G01 X63.5061 Y38.8658
G01 X63.4413 Y38.8626
G01 X63.4040 Y38.8617
G01 X62.0832 Y38.8617
G01 X62.0458 Y38.8626
G01 X61.9811 Y38.8658
G01 X61.9068 Y38.8731
G01 X61.8426 Y38.8826
G01 X61.7694 Y38.8972
G01 X61.7065 Y38.9129
G01 X61.6350 Y38.9346
G01 X61.5740 Y38.9565
G01 X61.5050 Y38.9850
G01 X61.4651 Y39.0039
G01 X61.4651 Y36.4829
G00 Z2.0000
G00 X69.1020 Y39.0039
G01 F60.00
G01 Z-0.2001
G01 F320.00
G01 X69.0851 Y38.9959
G01 X69.0851 Y36.4909
G01 X69.1020 Y36.4829
G01 X69.1020 Y39.0039
G00 Z2.0000
G00 X69.1042 Y31.3849
G01 F60.00
G01 Z-0.2001
G01 F320.00
G01 X72.0514 Y31.3849
G01 X72.0889 Y31.4100
G01 X72.1530 Y31.4484
G01 X72.2189 Y31.4836
G01 X72.2865 Y31.5156
G01 X72.3555 Y31.5442
G01 X72.4259 Y31.5694
G01 X72.4974 Y31.5911
G01 X72.5699 Y31.6092
G01 X72.6432 Y31.6238
G01 X72.7172 Y31.6348
G01 X72.7915 Y31.6421
G01 X72.8662 Y31.6458
G01 X72.9409 Y31.6458
G01 X73.0156 Y31.6421
G01 X73.0900 Y31.6348
G01 X73.1640 Y31.6238
G01 X73.2372 Y31.6092
G01 X73.3098 Y31.5911
G01 X73.3813 Y31.5694
G01 X73.4517 Y31.5442
G01 X73.5207 Y31.5156
G01 X73.5883 Y31.4836
G01 X73.6542 Y31.4484
G01 X73.7183 Y31.4100
G01 X73.7804 Y31.3684
G01 X73.8405 Y31.3239
G01 X73.8983 Y31.2765
G01 X73.9537 Y31.2263
G01 X74.0065 Y31.1735
G01 X74.0567 Y31.1180
G01 X74.1041 Y31.0603
G01 X74.1486 Y31.0002
G01 X74.1820 Y30.9503
G01 X74.1820 Y49.1818
G01 X69.1378 Y49.1818
G01 X69.1208 Y49.1728
G01 X69.0622 Y49.1450
G01 X68.9932 Y49.1165
G01 X68.9322 Y49.0946
G01 X68.8607 Y49.0729
G01 X68.7978 Y49.0572
G01 X68.7245 Y49.0426
G01 X68.6604 Y49.0331
G01 X68.5861 Y49.0258
G01 X68.5213 Y49.0226
G01 X68.4840 Y49.0217
G01 X67.1632 Y49.0217
G01 X67.1258 Y49.0226
G01 X67.0611 Y49.0258
G01 X66.9868 Y49.0331
G01 X66.9226 Y49.0426
G01 X66.8494 Y49.0572
G01 X66.7865 Y49.0729
G01 X66.7150 Y49.0946
G01 X66.6540 Y49.1165
G01 X66.5850 Y49.1450
G01 X66.5264 Y49.1728
G01 X66.4605 Y49.2080
G01 X66.4049 Y49.2413
G01 X66.3428 Y49.2828
G01 X66.2907 Y49.3214
G01 X66.2330 Y49.3688
G01 X66.1850 Y49.4123
G01 X66.1321 Y49.4652
G01 X66.0886 Y49.5132
G01 X66.0412 Y49.5709
G01 X66.0026 Y49.6230
G01 X65.9611 Y49.6851
G01 X65.9278 Y49.7407
G01 X65.8926 Y49.8066
G01 X65.8649 Y49.8652
G01 X65.8363 Y49.9342
G01 X65.8144 Y49.9952
G01 X65.7927 Y50.0667
G01 X65.7770 Y50.1296
G01 X65.7624 Y50.2028
G01 X65.7529 Y50.2669
G01 X65.7456 Y50.3413
G01 X65.7424 Y50.4060
G01 X65.7424 Y50.4807
G01 X65.7456 Y50.5455
G01 X65.7529 Y50.6198
G01 X65.7624 Y50.6839
G01 X65.7770 Y50.7572
G01 X65.7927 Y50.8201
G01 X65.8144 Y50.8916
G01 X65.8363 Y50.9526
G01 X65.8649 Y51.0216
G01 X65.8926 Y51.0802
G01 X65.9278 Y51.1461
G01 X65.9611 Y51.2017
G01 X66.0026 Y51.2638
G01 X66.0412 Y51.3158
G01 X66.0886 Y51.3736
G01 X66.1321 Y51.4216
G01 X66.1850 Y51.4744
G01 X66.2330 Y51.5180
G01 X66.2907 Y51.5654
G01 X66.3428 Y51.6040
G01 X66.4049 Y51.6455
G01 X66.4605 Y51.6788
G01 X66.5264 Y51.7140
G01 X66.5850 Y51.7417
G01 X66.6540 Y51.7703
G01 X66.7150 Y51.7921
G01 X66.7865 Y51.8138
G01 X66.8494 Y51.8296
G01 X66.9226 Y51.8442
G01 X66.9868 Y51.8537
G01 X67.0611 Y51.8610
G01 X67.1258 Y51.8642
G01 X67.1632 Y51.8651
G01 X68.4840 Y51.8651
G01 X68.5213 Y51.8642
G01 X68.5861 Y51.8610
G01 X68.6604 Y51.8537
G01 X68.7245 Y51.8442
G01 X68.7978 Y51.8296
G01 X68.8607 Y51.8138
G01 X68.9322 Y51.7921
G01 X68.9932 Y51.7703
G01 X69.0622 Y51.7417
G01 X69.1208 Y51.7140
G01 X69.1378 Y51.7049
G01 X75.4436 Y51.7049
G01 X75.4809 Y51.7040
G01 X75.5300 Y51.7016
G01 X75.6043 Y51.6943
G01 X75.6529 Y51.6871
G01 X75.7262 Y51.6725
G01 X75.7738 Y51.6606
G01 X75.8453 Y51.6389
G01 X75.8915 Y51.6223
G01 X75.9605 Y51.5938
G01 X76.0049 Y51.5728
G01 X76.0708 Y51.5376
G01 X76.1129 Y51.5123
G01 X76.1750 Y51.4708
G01 X76.2144 Y51.4416
G01 X76.2722 Y51.3942
G01 X76.3086 Y51.3612
G01 X76.3614 Y51.3084
G01 X76.3944 Y51.2720
G01 X76.4418 Y51.2142
G01 X76.4710 Y51.1748
G01 X76.5125 Y51.1127
G01 X76.5378 Y51.0706
G01 X76.5730 Y51.0047
G01 X76.5940 Y50.9603
G01 X76.6226 Y50.8913
G01 X76.6391 Y50.8451
G01 X76.6608 Y50.7736
G01 X76.6727 Y50.7260
G01 X76.6873 Y50.6527
G01 X76.6945 Y50.6041
G01 X76.7018 Y50.5298
G01 X76.7042 Y50.4807
G01 X76.7051 Y50.4434
G01 X76.7051 Y44.0849
G01 X79.2094 Y44.0849
G01 X79.2264 Y44.0940
G01 X79.2850 Y44.1217
G01 X79.3540 Y44.1503
G01 X79.4150 Y44.1721
G01 X79.4865 Y44.1938
G01 X79.5494 Y44.2096
G01 X79.6226 Y44.2242
G01 X79.6868 Y44.2337
G01 X79.7611 Y44.2410
G01 X79.8258 Y44.2442
G01 X79.8632 Y44.2451
G01 X81.1840 Y44.2451
G01 X81.2213 Y44.2442
G01 X81.2861 Y44.2410
G01 X81.3604 Y44.2337
G01 X81.4245 Y44.2242
G01 X81.4978 Y44.2096
G01 X81.5607 Y44.1938
G01 X81.6322 Y44.1721
G01 X81.6932 Y44.1503
G01 X81.7622 Y44.1217
G01 X81.8020 Y44.1029
G01 X81.8020 Y49.1639
G01 X81.7622 Y49.1450
G01 X81.6932 Y49.1165
G01 X81.6322 Y49.0946
G01 X81.5607 Y49.0729
G01 X81.4978 Y49.0572
G01 X81.4245 Y49.0426
G01 X81.3604 Y49.0331
G01 X81.2861 Y49.0258
G01 X81.2213 Y49.0226
G01 X81.1840 Y49.0217
G01 X79.8632 Y49.0217
G01 X79.8258 Y49.0226
G01 X79.7611 Y49.0258
G01 X79.6868 Y49.0331
G01 X79.6226 Y49.0426
G01 X79.5494 Y49.0572
G01 X79.4865 Y49.0729
G01 X79.4150 Y49.0946
G01 X79.3540 Y49.1165
G01 X79.2850 Y49.1450
G01 X79.2264 Y49.1728
G01 X79.1605 Y49.2080
G01 X79.1049 Y49.2413
G01 X79.0428 Y49.2828
G01 X78.9907 Y49.3214
G01 X78.9330 Y49.3688
G01 X78.8850 Y49.4123
G01 X78.8321 Y49.4652
G01 X78.7886 Y49.5132
G01 X78.7412 Y49.5709
G01 X78.7026 Y49.6230
G01 X78.6611 Y49.6851
G01 X78.6278 Y49.7407
G01 X78.5926 Y49.8066
G01 X78.5649 Y49.8652
G01 X78.5363 Y49.9342
G01 X78.5144 Y49.9952
G01 X78.4927 Y50.0667
G01 X78.4770 Y50.1296
G01 X78.4624 Y50.2028
G01 X78.4529 Y50.2669
G01 X78.4456 Y50.3413
G01 X78.4424 Y50.4060
G01 X78.4424 Y50.4807
G01 X78.4456 Y50.5455
G01 X78.4529 Y50.6198
G01 X78.4624 Y50.6839
G01 X78.4770 Y50.7572
G01 X78.4927 Y50.8201
G01 X78.5144 Y50.8916
G01 X78.5363 Y50.9526
G01 X78.5649 Y51.0216
G01 X78.5926 Y51.0802
G01 X78.6278 Y51.1461
G01 X78.6611 Y51.2017
G01 X78.7026 Y51.2638
G01 X78.7412 Y51.3158
G01 X78.7886 Y51.3736
G01 X78.8321 Y51.4216
G01 X78.8850 Y51.4744
G01 X78.9330 Y51.5180
G01 X78.9907 Y51.5654
G01 X79.0428 Y51.6040
G01 X79.1049 Y51.6455
G01 X79.1605 Y51.6788
G01 X79.2264 Y51.7140
G01 X79.2850 Y51.7417
G01 X79.3540 Y51.7703
G01 X79.4150 Y51.7921
G01 X79.4865 Y51.8138
G01 X79.5494 Y51.8296
G01 X79.6226 Y51.8442
G01 X79.6868 Y51.8537
G01 X79.7611 Y51.8610
G01 X79.8258 Y51.8642
G01 X79.8632 Y51.8651
G01 X81.1840 Y51.8651
G01 X81.2213 Y51.8642
G01 X81.2861 Y51.8610
G01 X81.3604 Y51.8537
G01 X81.4245 Y51.8442
G01 X81.4978 Y51.8296
G01 X81.5607 Y51.8138
G01 X81.6322 Y51.7921
G01 X81.6932 Y51.7703
G01 X81.7622 Y51.7417
G01 X81.8020 Y51.7229
G01 X81.8020 Y52.9834
G01 X81.8030 Y53.0207
G01 X81.8054 Y53.0698
G01 X81.8127 Y53.1441
G01 X81.8199 Y53.1927
G01 X81.8345 Y53.2660
G01 X81.8464 Y53.3136
G01 X81.8681 Y53.3851
G01 X81.8846 Y53.4313
G01 X81.9132 Y53.5003
G01 X81.9342 Y53.5447
G01 X81.9694 Y53.6106
G01 X81.9947 Y53.6527
G01 X82.0362 Y53.7148
G01 X82.0654 Y53.7542
G01 X82.1128 Y53.8120
G01 X82.1458 Y53.8484
G01 X82.1986 Y53.9012
G01 X82.2350 Y53.9342
G01 X82.2927 Y53.9816
G01 X82.3322 Y54.0108
G01 X82.3943 Y54.0523
G01 X82.4364 Y54.0776
G01 X82.5023 Y54.1128
G01 X82.5467 Y54.1338
G01 X82.6157 Y54.1623
G01 X82.6619 Y54.1789
G01 X82.7334 Y54.2006
G01 X82.7810 Y54.2125
G01 X82.8543 Y54.2271
G01 X82.9028 Y54.2343
G01 X82.9772 Y54.2416
G01 X83.0262 Y54.2440
G01 X83.0636 Y54.2449
G01 X84.3229 Y54.2449
G01 X84.3064 Y54.2528
G01 X84.2405 Y54.2880
G01 X84.1849 Y54.3213
G01 X84.1228 Y54.3628
G01 X84.0707 Y54.4014
G01 X84.0130 Y54.4488
G01 X83.9650 Y54.4923
G01 X83.9121 Y54.5452
G01 X83.8686 Y54.5932
G01 X83.8212 Y54.6509
G01 X83.7826 Y54.7030
G01 X83.7411 Y54.7651
G01 X83.7078 Y54.8207
G01 X83.6726 Y54.8866
G01 X83.6449 Y54.9452
G01 X83.6163 Y55.0142
G01 X83.5944 Y55.0752
G01 X83.5727 Y55.1467
G01 X83.5570 Y55.2096
G01 X83.5424 Y55.2828
G01 X83.5329 Y55.3469
G01 X83.5256 Y55.4213
G01 X83.5224 Y55.4860
G01 X83.5224 Y55.5607
G01 X83.5256 Y55.6255
G01 X83.5329 Y55.6998
G01 X83.5424 Y55.7639
G01 X83.5570 Y55.8372
G01 X83.5727 Y55.9001
G01 X83.5944 Y55.9716
G01 X83.6163 Y56.0326
G01 X83.6449 Y56.1016
G01 X83.6726 Y56.1602
G01 X83.7078 Y56.2261
G01 X83.7411 Y56.2817
G01 X83.7826 Y56.3438
G01 X83.8212 Y56.3958
G01 X83.8686 Y56.4536
G01 X83.9121 Y56.5016
G01 X83.9650 Y56.5544
G01 X84.0130 Y56.5980
G01 X84.0707 Y56.6454
G01 X84.1228 Y56.6840
G01 X84.1849 Y56.7255
G01 X84.2405 Y56.7588
G01 X84.3064 Y56.7940
G01 X84.3650 Y56.8217
G01 X84.4340 Y56.8503
G01 X84.4950 Y56.8721
G01 X84.5665 Y56.8938
G01 X84.6294 Y56.9096
G01 X84.7026 Y56.9242
G01 X84.7668 Y56.9337
G01 X84.8411 Y56.9410
G01 X84.9058 Y56.9442
G01 X84.9432 Y56.9451
G01 X86.2640 Y56.9451
G01 X86.3013 Y56.9442
G01 X86.3661 Y56.9410
G01 X86.4404 Y56.9337
G01 X86.5045 Y56.9242
G01 X86.5778 Y56.9096
G01 X86.6407 Y56.8938
G01 X86.7122 Y56.8721
G01 X86.7732 Y56.8503
G01 X86.8422 Y56.8217
G01 X86.9008 Y56.7940
G01 X86.9178 Y56.7849
G01 X103.3836 Y56.7849
G01 X103.4209 Y56.7840
G01 X103.4700 Y56.7816
G01 X103.5443 Y56.7743
G01 X103.5929 Y56.7671
G01 X103.6662 Y56.7525
G01 X103.7138 Y56.7406
G01 X103.7853 Y56.7189
G01 X103.8315 Y56.7023
G01 X103.9005 Y56.6738
G01 X103.9449 Y56.6528
G01 X104.0108 Y56.6176
G01 X104.0529 Y56.5923
G01 X104.1150 Y56.5508
G01 X104.1544 Y56.5216
G01 X104.2122 Y56.4742
G01 X104.2486 Y56.4412
G01 X104.3014 Y56.3884
G01 X104.3344 Y56.3520
G01 X104.3818 Y56.2942
G01 X104.4110 Y56.2548
G01 X104.4525 Y56.1927
G01 X104.4778 Y56.1506
G01 X104.5130 Y56.0847
G01 X104.5340 Y56.0403
G01 X104.5626 Y55.9713
G01 X104.5791 Y55.9251
G01 X104.6008 Y55.8536
G01 X104.6127 Y55.8060
G01 X104.6273 Y55.7327
G01 X104.6345 Y55.6841
G01 X104.6418 Y55.6098
G01 X104.6442 Y55.5607
G01 X104.6451 Y55.5234
G01 X104.6451 Y54.2629
G01 X104.6850 Y54.2817
G01 X104.7540 Y54.3103
G01 X104.8150 Y54.3321
G01 X104.8865 Y54.3538
G01 X104.9494 Y54.3696
G01 X105.0226 Y54.3842
G01 X105.0868 Y54.3937
G01 X105.1611 Y54.4010
G01 X105.2258 Y54.4042
G01 X105.2632 Y54.4051
G01 X106.5840 Y54.4051
G01 X106.6213 Y54.4042
G01 X106.6861 Y54.4010
G01 X106.7604 Y54.3937
G01 X106.8245 Y54.3842
G01 X106.8978 Y54.3696
G01 X106.9607 Y54.3538
G01 X107.0322 Y54.3321
G01 X107.0932 Y54.3103
G01 X107.1622 Y54.2817
G01 X107.2020 Y54.2629
G01 X107.2020 Y59.3239
G01 X107.1622 Y59.3050
G01 X107.0932 Y59.2765
G01 X107.0322 Y59.2546
G01 X106.9607 Y59.2329
G01 X106.8978 Y59.2172
G01 X106.8245 Y59.2026
G01 X106.7604 Y59.1931
G01 X106.6861 Y59.1858
G01 X106.6213 Y59.1826
G01 X106.5840 Y59.1817
G01 X105.2632 Y59.1817
G01 X105.2258 Y59.1826
G01 X105.1611 Y59.1858
G01 X105.0868 Y59.1931
G01 X105.0226 Y59.2026
G01 X104.9494 Y59.2172
G01 X104.8865 Y59.2329
G01 X104.8150 Y59.2546
G01 X104.7540 Y59.2765
G01 X104.6850 Y59.3050
G01 X104.6264 Y59.3328
G01 X104.5605 Y59.3680
G01 X104.5049 Y59.4013
G01 X104.4428 Y59.4428
G01 X104.3907 Y59.4814
G01 X104.3330 Y59.5288
G01 X104.2850 Y59.5723
G01 X104.2321 Y59.6252
G01 X104.1886 Y59.6732
G01 X104.1412 Y59.7309
G01 X104.1026 Y59.7830
G01 X104.0611 Y59.8451
G01 X104.0278 Y59.9007
G01 X103.9926 Y59.9666
G01 X103.9649 Y60.0252
G01 X103.9363 Y60.0942
G01 X103.9144 Y60.1552
G01 X103.8927 Y60.2267
G01 X103.8770 Y60.2896
G01 X103.8624 Y60.3628
G01 X103.8529 Y60.4269
G01 X103.8456 Y60.5013
G01 X103.8424 Y60.5660
G01 X103.8424 Y60.6407
G01 X103.8456 Y60.7055
G01 X103.8529 Y60.7798
G01 X103.8624 Y60.8439
G01 X103.8770 Y60.9172
G01 X103.8927 Y60.9801
G01 X103.9144 Y61.0516
G01 X103.9363 Y61.1126
G01 X103.9649 Y61.1816
G01 X103.9926 Y61.2402
G01 X104.0278 Y61.3061
G01 X104.0611 Y61.3617
G01 X104.1026 Y61.4238
G01 X104.1412 Y61.4758
G01 X104.1886 Y61.5336
G01 X104.2321 Y61.5816
G01 X104.2850 Y61.6344
G01 X104.3330 Y61.6780
G01 X104.3907 Y61.7254
G01 X104.4428 Y61.7640
G01 X104.5049 Y61.8055
G01 X104.5605 Y61.8388
G01 X104.6264 Y61.8740
G01 X104.6429 Y61.8818
G01 X103.3836 Y61.8818
G01 X103.3462 Y61.8828
G01 X103.2972 Y61.8852
G01 X103.2228 Y61.8925
G01 X103.1743 Y61.8997
G01 X103.1010 Y61.9143
G01 X103.0534 Y61.9262
G01 X102.9819 Y61.9479
G01 X102.9357 Y61.9644
G01 X102.8667 Y61.9930
G01 X102.8223 Y62.0140
G01 X102.7564 Y62.0492
G01 X102.7143 Y62.0745
G01 X102.6522 Y62.1160
G01 X102.6127 Y62.1452
G01 X102.5550 Y62.1926
G01 X102.5186 Y62.2256
G01 X102.4658 Y62.2784
G01 X102.4328 Y62.3148
G01 X102.3854 Y62.3725
G01 X102.3562 Y62.4120
G01 X102.3147 Y62.4741
G01 X102.2894 Y62.5162
G01 X102.2542 Y62.5821
G01 X102.2332 Y62.6265
G01 X102.2046 Y62.6955
G01 X102.1881 Y62.7417
G01 X102.1664 Y62.8132
G01 X102.1545 Y62.8608
G01 X102.1399 Y62.9341
G01 X102.1327 Y62.9826
G01 X102.1254 Y63.0570
G01 X102.1230 Y63.1060
G01 X102.1220 Y63.1434
G01 X102.1220 Y69.9112
G01 X102.0970 Y69.9487
G01 X102.0586 Y70.0128
G01 X102.0234 Y70.0787
G01 X101.9914 Y70.1463
G01 X101.9628 Y70.2153
G01 X101.9376 Y70.2857
G01 X101.9159 Y70.3572
G01 X101.8977 Y70.4297
G01 X101.8832 Y70.5030
G01 X101.8722 Y70.5770
G01 X101.8649 Y70.6513
G01 X101.8612 Y70.7260
G01 X101.8612 Y70.8007
G01 X101.8649 Y70.8754
G01 X101.8722 Y70.9498
G01 X101.8832 Y71.0237
G01 X101.8977 Y71.0970
G01 X101.9159 Y71.1696
G01 X101.9376 Y71.2411
G01 X101.9628 Y71.3115
G01 X101.9914 Y71.3805
G01 X102.0234 Y71.4481
G01 X102.0586 Y71.5140
G01 X102.0970 Y71.5781
G01 X102.1220 Y71.6156
G01 X102.1220 Y84.7418
G01 X101.6958 Y84.7418
G01 X101.6583 Y84.7168
G01 X101.5942 Y84.6784
G01 X101.5283 Y84.6432
G01 X101.4607 Y84.6112
G01 X101.3917 Y84.5826
G01 X101.3213 Y84.5574
G01 X101.2498 Y84.5357
G01 X101.1772 Y84.5175
G01 X101.1040 Y84.5030
G01 X101.0300 Y84.4920
G01 X100.9556 Y84.4847
G01 X100.8809 Y84.4810
G01 X100.8062 Y84.4810
G01 X100.7315 Y84.4847
G01 X100.6572 Y84.4920
G01 X100.5832 Y84.5030
G01 X100.5099 Y84.5175
G01 X100.4374 Y84.5357
G01 X100.3659 Y84.5574
G01 X100.2955 Y84.5826
G01 X100.2265 Y84.6112
G01 X100.1589 Y84.6432
G01 X100.0930 Y84.6784
G01 X100.0289 Y84.7168
G01 X99.9914 Y84.7418
G01 X99.1558 Y84.7418
G01 X99.1183 Y84.7168
G01 X99.0542 Y84.6784
G01 X98.9883 Y84.6432
G01 X98.9207 Y84.6112
G01 X98.8698 Y84.5901
G01 X98.9308 Y84.5576
G01 X98.9729 Y84.5323
G01 X99.0350 Y84.4908
G01 X99.0744 Y84.4616
G01 X99.1322 Y84.4142
G01 X99.1686 Y84.3812
G01 X99.2214 Y84.3284
G01 X99.2544 Y84.2920
G01 X99.3018 Y84.2342
G01 X99.3310 Y84.1948
G01 X99.3725 Y84.1327
G01 X99.3978 Y84.0906
G01 X99.4330 Y84.0247
G01 X99.4540 Y83.9803
G01 X99.4826 Y83.9113
G01 X99.4991 Y83.8651
G01 X99.5208 Y83.7936
G01 X99.5327 Y83.7460
G01 X99.5473 Y83.6727
G01 X99.5545 Y83.6241
G01 X99.5618 Y83.5498
G01 X99.5642 Y83.5007
G01 X99.5651 Y83.4634
G01 X99.5651 Y71.6156
G01 X99.5902 Y71.5781
G01 X99.6286 Y71.5140
G01 X99.6638 Y71.4481
G01 X99.6958 Y71.3805
G01 X99.7244 Y71.3115
G01 X99.7496 Y71.2411
G01 X99.7713 Y71.1696
G01 X99.7894 Y71.0970
G01 X99.8040 Y71.0237
G01 X99.8150 Y70.9498
G01 X99.8223 Y70.8754
G01 X99.8260 Y70.8007
G01 X99.8260 Y70.7260
G01 X99.8223 Y70.6513
G01 X99.8150 Y70.5770
G01 X99.8040 Y70.5030
G01 X99.7894 Y70.4297
G01 X99.7713 Y70.3572
G01 X99.7496 Y70.2857
G01 X99.7244 Y70.2153
G01 X99.6958 Y70.1463
G01 X99.6638 Y70.0787
G01 X99.6286 Y70.0128
G01 X99.5902 Y69.9487
G01 X99.5651 Y69.9112
G01 X99.5651 Y63.9956
G01 X99.5902 Y63.9581
G01 X99.6286 Y63.8940
G01 X99.6638 Y63.8281
G01 X99.6958 Y63.7605
G01 X99.7244 Y63.6915
G01 X99.7496 Y63.6211
G01 X99.7713 Y63.5496
G01 X99.7894 Y63.4770
G01 X99.8040 Y63.4037
G01 X99.8150 Y63.3298
G01 X99.8223 Y63.2554
G01 X99.8260 Y63.1807
G01 X99.8260 Y63.1060
G01 X99.8223 Y63.0313
G01 X99.8150 Y62.9570
G01 X99.8040 Y62.8830
G01 X99.7894 Y62.8097
G01 X99.7713 Y62.7372
G01 X99.7496 Y62.6657
G01 X99.7244 Y62.5953
G01 X99.6958 Y62.5263
G01 X99.6638 Y62.4587
G01 X99.6286 Y62.3928
G01 X99.5902 Y62.3287
G01 X99.5486 Y62.2665
G01 X99.5041 Y62.2065
G01 X99.4567 Y62.1487
G01 X99.4065 Y62.0933
G01 X99.3537 Y62.0405
G01 X99.2983 Y61.9903
G01 X99.2405 Y61.9429
G01 X99.1804 Y61.8983
G01 X99.1183 Y61.8568
G01 X99.0542 Y61.8184
G01 X98.9883 Y61.7832
G01 X98.9207 Y61.7512
G01 X98.8517 Y61.7226
G01 X98.7813 Y61.6974
G01 X98.7098 Y61.6757
G01 X98.6372 Y61.6575
G01 X98.5640 Y61.6430
G01 X98.4900 Y61.6320
G01 X98.4156 Y61.6247
G01 X98.3409 Y61.6210
G01 X98.2662 Y61.6210
G01 X98.1915 Y61.6247
G01 X98.1172 Y61.6320
G01 X98.0432 Y61.6430
G01 X97.9699 Y61.6575
G01 X97.8974 Y61.6757
G01 X97.8259 Y61.6974
G01 X97.7555 Y61.7226
G01 X97.6865 Y61.7512
G01 X97.6189 Y61.7832
G01 X97.5530 Y61.8184
G01 X97.4889 Y61.8568
G01 X97.4267 Y61.8983
G01 X97.3667 Y61.9429
G01 X97.3089 Y61.9903
G01 X97.2535 Y62.0405
G01 X97.2007 Y62.0933
G01 X97.1505 Y62.1487
G01 X97.1031 Y62.2065
G01 X97.0585 Y62.2665
G01 X97.0170 Y62.3287
G01 X96.9786 Y62.3928
G01 X96.9434 Y62.4587
G01 X96.9114 Y62.5263
G01 X96.8828 Y62.5953
G01 X96.8576 Y62.6657
G01 X96.8359 Y62.7372
G01 X96.8177 Y62.8097
G01 X96.8032 Y62.8830
G01 X96.7922 Y62.9570
G01 X96.7849 Y63.0313
G01 X96.7812 Y63.1060
G01 X96.7812 Y63.1807
G01 X96.7849 Y63.2554
G01 X96.7922 Y63.3298
G01 X96.8032 Y63.4037
G01 X96.8177 Y63.4770
G01 X96.8359 Y63.5496
G01 X96.8576 Y63.6211
G01 X96.8828 Y63.6915
G01 X96.9114 Y63.7605
G01 X96.9434 Y63.8281
G01 X96.9786 Y63.8940
G01 X97.0170 Y63.9581
G01 X97.0420 Y63.9956
G01 X97.0420 Y69.9112
G01 X97.0170 Y69.9487
G01 X96.9786 Y70.0128
G01 X96.9434 Y70.0787
G01 X96.9114 Y70.1463
G01 X96.8828 Y70.2153
G01 X96.8576 Y70.2857
G01 X96.8359 Y70.3572
G01 X96.8177 Y70.4297
G01 X96.8032 Y70.5030
G01 X96.7922 Y70.5770
G01 X96.7849 Y70.6513
G01 X96.7812 Y70.7260
G01 X96.7812 Y70.8007
G01 X96.7849 Y70.8754
G01 X96.7922 Y70.9498
G01 X96.8032 Y71.0237
G01 X96.8177 Y71.0970
G01 X96.8359 Y71.1696
G01 X96.8576 Y71.2411
G01 X96.8828 Y71.3115
G01 X96.9114 Y71.3805
G01 X96.9434 Y71.4481
G01 X96.9786 Y71.5140
G01 X97.0170 Y71.5781
G01 X97.0420 Y71.6156
G01 X97.0420 Y82.2018
G01 X83.0636 Y82.2018
G01 X83.0262 Y82.2028
G01 X82.9772 Y82.2052
G01 X82.9028 Y82.2125
G01 X82.8543 Y82.2197
G01 X82.7810 Y82.2343
G01 X82.7334 Y82.2462
G01 X82.6619 Y82.2679
G01 X82.6157 Y82.2844
G01 X82.5467 Y82.3130
G01 X82.5023 Y82.3340
G01 X82.4364 Y82.3692
G01 X82.3943 Y82.3945
G01 X82.3322 Y82.4360
G01 X82.2927 Y82.4652
G01 X82.2350 Y82.5126
G01 X82.1986 Y82.5456
G01 X82.1458 Y82.5984
G01 X82.1128 Y82.6348
G01 X82.0654 Y82.6925
G01 X82.0362 Y82.7320
G01 X81.9947 Y82.7941
G01 X81.9694 Y82.8362
G01 X81.9342 Y82.9021
G01 X81.9132 Y82.9465
G01 X81.8846 Y83.0155
G01 X81.8681 Y83.0617
G01 X81.8464 Y83.1332
G01 X81.8345 Y83.1808
G01 X81.8199 Y83.2541
G01 X81.8127 Y83.3026
G01 X81.8054 Y83.3770
G01 X81.8030 Y83.4260
G01 X81.8020 Y83.4634
G01 X81.8020 Y87.2818
G01 X78.8105 Y87.2818
G01 X78.8604 Y87.2484
G01 X78.9205 Y87.2039
G01 X78.9783 Y87.1565
G01 X79.0337 Y87.1063
G01 X79.0865 Y87.0535
G01 X79.1367 Y86.9980
G01 X79.1841 Y86.9403
G01 X79.2286 Y86.8802
G01 X79.2702 Y86.8181
G01 X79.3086 Y86.7540
G01 X79.3438 Y86.6881
G01 X79.3758 Y86.6205
G01 X79.4044 Y86.5515
G01 X79.4296 Y86.4811
G01 X79.4513 Y86.4096
G01 X79.4694 Y86.3370
G01 X79.4840 Y86.2637
G01 X79.4950 Y86.1898
G01 X79.5023 Y86.1154
G01 X79.5060 Y86.0407
G01 X79.5060 Y85.9660
G01 X79.5023 Y85.8913
G01 X79.4950 Y85.8170
G01 X79.4840 Y85.7430
G01 X79.4694 Y85.6697
G01 X79.4513 Y85.5972
G01 X79.4296 Y85.5257
G01 X79.4044 Y85.4553
G01 X79.3758 Y85.3863
G01 X79.3438 Y85.3187
G01 X79.3086 Y85.2528
G01 X79.2702 Y85.1887
G01 X79.2451 Y85.1512
G01 X79.2451 Y82.2376
G01 X79.2536 Y82.2218
G01 X79.2882 Y82.2865
G01 X79.3215 Y82.3421
G01 X79.3630 Y82.4042
G01 X79.4016 Y82.4562
G01 X79.4490 Y82.5140
G01 X79.4925 Y82.5620
G01 X79.5454 Y82.6148
G01 X79.5934 Y82.6584
G01 X79.6511 Y82.7058
G01 X79.7032 Y82.7444
G01 X79.7653 Y82.7859
G01 X79.8209 Y82.8192
G01 X79.8868 Y82.8544
G01 X79.9454 Y82.8821
G01 X80.0144 Y82.9107
G01 X80.0754 Y82.9325
G01 X80.1469 Y82.9542
G01 X80.2098 Y82.9700
G01 X80.2830 Y82.9846
G01 X80.3472 Y82.9941
G01 X80.4215 Y83.0014
G01 X80.4862 Y83.0046
G01 X80.5609 Y83.0046
G01 X80.6257 Y83.0014
G01 X80.7000 Y82.9941
G01 X80.7641 Y82.9846
G01 X80.8374 Y82.9700
G01 X80.9003 Y82.9542
G01 X80.9718 Y82.9325
G01 X81.0328 Y82.9107
G01 X81.1018 Y82.8821
G01 X81.1604 Y82.8544
G01 X81.2263 Y82.8192
G01 X81.2819 Y82.7859
G01 X81.3440 Y82.7444
G01 X81.3960 Y82.7058
G01 X81.4538 Y82.6584
G01 X81.5018 Y82.6148
G01 X81.5546 Y82.5620
G01 X81.5982 Y82.5140
G01 X81.6456 Y82.4562
G01 X81.6842 Y82.4042
G01 X81.7257 Y82.3421
G01 X81.7590 Y82.2865
G01 X81.7942 Y82.2206
G01 X81.8111 Y82.1849
G01 X93.2236 Y82.1849
G01 X93.2609 Y82.1840
G01 X93.3100 Y82.1816
G01 X93.3843 Y82.1743
G01 X93.4329 Y82.1671
G01 X93.5062 Y82.1525
G01 X93.5538 Y82.1406
G01 X93.6253 Y82.1189
G01 X93.6715 Y82.1023
G01 X93.7405 Y82.0738
G01 X93.7849 Y82.0528
G01 X93.8508 Y82.0176
G01 X93.8929 Y81.9923
G01 X93.9550 Y81.9508
G01 X93.9944 Y81.9216
G01 X94.0522 Y81.8742
G01 X94.0886 Y81.8412
G01 X94.1414 Y81.7884
G01 X94.1744 Y81.7520
G01 X94.2218 Y81.6942
G01 X94.2510 Y81.6548
G01 X94.2925 Y81.5927
G01 X94.3178 Y81.5506
G01 X94.3530 Y81.4847
G01 X94.3740 Y81.4403
G01 X94.4026 Y81.3713
G01 X94.4191 Y81.3251
G01 X94.4408 Y81.2536
G01 X94.4527 Y81.2060
G01 X94.4673 Y81.1327
G01 X94.4745 Y81.0841
G01 X94.4818 Y81.0098
G01 X94.4842 Y80.9607
G01 X94.4851 Y80.9234
G01 X94.4851 Y61.4556
G01 X94.5102 Y61.4181
G01 X94.5486 Y61.3540
G01 X94.5838 Y61.2881
G01 X94.6158 Y61.2205
G01 X94.6444 Y61.1515
G01 X94.6696 Y61.0811
G01 X94.6913 Y61.0096
G01 X94.7094 Y60.9370
G01 X94.7240 Y60.8637
G01 X94.7350 Y60.7898
G01 X94.7423 Y60.7154
G01 X94.7460 Y60.6407
G01 X94.7460 Y60.5660
G01 X94.7423 Y60.4913
G01 X94.7350 Y60.4170
G01 X94.7240 Y60.3430
G01 X94.7094 Y60.2697
G01 X94.6913 Y60.1972
G01 X94.6696 Y60.1257
G01 X94.6444 Y60.0553
G01 X94.6158 Y59.9863
G01 X94.5838 Y59.9187
G01 X94.5486 Y59.8528
G01 X94.5102 Y59.7887
G01 X94.4686 Y59.7265
G01 X94.4241 Y59.6665
G01 X94.3767 Y59.6087
G01 X94.3265 Y59.5533
G01 X94.2737 Y59.5005
G01 X94.2183 Y59.4503
G01 X94.1605 Y59.4029
G01 X94.1004 Y59.3583
G01 X94.0505 Y59.3249
G01 X99.5629 Y59.3249
G01 X99.5464 Y59.3328
G01 X99.4805 Y59.3680
G01 X99.4249 Y59.4013
G01 X99.3628 Y59.4428
G01 X99.3107 Y59.4814
G01 X99.2530 Y59.5288
G01 X99.2050 Y59.5723
G01 X99.1521 Y59.6252
G01 X99.1086 Y59.6732
G01 X99.0612 Y59.7309
G01 X99.0226 Y59.7830
G01 X98.9811 Y59.8451
G01 X98.9478 Y59.9007
G01 X98.9126 Y59.9666
G01 X98.8849 Y60.0252
G01 X98.8563 Y60.0942
G01 X98.8344 Y60.1552
G01 X98.8127 Y60.2267
G01 X98.7970 Y60.2896
G01 X98.7824 Y60.3628
G01 X98.7729 Y60.4269
G01 X98.7656 Y60.5013
G01 X98.7624 Y60.5660
G01 X98.7624 Y60.6407
G01 X98.7656 Y60.7055
G01 X98.7729 Y60.7798
G01 X98.7824 Y60.8439
G01 X98.7970 Y60.9172
G01 X98.8127 Y60.9801
G01 X98.8344 Y61.0516
G01 X98.8563 Y61.1126
G01 X98.8849 Y61.1816
G01 X98.9126 Y61.2402
G01 X98.9478 Y61.3061
G01 X98.9811 Y61.3617
G01 X99.0226 Y61.4238
G01 X99.0612 Y61.4758
G01 X99.1086 Y61.5336
G01 X99.1521 Y61.5816
G01 X99.2050 Y61.6344
G01 X99.2530 Y61.6780
G01 X99.3107 Y61.7254
G01 X99.3628 Y61.7640
G01 X99.4249 Y61.8055
G01 X99.4805 Y61.8388
G01 X99.5464 Y61.8740
G01 X99.6050 Y61.9017
G01 X99.6740 Y61.9303
G01 X99.7350 Y61.9521
G01 X99.8065 Y61.9738
G01 X99.8694 Y61.9896
G01 X99.9426 Y62.0042
G01 X100.0068 Y62.0137
G01 X100.0811 Y62.0210
G01 X100.1458 Y62.0242
G01 X100.1832 Y62.0251
G01 X101.5040 Y62.0251
G01 X101.5413 Y62.0242
G01 X101.6061 Y62.0210
G01 X101.6804 Y62.0137
G01 X101.7445 Y62.0042
G01 X101.8178 Y61.9896
G01 X101.8807 Y61.9738
G01 X101.9522 Y61.9521
G01 X102.0132 Y61.9303
G01 X102.0822 Y61.9017
G01 X102.1408 Y61.8740
G01 X102.2067 Y61.8388
G01 X102.2623 Y61.8055
G01 X102.3244 Y61.7640
G01 X102.3764 Y61.7254
G01 X102.4342 Y61.6780
G01 X102.4822 Y61.6344
G01 X102.5350 Y61.5816
G01 X102.5786 Y61.5336
G01 X102.6260 Y61.4758
G01 X102.6646 Y61.4238
G01 X102.7061 Y61.3617
G01 X102.7394 Y61.3061
G01 X102.7746 Y61.2402
G01 X102.8023 Y61.1816
G01 X102.8309 Y61.1126
G01 X102.8527 Y61.0516
G01 X102.8744 Y60.9801
G01 X102.8902 Y60.9172
G01 X102.9048 Y60.8439
G01 X102.9143 Y60.7798
G01 X102.9216 Y60.7055
G01 X102.9248 Y60.6407
G01 X102.9248 Y60.5660
G01 X102.9216 Y60.5013
G01 X102.9143 Y60.4269
G01 X102.9048 Y60.3628
G01 X102.8902 Y60.2896
G01 X102.8744 Y60.2267
G01 X102.8527 Y60.1552
G01 X102.8309 Y60.0942
G01 X102.8023 Y60.0252
G01 X102.7746 Y59.9666
G01 X102.7394 Y59.9007
G01 X102.7061 Y59.8451
G01 X102.6646 Y59.7830
G01 X102.6260 Y59.7309
G01 X102.5786 Y59.6732
G01 X102.5350 Y59.6252
G01 X102.4822 Y59.5723
G01 X102.4342 Y59.5288
G01 X102.3764 Y59.4814
G01 X102.3244 Y59.4428
G01 X102.2623 Y59.4013
G01 X102.2067 Y59.3680
G01 X102.1408 Y59.3328
G01 X102.1051 Y59.3159
G01 X102.1051 Y58.0634
G01 X102.1042 Y58.0260
G01 X102.1018 Y57.9770
G01 X102.0945 Y57.9026
G01 X102.0873 Y57.8541
G01 X102.0727 Y57.7808
G01 X102.0608 Y57.7332
G01 X102.0391 Y57.6617
G01 X102.0226 Y57.6155
G01 X101.9940 Y57.5465
G01 X101.9730 Y57.5021
G01 X101.9378 Y57.4362
G01 X101.9125 Y57.3941
G01 X101.8710 Y57.3320
G01 X101.8418 Y57.2925
G01 X101.7944 Y57.2348
G01 X101.7614 Y57.1984
G01 X101.7086 Y57.1456
G01 X101.6722 Y57.1126
G01 X101.6144 Y57.0652
G01 X101.5750 Y57.0360
G01 X101.5129 Y56.9945
G01 X101.4708 Y56.9692
G01 X101.4049 Y56.9340
G01 X101.3605 Y56.9130
G01 X101.2915 Y56.8844
G01 X101.2453 Y56.8679
G01 X101.1738 Y56.8462
G01 X101.1262 Y56.8343
G01 X101.0529 Y56.8197
G01 X101.0043 Y56.8125
G01 X100.9300 Y56.8052
G01 X100.8809 Y56.8028
G01 X100.8436 Y56.8018
G01 X90.6836 Y56.8018
G01 X90.6462 Y56.8028
G01 X90.5972 Y56.8052
G01 X90.5228 Y56.8125
G01 X90.4743 Y56.8197
G01 X90.4010 Y56.8343
G01 X90.3534 Y56.8462
G01 X90.2819 Y56.8679
G01 X90.2357 Y56.8844
G01 X90.1667 Y56.9130
G01 X90.1223 Y56.9340
G01 X90.0564 Y56.9692
G01 X90.0143 Y56.9945
G01 X89.9522 Y57.0360
G01 X89.9127 Y57.0652
G01 X89.8550 Y57.1126
G01 X89.8186 Y57.1456
G01 X89.7658 Y57.1984
G01 X89.7328 Y57.2348
G01 X89.6854 Y57.2925
G01 X89.6562 Y57.3320
G01 X89.6147 Y57.3941
G01 X89.5894 Y57.4362
G01 X89.5542 Y57.5021
G01 X89.5332 Y57.5465
G01 X89.5046 Y57.6155
G01 X89.4881 Y57.6617
G01 X89.4664 Y57.7332
G01 X89.4545 Y57.7808
G01 X89.4399 Y57.8541
G01 X89.4327 Y57.9026
G01 X89.4254 Y57.9770
G01 X89.4230 Y58.0260
G01 X89.4220 Y58.0634
G01 X89.4220 Y59.7765
G01 X89.3886 Y59.7265
G01 X89.3441 Y59.6665
G01 X89.2967 Y59.6087
G01 X89.2465 Y59.5533
G01 X89.1937 Y59.5005
G01 X89.1383 Y59.4503
G01 X89.0805 Y59.4029
G01 X89.0204 Y59.3583
G01 X88.9583 Y59.3168
G01 X88.8942 Y59.2784
G01 X88.8283 Y59.2432
G01 X88.7607 Y59.2112
G01 X88.6917 Y59.1826
G01 X88.6213 Y59.1574
G01 X88.5498 Y59.1357
G01 X88.4772 Y59.1175
G01 X88.4040 Y59.1030
G01 X88.3300 Y59.0920
G01 X88.2556 Y59.0847
G01 X88.1809 Y59.0810
G01 X88.1062 Y59.0810
G01 X88.0315 Y59.0847
G01 X87.9572 Y59.0920
G01 X87.8832 Y59.1030
G01 X87.8099 Y59.1175
G01 X87.7374 Y59.1357
G01 X87.6659 Y59.1574
G01 X87.5955 Y59.1826
G01 X87.5265 Y59.2112
G01 X87.4589 Y59.2432
G01 X87.3930 Y59.2784
G01 X87.3289 Y59.3168
G01 X87.2914 Y59.3418
G01 X71.2158 Y59.3418
G01 X71.1783 Y59.3168
G01 X71.1142 Y59.2784
G01 X71.0483 Y59.2432
G01 X70.9807 Y59.2112
G01 X70.9117 Y59.1826
G01 X70.8413 Y59.1574
G01 X70.7698 Y59.1357
G01 X70.6972 Y59.1175
G01 X70.6240 Y59.1030
G01 X70.5500 Y59.0920
G01 X70.4756 Y59.0847
G01 X70.4009 Y59.0810
G01 X70.3262 Y59.0810
G01 X70.2515 Y59.0847
G01 X70.1772 Y59.0920
G01 X70.1032 Y59.1030
G01 X70.0299 Y59.1175
G01 X69.9574 Y59.1357
G01 X69.8859 Y59.1574
G01 X69.8155 Y59.1826
G01 X69.7465 Y59.2112
G01 X69.6789 Y59.2432
G01 X69.6130 Y59.2784
G01 X69.5489 Y59.3168
G01 X69.5114 Y59.3418
G01 X22.9558 Y59.3418
G01 X22.9183 Y59.3168
G01 X22.8542 Y59.2784
G01 X22.7883 Y59.2432
G01 X22.7207 Y59.2112
G01 X22.6517 Y59.1826
G01 X22.5813 Y59.1574
G01 X22.5098 Y59.1357
G01 X22.4372 Y59.1175
G01 X22.3640 Y59.1030
G01 X22.2900 Y59.0920
G01 X22.2156 Y59.0847
G01 X22.1409 Y59.0810
G01 X22.0662 Y59.0810
G01 X21.9915 Y59.0847
G01 X21.9172 Y59.0920
G01 X21.8432 Y59.1030
G01 X21.7699 Y59.1175
G01 X21.6974 Y59.1357
G01 X21.6259 Y59.1574
G01 X21.5555 Y59.1826
G01 X21.4865 Y59.2112
G01 X21.4189 Y59.2432
G01 X21.3530 Y59.2784
G01 X21.2889 Y59.3168
G01 X21.2267 Y59.3583
G01 X21.1667 Y59.4029
G01 X21.1089 Y59.4503
G01 X21.0535 Y59.5005
G01 X21.0007 Y59.5533
G01 X20.9505 Y59.6087
G01 X20.9031 Y59.6665
G01 X20.8585 Y59.7265
G01 X20.8251 Y59.7765
G01 X20.8251 Y56.7849
G01 X50.0436 Y56.7849
G01 X50.0809 Y56.7840
G01 X50.1300 Y56.7816
G01 X50.2043 Y56.7743
G01 X50.2529 Y56.7671
G01 X50.3262 Y56.7525
G01 X50.3738 Y56.7406
G01 X50.4453 Y56.7189
G01 X50.4915 Y56.7023
G01 X50.5605 Y56.6738
G01 X50.6049 Y56.6528
G01 X50.6708 Y56.6176
G01 X50.7129 Y56.5923
G01 X50.7750 Y56.5508
G01 X50.8144 Y56.5216
G01 X50.8722 Y56.4742
G01 X50.9086 Y56.4412
G01 X50.9614 Y56.3884
G01 X50.9944 Y56.3520
G01 X51.0418 Y56.2942
G01 X51.0710 Y56.2548
G01 X51.1125 Y56.1927
G01 X51.1378 Y56.1506
G01 X51.1730 Y56.0847
G01 X51.1940 Y56.0403
G01 X51.2226 Y55.9713
G01 X51.2391 Y55.9251
G01 X51.2608 Y55.8536
G01 X51.2727 Y55.8060
G01 X51.2873 Y55.7327
G01 X51.2945 Y55.6841
G01 X51.3018 Y55.6098
G01 X51.3042 Y55.5607
G01 X51.3051 Y55.5234
G01 X51.3051 Y54.2976
G01 X51.3136 Y54.2818
G01 X51.3482 Y54.3465
G01 X51.3815 Y54.4021
G01 X51.4230 Y54.4642
G01 X51.4616 Y54.5162
G01 X51.5090 Y54.5740
G01 X51.5525 Y54.6220
G01 X51.6054 Y54.6748
G01 X51.6534 Y54.7184
G01 X51.7111 Y54.7658
G01 X51.7632 Y54.8044
G01 X51.8253 Y54.8459
G01 X51.8809 Y54.8792
G01 X51.9468 Y54.9144
G01 X52.0054 Y54.9421
G01 X52.0744 Y54.9707
G01 X52.1354 Y54.9925
G01 X52.2069 Y55.0142
G01 X52.2698 Y55.0300
G01 X52.3430 Y55.0446
G01 X52.4072 Y55.0541
G01 X52.4815 Y55.0614
G01 X52.5462 Y55.0646
G01 X52.6209 Y55.0646
G01 X52.6857 Y55.0614
G01 X52.7600 Y55.0541
G01 X52.8241 Y55.0446
G01 X52.8974 Y55.0300
G01 X52.9603 Y55.0142
G01 X53.0318 Y54.9925
G01 X53.0928 Y54.9707
G01 X53.1618 Y54.9421
G01 X53.2204 Y54.9144
G01 X53.2863 Y54.8792
G01 X53.3419 Y54.8459
G01 X53.4040 Y54.8044
G01 X53.4560 Y54.7658
G01 X53.5138 Y54.7184
G01 X53.5618 Y54.6748
G01 X53.6146 Y54.6220
G01 X53.6582 Y54.5740
G01 X53.7056 Y54.5162
G01 X53.7442 Y54.4642
G01 X53.7857 Y54.4021
G01 X53.8190 Y54.3465
G01 X53.8542 Y54.2806
G01 X53.8711 Y54.2449
G01 X55.1236 Y54.2449
G01 X55.1609 Y54.2440
G01 X55.2100 Y54.2416
G01 X55.2843 Y54.2343
G01 X55.3329 Y54.2271
G01 X55.4062 Y54.2125
G01 X55.4538 Y54.2006
G01 X55.5253 Y54.1789
G01 X55.5715 Y54.1623
G01 X55.6405 Y54.1338
G01 X55.6849 Y54.1128
G01 X55.7508 Y54.0776
G01 X55.7929 Y54.0523
G01 X55.8550 Y54.0108
G01 X55.8944 Y53.9816
G01 X55.9522 Y53.9342
G01 X55.9886 Y53.9012
G01 X56.0414 Y53.8484
G01 X56.0744 Y53.8120
G01 X56.1218 Y53.7542
G01 X56.1510 Y53.7148
G01 X56.1925 Y53.6527
G01 X56.2178 Y53.6106
G01 X56.2530 Y53.5447
G01 X56.2740 Y53.5003
G01 X56.3026 Y53.4313
G01 X56.3191 Y53.3851
G01 X56.3408 Y53.3136
G01 X56.3527 Y53.2660
G01 X56.3673 Y53.1927
G01 X56.3745 Y53.1441
G01 X56.3818 Y53.0698
G01 X56.3842 Y53.0207
G01 X56.3851 Y52.9834
G01 X56.3851 Y46.6249
G01 X65.2836 Y46.6249
G01 X65.3209 Y46.6240
G01 X65.3700 Y46.6216
G01 X65.4443 Y46.6143
G01 X65.4929 Y46.6071
G01 X65.5662 Y46.5925
G01 X65.6138 Y46.5806
G01 X65.6853 Y46.5589
G01 X65.7315 Y46.5423
G01 X65.8005 Y46.5138
G01 X65.8449 Y46.4928
G01 X65.9108 Y46.4576
G01 X65.9529 Y46.4323
G01 X66.0150 Y46.3908
G01 X66.0544 Y46.3616
G01 X66.1122 Y46.3142
G01 X66.1486 Y46.2812
G01 X66.2014 Y46.2284
G01 X66.2344 Y46.1920
G01 X66.2818 Y46.1342
G01 X66.3110 Y46.0948
G01 X66.3525 Y46.0327
G01 X66.3778 Y45.9906
G01 X66.4130 Y45.9247
G01 X66.4340 Y45.8803
G01 X66.4626 Y45.8113
G01 X66.4791 Y45.7651
G01 X66.5008 Y45.6936
G01 X66.5127 Y45.6460
G01 X66.5273 Y45.5727
G01 X66.5345 Y45.5241
G01 X66.5418 Y45.4498
G01 X66.5442 Y45.4007
G01 X66.5451 Y45.3634
G01 X66.5451 Y44.1029
G01 X66.5850 Y44.1217
G01 X66.6540 Y44.1503
G01 X66.7150 Y44.1721
G01 X66.7865 Y44.1938
G01 X66.8494 Y44.2096
G01 X66.9226 Y44.2242
G01 X66.9868 Y44.2337
G01 X67.0611 Y44.2410
G01 X67.1258 Y44.2442
G01 X67.1632 Y44.2451
G01 X68.4840 Y44.2451
G01 X68.5213 Y44.2442
G01 X68.5861 Y44.2410
G01 X68.6604 Y44.2337
G01 X68.7245 Y44.2242
G01 X68.7978 Y44.2096
G01 X68.8607 Y44.1938
G01 X68.9322 Y44.1721
G01 X68.9932 Y44.1503
G01 X69.0622 Y44.1217
G01 X69.1020 Y44.1029
G01 X69.1020 Y44.5112
G01 X69.0770 Y44.5487
G01 X69.0386 Y44.6128
G01 X69.0034 Y44.6787
G01 X68.9714 Y44.7463
G01 X68.9428 Y44.8153
G01 X68.9176 Y44.8857
G01 X68.8959 Y44.9572
G01 X68.8777 Y45.0297
G01 X68.8632 Y45.1030
G01 X68.8522 Y45.1770
G01 X68.8449 Y45.2513
G01 X68.8412 Y45.3260
G01 X68.8412 Y45.4007
G01 X68.8449 Y45.4754
G01 X68.8522 Y45.5498
G01 X68.8632 Y45.6237
G01 X68.8777 Y45.6970
G01 X68.8959 Y45.7696
G01 X68.9176 Y45.8411
G01 X68.9428 Y45.9115
G01 X68.9714 Y45.9805
G01 X69.0034 Y46.0481
G01 X69.0386 Y46.1140
G01 X69.0770 Y46.1781
G01 X69.1185 Y46.2402
G01 X69.1631 Y46.3003
G01 X69.2105 Y46.3580
G01 X69.2607 Y46.4135
G01 X69.3135 Y46.4663
G01 X69.3689 Y46.5165
G01 X69.4267 Y46.5639
G01 X69.4867 Y46.6084
G01 X69.5489 Y46.6500
G01 X69.6130 Y46.6884
G01 X69.6789 Y46.7236
G01 X69.7465 Y46.7556
G01 X69.8155 Y46.7842
G01 X69.8859 Y46.8094
G01 X69.9574 Y46.8311
G01 X70.0299 Y46.8492
G01 X70.1032 Y46.8638
G01 X70.1772 Y46.8748
G01 X70.2515 Y46.8821
G01 X70.3262 Y46.8858
G01 X70.4009 Y46.8858
G01 X70.4756 Y46.8821
G01 X70.5500 Y46.8748
G01 X70.6240 Y46.8638
G01 X70.6972 Y46.8492
G01 X70.7698 Y46.8311
G01 X70.8413 Y46.8094
G01 X70.9117 Y46.7842
G01 X70.9807 Y46.7556
G01 X71.0483 Y46.7236
G01 X71.1142 Y46.6884
G01 X71.1783 Y46.6500
G01 X71.2404 Y46.6084
G01 X71.3005 Y46.5639
G01 X71.3583 Y46.5165
G01 X71.4137 Y46.4663
G01 X71.4665 Y46.4135
G01 X71.5167 Y46.3580
G01 X71.5641 Y46.3003
G01 X71.6086 Y46.2402
G01 X71.6502 Y46.1781
G01 X71.6886 Y46.1140
G01 X71.7238 Y46.0481
G01 X71.7558 Y45.9805
G01 X71.7844 Y45.9115
G01 X71.8096 Y45.8411
G01 X71.8313 Y45.7696
G01 X71.8494 Y45.6970
G01 X71.8640 Y45.6237
G01 X71.8750 Y45.5498
G01 X71.8823 Y45.4754
G01 X71.8860 Y45.4007
G01 X71.8860 Y45.3260
G01 X71.8823 Y45.2513
G01 X71.8750 Y45.1770
G01 X71.8640 Y45.1030
G01 X71.8494 Y45.0297
G01 X71.8313 Y44.9572
G01 X71.8096 Y44.8857
G01 X71.7844 Y44.8153
G01 X71.7558 Y44.7463
G01 X71.7238 Y44.6787
G01 X71.6886 Y44.6128
G01 X71.6502 Y44.5487
G01 X71.6251 Y44.5112
G01 X71.6251 Y32.6634
G01 X71.6242 Y32.6260
G01 X71.6218 Y32.5770
G01 X71.6145 Y32.5026
G01 X71.6073 Y32.4541
G01 X71.5927 Y32.3808
G01 X71.5808 Y32.3332
G01 X71.5591 Y32.2617
G01 X71.5426 Y32.2155
G01 X71.5140 Y32.1465
G01 X71.4930 Y32.1021
G01 X71.4578 Y32.0362
G01 X71.4325 Y31.9941
G01 X71.3910 Y31.9320
G01 X71.3618 Y31.8925
G01 X71.3144 Y31.8348
G01 X71.2814 Y31.7984
G01 X71.2286 Y31.7456
G01 X71.1922 Y31.7126
G01 X71.1344 Y31.6652
G01 X71.0950 Y31.6360
G01 X71.0329 Y31.5945
G01 X70.9908 Y31.5692
G01 X70.9249 Y31.5340
G01 X70.8805 Y31.5130
G01 X70.8115 Y31.4844
G01 X70.7653 Y31.4679
G01 X70.6938 Y31.4462
G01 X70.6462 Y31.4343
G01 X70.5729 Y31.4197
G01 X70.5243 Y31.4125
G01 X70.4500 Y31.4052
G01 X70.4009 Y31.4028
G01 X70.3636 Y31.4018
G01 X69.1378 Y31.4018
G01 X69.1208 Y31.3928
G01 X69.1042 Y31.3849
G00 Z2.0000
G00 X74.1820 Y29.2965
G01 F60.00
G01 Z-0.2001
G01 F320.00
G01 X74.1486 Y29.2465
G01 X74.1041 Y29.1865
G01 X74.0567 Y29.1287
G01 X74.0065 Y29.0733
G01 X73.9537 Y29.0205
G01 X73.8983 Y28.9703
G01 X73.8405 Y28.9229
G01 X73.7804 Y28.8783
G01 X73.7183 Y28.8368
G01 X73.6542 Y28.7984
G01 X73.5883 Y28.7632
G01 X73.5207 Y28.7312
G01 X73.4517 Y28.7026
G01 X73.3813 Y28.6774
G01 X73.3098 Y28.6557
G01 X73.2372 Y28.6375
G01 X73.1640 Y28.6230
G01 X73.0900 Y28.6120
G01 X73.0156 Y28.6047
G01 X72.9409 Y28.6010
G01 X72.8662 Y28.6010
G01 X72.7915 Y28.6047
G01 X72.7172 Y28.6120
G01 X72.6432 Y28.6230
G01 X72.5699 Y28.6375
G01 X72.4974 Y28.6557
G01 X72.4259 Y28.6774
G01 X72.3555 Y28.7026
G01 X72.2865 Y28.7312
G01 X72.2189 Y28.7632
G01 X72.1530 Y28.7984
G01 X72.0889 Y28.8368
G01 X72.0514 Y28.8618
G01 X65.2836 Y28.8618
G01 X65.2462 Y28.8628
G01 X65.1972 Y28.8652
G01 X65.1228 Y28.8725
G01 X65.0743 Y28.8797
G01 X65.0010 Y28.8943
G01 X64.9534 Y28.9062
G01 X64.8819 Y28.9279
G01 X64.8357 Y28.9444
G01 X64.7667 Y28.9730
G01 X64.7223 Y28.9940
G01 X64.6564 Y29.0292
G01 X64.6143 Y29.0545
G01 X64.5522 Y29.0960
G01 X64.5127 Y29.1252
G01 X64.4550 Y29.1726
G01 X64.4186 Y29.2056
G01 X64.3658 Y29.2584
G01 X64.3328 Y29.2948
G01 X64.2854 Y29.3525
G01 X64.2562 Y29.3920
G01 X64.2147 Y29.4541
G01 X64.1894 Y29.4962
G01 X64.1542 Y29.5621
G01 X64.1332 Y29.6065
G01 X64.1046 Y29.6755
G01 X64.0881 Y29.7217
G01 X64.0664 Y29.7932
G01 X64.0545 Y29.8408
G01 X64.0399 Y29.9141
G01 X64.0327 Y29.9626
G01 X64.0254 Y30.0370
G01 X64.0230 Y30.0860
G01 X64.0220 Y30.1234
G01 X64.0220 Y31.3839
G01 X63.9822 Y31.3650
G01 X63.9132 Y31.3365
G01 X63.8522 Y31.3146
G01 X63.7807 Y31.2929
G01 X63.7178 Y31.2772
G01 X63.6445 Y31.2626
G01 X63.5804 Y31.2531
G01 X63.5061 Y31.2458
G01 X63.4413 Y31.2426
G01 X63.4040 Y31.2417
G01 X62.0832 Y31.2417
G01 X62.0458 Y31.2426
G01 X61.9811 Y31.2458
G01 X61.9068 Y31.2531
G01 X61.8426 Y31.2626
G01 X61.7694 Y31.2772
G01 X61.7065 Y31.2929
G01 X61.6350 Y31.3146
G01 X61.5740 Y31.3365
G01 X61.5050 Y31.3650
G01 X61.4464 Y31.3928
G01 X61.4294 Y31.4018
G01 X60.2036 Y31.4018
G01 X60.1662 Y31.4028
G01 X60.1172 Y31.4052
G01 X60.0428 Y31.4125
G01 X59.9943 Y31.4197
G01 X59.9210 Y31.4343
G01 X59.8734 Y31.4462
G01 X59.8019 Y31.4679
G01 X59.7557 Y31.4844
G01 X59.6867 Y31.5130
G01 X59.6423 Y31.5340
G01 X59.5764 Y31.5692
G01 X59.5343 Y31.5945
G01 X59.4722 Y31.6360
G01 X59.4327 Y31.6652
G01 X59.3750 Y31.7126
G01 X59.3386 Y31.7456
G01 X59.2858 Y31.7984
G01 X59.2528 Y31.8348
G01 X59.2054 Y31.8925
G01 X59.1762 Y31.9320
G01 X59.1347 Y31.9941
G01 X59.1094 Y32.0362
G01 X59.0742 Y32.1021
G01 X59.0532 Y32.1465
G01 X59.0246 Y32.2155
G01 X59.0081 Y32.2617
G01 X58.9864 Y32.3332
G01 X58.9745 Y32.3808
G01 X58.9599 Y32.4541
G01 X58.9527 Y32.5026
G01 X58.9454 Y32.5770
G01 X58.9430 Y32.6260
G01 X58.9420 Y32.6634
G01 X58.9420 Y40.2834
G01 X58.9430 Y40.3207
G01 X58.9454 Y40.3698
G01 X58.9527 Y40.4441
G01 X58.9599 Y40.4927
G01 X58.9745 Y40.5660
G01 X58.9864 Y40.6136
G01 X59.0081 Y40.6851
G01 X59.0246 Y40.7313
G01 X59.0532 Y40.8003
G01 X59.0742 Y40.8447
G01 X59.1094 Y40.9106
G01 X59.1347 Y40.9527
G01 X59.1762 Y41.0148
G01 X59.2054 Y41.0542
G01 X59.2528 Y41.1120
G01 X59.2858 Y41.1484
G01 X59.3386 Y41.2012
G01 X59.3750 Y41.2342
G01 X59.4327 Y41.2816
G01 X59.4722 Y41.3108
G01 X59.5343 Y41.3523
G01 X59.5764 Y41.3776
G01 X59.6423 Y41.4128
G01 X59.6867 Y41.4338
G01 X59.7557 Y41.4623
G01 X59.8019 Y41.4789
G01 X59.8734 Y41.5006
G01 X59.9210 Y41.5125
G01 X59.9943 Y41.5271
G01 X60.0428 Y41.5343
G01 X60.1172 Y41.5416
G01 X60.1662 Y41.5440
G01 X60.2036 Y41.5449
G01 X61.4294 Y41.5449
G01 X61.4452 Y41.5534
G01 X61.4294 Y41.5618
G01 X58.9251 Y41.5618
G01 X58.9251 Y26.3049
G01 X61.4294 Y26.3049
G01 X61.4464 Y26.3140
G01 X61.5050 Y26.3417
G01 X61.5740 Y26.3703
G01 X61.6350 Y26.3921
G01 X61.7065 Y26.4138
G01 X61.7694 Y26.4296
G01 X61.8426 Y26.4442
G01 X61.9068 Y26.4537
G01 X61.9811 Y26.4610
G01 X62.0458 Y26.4642
G01 X62.0832 Y26.4651
G01 X63.4040 Y26.4651
G01 X63.4413 Y26.4642
G01 X63.5061 Y26.4610
G01 X63.5804 Y26.4537
G01 X63.6445 Y26.4442
G01 X63.7178 Y26.4296
G01 X63.7807 Y26.4138
G01 X63.8522 Y26.3921
G01 X63.9132 Y26.3703
G01 X63.9822 Y26.3417
G01 X64.0408 Y26.3140
G01 X64.1067 Y26.2788
G01 X64.1623 Y26.2455
G01 X64.2244 Y26.2040
G01 X64.2764 Y26.1654
G01 X64.3342 Y26.1180
G01 X64.3822 Y26.0744
G01 X64.4350 Y26.0216
G01 X64.4786 Y25.9736
G01 X64.5260 Y25.9158
G01 X64.5646 Y25.8638
G01 X64.6061 Y25.8017
G01 X64.6394 Y25.7461
G01 X64.6746 Y25.6802
G01 X64.7023 Y25.6216
G01 X64.7309 Y25.5526
G01 X64.7527 Y25.4916
G01 X64.7744 Y25.4201
G01 X64.7902 Y25.3572
G01 X64.8048 Y25.2839
G01 X64.8143 Y25.2198
G01 X64.8216 Y25.1455
G01 X64.8248 Y25.0807
G01 X64.8248 Y25.0060
G01 X64.8216 Y24.9413
G01 X64.8143 Y24.8669
G01 X64.8048 Y24.8028
G01 X64.7902 Y24.7296
G01 X64.7744 Y24.6667
G01 X64.7527 Y24.5952
G01 X64.7309 Y24.5342
G01 X64.7023 Y24.4652
G01 X64.6746 Y24.4066
G01 X64.6394 Y24.3407
G01 X64.6061 Y24.2851
G01 X64.5646 Y24.2230
G01 X64.5260 Y24.1709
G01 X64.4786 Y24.1132
G01 X64.4350 Y24.0652
G01 X64.3822 Y24.0123
G01 X64.3342 Y23.9688
G01 X64.2764 Y23.9214
G01 X64.2244 Y23.8828
G01 X64.1623 Y23.8413
G01 X64.1067 Y23.8080
G01 X64.0408 Y23.7728
G01 X63.9822 Y23.7450
G01 X63.9132 Y23.7165
G01 X63.8522 Y23.6946
G01 X63.7807 Y23.6729
G01 X63.7178 Y23.6572
G01 X63.6445 Y23.6426
G01 X63.5804 Y23.6331
G01 X63.5061 Y23.6258
G01 X63.4413 Y23.6226
G01 X63.4040 Y23.6217
G01 X62.0832 Y23.6217
G01 X62.0458 Y23.6226
G01 X61.9811 Y23.6258
G01 X61.9068 Y23.6331
G01 X61.8426 Y23.6426
G01 X61.7694 Y23.6572
G01 X61.7065 Y23.6729
G01 X61.6350 Y23.6946
G01 X61.5740 Y23.7165
G01 X61.5050 Y23.7450
G01 X61.4464 Y23.7728
G01 X61.4294 Y23.7818
G01 X57.6636 Y23.7818
G01 X57.6262 Y23.7828
G01 X57.5772 Y23.7852
G01 X57.5028 Y23.7925
G01 X57.4543 Y23.7997
G01 X57.3810 Y23.8143
G01 X57.3334 Y23.8262
G01 X57.2619 Y23.8479
G01 X57.2157 Y23.8644
G01 X57.1467 Y23.8930
G01 X57.1023 Y23.9140
G01 X57.0364 Y23.9492
G01 X56.9943 Y23.9745
G01 X56.9322 Y24.0160
G01 X56.8927 Y24.0452
G01 X56.8350 Y24.0926
G01 X56.7986 Y24.1256
G01 X56.7458 Y24.1784
G01 X56.7128 Y24.2148
G01 X56.6654 Y24.2725
G01 X56.6362 Y24.3120
G01 X56.5947 Y24.3741
G01 X56.5694 Y24.4162
G01 X56.5342 Y24.4821
G01 X56.5132 Y24.5265
G01 X56.4846 Y24.5955
G01 X56.4681 Y24.6417
G01 X56.4464 Y24.7132
G01 X56.4345 Y24.7608
G01 X56.4199 Y24.8341
G01 X56.4127 Y24.8826
G01 X56.4054 Y24.9570
G01 X56.4030 Y25.0060
G01 X56.4020 Y25.0434
G01 X56.4020 Y41.9712
G01 X56.3851 Y41.9965
G01 X56.3851 Y13.6049
G01 X64.4314 Y13.6049
G01 X64.4689 Y13.6300
G01 X64.5330 Y13.6684
G01 X64.5989 Y13.7036
G01 X64.6665 Y13.7356
G01 X64.7355 Y13.7642
G01 X64.8059 Y13.7894
G01 X64.8774 Y13.8111
G01 X64.9499 Y13.8292
G01 X65.0232 Y13.8438
G01 X65.0972 Y13.8548
G01 X65.1715 Y13.8621
G01 X65.2462 Y13.8658
G01 X65.3209 Y13.8658
G01 X65.3956 Y13.8621
G01 X65.4700 Y13.8548
G01 X65.5440 Y13.8438
G01 X65.6172 Y13.8292
G01 X65.6898 Y13.8111
G01 X65.7613 Y13.7894
G01 X65.8317 Y13.7642
G01 X65.9007 Y13.7356
G01 X65.9683 Y13.7036
G01 X66.0342 Y13.6684
G01 X66.0983 Y13.6300
G01 X66.1604 Y13.5884
G01 X66.2205 Y13.5439
G01 X66.2783 Y13.4965
G01 X66.3337 Y13.4463
G01 X66.3865 Y13.3935
G01 X66.4367 Y13.3380
G01 X66.4841 Y13.2803
G01 X66.5286 Y13.2202
G01 X66.5620 Y13.1703
G01 X66.5620 Y22.5034
G01 X66.5630 Y22.5407
G01 X66.5654 Y22.5898
G01 X66.5727 Y22.6641
G01 X66.5799 Y22.7127
G01 X66.5945 Y22.7860
G01 X66.6064 Y22.8336
G01 X66.6281 Y22.9051
G01 X66.6446 Y22.9513
G01 X66.6732 Y23.0203
G01 X66.6942 Y23.0647
G01 X66.7294 Y23.1306
G01 X66.7547 Y23.1727
G01 X66.7962 Y23.2348
G01 X66.8254 Y23.2742
G01 X66.8728 Y23.3320
G01 X66.9058 Y23.3684
G01 X66.9586 Y23.4212
G01 X66.9950 Y23.4542
G01 X67.0527 Y23.5016
G01 X67.0922 Y23.5308
G01 X67.1543 Y23.5723
G01 X67.1964 Y23.5976
G01 X67.2415 Y23.6217
G01 X67.1632 Y23.6217
G01 X67.1258 Y23.6226
G01 X67.0611 Y23.6258
G01 X66.9868 Y23.6331
G01 X66.9226 Y23.6426
G01 X66.8494 Y23.6572
G01 X66.7865 Y23.6729
G01 X66.7150 Y23.6946
G01 X66.6540 Y23.7165
G01 X66.5850 Y23.7450
G01 X66.5264 Y23.7728
G01 X66.4605 Y23.8080
G01 X66.4049 Y23.8413
G01 X66.3428 Y23.8828
G01 X66.2907 Y23.9214
G01 X66.2330 Y23.9688
G01 X66.1850 Y24.0123
G01 X66.1321 Y24.0652
G01 X66.0886 Y24.1132
G01 X66.0412 Y24.1709
G01 X66.0026 Y24.2230
G01 X65.9611 Y24.2851
G01 X65.9278 Y24.3407
G01 X65.8926 Y24.4066
G01 X65.8649 Y24.4652
G01 X65.8363 Y24.5342
G01 X65.8144 Y24.5952
G01 X65.7927 Y24.6667
G01 X65.7770 Y24.7296
G01 X65.7624 Y24.8028
G01 X65.7529 Y24.8669
G01 X65.7456 Y24.9413
G01 X65.7424 Y25.0060
G01 X65.7424 Y25.0807
G01 X65.7456 Y25.1455
G01 X65.7529 Y25.2198
G01 X65.7624 Y25.2839
G01 X65.7770 Y25.3572
G01 X65.7927 Y25.4201
G01 X65.8144 Y25.4916
G01 X65.8363 Y25.5526
G01 X65.8649 Y25.6216
G01 X65.8926 Y25.6802
G01 X65.9278 Y25.7461
G01 X65.9611 Y25.8017
G01 X66.0026 Y25.8638
G01 X66.0412 Y25.9158
G01 X66.0886 Y25.9736
G01 X66.1321 Y26.0216
G01 X66.1850 Y26.0744
G01 X66.2330 Y26.1180
G01 X66.2907 Y26.1654
G01 X66.3428 Y26.2040
G01 X66.4049 Y26.2455
G01 X66.4605 Y26.2788
G01 X66.5264 Y26.3140
G01 X66.5850 Y26.3417
G01 X66.6540 Y26.3703
G01 X66.7150 Y26.3921
G01 X66.7865 Y26.4138
G01 X66.8494 Y26.4296
G01 X66.9226 Y26.4442
G01 X66.9868 Y26.4537
G01 X67.0611 Y26.4610
G01 X67.1258 Y26.4642
G01 X67.1632 Y26.4651
G01 X68.4840 Y26.4651
G01 X68.5213 Y26.4642
G01 X68.5861 Y26.4610
G01 X68.6604 Y26.4537
G01 X68.7245 Y26.4442
G01 X68.7978 Y26.4296
G01 X68.8607 Y26.4138
G01 X68.9322 Y26.3921
G01 X68.9932 Y26.3703
G01 X69.0622 Y26.3417
G01 X69.1208 Y26.3140
G01 X69.1867 Y26.2788
G01 X69.2423 Y26.2455
G01 X69.3044 Y26.2040
G01 X69.3564 Y26.1654
G01 X69.4142 Y26.1180
G01 X69.4622 Y26.0744
G01 X69.5150 Y26.0216
G01 X69.5586 Y25.9736
G01 X69.6060 Y25.9158
G01 X69.6446 Y25.8638
G01 X69.6861 Y25.8017
G01 X69.7194 Y25.7461
G01 X69.7546 Y25.6802
G01 X69.7823 Y25.6216
G01 X69.8109 Y25.5526
G01 X69.8327 Y25.4916
G01 X69.8544 Y25.4201
G01 X69.8702 Y25.3572
G01 X69.8848 Y25.2839
G01 X69.8943 Y25.2198
G01 X69.9016 Y25.1455
G01 X69.9048 Y25.0807
G01 X69.9048 Y25.0060
G01 X69.9016 Y24.9413
G01 X69.8943 Y24.8669
G01 X69.8848 Y24.8028
G01 X69.8702 Y24.7296
G01 X69.8544 Y24.6667
G01 X69.8327 Y24.5952
G01 X69.8109 Y24.5342
G01 X69.7823 Y24.4652
G01 X69.7546 Y24.4066
G01 X69.7194 Y24.3407
G01 X69.6861 Y24.2851
G01 X69.6446 Y24.2230
G01 X69.6060 Y24.1709
G01 X69.5586 Y24.1132
G01 X69.5150 Y24.0652
G01 X69.4622 Y24.0123
G01 X69.4142 Y23.9688
G01 X69.3564 Y23.9214
G01 X69.3044 Y23.8828
G01 X69.2423 Y23.8413
G01 X69.1867 Y23.8080
G01 X69.1208 Y23.7728
G01 X69.1042 Y23.7649
G01 X72.0514 Y23.7649
G01 X72.0889 Y23.7900
G01 X72.1530 Y23.8284
G01 X72.2189 Y23.8636
G01 X72.2865 Y23.8956
G01 X72.3555 Y23.9242
G01 X72.4259 Y23.9494
G01 X72.4974 Y23.9711
G01 X72.5699 Y23.9892
G01 X72.6432 Y24.0038
G01 X72.7172 Y24.0148
G01 X72.7915 Y24.0221
G01 X72.8662 Y24.0258
G01 X72.9409 Y24.0258
G01 X73.0156 Y24.0221
G01 X73.0900 Y24.0148
G01 X73.1640 Y24.0038
G01 X73.2372 Y23.9892
G01 X73.3098 Y23.9711
G01 X73.3813 Y23.9494
G01 X73.4517 Y23.9242
G01 X73.5207 Y23.8956
G01 X73.5883 Y23.8636
G01 X73.6542 Y23.8284
G01 X73.7183 Y23.7900
G01 X73.7558 Y23.7649
G01 X79.2429 Y23.7649
G01 X79.2264 Y23.7728
G01 X79.2094 Y23.7818
G01 X75.4436 Y23.7818
G01 X75.4062 Y23.7828
G01 X75.3572 Y23.7852
G01 X75.2828 Y23.7925
G01 X75.2343 Y23.7997
G01 X75.1610 Y23.8143
G01 X75.1134 Y23.8262
G01 X75.0419 Y23.8479
G01 X74.9957 Y23.8644
G01 X74.9267 Y23.8930
G01 X74.8823 Y23.9140
G01 X74.8164 Y23.9492
G01 X74.7743 Y23.9745
G01 X74.7122 Y24.0160
G01 X74.6727 Y24.0452
G01 X74.6150 Y24.0926
G01 X74.5786 Y24.1256
G01 X74.5258 Y24.1784
G01 X74.4928 Y24.2148
G01 X74.4454 Y24.2725
G01 X74.4162 Y24.3120
G01 X74.3747 Y24.3741
G01 X74.3494 Y24.4162
G01 X74.3142 Y24.4821
G01 X74.2932 Y24.5265
G01 X74.2646 Y24.5955
G01 X74.2481 Y24.6417
G01 X74.2264 Y24.7132
G01 X74.2145 Y24.7608
G01 X74.1999 Y24.8341
G01 X74.1927 Y24.8826
G01 X74.1854 Y24.9570
G01 X74.1830 Y25.0060
G01 X74.1820 Y25.0434
G01 X74.1820 Y29.2965
G00 Z2.0000
G00 X72.0767 Y21.2249
G01 F60.00
G01 Z-0.2001
G01 F320.00
G01 X72.0514 Y21.2418
G01 X69.0851 Y21.2418
G01 X69.0851 Y5.5756
G01 X69.0936 Y5.5629
G01 X69.1020 Y5.5756
G01 X69.1020 Y19.9634
G01 X69.1030 Y20.0007
G01 X69.1054 Y20.0498
G01 X69.1127 Y20.1241
G01 X69.1199 Y20.1727
G01 X69.1345 Y20.2460
G01 X69.1464 Y20.2936
G01 X69.1681 Y20.3651
G01 X69.1846 Y20.4113
G01 X69.2132 Y20.4803
G01 X69.2342 Y20.5247
G01 X69.2694 Y20.5906
G01 X69.2947 Y20.6327
G01 X69.3362 Y20.6948
G01 X69.3654 Y20.7342
G01 X69.4128 Y20.7920
G01 X69.4458 Y20.8284
G01 X69.4986 Y20.8812
G01 X69.5350 Y20.9142
G01 X69.5927 Y20.9616
G01 X69.6322 Y20.9908
G01 X69.6943 Y21.0323
G01 X69.7364 Y21.0576
G01 X69.8023 Y21.0928
G01 X69.8467 Y21.1138
G01 X69.9157 Y21.1423
G01 X69.9619 Y21.1589
G01 X70.0334 Y21.1806
G01 X70.0810 Y21.1925
G01 X70.1543 Y21.2071
G01 X70.2028 Y21.2143
G01 X70.2772 Y21.2216
G01 X70.3262 Y21.2240
G01 X70.3636 Y21.2249
G01 X72.0767 Y21.2249
G00 Z2.0000
G00 X81.8042 Y23.7649
G01 F60.00
G01 Z-0.2001
G01 F320.00
G01 X84.3229 Y23.7649
G01 X84.3064 Y23.7728
G01 X84.2405 Y23.8080
G01 X84.1849 Y23.8413
G01 X84.1228 Y23.8828
G01 X84.0707 Y23.9214
G01 X84.0130 Y23.9688
G01 X83.9650 Y24.0123
G01 X83.9121 Y24.0652
G01 X83.8686 Y24.1132
G01 X83.8212 Y24.1709
G01 X83.7826 Y24.2230
G01 X83.7411 Y24.2851
G01 X83.7078 Y24.3407
G01 X83.6726 Y24.4066
G01 X83.6449 Y24.4652
G01 X83.6163 Y24.5342
G01 X83.5944 Y24.5952
G01 X83.5727 Y24.6667
G01 X83.5570 Y24.7296
G01 X83.5424 Y24.8028
G01 X83.5329 Y24.8669
G01 X83.5256 Y24.9413
G01 X83.5224 Y25.0060
G01 X83.5224 Y25.0807
G01 X83.5256 Y25.1455
G01 X83.5329 Y25.2198
G01 X83.5424 Y25.2839
G01 X83.5570 Y25.3572
G01 X83.5727 Y25.4201
G01 X83.5944 Y25.4916
G01 X83.6163 Y25.5526
G01 X83.6449 Y25.6216
G01 X83.6726 Y25.6802
G01 X83.7078 Y25.7461
G01 X83.7411 Y25.8017
G01 X83.7826 Y25.8638
G01 X83.8212 Y25.9158
G01 X83.8686 Y25.9736
G01 X83.9121 Y26.0216
G01 X83.9650 Y26.0744
G01 X84.0130 Y26.1180
G01 X84.0707 Y26.1654
G01 X84.1228 Y26.2040
G01 X84.1849 Y26.2455
G01 X84.2405 Y26.2788
G01 X84.3064 Y26.3140
G01 X84.3650 Y26.3417
G01 X84.4340 Y26.3703
G01 X84.4950 Y26.3921
G01 X84.5665 Y26.4138
G01 X84.6294 Y26.4296
G01 X84.7026 Y26.4442
G01 X84.7668 Y26.4537
G01 X84.8411 Y26.4610
G01 X84.9058 Y26.4642
G01 X84.9432 Y26.4651
G01 X86.2640 Y26.4651
G01 X86.3013 Y26.4642
G01 X86.3661 Y26.4610
G01 X86.4404 Y26.4537
G01 X86.5045 Y26.4442
G01 X86.5778 Y26.4296
G01 X86.6407 Y26.4138
G01 X86.7122 Y26.3921
G01 X86.7732 Y26.3703
G01 X86.8422 Y26.3417
G01 X86.9008 Y26.3140
G01 X86.9667 Y26.2788
G01 X87.0223 Y26.2455
G01 X87.0844 Y26.2040
G01 X87.1364 Y26.1654
G01 X87.1942 Y26.1180
G01 X87.2422 Y26.0744
G01 X87.2950 Y26.0216
G01 X87.3386 Y25.9736
G01 X87.3860 Y25.9158
G01 X87.4246 Y25.8638
G01 X87.4661 Y25.8017
G01 X87.4994 Y25.7461
G01 X87.5346 Y25.6802
G01 X87.5623 Y25.6216
G01 X87.5909 Y25.5526
G01 X87.6127 Y25.4916
G01 X87.6344 Y25.4201
G01 X87.6502 Y25.3572
G01 X87.6648 Y25.2839
G01 X87.6743 Y25.2198
G01 X87.6816 Y25.1455
G01 X87.6848 Y25.0807
G01 X87.6848 Y25.0060
G01 X87.6816 Y24.9413
G01 X87.6743 Y24.8669
G01 X87.6648 Y24.8028
G01 X87.6502 Y24.7296
G01 X87.6344 Y24.6667
G01 X87.6127 Y24.5952
G01 X87.5909 Y24.5342
G01 X87.5623 Y24.4652
G01 X87.5346 Y24.4066
G01 X87.4994 Y24.3407
G01 X87.4661 Y24.2851
G01 X87.4246 Y24.2230
G01 X87.3860 Y24.1709
G01 X87.3386 Y24.1132
G01 X87.2950 Y24.0652
G01 X87.2422 Y24.0123
G01 X87.1942 Y23.9688
G01 X87.1364 Y23.9214
G01 X87.0844 Y23.8828
G01 X87.0223 Y23.8413
G01 X86.9667 Y23.8080
G01 X86.9008 Y23.7728
G01 X86.8842 Y23.7649
G01 X89.8314 Y23.7649
G01 X89.8689 Y23.7900
G01 X89.9330 Y23.8284
G01 X89.9989 Y23.8636
G01 X90.0665 Y23.8956
G01 X90.1355 Y23.9242
G01 X90.2059 Y23.9494
G01 X90.2774 Y23.9711
G01 X90.3499 Y23.9892
G01 X90.4232 Y24.0038
G01 X90.4972 Y24.0148
G01 X90.5715 Y24.0221
G01 X90.6462 Y24.0258
G01 X90.7209 Y24.0258
G01 X90.7956 Y24.0221
G01 X90.8700 Y24.0148
G01 X90.9440 Y24.0038
G01 X91.0172 Y23.9892
G01 X91.0898 Y23.9711
G01 X91.1613 Y23.9494
G01 X91.2317 Y23.9242
G01 X91.3007 Y23.8956
G01 X91.3683 Y23.8636
G01 X91.4342 Y23.8284
G01 X91.4983 Y23.7900
G01 X91.5604 Y23.7484
G01 X91.6205 Y23.7039
G01 X91.6783 Y23.6565
G01 X91.7337 Y23.6063
G01 X91.7865 Y23.5535
G01 X91.8367 Y23.4980
G01 X91.8841 Y23.4403
G01 X91.9286 Y23.3802
G01 X91.9620 Y23.3303
G01 X91.9620 Y29.2965
G01 X91.9286 Y29.2465
G01 X91.8841 Y29.1865
G01 X91.8367 Y29.1287
G01 X91.7865 Y29.0733
G01 X91.7337 Y29.0205
G01 X91.6783 Y28.9703
G01 X91.6205 Y28.9229
G01 X91.5604 Y28.8783
G01 X91.4983 Y28.8368
G01 X91.4342 Y28.7984
G01 X91.3683 Y28.7632
G01 X91.3007 Y28.7312
G01 X91.2317 Y28.7026
G01 X91.1613 Y28.6774
G01 X91.0898 Y28.6557
G01 X91.0172 Y28.6375
G01 X90.9440 Y28.6230
G01 X90.8700 Y28.6120
G01 X90.7956 Y28.6047
G01 X90.7209 Y28.6010
G01 X90.6462 Y28.6010
G01 X90.5715 Y28.6047
G01 X90.4972 Y28.6120
G01 X90.4232 Y28.6230
G01 X90.3499 Y28.6375
G01 X90.2774 Y28.6557
G01 X90.2059 Y28.6774
G01 X90.1355 Y28.7026
G01 X90.0665 Y28.7312
G01 X89.9989 Y28.7632
G01 X89.9330 Y28.7984
G01 X89.8689 Y28.8368
G01 X89.8314 Y28.8618
G01 X83.0636 Y28.8618
G01 X83.0262 Y28.8628
G01 X82.9772 Y28.8652
G01 X82.9028 Y28.8725
G01 X82.8543 Y28.8797
G01 X82.7810 Y28.8943
G01 X82.7334 Y28.9062
G01 X82.6619 Y28.9279
G01 X82.6157 Y28.9444
G01 X82.5467 Y28.9730
G01 X82.5023 Y28.9940
G01 X82.4364 Y29.0292
G01 X82.3943 Y29.0545
G01 X82.3322 Y29.0960
G01 X82.2927 Y29.1252
G01 X82.2350 Y29.1726
G01 X82.1986 Y29.2056
G01 X82.1458 Y29.2584
G01 X82.1128 Y29.2948
G01 X82.0654 Y29.3525
G01 X82.0362 Y29.3920
G01 X81.9947 Y29.4541
G01 X81.9694 Y29.4962
G01 X81.9342 Y29.5621
G01 X81.9132 Y29.6065
G01 X81.8846 Y29.6755
G01 X81.8681 Y29.7217
G01 X81.8464 Y29.7932
G01 X81.8345 Y29.8408
G01 X81.8199 Y29.9141
G01 X81.8127 Y29.9626
G01 X81.8054 Y30.0370
G01 X81.8030 Y30.0860
G01 X81.8020 Y30.1234
G01 X81.8020 Y31.3839
G01 X81.7622 Y31.3650
G01 X81.6932 Y31.3365
G01 X81.6322 Y31.3146
G01 X81.5607 Y31.2929
G01 X81.4978 Y31.2772
G01 X81.4245 Y31.2626
G01 X81.3604 Y31.2531
G01 X81.2861 Y31.2458
G01 X81.2213 Y31.2426
G01 X81.1840 Y31.2417
G01 X79.8632 Y31.2417
G01 X79.8258 Y31.2426
G01 X79.7611 Y31.2458
G01 X79.6868 Y31.2531
G01 X79.6226 Y31.2626
G01 X79.5494 Y31.2772
G01 X79.4865 Y31.2929
G01 X79.4150 Y31.3146
G01 X79.3540 Y31.3365
G01 X79.2850 Y31.3650
G01 X79.2264 Y31.3928
G01 X79.2094 Y31.4018
G01 X77.9836 Y31.4018
G01 X77.9462 Y31.4028
G01 X77.8972 Y31.4052
G01 X77.8228 Y31.4125
G01 X77.7743 Y31.4197
G01 X77.7010 Y31.4343
G01 X77.6534 Y31.4462
G01 X77.5819 Y31.4679
G01 X77.5357 Y31.4844
G01 X77.4667 Y31.5130
G01 X77.4223 Y31.5340
G01 X77.3564 Y31.5692
G01 X77.3143 Y31.5945
G01 X77.2522 Y31.6360
G01 X77.2127 Y31.6652
G01 X77.1550 Y31.7126
G01 X77.1186 Y31.7456
G01 X77.0658 Y31.7984
G01 X77.0328 Y31.8348
G01 X76.9854 Y31.8925
