(G-CODE GENERATED BY FLATCAM v8.991 - www.flatcam.org - Version Date: 2019/12/27)

(Name: 004_ALU)
(Type: G-code from Excellon)
(Units: MM)

(Created on Saturday, 07 March 2020 at 19:57)

(Feedrate: 300.0 mm/min)
(Feedrate rapids 1500.0 mm/min)

(Z_Cut: -1.9000000000000001 mm)
(Z_Move: 2.0 mm)
(Z Toolchange: 15.0 mm)
(X,Y Toolchange: 0.0000, 0.0000 mm)
(Z Start: None mm)
(Z End: 1.0 mm)
(Steps per circle: 64)
(Preprocessor Excellon: default)

(X range:    6.4191 ...  147.0081  mm)
(Y range:    4.2789 ...   96.6079  mm)

(Spindle Speed: None RPM)
G21
G90
G94

M03 S3000


G01 F300.00
G00 Z2.0000

M03
G00 X108.4636 Y86.0034
G01 Z-1.9000
G01 Z0
G00 Z2.0000
G00 X108.4636 Y93.6234
G01 Z-1.9000
G01 Z0
G00 Z2.0000
G00 X105.9236 Y93.6234
G01 Z-1.9000
G01 Z0
G00 Z2.0000
G00 X103.3836 Y93.6234
G01 Z-1.9000
G01 Z0
G00 Z2.0000
G00 X100.8436 Y93.6234
G01 Z-1.9000
G01 Z0
G00 Z2.0000
G00 X98.3036 Y93.6234
G01 Z-1.9000
G01 Z0
G00 Z2.0000
G00 X95.7636 Y93.6234
G01 Z-1.9000
G01 Z0
G00 Z2.0000
G00 X93.2236 Y93.6234
G01 Z-1.9000
G01 Z0
G00 Z2.0000
G00 X90.6836 Y93.6234
G01 Z-1.9000
G01 Z0
G00 Z2.0000
G00 X88.1436 Y93.6234
G01 Z-1.9000
G01 Z0
G00 Z2.0000
G00 X85.6036 Y93.6234
G01 Z-1.9000
G01 Z0
G00 Z2.0000
G00 X77.9836 Y93.6234
G01 Z-1.9000
G01 Z0
G00 Z2.0000
G00 X77.9836 Y86.0034
G01 Z-1.9000
G01 Z0
G00 Z2.0000
G00 X70.3636 Y80.9234
G01 Z-1.9000
G01 Z0
G00 Z2.0000
G00 X70.3636 Y75.8434
G01 Z-1.9000
G01 Z0
G00 Z2.0000
G00 X67.8236 Y65.6834
G01 Z-1.9000
G01 Z0
G00 Z2.0000
G00 X67.8236 Y63.1434
G01 Z-1.9000
G01 Z0
G00 Z2.0000
G00 X62.7436 Y65.6834
G01 Z-1.9000
G01 Z0
G00 Z2.0000
G00 X62.7436 Y63.1434
G01 Z-1.9000
G01 Z0
G00 Z2.0000
G00 X62.7436 Y55.5234
G01 Z-1.9000
G01 Z0
G00 Z2.0000
G00 X67.8236 Y55.5234
G01 Z-1.9000
G01 Z0
G00 Z2.0000
G00 X67.8236 Y50.4434
G01 Z-1.9000
G01 Z0
G00 Z2.0000
G00 X62.7436 Y50.4434
G01 Z-1.9000
G01 Z0
G00 Z2.0000
G00 X52.5836 Y52.9834
G01 Z-1.9000
G01 Z0
G00 Z2.0000
G00 X50.0436 Y52.9834
G01 Z-1.9000
G01 Z0
G00 Z2.0000
G00 X42.4236 Y52.9834
G01 Z-1.9000
G01 Z0
G00 Z2.0000
G00 X42.4236 Y47.9034
G01 Z-1.9000
G01 Z0
G00 Z2.0000
G00 X50.0436 Y47.9034
G01 Z-1.9000
G01 Z0
G00 Z2.0000
G00 X52.5836 Y47.9034
G01 Z-1.9000
G01 Z0
G00 Z2.0000
G00 X62.7436 Y42.8234
G01 Z-1.9000
G01 Z0
G00 Z2.0000
G00 X62.7436 Y40.2834
G01 Z-1.9000
G01 Z0
G00 Z2.0000
G00 X67.8236 Y42.8234
G01 Z-1.9000
G01 Z0
G00 Z2.0000
G00 X67.8236 Y40.2834
G01 Z-1.9000
G01 Z0
G00 Z2.0000
G00 X62.7436 Y35.2034
G01 Z-1.9000
G01 Z0
G00 Z2.0000
G00 X62.7436 Y32.6634
G01 Z-1.9000
G01 Z0
G00 Z2.0000
G00 X67.8236 Y35.2034
G01 Z-1.9000
G01 Z0
G00 Z2.0000
G00 X67.8236 Y32.6634
G01 Z-1.9000
G01 Z0
G00 Z2.0000
G00 X72.9036 Y30.1234
G01 Z-1.9000
G01 Z0
G00 Z2.0000
G00 X62.7436 Y25.0434
G01 Z-1.9000
G01 Z0
G00 Z2.0000
G00 X67.8236 Y25.0434
G01 Z-1.9000
G01 Z0
G00 Z2.0000
G00 X72.9036 Y22.5034
G01 Z-1.9000
G01 Z0
G00 Z2.0000
G00 X80.5236 Y25.0434
G01 Z-1.9000
G01 Z0
G00 Z2.0000
G00 X85.6036 Y25.0434
G01 Z-1.9000
G01 Z0
G00 Z2.0000
G00 X90.6836 Y22.5034
G01 Z-1.9000
G01 Z0
G00 Z2.0000
G00 X90.6836 Y30.1234
G01 Z-1.9000
G01 Z0
G00 Z2.0000
G00 X85.6036 Y32.6634
G01 Z-1.9000
G01 Z0
G00 Z2.0000
G00 X85.6036 Y35.2034
G01 Z-1.9000
G01 Z0
G00 Z2.0000
G00 X80.5236 Y32.6634
G01 Z-1.9000
G01 Z0
G00 Z2.0000
G00 X80.5236 Y35.2034
G01 Z-1.9000
G01 Z0
G00 Z2.0000
G00 X80.5236 Y40.2834
G01 Z-1.9000
G01 Z0
G00 Z2.0000
G00 X80.5236 Y42.8234
G01 Z-1.9000
G01 Z0
G00 Z2.0000
G00 X85.6036 Y40.2834
G01 Z-1.9000
G01 Z0
G00 Z2.0000
G00 X85.6036 Y42.8234
G01 Z-1.9000
G01 Z0
G00 Z2.0000
G00 X85.6036 Y50.4434
G01 Z-1.9000
G01 Z0
G00 Z2.0000
G00 X80.5236 Y50.4434
G01 Z-1.9000
G01 Z0
G00 Z2.0000
G00 X80.5236 Y55.5234
G01 Z-1.9000
G01 Z0
G00 Z2.0000
G00 X85.6036 Y55.5234
G01 Z-1.9000
G01 Z0
G00 Z2.0000
G00 X93.2236 Y52.9834
G01 Z-1.9000
G01 Z0
G00 Z2.0000
G00 X100.8436 Y52.9834
G01 Z-1.9000
G01 Z0
G00 Z2.0000
G00 X100.8436 Y50.4434
G01 Z-1.9000
G01 Z0
G00 Z2.0000
G00 X105.9236 Y50.4434
G01 Z-1.9000
G01 Z0
G00 Z2.0000
G00 X105.9236 Y52.9834
G01 Z-1.9000
G01 Z0
G00 Z2.0000
G00 X105.9236 Y60.6034
G01 Z-1.9000
G01 Z0
G00 Z2.0000
G00 X100.8436 Y60.6034
G01 Z-1.9000
G01 Z0
G00 Z2.0000
G00 X93.2236 Y60.6034
G01 Z-1.9000
G01 Z0
G00 Z2.0000
G00 X85.6036 Y63.1434
G01 Z-1.9000
G01 Z0
G00 Z2.0000
G00 X85.6036 Y65.6834
G01 Z-1.9000
G01 Z0
G00 Z2.0000
G00 X80.5236 Y63.1434
G01 Z-1.9000
G01 Z0
G00 Z2.0000
G00 X80.5236 Y65.6834
G01 Z-1.9000
G01 Z0
G00 Z2.0000
G00 X80.5236 Y75.8434
G01 Z-1.9000
G01 Z0
G00 Z2.0000
G00 X77.9836 Y75.8434
G01 Z-1.9000
G01 Z0
G00 Z2.0000
G00 X77.9836 Y80.9234
G01 Z-1.9000
G01 Z0
G00 Z2.0000
G00 X80.5236 Y80.9234
G01 Z-1.9000
G01 Z0
G00 Z2.0000
G00 X85.6036 Y86.0034
G01 Z-1.9000
G01 Z0
G00 Z2.0000
G00 X88.1436 Y86.0034
G01 Z-1.9000
G01 Z0
G00 Z2.0000
G00 X90.6836 Y86.0034
G01 Z-1.9000
G01 Z0
G00 Z2.0000
G00 X93.2236 Y86.0034
G01 Z-1.9000
G01 Z0
G00 Z2.0000
G00 X95.7636 Y86.0034
G01 Z-1.9000
G01 Z0
G00 Z2.0000
G00 X98.3036 Y86.0034
G01 Z-1.9000
G01 Z0
G00 Z2.0000
G00 X100.8436 Y86.0034
G01 Z-1.9000
G01 Z0
G00 Z2.0000
G00 X103.3836 Y86.0034
G01 Z-1.9000
G01 Z0
G00 Z2.0000
G00 X105.9236 Y86.0034
G01 Z-1.9000
G01 Z0
G00 Z2.0000
M03
G00 X146.5636 Y7.2634
G01 Z-1.9000
G01 Z0
G00 Z2.0000
G00 X144.0236 Y12.3434
G01 Z-1.9000
G01 Z0
G00 Z2.0000
G00 X141.4836 Y12.3434
G01 Z-1.9000
G01 Z0
G00 Z2.0000
G00 X141.4836 Y14.8834
G01 Z-1.9000
G01 Z0
G00 Z2.0000
G00 X144.0236 Y14.8834
G01 Z-1.9000
G01 Z0
G00 Z2.0000
G00 X146.5636 Y19.9634
G01 Z-1.9000
G01 Z0
G00 Z2.0000
G00 X98.3036 Y47.9034
G01 Z-1.9000
G01 Z0
G00 Z2.0000
G00 X88.1436 Y45.3634
G01 Z-1.9000
G01 Z0
G00 Z2.0000
G00 X70.3636 Y45.3634
G01 Z-1.9000
G01 Z0
G00 Z2.0000
G00 X57.6636 Y42.8234
G01 Z-1.9000
G01 Z0
G00 Z2.0000
G00 X57.6636 Y55.5234
G01 Z-1.9000
G01 Z0
G00 Z2.0000
G00 X70.3636 Y60.6034
G01 Z-1.9000
G01 Z0
G00 Z2.0000
G00 X88.1436 Y60.6034
G01 Z-1.9000
G01 Z0
G00 Z2.0000
G00 X98.3036 Y63.1434
G01 Z-1.9000
G01 Z0
G00 Z2.0000
G00 X98.3036 Y70.7634
G01 Z-1.9000
G01 Z0
G00 Z2.0000
G00 X103.3836 Y70.7634
G01 Z-1.9000
G01 Z0
G00 Z2.0000
G00 X108.4636 Y96.1634
G01 Z-1.9000
G01 Z0
G00 Z2.0000
G00 X105.9236 Y96.1634
G01 Z-1.9000
G01 Z0
G00 Z2.0000
G00 X103.3836 Y96.1634
G01 Z-1.9000
G01 Z0
G00 Z2.0000
G00 X100.8436 Y96.1634
G01 Z-1.9000
G01 Z0
G00 Z2.0000
G00 X98.3036 Y96.1634
G01 Z-1.9000
G01 Z0
G00 Z2.0000
G00 X95.7636 Y96.1634
G01 Z-1.9000
G01 Z0
G00 Z2.0000
G00 X93.2236 Y96.1634
G01 Z-1.9000
G01 Z0
G00 Z2.0000
G00 X90.6836 Y96.1634
G01 Z-1.9000
G01 Z0
G00 Z2.0000
G00 X88.1436 Y96.1634
G01 Z-1.9000
G01 Z0
G00 Z2.0000
G00 X85.6036 Y96.1634
G01 Z-1.9000
G01 Z0
G00 Z2.0000
G00 X19.5636 Y96.1634
G01 Z-1.9000
G01 Z0
G00 Z2.0000
G00 X17.0236 Y96.1634
G01 Z-1.9000
G01 Z0
G00 Z2.0000
G00 X14.4836 Y96.1634
G01 Z-1.9000
G01 Z0
G00 Z2.0000
G00 X9.4036 Y96.1634
G01 Z-1.9000
G01 Z0
G00 Z2.0000
G00 X6.8636 Y96.1634
G01 Z-1.9000
G01 Z0
G00 Z2.0000
G00 X6.8636 Y78.3834
G01 Z-1.9000
G01 Z0
G00 Z2.0000
G00 X14.4836 Y80.9234
G01 Z-1.9000
G01 Z0
G00 Z2.0000
G00 X22.1036 Y80.9234
G01 Z-1.9000
G01 Z0
G00 Z2.0000
G00 X22.1036 Y78.3834
G01 Z-1.9000
G01 Z0
G00 Z2.0000
G00 X22.1036 Y73.3034
G01 Z-1.9000
G01 Z0
G00 Z2.0000
G00 X22.1036 Y70.7634
G01 Z-1.9000
G01 Z0
G00 Z2.0000
G00 X17.0236 Y70.7634
G01 Z-1.9000
G01 Z0
G00 Z2.0000
G00 X9.4036 Y73.3034
G01 Z-1.9000
G01 Z0
G00 Z2.0000
G00 X6.8636 Y60.6034
G01 Z-1.9000
G01 Z0
G00 Z2.0000
G00 X11.9436 Y60.6034
G01 Z-1.9000
G01 Z0
G00 Z2.0000
G00 X14.4836 Y63.1434
G01 Z-1.9000
G01 Z0
G00 Z2.0000
G00 X17.0236 Y60.6034
G01 Z-1.9000
G01 Z0
G00 Z2.0000
G00 X22.1036 Y63.1434
G01 Z-1.9000
G01 Z0
G00 Z2.0000
G00 X22.1036 Y60.6034
G01 Z-1.9000
G01 Z0
G00 Z2.0000
G00 X11.9436 Y40.2834
G01 Z-1.9000
G01 Z0
G00 Z2.0000
G00 X6.8636 Y40.2834
G01 Z-1.9000
G01 Z0
G00 Z2.0000
G00 X6.8636 Y4.7234
G01 Z-1.9000
G01 Z0
G00 Z2.0000
G00 X9.4036 Y4.7234
G01 Z-1.9000
G01 Z0
G00 Z2.0000
G00 X14.4836 Y4.7234
G01 Z-1.9000
G01 Z0
G00 Z2.0000
G00 X17.0236 Y4.7234
G01 Z-1.9000
G01 Z0
G00 Z2.0000
G00 X29.7236 Y9.8034
G01 Z-1.9000
G01 Z0
G00 Z2.0000
G00 X65.2836 Y12.3434
G01 Z-1.9000
G01 Z0
G00 Z2.0000
G00 X65.2836 Y9.8034
G01 Z-1.9000
G01 Z0
G00 Z2.0000
G00 X67.8236 Y4.7234
G01 Z-1.9000
G01 Z0
G00 Z2.0000
G00 X70.3636 Y4.7234
G01 Z-1.9000
G01 Z0
G00 Z2.0000
G00 X72.9036 Y4.7234
G01 Z-1.9000
G01 Z0
G00 Z2.0000
G00 X75.4436 Y9.8034
G01 Z-1.9000
G01 Z0
G00 Z2.0000
G00 X75.4436 Y12.3434
G01 Z-1.9000
G01 Z0
G00 Z2.0000
G00 X80.5236 Y4.7234
G01 Z-1.9000
G01 Z0
G00 Z2.0000
G00 X83.0636 Y4.7234
G01 Z-1.9000
G01 Z0
G00 Z2.0000
G00 X85.6036 Y4.7234
G01 Z-1.9000
G01 Z0
G00 Z2.0000
G00 X88.1436 Y4.7234
G01 Z-1.9000
G01 Z0
G00 Z2.0000
G00 X90.6836 Y4.7234
G01 Z-1.9000
G01 Z0
G00 Z2.0000
G00 X93.2236 Y4.7234
G01 Z-1.9000
G01 Z0
G00 Z2.0000
G00 X95.7636 Y4.7234
G01 Z-1.9000
G01 Z0
G00 Z2.0000
G00 X98.3036 Y4.7234
G01 Z-1.9000
G01 Z0
G00 Z2.0000
G00 X100.8436 Y4.7234
G01 Z-1.9000
G01 Z0
G00 Z2.0000
G00 X103.3836 Y4.7234
G01 Z-1.9000
G01 Z0
G00 Z2.0000
G00 X105.9236 Y4.7234
G01 Z-1.9000
G01 Z0
G00 Z2.0000
M05
G00 Z1.00
G00 X0.0 Y0.0

