(G-CODE GENERATED BY FLATCAM v8.991 - www.flatcam.org - Version Date: 2019/12/27)

(Name: 001_Carry_Iso1_cnc)
(Type: G-code from Geometry)
(Units: MM)

(Created on Wednesday, 26 February 2020 at 10:29)

(TOOL DIAMETER: 0.331 mm)
(Feedrate: 320.0 mm/min)
(Feedrate_Z: 60.0 mm/min)
(Feedrate rapids 1500.0 mm/min)

(Z_Cut: -0.2001 mm)
(Z_Move: 2.0 mm)
(Z Toolchange: 15.0 mm)
(X,Y Toolchange: 0.0000, 0.0000 mm)
(Z Start: None mm)
(Z End: 15.0 mm)
(Steps per circle: 64)
(Preprocessor Geometry: default)

(X range:    5.3775 ...  147.4909  mm)
(Y range:    3.7961 ...   97.0907  mm)

(Spindle Speed: None RPM)
G21
G90
G94

M03 S3000


G01 F320.00
G00 Z2.0000

M03
G00 X12.9975 Y4.7315
G01 F60.00
G01 Z-0.2001
G01 F320.00
G01 X12.9975 Y4.7153
G01 X13.0012 Y4.6406
G01 X13.0028 Y4.6244
G01 X13.0137 Y4.5504
G01 X13.0169 Y4.5345
G01 X13.0351 Y4.4620
G01 X13.0398 Y4.4464
G01 X13.0650 Y4.3760
G01 X13.0712 Y4.3610
G01 X13.1032 Y4.2934
G01 X13.1108 Y4.2791
G01 X13.1493 Y4.2150
G01 X13.1583 Y4.2015
G01 X13.2028 Y4.1414
G01 X13.2131 Y4.1288
G01 X13.2633 Y4.0734
G01 X13.2748 Y4.0619
G01 X13.3302 Y4.0117
G01 X13.3428 Y4.0014
G01 X13.4029 Y3.9569
G01 X13.4164 Y3.9479
G01 X13.4805 Y3.9094
G01 X13.4948 Y3.9018
G01 X13.5624 Y3.8698
G01 X13.5774 Y3.8636
G01 X13.6478 Y3.8384
G01 X13.6634 Y3.8337
G01 X13.7359 Y3.8155
G01 X13.7518 Y3.8123
G01 X13.8258 Y3.8013
G01 X13.8420 Y3.7998
G01 X13.9167 Y3.7961
G01 X13.9329 Y3.7961
G01 X14.0076 Y3.7998
G01 X14.0238 Y3.8013
G01 X14.0977 Y3.8123
G01 X14.1137 Y3.8155
G01 X14.1862 Y3.8337
G01 X14.2017 Y3.8384
G01 X14.2721 Y3.8636
G01 X14.2872 Y3.8698
G01 X14.3548 Y3.9018
G01 X14.3691 Y3.9094
G01 X14.4332 Y3.9479
G01 X14.4467 Y3.9569
G01 X14.5068 Y4.0014
G01 X14.5193 Y4.0117
G01 X14.5747 Y4.0619
G01 X14.5862 Y4.0734
G01 X14.6364 Y4.1288
G01 X14.6468 Y4.1414
G01 X14.6913 Y4.2015
G01 X14.7003 Y4.2150
G01 X14.7388 Y4.2791
G01 X14.7464 Y4.2934
G01 X14.7784 Y4.3610
G01 X14.7846 Y4.3760
G01 X14.8098 Y4.4464
G01 X14.8145 Y4.4620
G01 X14.8327 Y4.5345
G01 X14.8359 Y4.5504
G01 X14.8468 Y4.6244
G01 X14.8484 Y4.6406
G01 X14.8521 Y4.7153
G01 X14.8521 Y4.7315
G01 X14.8484 Y4.8062
G01 X14.8468 Y4.8224
G01 X14.8359 Y4.8963
G01 X14.8327 Y4.9123
G01 X14.8145 Y4.9848
G01 X14.8098 Y5.0003
G01 X14.7846 Y5.0707
G01 X14.7784 Y5.0857
G01 X14.7464 Y5.1533
G01 X14.7388 Y5.1677
G01 X14.7003 Y5.2318
G01 X14.6913 Y5.2453
G01 X14.6468 Y5.3054
G01 X14.6364 Y5.3179
G01 X14.5862 Y5.3733
G01 X14.5747 Y5.3848
G01 X14.5193 Y5.4350
G01 X14.5068 Y5.4453
G01 X14.4467 Y5.4899
G01 X14.4332 Y5.4989
G01 X14.3691 Y5.5374
G01 X14.3548 Y5.5450
G01 X14.2872 Y5.5770
G01 X14.2721 Y5.5832
G01 X14.2017 Y5.6084
G01 X14.1862 Y5.6131
G01 X14.1137 Y5.6313
G01 X14.0977 Y5.6344
G01 X14.0238 Y5.6454
G01 X14.0076 Y5.6470
G01 X13.9329 Y5.6507
G01 X13.9167 Y5.6507
G01 X13.8420 Y5.6470
G01 X13.8258 Y5.6454
G01 X13.7518 Y5.6344
G01 X13.7359 Y5.6313
G01 X13.6634 Y5.6131
G01 X13.6478 Y5.6084
G01 X13.5774 Y5.5832
G01 X13.5624 Y5.5770
G01 X13.4948 Y5.5450
G01 X13.4805 Y5.5374
G01 X13.4164 Y5.4989
G01 X13.4029 Y5.4899
G01 X13.3428 Y5.4453
G01 X13.3302 Y5.4350
G01 X13.2748 Y5.3848
G01 X13.2633 Y5.3733
G01 X13.2131 Y5.3179
G01 X13.2028 Y5.3054
G01 X13.1583 Y5.2453
G01 X13.1493 Y5.2318
G01 X13.1108 Y5.1677
G01 X13.1032 Y5.1533
G01 X13.0712 Y5.0857
G01 X13.0650 Y5.0707
G01 X13.0398 Y5.0003
G01 X13.0351 Y4.9848
G01 X13.0169 Y4.9123
G01 X13.0137 Y4.8963
G01 X13.0028 Y4.8224
G01 X13.0012 Y4.8062
G01 X12.9975 Y4.7315
G00 Z2.0000
G00 X27.0396 Y9.7716
G01 F60.00
G01 Z-0.2001
G01 F320.00
G01 X27.0396 Y9.7554
G01 X27.0493 Y9.5594
G01 X27.0508 Y9.5432
G01 X27.0796 Y9.3490
G01 X27.0828 Y9.3331
G01 X27.1305 Y9.1427
G01 X27.1352 Y9.1272
G01 X27.2013 Y8.9424
G01 X27.2076 Y8.9274
G01 X27.2915 Y8.7500
G01 X27.2991 Y8.7356
G01 X27.4000 Y8.5673
G01 X27.4091 Y8.5538
G01 X27.5260 Y8.3961
G01 X27.5363 Y8.3836
G01 X27.6681 Y8.2382
G01 X27.6796 Y8.2267
G01 X27.8250 Y8.0949
G01 X27.8375 Y8.0846
G01 X27.9952 Y7.9676
G01 X28.0087 Y7.9586
G01 X28.1770 Y7.8577
G01 X28.1914 Y7.8501
G01 X28.3688 Y7.7661
G01 X28.3838 Y7.7599
G01 X28.5686 Y7.6938
G01 X28.5841 Y7.6891
G01 X28.7745 Y7.6414
G01 X28.7905 Y7.6382
G01 X28.9846 Y7.6094
G01 X29.0008 Y7.6078
G01 X29.1968 Y7.5982
G01 X29.2130 Y7.5982
G01 X29.4091 Y7.6078
G01 X29.4252 Y7.6094
G01 X29.6194 Y7.6382
G01 X29.6353 Y7.6414
G01 X29.8257 Y7.6891
G01 X29.8412 Y7.6938
G01 X30.0260 Y7.7599
G01 X30.0410 Y7.7661
G01 X30.2185 Y7.8501
G01 X30.2328 Y7.8577
G01 X30.4011 Y7.9586
G01 X30.4146 Y7.9676
G01 X30.5723 Y8.0846
G01 X30.5848 Y8.0949
G01 X30.7303 Y8.2267
G01 X30.7418 Y8.2382
G01 X30.8736 Y8.3836
G01 X30.8839 Y8.3961
G01 X31.0008 Y8.5538
G01 X31.0098 Y8.5673
G01 X31.1107 Y8.7356
G01 X31.1184 Y8.7500
G01 X31.2023 Y8.9274
G01 X31.2085 Y8.9424
G01 X31.2746 Y9.1272
G01 X31.2793 Y9.1427
G01 X31.3270 Y9.3331
G01 X31.3302 Y9.3490
G01 X31.3590 Y9.5432
G01 X31.3606 Y9.5594
G01 X31.3702 Y9.7554
G01 X31.3702 Y9.7716
G01 X31.3606 Y9.9677
G01 X31.3590 Y9.9838
G01 X31.3302 Y10.1780
G01 X31.3270 Y10.1939
G01 X31.2793 Y10.3843
G01 X31.2746 Y10.3998
G01 X31.2085 Y10.5846
G01 X31.2023 Y10.5996
G01 X31.1184 Y10.7771
G01 X31.1107 Y10.7914
G01 X31.0098 Y10.9597
G01 X31.0008 Y10.9732
G01 X30.8839 Y11.1309
G01 X30.8736 Y11.1434
G01 X30.7418 Y11.2889
G01 X30.7303 Y11.3003
G01 X30.5848 Y11.4321
G01 X30.5723 Y11.4425
G01 X30.4146 Y11.5594
G01 X30.4011 Y11.5684
G01 X30.2328 Y11.6693
G01 X30.2185 Y11.6770
G01 X30.0410 Y11.7609
G01 X30.0260 Y11.7671
G01 X29.8412 Y11.8332
G01 X29.8257 Y11.8379
G01 X29.6353 Y11.8856
G01 X29.6194 Y11.8888
G01 X29.4252 Y11.9176
G01 X29.4091 Y11.9192
G01 X29.2130 Y11.9288
G01 X29.1968 Y11.9288
G01 X29.0008 Y11.9192
G01 X28.9846 Y11.9176
G01 X28.7905 Y11.8888
G01 X28.7745 Y11.8856
G01 X28.5841 Y11.8379
G01 X28.5686 Y11.8332
G01 X28.3838 Y11.7671
G01 X28.3688 Y11.7609
G01 X28.1914 Y11.6770
G01 X28.1770 Y11.6693
G01 X28.0087 Y11.5684
G01 X27.9952 Y11.5594
G01 X27.8375 Y11.4425
G01 X27.8250 Y11.4321
G01 X27.6796 Y11.3003
G01 X27.6681 Y11.2889
G01 X27.5363 Y11.1434
G01 X27.5260 Y11.1309
G01 X27.4091 Y10.9732
G01 X27.4000 Y10.9597
G01 X27.2991 Y10.7914
G01 X27.2915 Y10.7771
G01 X27.2076 Y10.5996
G01 X27.2013 Y10.5846
G01 X27.1352 Y10.3998
G01 X27.1305 Y10.3843
G01 X27.0828 Y10.1939
G01 X27.0796 Y10.1780
G01 X27.0508 Y9.9838
G01 X27.0493 Y9.9677
G01 X27.0396 Y9.7716
G00 Z2.0000
G00 X19.6500 Y19.2976
G01 F60.00
G01 Z-0.2001
G01 F320.00
G01 X61.5190 Y19.2976
G01 X61.5190 Y9.8034
G01 X61.5216 Y9.7462
G01 X61.5232 Y9.7301
G01 X61.5304 Y9.6815
G01 X61.5336 Y9.6656
G01 X61.5455 Y9.6180
G01 X61.5503 Y9.6024
G01 X61.5668 Y9.5562
G01 X61.5730 Y9.5412
G01 X61.5940 Y9.4968
G01 X61.6017 Y9.4825
G01 X61.6269 Y9.4404
G01 X61.6359 Y9.4269
G01 X61.6652 Y9.3874
G01 X61.6755 Y9.3749
G01 X61.7084 Y9.3385
G01 X61.7199 Y9.3270
G01 X61.7563 Y9.2941
G01 X61.7688 Y9.2838
G01 X61.8083 Y9.2545
G01 X61.8218 Y9.2455
G01 X61.8639 Y9.2203
G01 X61.8782 Y9.2126
G01 X61.9226 Y9.1916
G01 X61.9376 Y9.1854
G01 X61.9838 Y9.1689
G01 X61.9994 Y9.1641
G01 X62.0470 Y9.1522
G01 X62.0629 Y9.1490
G01 X62.1115 Y9.1418
G01 X62.1276 Y9.1402
G01 X62.1848 Y9.1376
G01 X64.0796 Y9.1376
G01 X64.1302 Y9.0917
G01 X64.1428 Y9.0814
G01 X64.2029 Y9.0369
G01 X64.2164 Y9.0279
G01 X64.2805 Y8.9894
G01 X64.2948 Y8.9818
G01 X64.3624 Y8.9498
G01 X64.3774 Y8.9436
G01 X64.4478 Y8.9184
G01 X64.4634 Y8.9137
G01 X64.5359 Y8.8955
G01 X64.5518 Y8.8923
G01 X64.6258 Y8.8813
G01 X64.6420 Y8.8798
G01 X64.7167 Y8.8761
G01 X64.7329 Y8.8761
G01 X64.8076 Y8.8798
G01 X64.8238 Y8.8813
G01 X64.8977 Y8.8923
G01 X64.9137 Y8.8955
G01 X64.9862 Y8.9137
G01 X65.0017 Y8.9184
G01 X65.0721 Y8.9436
G01 X65.0872 Y8.9498
G01 X65.1548 Y8.9818
G01 X65.1691 Y8.9894
G01 X65.2332 Y9.0279
G01 X65.2467 Y9.0369
G01 X65.3068 Y9.0814
G01 X65.3193 Y9.0917
G01 X65.3747 Y9.1419
G01 X65.3862 Y9.1534
G01 X65.4364 Y9.2088
G01 X65.4468 Y9.2214
G01 X65.4913 Y9.2815
G01 X65.5003 Y9.2950
G01 X65.5388 Y9.3591
G01 X65.5464 Y9.3734
G01 X65.5784 Y9.4410
G01 X65.5846 Y9.4560
G01 X65.6098 Y9.5264
G01 X65.6145 Y9.5420
G01 X65.6327 Y9.6145
G01 X65.6359 Y9.6304
G01 X65.6468 Y9.7044
G01 X65.6484 Y9.7206
G01 X65.6521 Y9.7953
G01 X65.6521 Y9.8115
G01 X65.6484 Y9.8862
G01 X65.6468 Y9.9024
G01 X65.6359 Y9.9763
G01 X65.6327 Y9.9923
G01 X65.6145 Y10.0648
G01 X65.6098 Y10.0803
G01 X65.5846 Y10.1507
G01 X65.5784 Y10.1657
G01 X65.5464 Y10.2333
G01 X65.5388 Y10.2477
G01 X65.5003 Y10.3118
G01 X65.4913 Y10.3253
G01 X65.4468 Y10.3854
G01 X65.4364 Y10.3979
G01 X65.3862 Y10.4533
G01 X65.3747 Y10.4648
G01 X65.3193 Y10.5150
G01 X65.3068 Y10.5253
G01 X65.2467 Y10.5699
G01 X65.2332 Y10.5789
G01 X65.1691 Y10.6174
G01 X65.1548 Y10.6250
G01 X65.0872 Y10.6570
G01 X65.0721 Y10.6632
G01 X65.0017 Y10.6884
G01 X64.9862 Y10.6931
G01 X64.9137 Y10.7113
G01 X64.8977 Y10.7144
G01 X64.8238 Y10.7254
G01 X64.8076 Y10.7270
G01 X64.7329 Y10.7307
G01 X64.7167 Y10.7307
G01 X64.6420 Y10.7270
G01 X64.6258 Y10.7254
G01 X64.5518 Y10.7144
G01 X64.5359 Y10.7113
G01 X64.4634 Y10.6931
G01 X64.4478 Y10.6884
G01 X64.3774 Y10.6632
G01 X64.3624 Y10.6570
G01 X64.2948 Y10.6250
G01 X64.2805 Y10.6174
G01 X64.2164 Y10.5789
G01 X64.2029 Y10.5699
G01 X64.1428 Y10.5253
G01 X64.1302 Y10.5150
G01 X64.0796 Y10.4691
G01 X62.8505 Y10.4691
G01 X62.8505 Y19.9634
G01 X62.8479 Y20.0205
G01 X62.8463 Y20.0367
G01 X62.8391 Y20.0853
G01 X62.8360 Y20.1012
G01 X62.8240 Y20.1488
G01 X62.8193 Y20.1644
G01 X62.8028 Y20.2106
G01 X62.7966 Y20.2256
G01 X62.7756 Y20.2700
G01 X62.7679 Y20.2843
G01 X62.7427 Y20.3264
G01 X62.7337 Y20.3399
G01 X62.7044 Y20.3793
G01 X62.6941 Y20.3919
G01 X62.6611 Y20.4283
G01 X62.6497 Y20.4397
G01 X62.6133 Y20.4727
G01 X62.6007 Y20.4830
G01 X62.5613 Y20.5123
G01 X62.5478 Y20.5213
G01 X62.5057 Y20.5465
G01 X62.4914 Y20.5542
G01 X62.4470 Y20.5752
G01 X62.4320 Y20.5814
G01 X62.3858 Y20.5979
G01 X62.3702 Y20.6026
G01 X62.3226 Y20.6146
G01 X62.3067 Y20.6177
G01 X62.2581 Y20.6249
G01 X62.2419 Y20.6265
G01 X62.1848 Y20.6291
G01 X19.6500 Y20.6291
G01 X19.5993 Y20.6750
G01 X19.5868 Y20.6853
G01 X19.5267 Y20.7299
G01 X19.5132 Y20.7389
G01 X19.4491 Y20.7774
G01 X19.4348 Y20.7850
G01 X19.3672 Y20.8170
G01 X19.3521 Y20.8232
G01 X19.2817 Y20.8484
G01 X19.2662 Y20.8531
G01 X19.1937 Y20.8713
G01 X19.1777 Y20.8744
G01 X19.1038 Y20.8854
G01 X19.0876 Y20.8870
G01 X19.0129 Y20.8907
G01 X18.9967 Y20.8907
G01 X18.9220 Y20.8870
G01 X18.9058 Y20.8854
G01 X18.8318 Y20.8744
G01 X18.8159 Y20.8713
G01 X18.7434 Y20.8531
G01 X18.7278 Y20.8484
G01 X18.6574 Y20.8232
G01 X18.6424 Y20.8170
G01 X18.5748 Y20.7850
G01 X18.5605 Y20.7774
G01 X18.4964 Y20.7389
G01 X18.4829 Y20.7299
G01 X18.4228 Y20.6853
G01 X18.4102 Y20.6750
G01 X18.3548 Y20.6248
G01 X18.3433 Y20.6133
G01 X18.2931 Y20.5579
G01 X18.2828 Y20.5454
G01 X18.2383 Y20.4853
G01 X18.2293 Y20.4718
G01 X18.1908 Y20.4077
G01 X18.1832 Y20.3933
G01 X18.1512 Y20.3257
G01 X18.1450 Y20.3107
G01 X18.1198 Y20.2403
G01 X18.1151 Y20.2248
G01 X18.0969 Y20.1523
G01 X18.0937 Y20.1363
G01 X18.0828 Y20.0624
G01 X18.0812 Y20.0462
G01 X18.0775 Y19.9715
G01 X18.0775 Y19.9553
G01 X18.0812 Y19.8806
G01 X18.0828 Y19.8644
G01 X18.0937 Y19.7904
G01 X18.0969 Y19.7745
G01 X18.1151 Y19.7020
G01 X18.1198 Y19.6864
G01 X18.1450 Y19.6160
G01 X18.1512 Y19.6010
G01 X18.1832 Y19.5334
G01 X18.1908 Y19.5191
G01 X18.2293 Y19.4550
G01 X18.2383 Y19.4415
G01 X18.2828 Y19.3814
G01 X18.2931 Y19.3688
G01 X18.3433 Y19.3134
G01 X18.3548 Y19.3019
G01 X18.4102 Y19.2517
G01 X18.4228 Y19.2414
G01 X18.4829 Y19.1969
G01 X18.4964 Y19.1879
G01 X18.5605 Y19.1494
G01 X18.5748 Y19.1418
G01 X18.6424 Y19.1098
G01 X18.6574 Y19.1036
G01 X18.7278 Y19.0784
G01 X18.7434 Y19.0737
G01 X18.8159 Y19.0555
G01 X18.8318 Y19.0523
G01 X18.9058 Y19.0413
G01 X18.9220 Y19.0398
G01 X18.9967 Y19.0361
G01 X19.0129 Y19.0361
G01 X19.0876 Y19.0398
G01 X19.1038 Y19.0413
G01 X19.1777 Y19.0523
G01 X19.1937 Y19.0555
G01 X19.2662 Y19.0737
G01 X19.2817 Y19.0784
G01 X19.3521 Y19.1036
G01 X19.3672 Y19.1098
G01 X19.4348 Y19.1418
G01 X19.4491 Y19.1494
G01 X19.5132 Y19.1879
G01 X19.5267 Y19.1969
G01 X19.5868 Y19.2414
G01 X19.5993 Y19.2517
G01 X19.6500 Y19.2976
G00 Z2.0000
G00 X19.6500 Y21.8376
G01 F60.00
G01 Z-0.2001
G01 F320.00
G01 X64.0590 Y21.8376
G01 X64.0590 Y12.9886
G01 X64.0131 Y12.9379
G01 X64.0028 Y12.9254
G01 X63.9583 Y12.8653
G01 X63.9493 Y12.8518
G01 X63.9108 Y12.7877
G01 X63.9032 Y12.7733
G01 X63.8712 Y12.7057
G01 X63.8650 Y12.6907
G01 X63.8398 Y12.6203
G01 X63.8351 Y12.6048
G01 X63.8169 Y12.5323
G01 X63.8137 Y12.5163
G01 X63.8028 Y12.4424
G01 X63.8012 Y12.4262
G01 X63.7975 Y12.3515
G01 X63.7975 Y12.3353
G01 X63.8012 Y12.2606
G01 X63.8028 Y12.2444
G01 X63.8137 Y12.1704
G01 X63.8169 Y12.1545
G01 X63.8351 Y12.0820
G01 X63.8398 Y12.0664
G01 X63.8650 Y11.9960
G01 X63.8712 Y11.9810
G01 X63.9032 Y11.9134
G01 X63.9108 Y11.8991
G01 X63.9493 Y11.8350
G01 X63.9583 Y11.8215
G01 X64.0028 Y11.7614
G01 X64.0131 Y11.7488
G01 X64.0633 Y11.6934
G01 X64.0748 Y11.6819
G01 X64.1302 Y11.6317
G01 X64.1428 Y11.6214
G01 X64.2029 Y11.5769
G01 X64.2164 Y11.5679
G01 X64.2805 Y11.5294
G01 X64.2948 Y11.5218
G01 X64.3624 Y11.4898
G01 X64.3774 Y11.4836
G01 X64.4478 Y11.4584
G01 X64.4634 Y11.4537
G01 X64.5359 Y11.4355
G01 X64.5518 Y11.4323
G01 X64.6258 Y11.4213
G01 X64.6420 Y11.4198
G01 X64.7167 Y11.4161
G01 X64.7329 Y11.4161
G01 X64.8076 Y11.4198
G01 X64.8238 Y11.4213
G01 X64.8977 Y11.4323
G01 X64.9137 Y11.4355
G01 X64.9862 Y11.4537
G01 X65.0017 Y11.4584
G01 X65.0721 Y11.4836
G01 X65.0872 Y11.4898
G01 X65.1548 Y11.5218
G01 X65.1691 Y11.5294
G01 X65.2332 Y11.5679
G01 X65.2467 Y11.5769
G01 X65.3068 Y11.6214
G01 X65.3193 Y11.6317
G01 X65.3747 Y11.6819
G01 X65.3862 Y11.6934
G01 X65.4364 Y11.7488
G01 X65.4468 Y11.7614
G01 X65.4913 Y11.8215
G01 X65.5003 Y11.8350
G01 X65.5388 Y11.8991
G01 X65.5464 Y11.9134
G01 X65.5784 Y11.9810
G01 X65.5846 Y11.9960
G01 X65.6098 Y12.0664
G01 X65.6145 Y12.0820
G01 X65.6327 Y12.1545
G01 X65.6359 Y12.1704
G01 X65.6468 Y12.2444
G01 X65.6484 Y12.2606
G01 X65.6521 Y12.3353
G01 X65.6521 Y12.3515
G01 X65.6484 Y12.4262
G01 X65.6468 Y12.4424
G01 X65.6359 Y12.5163
G01 X65.6327 Y12.5323
G01 X65.6145 Y12.6048
G01 X65.6098 Y12.6203
G01 X65.5846 Y12.6907
G01 X65.5784 Y12.7057
G01 X65.5464 Y12.7733
G01 X65.5388 Y12.7877
G01 X65.5003 Y12.8518
G01 X65.4913 Y12.8653
G01 X65.4468 Y12.9254
G01 X65.4364 Y12.9379
G01 X65.3905 Y12.9886
G01 X65.3905 Y22.5034
G01 X65.3879 Y22.5605
G01 X65.3863 Y22.5767
G01 X65.3791 Y22.6253
G01 X65.3760 Y22.6412
G01 X65.3640 Y22.6888
G01 X65.3593 Y22.7044
G01 X65.3428 Y22.7506
G01 X65.3366 Y22.7656
G01 X65.3156 Y22.8100
G01 X65.3079 Y22.8243
G01 X65.2827 Y22.8664
G01 X65.2737 Y22.8799
G01 X65.2444 Y22.9193
G01 X65.2341 Y22.9319
G01 X65.2011 Y22.9683
G01 X65.1897 Y22.9797
G01 X65.1533 Y23.0127
G01 X65.1407 Y23.0230
G01 X65.1013 Y23.0523
G01 X65.0878 Y23.0613
G01 X65.0457 Y23.0865
G01 X65.0314 Y23.0942
G01 X64.9870 Y23.1152
G01 X64.9720 Y23.1214
G01 X64.9258 Y23.1379
G01 X64.9102 Y23.1426
G01 X64.8626 Y23.1546
G01 X64.8467 Y23.1577
G01 X64.7981 Y23.1649
G01 X64.7819 Y23.1665
G01 X64.7248 Y23.1691
G01 X19.6500 Y23.1691
G01 X19.5993 Y23.2150
G01 X19.5868 Y23.2253
G01 X19.5267 Y23.2699
G01 X19.5132 Y23.2789
G01 X19.4491 Y23.3174
G01 X19.4348 Y23.3250
G01 X19.3672 Y23.3570
G01 X19.3521 Y23.3632
G01 X19.2817 Y23.3884
G01 X19.2662 Y23.3931
G01 X19.1937 Y23.4113
G01 X19.1777 Y23.4144
G01 X19.1038 Y23.4254
G01 X19.0876 Y23.4270
G01 X19.0129 Y23.4307
G01 X18.9967 Y23.4307
G01 X18.9220 Y23.4270
G01 X18.9058 Y23.4254
G01 X18.8318 Y23.4144
G01 X18.8159 Y23.4113
G01 X18.7434 Y23.3931
G01 X18.7278 Y23.3884
G01 X18.6574 Y23.3632
G01 X18.6424 Y23.3570
G01 X18.5748 Y23.3250
G01 X18.5605 Y23.3174
G01 X18.4964 Y23.2789
G01 X18.4829 Y23.2699
G01 X18.4228 Y23.2253
G01 X18.4102 Y23.2150
G01 X18.3548 Y23.1648
G01 X18.3433 Y23.1533
G01 X18.2931 Y23.0979
G01 X18.2828 Y23.0854
G01 X18.2383 Y23.0253
G01 X18.2293 Y23.0118
G01 X18.1908 Y22.9477
G01 X18.1832 Y22.9333
G01 X18.1512 Y22.8657
G01 X18.1450 Y22.8507
G01 X18.1198 Y22.7803
G01 X18.1151 Y22.7648
G01 X18.0969 Y22.6923
G01 X18.0937 Y22.6763
G01 X18.0828 Y22.6024
G01 X18.0812 Y22.5862
G01 X18.0775 Y22.5115
G01 X18.0775 Y22.4953
G01 X18.0812 Y22.4206
G01 X18.0828 Y22.4044
G01 X18.0937 Y22.3304
G01 X18.0969 Y22.3145
G01 X18.1151 Y22.2420
G01 X18.1198 Y22.2264
G01 X18.1450 Y22.1560
G01 X18.1512 Y22.1410
G01 X18.1832 Y22.0734
G01 X18.1908 Y22.0591
G01 X18.2293 Y21.9950
G01 X18.2383 Y21.9815
G01 X18.2828 Y21.9214
G01 X18.2931 Y21.9088
G01 X18.3433 Y21.8534
G01 X18.3548 Y21.8419
G01 X18.4102 Y21.7917
G01 X18.4228 Y21.7814
G01 X18.4829 Y21.7369
G01 X18.4964 Y21.7279
G01 X18.5605 Y21.6894
G01 X18.5748 Y21.6818
G01 X18.6424 Y21.6498
G01 X18.6574 Y21.6436
G01 X18.7278 Y21.6184
G01 X18.7434 Y21.6137
G01 X18.8159 Y21.5955
G01 X18.8318 Y21.5923
G01 X18.9058 Y21.5813
G01 X18.9220 Y21.5798
G01 X18.9967 Y21.5761
G01 X19.0129 Y21.5761
G01 X19.0876 Y21.5798
G01 X19.1038 Y21.5813
G01 X19.1777 Y21.5923
G01 X19.1937 Y21.5955
G01 X19.2662 Y21.6137
G01 X19.2817 Y21.6184
G01 X19.3521 Y21.6436
G01 X19.3672 Y21.6498
G01 X19.4348 Y21.6818
G01 X19.4491 Y21.6894
G01 X19.5132 Y21.7279
G01 X19.5267 Y21.7369
G01 X19.5868 Y21.7814
G01 X19.5993 Y21.7917
G01 X19.6500 Y21.8376
G00 Z2.0000
G00 X24.7300 Y29.4576
G01 F60.00
G01 Z-0.2001
G01 F320.00
G01 X34.2448 Y29.4576
G01 X34.3019 Y29.4602
G01 X34.3181 Y29.4618
G01 X34.3667 Y29.4690
G01 X34.3826 Y29.4722
G01 X34.4302 Y29.4841
G01 X34.4458 Y29.4889
G01 X34.4920 Y29.5054
G01 X34.5070 Y29.5116
G01 X34.5514 Y29.5326
G01 X34.5657 Y29.5403
G01 X34.6078 Y29.5655
G01 X34.6213 Y29.5745
G01 X34.6607 Y29.6038
G01 X34.6733 Y29.6141
G01 X34.7097 Y29.6470
G01 X34.7211 Y29.6585
G01 X34.7541 Y29.6949
G01 X34.7644 Y29.7074
G01 X34.7937 Y29.7469
G01 X34.8027 Y29.7604
G01 X34.8279 Y29.8025
G01 X34.8356 Y29.8168
G01 X34.8566 Y29.8612
G01 X34.8628 Y29.8762
G01 X34.8793 Y29.9224
G01 X34.8840 Y29.9380
G01 X34.8960 Y29.9856
G01 X34.8991 Y30.0015
G01 X34.9063 Y30.0501
G01 X34.9079 Y30.0662
G01 X34.9105 Y30.1234
G01 X34.9105 Y39.6176
G01 X38.1769 Y39.6176
G01 X38.1989 Y39.6014
G01 X38.2124 Y39.5923
G01 X38.2680 Y39.5590
G01 X38.2823 Y39.5514
G01 X38.3409 Y39.5236
G01 X38.3559 Y39.5174
G01 X38.4169 Y39.4956
G01 X38.4325 Y39.4909
G01 X38.4953 Y39.4751
G01 X38.5113 Y39.4720
G01 X38.5754 Y39.4625
G01 X38.5915 Y39.4609
G01 X38.6644 Y39.4575
G01 X39.9852 Y39.4575
G01 X40.0580 Y39.4609
G01 X40.0742 Y39.4625
G01 X40.1383 Y39.4720
G01 X40.1542 Y39.4751
G01 X40.2171 Y39.4909
G01 X40.2326 Y39.4956
G01 X40.2937 Y39.5174
G01 X40.3087 Y39.5236
G01 X40.3673 Y39.5514
G01 X40.3816 Y39.5590
G01 X40.4372 Y39.5923
G01 X40.4507 Y39.6014
G01 X40.5027 Y39.6400
G01 X40.5153 Y39.6503
G01 X40.5633 Y39.6938
G01 X40.5748 Y39.7053
G01 X40.6183 Y39.7533
G01 X40.6286 Y39.7658
G01 X40.6672 Y39.8179
G01 X40.6762 Y39.8314
G01 X40.7096 Y39.8870
G01 X40.7172 Y39.9013
G01 X40.7449 Y39.9599
G01 X40.7511 Y39.9749
G01 X40.7730 Y40.0359
G01 X40.7777 Y40.0515
G01 X40.7934 Y40.1143
G01 X40.7966 Y40.1303
G01 X40.8061 Y40.1944
G01 X40.8077 Y40.2105
G01 X40.8109 Y40.2753
G01 X40.8109 Y40.2915
G01 X40.8077 Y40.3562
G01 X40.8061 Y40.3724
G01 X40.7966 Y40.4365
G01 X40.7934 Y40.4524
G01 X40.7777 Y40.5153
G01 X40.7730 Y40.5308
G01 X40.7511 Y40.5919
G01 X40.7449 Y40.6069
G01 X40.7172 Y40.6655
G01 X40.7096 Y40.6798
G01 X40.6762 Y40.7354
G01 X40.6672 Y40.7489
G01 X40.6286 Y40.8009
G01 X40.6183 Y40.8135
G01 X40.5748 Y40.8615
G01 X40.5633 Y40.8730
G01 X40.5153 Y40.9165
G01 X40.5027 Y40.9268
G01 X40.4507 Y40.9654
G01 X40.4372 Y40.9744
G01 X40.3816 Y41.0078
G01 X40.3673 Y41.0154
G01 X40.3087 Y41.0431
G01 X40.2937 Y41.0493
G01 X40.2326 Y41.0712
G01 X40.2171 Y41.0759
G01 X40.1542 Y41.0916
G01 X40.1383 Y41.0948
G01 X40.0742 Y41.1043
G01 X40.0580 Y41.1059
G01 X39.9905 Y41.1092
G01 X39.9905 Y44.6976
G01 X48.8190 Y44.6976
G01 X48.8190 Y43.4686
G01 X48.7731 Y43.4179
G01 X48.7628 Y43.4054
G01 X48.7183 Y43.3453
G01 X48.7093 Y43.3318
G01 X48.6708 Y43.2677
G01 X48.6632 Y43.2533
G01 X48.6312 Y43.1857
G01 X48.6250 Y43.1707
G01 X48.5998 Y43.1003
G01 X48.5951 Y43.0848
G01 X48.5769 Y43.0123
G01 X48.5737 Y42.9963
G01 X48.5628 Y42.9224
G01 X48.5612 Y42.9062
G01 X48.5575 Y42.8315
G01 X48.5575 Y42.8153
G01 X48.5612 Y42.7406
G01 X48.5628 Y42.7244
G01 X48.5737 Y42.6504
G01 X48.5769 Y42.6345
G01 X48.5951 Y42.5620
G01 X48.5998 Y42.5464
G01 X48.6250 Y42.4760
G01 X48.6312 Y42.4610
G01 X48.6632 Y42.3934
G01 X48.6708 Y42.3791
G01 X48.7093 Y42.3150
G01 X48.7183 Y42.3015
G01 X48.7628 Y42.2414
G01 X48.7731 Y42.2288
G01 X48.8233 Y42.1734
G01 X48.8348 Y42.1619
G01 X48.8902 Y42.1117
G01 X48.9028 Y42.1014
G01 X48.9629 Y42.0569
G01 X48.9764 Y42.0479
G01 X49.0405 Y42.0094
G01 X49.0548 Y42.0018
G01 X49.1224 Y41.9698
G01 X49.1374 Y41.9636
G01 X49.2078 Y41.9384
G01 X49.2234 Y41.9337
G01 X49.2959 Y41.9155
G01 X49.3118 Y41.9123
G01 X49.3858 Y41.9013
G01 X49.4020 Y41.8998
G01 X49.4767 Y41.8961
G01 X49.4929 Y41.8961
G01 X49.5676 Y41.8998
G01 X49.5838 Y41.9013
G01 X49.6577 Y41.9123
G01 X49.6737 Y41.9155
G01 X49.7462 Y41.9337
G01 X49.7617 Y41.9384
G01 X49.8321 Y41.9636
G01 X49.8472 Y41.9698
G01 X49.9148 Y42.0018
G01 X49.9291 Y42.0094
G01 X49.9932 Y42.0479
G01 X50.0067 Y42.0569
G01 X50.0668 Y42.1014
G01 X50.0793 Y42.1117
G01 X50.1347 Y42.1619
G01 X50.1462 Y42.1734
G01 X50.1964 Y42.2288
G01 X50.2068 Y42.2414
G01 X50.2513 Y42.3015
G01 X50.2603 Y42.3150
G01 X50.2988 Y42.3791
G01 X50.3064 Y42.3934
G01 X50.3384 Y42.4610
G01 X50.3446 Y42.4760
G01 X50.3698 Y42.5464
G01 X50.3745 Y42.5620
G01 X50.3927 Y42.6345
G01 X50.3959 Y42.6504
G01 X50.4068 Y42.7244
G01 X50.4084 Y42.7406
G01 X50.4121 Y42.8153
G01 X50.4121 Y42.8315
G01 X50.4084 Y42.9062
G01 X50.4068 Y42.9224
G01 X50.3959 Y42.9963
G01 X50.3927 Y43.0123
G01 X50.3745 Y43.0848
G01 X50.3698 Y43.1003
G01 X50.3446 Y43.1707
G01 X50.3384 Y43.1857
G01 X50.3064 Y43.2533
G01 X50.2988 Y43.2677
G01 X50.2603 Y43.3318
G01 X50.2513 Y43.3453
G01 X50.2068 Y43.4054
G01 X50.1964 Y43.4179
G01 X50.1505 Y43.4686
G01 X50.1505 Y44.6976
G01 X51.3590 Y44.6976
G01 X51.3590 Y41.1092
G01 X51.2915 Y41.1059
G01 X51.2754 Y41.1043
G01 X51.2113 Y41.0948
G01 X51.1953 Y41.0916
G01 X51.1325 Y41.0759
G01 X51.1169 Y41.0712
G01 X51.0559 Y41.0493
G01 X51.0409 Y41.0431
G01 X50.9823 Y41.0154
G01 X50.9680 Y41.0078
G01 X50.9124 Y40.9744
G01 X50.8989 Y40.9654
G01 X50.8468 Y40.9268
G01 X50.8343 Y40.9165
G01 X50.7863 Y40.8730
G01 X50.7748 Y40.8615
G01 X50.7313 Y40.8135
G01 X50.7210 Y40.8009
G01 X50.6824 Y40.7489
G01 X50.6733 Y40.7354
G01 X50.6400 Y40.6798
G01 X50.6324 Y40.6655
G01 X50.6047 Y40.6069
G01 X50.5984 Y40.5919
G01 X50.5766 Y40.5308
G01 X50.5719 Y40.5153
G01 X50.5561 Y40.4524
G01 X50.5530 Y40.4365
G01 X50.5435 Y40.3724
G01 X50.5419 Y40.3562
G01 X50.5387 Y40.2915
G01 X50.5387 Y40.2753
G01 X50.5419 Y40.2105
G01 X50.5435 Y40.1944
G01 X50.5530 Y40.1303
G01 X50.5561 Y40.1143
G01 X50.5719 Y40.0515
G01 X50.5766 Y40.0359
G01 X50.5984 Y39.9749
G01 X50.6047 Y39.9599
G01 X50.6324 Y39.9013
G01 X50.6400 Y39.8870
G01 X50.6733 Y39.8314
G01 X50.6824 Y39.8179
G01 X50.7210 Y39.7658
G01 X50.7313 Y39.7533
G01 X50.7748 Y39.7053
G01 X50.7863 Y39.6938
G01 X50.8343 Y39.6503
G01 X50.8468 Y39.6400
G01 X50.8989 Y39.6014
G01 X50.9124 Y39.5923
G01 X50.9680 Y39.5590
G01 X50.9823 Y39.5514
G01 X51.0409 Y39.5236
G01 X51.0559 Y39.5174
G01 X51.1169 Y39.4956
G01 X51.1325 Y39.4909
G01 X51.1953 Y39.4751
G01 X51.2113 Y39.4720
G01 X51.2754 Y39.4625
G01 X51.2915 Y39.4609
G01 X51.3563 Y39.4577
G01 X52.6852 Y39.4575
G01 X52.7580 Y39.4609
G01 X52.7742 Y39.4625
G01 X52.8383 Y39.4720
G01 X52.8542 Y39.4751
G01 X52.9171 Y39.4909
G01 X52.9326 Y39.4956
G01 X52.9937 Y39.5174
G01 X53.0087 Y39.5236
G01 X53.0673 Y39.5514
G01 X53.0816 Y39.5590
G01 X53.1372 Y39.5923
G01 X53.1507 Y39.6014
G01 X53.2027 Y39.6400
G01 X53.2153 Y39.6503
G01 X53.2633 Y39.6938
G01 X53.2748 Y39.7053
G01 X53.3183 Y39.7533
G01 X53.3286 Y39.7658
G01 X53.3672 Y39.8179
G01 X53.3762 Y39.8314
G01 X53.4096 Y39.8870
G01 X53.4172 Y39.9013
G01 X53.4449 Y39.9599
G01 X53.4511 Y39.9749
G01 X53.4730 Y40.0359
G01 X53.4777 Y40.0515
G01 X53.4934 Y40.1143
G01 X53.4966 Y40.1303
G01 X53.5061 Y40.1944
G01 X53.5077 Y40.2105
G01 X53.5109 Y40.2753
G01 X53.5109 Y40.2915
G01 X53.5077 Y40.3562
G01 X53.5061 Y40.3724
G01 X53.4966 Y40.4365
G01 X53.4934 Y40.4524
G01 X53.4777 Y40.5153
G01 X53.4730 Y40.5308
G01 X53.4511 Y40.5919
G01 X53.4449 Y40.6069
G01 X53.4172 Y40.6655
G01 X53.4096 Y40.6798
G01 X53.3762 Y40.7354
G01 X53.3672 Y40.7489
G01 X53.3286 Y40.8009
G01 X53.3183 Y40.8135
G01 X53.2748 Y40.8615
G01 X53.2633 Y40.8730
G01 X53.2153 Y40.9165
G01 X53.2027 Y40.9268
G01 X53.1507 Y40.9654
G01 X53.1372 Y40.9744
G01 X53.0816 Y41.0078
G01 X53.0673 Y41.0154
G01 X53.0087 Y41.0431
G01 X52.9937 Y41.0493
G01 X52.9326 Y41.0712
G01 X52.9171 Y41.0759
G01 X52.8542 Y41.0916
G01 X52.8383 Y41.0948
G01 X52.7742 Y41.1043
G01 X52.7580 Y41.1059
G01 X52.6905 Y41.1092
G01 X52.6905 Y44.6976
G01 X61.5190 Y44.6976
G01 X61.5190 Y43.4686
G01 X61.4731 Y43.4179
G01 X61.4628 Y43.4054
G01 X61.4183 Y43.3453
G01 X61.4093 Y43.3318
G01 X61.3708 Y43.2677
G01 X61.3632 Y43.2533
G01 X61.3312 Y43.1857
G01 X61.3250 Y43.1707
G01 X61.2998 Y43.1003
G01 X61.2951 Y43.0848
G01 X61.2769 Y43.0123
G01 X61.2737 Y42.9963
G01 X61.2628 Y42.9224
G01 X61.2612 Y42.9062
G01 X61.2575 Y42.8315
G01 X61.2575 Y42.8153
G01 X61.2612 Y42.7406
G01 X61.2628 Y42.7244
G01 X61.2737 Y42.6504
G01 X61.2769 Y42.6345
G01 X61.2951 Y42.5620
G01 X61.2998 Y42.5464
G01 X61.3250 Y42.4760
G01 X61.3312 Y42.4610
G01 X61.3632 Y42.3934
G01 X61.3708 Y42.3791
G01 X61.4093 Y42.3150
G01 X61.4183 Y42.3015
G01 X61.4628 Y42.2414
G01 X61.4731 Y42.2288
G01 X61.5233 Y42.1734
G01 X61.5348 Y42.1619
G01 X61.5902 Y42.1117
G01 X61.6028 Y42.1014
G01 X61.6629 Y42.0569
G01 X61.6764 Y42.0479
G01 X61.7405 Y42.0094
G01 X61.7548 Y42.0018
G01 X61.8224 Y41.9698
G01 X61.8374 Y41.9636
G01 X61.9078 Y41.9384
G01 X61.9234 Y41.9337
G01 X61.9959 Y41.9155
G01 X62.0118 Y41.9123
G01 X62.0858 Y41.9013
G01 X62.1020 Y41.8998
G01 X62.1767 Y41.8961
G01 X62.1929 Y41.8961
G01 X62.2676 Y41.8998
G01 X62.2838 Y41.9013
G01 X62.3577 Y41.9123
G01 X62.3737 Y41.9155
G01 X62.4462 Y41.9337
G01 X62.4617 Y41.9384
G01 X62.5321 Y41.9636
G01 X62.5472 Y41.9698
G01 X62.6148 Y42.0018
G01 X62.6291 Y42.0094
G01 X62.6932 Y42.0479
G01 X62.7067 Y42.0569
G01 X62.7668 Y42.1014
G01 X62.7793 Y42.1117
G01 X62.8347 Y42.1619
G01 X62.8462 Y42.1734
G01 X62.8964 Y42.2288
G01 X62.9068 Y42.2414
G01 X62.9513 Y42.3015
G01 X62.9603 Y42.3150
G01 X62.9988 Y42.3791
G01 X63.0064 Y42.3934
G01 X63.0384 Y42.4610
G01 X63.0446 Y42.4760
G01 X63.0698 Y42.5464
G01 X63.0745 Y42.5620
G01 X63.0927 Y42.6345
G01 X63.0959 Y42.6504
G01 X63.1068 Y42.7244
G01 X63.1084 Y42.7406
G01 X63.1121 Y42.8153
G01 X63.1121 Y42.8315
G01 X63.1084 Y42.9062
G01 X63.1068 Y42.9224
G01 X63.0959 Y42.9963
G01 X63.0927 Y43.0123
G01 X63.0745 Y43.0848
G01 X63.0698 Y43.1003
G01 X63.0446 Y43.1707
G01 X63.0384 Y43.1857
G01 X63.0064 Y43.2533
G01 X62.9988 Y43.2677
G01 X62.9603 Y43.3318
G01 X62.9513 Y43.3453
G01 X62.9068 Y43.4054
G01 X62.8964 Y43.4179
G01 X62.8505 Y43.4686
G01 X62.8505 Y44.6976
G01 X64.0590 Y44.6976
G01 X64.0590 Y41.1092
G01 X63.9915 Y41.1059
G01 X63.9754 Y41.1043
G01 X63.9113 Y41.0948
G01 X63.8953 Y41.0916
G01 X63.8325 Y41.0759
G01 X63.8169 Y41.0712
G01 X63.7559 Y41.0493
G01 X63.7409 Y41.0431
G01 X63.6823 Y41.0154
G01 X63.6680 Y41.0078
G01 X63.6124 Y40.9744
G01 X63.5989 Y40.9654
G01 X63.5468 Y40.9268
G01 X63.5343 Y40.9165
G01 X63.4863 Y40.8730
G01 X63.4748 Y40.8615
G01 X63.4313 Y40.8135
G01 X63.4210 Y40.8009
G01 X63.3824 Y40.7489
G01 X63.3733 Y40.7354
G01 X63.3400 Y40.6798
G01 X63.3324 Y40.6655
G01 X63.3047 Y40.6069
G01 X63.2984 Y40.5919
G01 X63.2766 Y40.5308
G01 X63.2719 Y40.5153
G01 X63.2561 Y40.4524
G01 X63.2530 Y40.4365
G01 X63.2435 Y40.3724
G01 X63.2419 Y40.3562
G01 X63.2387 Y40.2915
G01 X63.2387 Y40.2753
G01 X63.2419 Y40.2105
G01 X63.2435 Y40.1944
G01 X63.2530 Y40.1303
G01 X63.2561 Y40.1143
G01 X63.2719 Y40.0515
G01 X63.2766 Y40.0359
G01 X63.2984 Y39.9749
G01 X63.3047 Y39.9599
G01 X63.3324 Y39.9013
G01 X63.3400 Y39.8870
G01 X63.3733 Y39.8314
G01 X63.3824 Y39.8179
G01 X63.4210 Y39.7658
G01 X63.4313 Y39.7533
G01 X63.4748 Y39.7053
G01 X63.4863 Y39.6938
G01 X63.5343 Y39.6503
G01 X63.5468 Y39.6400
G01 X63.5989 Y39.6014
G01 X63.6124 Y39.5923
G01 X63.6680 Y39.5590
G01 X63.6823 Y39.5514
G01 X63.7409 Y39.5236
G01 X63.7559 Y39.5174
G01 X63.8169 Y39.4956
G01 X63.8325 Y39.4909
G01 X63.8953 Y39.4751
G01 X63.9113 Y39.4720
G01 X63.9754 Y39.4625
G01 X63.9915 Y39.4609
G01 X64.0563 Y39.4577
G01 X65.3852 Y39.4575
G01 X65.4580 Y39.4609
G01 X65.4742 Y39.4625
G01 X65.5383 Y39.4720
G01 X65.5542 Y39.4751
G01 X65.6171 Y39.4909
G01 X65.6326 Y39.4956
G01 X65.6937 Y39.5174
G01 X65.7087 Y39.5236
G01 X65.7673 Y39.5514
G01 X65.7816 Y39.5590
G01 X65.8372 Y39.5923
G01 X65.8507 Y39.6014
G01 X65.9027 Y39.6400
G01 X65.9153 Y39.6503
G01 X65.9633 Y39.6938
G01 X65.9748 Y39.7053
G01 X66.0183 Y39.7533
G01 X66.0286 Y39.7658
G01 X66.0672 Y39.8179
G01 X66.0762 Y39.8314
G01 X66.1096 Y39.8870
G01 X66.1172 Y39.9013
G01 X66.1449 Y39.9599
G01 X66.1511 Y39.9749
G01 X66.1730 Y40.0359
G01 X66.1777 Y40.0515
G01 X66.1934 Y40.1143
G01 X66.1966 Y40.1303
G01 X66.2061 Y40.1944
G01 X66.2077 Y40.2105
G01 X66.2109 Y40.2753
G01 X66.2109 Y40.2915
G01 X66.2077 Y40.3562
G01 X66.2061 Y40.3724
G01 X66.1966 Y40.4365
G01 X66.1934 Y40.4524
G01 X66.1777 Y40.5153
G01 X66.1730 Y40.5308
G01 X66.1511 Y40.5919
G01 X66.1449 Y40.6069
G01 X66.1172 Y40.6655
G01 X66.1096 Y40.6798
G01 X66.0762 Y40.7354
G01 X66.0672 Y40.7489
G01 X66.0286 Y40.8009
G01 X66.0183 Y40.8135
G01 X65.9748 Y40.8615
G01 X65.9633 Y40.8730
G01 X65.9153 Y40.9165
G01 X65.9027 Y40.9268
G01 X65.8507 Y40.9654
G01 X65.8372 Y40.9744
G01 X65.7816 Y41.0078
G01 X65.7673 Y41.0154
G01 X65.7087 Y41.0431
G01 X65.6937 Y41.0493
G01 X65.6326 Y41.0712
G01 X65.6171 Y41.0759
G01 X65.5542 Y41.0916
G01 X65.5383 Y41.0948
G01 X65.4742 Y41.1043
G01 X65.4580 Y41.1059
G01 X65.3905 Y41.1092
G01 X65.3905 Y44.6976
G01 X74.2190 Y44.6976
G01 X74.2190 Y43.4686
G01 X74.1731 Y43.4179
G01 X74.1628 Y43.4054
G01 X74.1183 Y43.3453
G01 X74.1093 Y43.3318
G01 X74.0708 Y43.2677
G01 X74.0632 Y43.2533
G01 X74.0312 Y43.1857
G01 X74.0250 Y43.1707
G01 X73.9998 Y43.1003
G01 X73.9951 Y43.0848
G01 X73.9769 Y43.0123
G01 X73.9737 Y42.9963
G01 X73.9628 Y42.9224
G01 X73.9612 Y42.9062
G01 X73.9575 Y42.8315
G01 X73.9575 Y42.8153
G01 X73.9612 Y42.7406
G01 X73.9628 Y42.7244
G01 X73.9737 Y42.6504
G01 X73.9769 Y42.6345
G01 X73.9951 Y42.5620
G01 X73.9998 Y42.5464
G01 X74.0250 Y42.4760
G01 X74.0312 Y42.4610
G01 X74.0632 Y42.3934
G01 X74.0708 Y42.3791
G01 X74.1093 Y42.3150
G01 X74.1183 Y42.3015
G01 X74.1628 Y42.2414
G01 X74.1731 Y42.2288
G01 X74.2233 Y42.1734
G01 X74.2348 Y42.1619
G01 X74.2902 Y42.1117
G01 X74.3028 Y42.1014
G01 X74.3629 Y42.0569
G01 X74.3764 Y42.0479
G01 X74.4405 Y42.0094
G01 X74.4548 Y42.0018
G01 X74.5224 Y41.9698
G01 X74.5374 Y41.9636
G01 X74.6078 Y41.9384
G01 X74.6234 Y41.9337
G01 X74.6959 Y41.9155
G01 X74.7118 Y41.9123
G01 X74.7858 Y41.9013
G01 X74.8020 Y41.8998
G01 X74.8767 Y41.8961
G01 X74.8929 Y41.8961
G01 X74.9676 Y41.8998
G01 X74.9838 Y41.9013
G01 X75.0577 Y41.9123
G01 X75.0737 Y41.9155
G01 X75.1462 Y41.9337
G01 X75.1617 Y41.9384
G01 X75.2321 Y41.9636
G01 X75.2472 Y41.9698
G01 X75.3148 Y42.0018
G01 X75.3291 Y42.0094
G01 X75.3932 Y42.0479
G01 X75.4067 Y42.0569
G01 X75.4668 Y42.1014
G01 X75.4793 Y42.1117
G01 X75.5347 Y42.1619
G01 X75.5462 Y42.1734
G01 X75.5964 Y42.2288
G01 X75.6068 Y42.2414
G01 X75.6513 Y42.3015
G01 X75.6603 Y42.3150
G01 X75.6988 Y42.3791
G01 X75.7064 Y42.3934
G01 X75.7384 Y42.4610
G01 X75.7446 Y42.4760
G01 X75.7698 Y42.5464
G01 X75.7745 Y42.5620
G01 X75.7927 Y42.6345
G01 X75.7959 Y42.6504
G01 X75.8068 Y42.7244
G01 X75.8084 Y42.7406
G01 X75.8121 Y42.8153
G01 X75.8121 Y42.8315
G01 X75.8084 Y42.9062
G01 X75.8068 Y42.9224
G01 X75.7959 Y42.9963
G01 X75.7927 Y43.0123
G01 X75.7745 Y43.0848
G01 X75.7698 Y43.1003
G01 X75.7446 Y43.1707
G01 X75.7384 Y43.1857
G01 X75.7064 Y43.2533
G01 X75.6988 Y43.2677
G01 X75.6603 Y43.3318
G01 X75.6513 Y43.3453
G01 X75.6068 Y43.4054
G01 X75.5964 Y43.4179
G01 X75.5505 Y43.4686
G01 X75.5505 Y44.6976
G01 X76.7590 Y44.6976
G01 X76.7590 Y41.1092
G01 X76.6915 Y41.1059
G01 X76.6754 Y41.1043
G01 X76.6113 Y41.0948
G01 X76.5953 Y41.0916
G01 X76.5325 Y41.0759
G01 X76.5169 Y41.0712
G01 X76.4559 Y41.0493
G01 X76.4409 Y41.0431
G01 X76.3823 Y41.0154
G01 X76.3680 Y41.0078
G01 X76.3124 Y40.9744
G01 X76.2989 Y40.9654
G01 X76.2468 Y40.9268
G01 X76.2343 Y40.9165
G01 X76.1863 Y40.8730
G01 X76.1748 Y40.8615
G01 X76.1313 Y40.8135
G01 X76.1210 Y40.8009
G01 X76.0824 Y40.7489
G01 X76.0733 Y40.7354
G01 X76.0400 Y40.6798
G01 X76.0324 Y40.6655
G01 X76.0047 Y40.6069
G01 X75.9984 Y40.5919
G01 X75.9766 Y40.5308
G01 X75.9719 Y40.5153
G01 X75.9561 Y40.4524
G01 X75.9530 Y40.4365
G01 X75.9435 Y40.3724
G01 X75.9419 Y40.3562
G01 X75.9387 Y40.2915
G01 X75.9387 Y40.2753
G01 X75.9419 Y40.2105
G01 X75.9435 Y40.1944
G01 X75.9530 Y40.1303
G01 X75.9561 Y40.1143
G01 X75.9719 Y40.0515
G01 X75.9766 Y40.0359
G01 X75.9984 Y39.9749
G01 X76.0047 Y39.9599
G01 X76.0324 Y39.9013
G01 X76.0400 Y39.8870
G01 X76.0733 Y39.8314
G01 X76.0824 Y39.8179
G01 X76.1210 Y39.7658
G01 X76.1313 Y39.7533
G01 X76.1748 Y39.7053
G01 X76.1863 Y39.6938
G01 X76.2343 Y39.6503
G01 X76.2468 Y39.6400
G01 X76.2989 Y39.6014
G01 X76.3124 Y39.5923
G01 X76.3680 Y39.5590
G01 X76.3823 Y39.5514
G01 X76.4409 Y39.5236
G01 X76.4559 Y39.5174
G01 X76.5169 Y39.4956
G01 X76.5325 Y39.4909
G01 X76.5953 Y39.4751
G01 X76.6113 Y39.4720
G01 X76.6754 Y39.4625
G01 X76.6915 Y39.4609
G01 X76.7644 Y39.4575
G01 X78.0852 Y39.4575
G01 X78.1580 Y39.4609
G01 X78.1742 Y39.4625
G01 X78.2383 Y39.4720
G01 X78.2542 Y39.4751
G01 X78.3171 Y39.4909
G01 X78.3326 Y39.4956
G01 X78.3937 Y39.5174
G01 X78.4087 Y39.5236
G01 X78.4673 Y39.5514
G01 X78.4816 Y39.5590
G01 X78.5372 Y39.5923
G01 X78.5507 Y39.6014
G01 X78.6027 Y39.6400
G01 X78.6153 Y39.6503
G01 X78.6633 Y39.6938
G01 X78.6748 Y39.7053
G01 X78.7183 Y39.7533
G01 X78.7286 Y39.7658
G01 X78.7672 Y39.8179
G01 X78.7762 Y39.8314
G01 X78.8096 Y39.8870
G01 X78.8172 Y39.9013
G01 X78.8449 Y39.9599
G01 X78.8511 Y39.9749
G01 X78.8730 Y40.0359
G01 X78.8777 Y40.0515
G01 X78.8934 Y40.1143
G01 X78.8966 Y40.1303
G01 X78.9061 Y40.1944
G01 X78.9077 Y40.2105
G01 X78.9109 Y40.2753
G01 X78.9109 Y40.2915
G01 X78.9077 Y40.3562
G01 X78.9061 Y40.3724
G01 X78.8966 Y40.4365
G01 X78.8934 Y40.4524
G01 X78.8777 Y40.5153
G01 X78.8730 Y40.5308
G01 X78.8511 Y40.5919
G01 X78.8449 Y40.6069
G01 X78.8172 Y40.6655
G01 X78.8096 Y40.6798
G01 X78.7762 Y40.7354
G01 X78.7672 Y40.7489
G01 X78.7286 Y40.8009
G01 X78.7183 Y40.8135
G01 X78.6748 Y40.8615
G01 X78.6633 Y40.8730
G01 X78.6153 Y40.9165
G01 X78.6027 Y40.9268
G01 X78.5507 Y40.9654
G01 X78.5372 Y40.9744
G01 X78.4816 Y41.0078
G01 X78.4673 Y41.0154
G01 X78.4087 Y41.0431
G01 X78.3937 Y41.0493
G01 X78.3326 Y41.0712
G01 X78.3171 Y41.0759
G01 X78.2542 Y41.0916
G01 X78.2383 Y41.0948
G01 X78.1742 Y41.1043
G01 X78.1580 Y41.1059
G01 X78.0905 Y41.1092
G01 X78.0905 Y44.6976
G01 X86.9190 Y44.6976
G01 X86.9190 Y43.4686
G01 X86.8731 Y43.4179
G01 X86.8628 Y43.4054
G01 X86.8183 Y43.3453
G01 X86.8093 Y43.3318
G01 X86.7708 Y43.2677
G01 X86.7632 Y43.2533
G01 X86.7312 Y43.1857
G01 X86.7250 Y43.1707
G01 X86.6998 Y43.1003
G01 X86.6951 Y43.0848
G01 X86.6769 Y43.0123
G01 X86.6737 Y42.9963
G01 X86.6628 Y42.9224
G01 X86.6612 Y42.9062
G01 X86.6575 Y42.8315
G01 X86.6575 Y42.8153
G01 X86.6612 Y42.7406
G01 X86.6628 Y42.7244
G01 X86.6737 Y42.6504
G01 X86.6769 Y42.6345
G01 X86.6951 Y42.5620
G01 X86.6998 Y42.5464
G01 X86.7250 Y42.4760
G01 X86.7312 Y42.4610
G01 X86.7632 Y42.3934
G01 X86.7708 Y42.3791
G01 X86.8093 Y42.3150
G01 X86.8183 Y42.3015
G01 X86.8628 Y42.2414
G01 X86.8731 Y42.2288
G01 X86.9233 Y42.1734
G01 X86.9348 Y42.1619
G01 X86.9902 Y42.1117
G01 X87.0028 Y42.1014
G01 X87.0629 Y42.0569
G01 X87.0764 Y42.0479
G01 X87.1405 Y42.0094
G01 X87.1548 Y42.0018
G01 X87.2224 Y41.9698
G01 X87.2374 Y41.9636
G01 X87.3078 Y41.9384
G01 X87.3234 Y41.9337
G01 X87.3959 Y41.9155
G01 X87.4118 Y41.9123
G01 X87.4858 Y41.9013
G01 X87.5020 Y41.8998
G01 X87.5767 Y41.8961
G01 X87.5929 Y41.8961
G01 X87.6676 Y41.8998
G01 X87.6838 Y41.9013
G01 X87.7577 Y41.9123
G01 X87.7737 Y41.9155
G01 X87.8462 Y41.9337
G01 X87.8617 Y41.9384
G01 X87.9321 Y41.9636
G01 X87.9472 Y41.9698
G01 X88.0148 Y42.0018
G01 X88.0291 Y42.0094
G01 X88.0932 Y42.0479
G01 X88.1067 Y42.0569
G01 X88.1668 Y42.1014
G01 X88.1793 Y42.1117
G01 X88.2347 Y42.1619
G01 X88.2462 Y42.1734
G01 X88.2964 Y42.2288
G01 X88.3068 Y42.2414
G01 X88.3513 Y42.3015
G01 X88.3603 Y42.3150
G01 X88.3988 Y42.3791
G01 X88.4064 Y42.3934
G01 X88.4384 Y42.4610
G01 X88.4446 Y42.4760
G01 X88.4698 Y42.5464
G01 X88.4745 Y42.5620
G01 X88.4927 Y42.6345
G01 X88.4959 Y42.6504
G01 X88.5068 Y42.7244
G01 X88.5084 Y42.7406
G01 X88.5121 Y42.8153
G01 X88.5121 Y42.8315
G01 X88.5084 Y42.9062
G01 X88.5068 Y42.9224
G01 X88.4959 Y42.9963
G01 X88.4927 Y43.0123
G01 X88.4745 Y43.0848
G01 X88.4698 Y43.1003
G01 X88.4446 Y43.1707
G01 X88.4384 Y43.1857
G01 X88.4064 Y43.2533
G01 X88.3988 Y43.2677
G01 X88.3603 Y43.3318
G01 X88.3513 Y43.3453
G01 X88.3068 Y43.4054
G01 X88.2964 Y43.4179
G01 X88.2505 Y43.4686
G01 X88.2505 Y44.6976
G01 X89.4590 Y44.6976
G01 X89.4590 Y41.1092
G01 X89.3915 Y41.1059
G01 X89.3754 Y41.1043
G01 X89.3113 Y41.0948
G01 X89.2953 Y41.0916
G01 X89.2325 Y41.0759
G01 X89.2169 Y41.0712
G01 X89.1559 Y41.0493
G01 X89.1409 Y41.0431
G01 X89.0823 Y41.0154
G01 X89.0680 Y41.0078
G01 X89.0124 Y40.9744
G01 X88.9989 Y40.9654
G01 X88.9468 Y40.9268
G01 X88.9343 Y40.9165
G01 X88.8863 Y40.8730
G01 X88.8748 Y40.8615
G01 X88.8313 Y40.8135
G01 X88.8210 Y40.8009
G01 X88.7824 Y40.7489
G01 X88.7733 Y40.7354
G01 X88.7400 Y40.6798
G01 X88.7324 Y40.6655
G01 X88.7047 Y40.6069
G01 X88.6984 Y40.5919
G01 X88.6766 Y40.5308
G01 X88.6719 Y40.5153
G01 X88.6561 Y40.4524
G01 X88.6530 Y40.4365
G01 X88.6435 Y40.3724
G01 X88.6419 Y40.3562
G01 X88.6387 Y40.2915
G01 X88.6387 Y40.2753
G01 X88.6419 Y40.2105
G01 X88.6435 Y40.1944
G01 X88.6530 Y40.1303
G01 X88.6561 Y40.1143
G01 X88.6719 Y40.0515
G01 X88.6766 Y40.0359
G01 X88.6984 Y39.9749
G01 X88.7047 Y39.9599
G01 X88.7324 Y39.9013
G01 X88.7400 Y39.8870
G01 X88.7733 Y39.8314
G01 X88.7824 Y39.8179
G01 X88.8210 Y39.7658
G01 X88.8313 Y39.7533
G01 X88.8748 Y39.7053
G01 X88.8863 Y39.6938
G01 X88.9343 Y39.6503
G01 X88.9468 Y39.6400
G01 X88.9989 Y39.6014
G01 X89.0124 Y39.5923
G01 X89.0680 Y39.5590
G01 X89.0823 Y39.5514
G01 X89.1409 Y39.5236
G01 X89.1559 Y39.5174
G01 X89.2169 Y39.4956
G01 X89.2325 Y39.4909
G01 X89.2953 Y39.4751
G01 X89.3113 Y39.4720
G01 X89.3754 Y39.4625
G01 X89.3915 Y39.4609
G01 X89.4644 Y39.4575
G01 X90.7852 Y39.4575
G01 X90.8580 Y39.4609
G01 X90.8742 Y39.4625
G01 X90.9383 Y39.4720
G01 X90.9542 Y39.4751
G01 X91.0171 Y39.4909
G01 X91.0326 Y39.4956
G01 X91.0937 Y39.5174
G01 X91.1087 Y39.5236
G01 X91.1673 Y39.5514
G01 X91.1816 Y39.5590
G01 X91.2372 Y39.5923
G01 X91.2507 Y39.6014
G01 X91.3027 Y39.6400
G01 X91.3153 Y39.6503
G01 X91.3633 Y39.6938
G01 X91.3748 Y39.7053
G01 X91.4183 Y39.7533
G01 X91.4286 Y39.7658
G01 X91.4672 Y39.8179
G01 X91.4762 Y39.8314
G01 X91.5096 Y39.8870
G01 X91.5172 Y39.9013
G01 X91.5449 Y39.9599
G01 X91.5511 Y39.9749
G01 X91.5730 Y40.0359
G01 X91.5777 Y40.0515
G01 X91.5934 Y40.1143
G01 X91.5966 Y40.1303
G01 X91.6061 Y40.1944
G01 X91.6077 Y40.2105
G01 X91.6109 Y40.2753
G01 X91.6109 Y40.2915
G01 X91.6077 Y40.3562
G01 X91.6061 Y40.3724
G01 X91.5966 Y40.4365
G01 X91.5934 Y40.4524
G01 X91.5777 Y40.5153
G01 X91.5730 Y40.5308
G01 X91.5511 Y40.5919
G01 X91.5449 Y40.6069
G01 X91.5172 Y40.6655
G01 X91.5096 Y40.6798
G01 X91.4762 Y40.7354
G01 X91.4672 Y40.7489
G01 X91.4286 Y40.8009
G01 X91.4183 Y40.8135
G01 X91.3748 Y40.8615
G01 X91.3633 Y40.8730
G01 X91.3153 Y40.9165
G01 X91.3027 Y40.9268
G01 X91.2507 Y40.9654
G01 X91.2372 Y40.9744
G01 X91.1816 Y41.0078
G01 X91.1673 Y41.0154
G01 X91.1087 Y41.0431
G01 X91.0937 Y41.0493
G01 X91.0326 Y41.0712
G01 X91.0171 Y41.0759
G01 X90.9542 Y41.0916
G01 X90.9383 Y41.0948
G01 X90.8742 Y41.1043
G01 X90.8580 Y41.1059
G01 X90.7905 Y41.1092
G01 X90.7905 Y44.6976
G01 X99.6190 Y44.6976
G01 X99.6190 Y43.4686
G01 X99.5731 Y43.4179
G01 X99.5628 Y43.4054
G01 X99.5183 Y43.3453
G01 X99.5093 Y43.3318
G01 X99.4708 Y43.2677
G01 X99.4632 Y43.2533
G01 X99.4312 Y43.1857
G01 X99.4250 Y43.1707
G01 X99.3998 Y43.1003
G01 X99.3951 Y43.0848
G01 X99.3769 Y43.0123
G01 X99.3737 Y42.9963
G01 X99.3628 Y42.9224
G01 X99.3612 Y42.9062
G01 X99.3575 Y42.8315
G01 X99.3575 Y42.8153
G01 X99.3612 Y42.7406
G01 X99.3628 Y42.7244
G01 X99.3737 Y42.6504
G01 X99.3769 Y42.6345
G01 X99.3951 Y42.5620
G01 X99.3998 Y42.5464
G01 X99.4250 Y42.4760
G01 X99.4312 Y42.4610
G01 X99.4632 Y42.3934
G01 X99.4708 Y42.3791
G01 X99.5093 Y42.3150
G01 X99.5183 Y42.3015
G01 X99.5628 Y42.2414
G01 X99.5731 Y42.2288
G01 X99.6233 Y42.1734
G01 X99.6348 Y42.1619
G01 X99.6902 Y42.1117
G01 X99.7028 Y42.1014
G01 X99.7629 Y42.0569
G01 X99.7764 Y42.0479
G01 X99.8405 Y42.0094
G01 X99.8548 Y42.0018
G01 X99.9224 Y41.9698
G01 X99.9374 Y41.9636
G01 X100.0078 Y41.9384
G01 X100.0234 Y41.9337
G01 X100.0959 Y41.9155
G01 X100.1118 Y41.9123
G01 X100.1858 Y41.9013
G01 X100.2020 Y41.8998
G01 X100.2767 Y41.8961
G01 X100.2929 Y41.8961
G01 X100.3676 Y41.8998
G01 X100.3838 Y41.9013
G01 X100.4577 Y41.9123
G01 X100.4737 Y41.9155
G01 X100.5462 Y41.9337
G01 X100.5617 Y41.9384
G01 X100.6321 Y41.9636
G01 X100.6472 Y41.9698
G01 X100.7148 Y42.0018
G01 X100.7291 Y42.0094
G01 X100.7932 Y42.0479
G01 X100.8067 Y42.0569
G01 X100.8668 Y42.1014
G01 X100.8793 Y42.1117
G01 X100.9347 Y42.1619
G01 X100.9462 Y42.1734
G01 X100.9964 Y42.2288
G01 X101.0068 Y42.2414
G01 X101.0513 Y42.3015
G01 X101.0603 Y42.3150
G01 X101.0988 Y42.3791
G01 X101.1064 Y42.3934
G01 X101.1384 Y42.4610
G01 X101.1446 Y42.4760
G01 X101.1698 Y42.5464
G01 X101.1745 Y42.5620
G01 X101.1927 Y42.6345
G01 X101.1959 Y42.6504
G01 X101.2068 Y42.7244
G01 X101.2084 Y42.7406
G01 X101.2121 Y42.8153
G01 X101.2121 Y42.8315
G01 X101.2084 Y42.9062
G01 X101.2068 Y42.9224
G01 X101.1959 Y42.9963
G01 X101.1927 Y43.0123
G01 X101.1745 Y43.0848
G01 X101.1698 Y43.1003
G01 X101.1446 Y43.1707
G01 X101.1384 Y43.1857
G01 X101.1064 Y43.2533
G01 X101.0988 Y43.2677
G01 X101.0603 Y43.3318
G01 X101.0513 Y43.3453
G01 X101.0068 Y43.4054
G01 X100.9964 Y43.4179
G01 X100.9505 Y43.4686
G01 X100.9505 Y44.6976
G01 X102.1590 Y44.6976
G01 X102.1590 Y41.1092
G01 X102.0915 Y41.1059
G01 X102.0754 Y41.1043
G01 X102.0113 Y41.0948
G01 X101.9953 Y41.0916
G01 X101.9325 Y41.0759
G01 X101.9169 Y41.0712
G01 X101.8559 Y41.0493
G01 X101.8409 Y41.0431
G01 X101.7823 Y41.0154
G01 X101.7680 Y41.0078
G01 X101.7124 Y40.9744
G01 X101.6989 Y40.9654
G01 X101.6468 Y40.9268
G01 X101.6343 Y40.9165
G01 X101.5863 Y40.8730
G01 X101.5748 Y40.8615
G01 X101.5313 Y40.8135
G01 X101.5210 Y40.8009
G01 X101.4824 Y40.7489
G01 X101.4733 Y40.7354
G01 X101.4400 Y40.6798
G01 X101.4324 Y40.6655
G01 X101.4047 Y40.6069
G01 X101.3984 Y40.5919
G01 X101.3766 Y40.5308
G01 X101.3719 Y40.5153
G01 X101.3561 Y40.4524
G01 X101.3530 Y40.4365
G01 X101.3435 Y40.3724
G01 X101.3419 Y40.3562
G01 X101.3387 Y40.2915
G01 X101.3387 Y40.2753
G01 X101.3419 Y40.2105
G01 X101.3435 Y40.1944
G01 X101.3530 Y40.1303
G01 X101.3561 Y40.1143
G01 X101.3719 Y40.0515
G01 X101.3766 Y40.0359
G01 X101.3984 Y39.9749
G01 X101.4047 Y39.9599
G01 X101.4324 Y39.9013
G01 X101.4400 Y39.8870
G01 X101.4733 Y39.8314
G01 X101.4824 Y39.8179
G01 X101.5210 Y39.7658
G01 X101.5313 Y39.7533
G01 X101.5748 Y39.7053
G01 X101.5863 Y39.6938
G01 X101.6343 Y39.6503
G01 X101.6468 Y39.6400
G01 X101.6989 Y39.6014
G01 X101.7124 Y39.5923
G01 X101.7680 Y39.5590
G01 X101.7823 Y39.5514
G01 X101.8409 Y39.5236
G01 X101.8559 Y39.5174
G01 X101.9169 Y39.4956
G01 X101.9325 Y39.4909
G01 X101.9953 Y39.4751
G01 X102.0113 Y39.4720
G01 X102.0754 Y39.4625
G01 X102.0915 Y39.4609
G01 X102.1644 Y39.4575
G01 X103.4852 Y39.4575
G01 X103.5580 Y39.4609
G01 X103.5742 Y39.4625
G01 X103.6383 Y39.4720
G01 X103.6542 Y39.4751
G01 X103.7171 Y39.4909
G01 X103.7326 Y39.4956
G01 X103.7937 Y39.5174
G01 X103.8087 Y39.5236
G01 X103.8673 Y39.5514
G01 X103.8816 Y39.5590
G01 X103.9372 Y39.5923
G01 X103.9507 Y39.6014
G01 X104.0027 Y39.6400
G01 X104.0153 Y39.6503
G01 X104.0633 Y39.6938
G01 X104.0748 Y39.7053
G01 X104.1183 Y39.7533
G01 X104.1286 Y39.7658
G01 X104.1672 Y39.8179
G01 X104.1762 Y39.8314
G01 X104.2096 Y39.8870
G01 X104.2172 Y39.9013
G01 X104.2449 Y39.9599
G01 X104.2511 Y39.9749
G01 X104.2730 Y40.0359
G01 X104.2777 Y40.0515
G01 X104.2934 Y40.1143
G01 X104.2966 Y40.1303
G01 X104.3061 Y40.1944
G01 X104.3077 Y40.2105
G01 X104.3109 Y40.2753
G01 X104.3109 Y40.2915
G01 X104.3077 Y40.3562
G01 X104.3061 Y40.3724
G01 X104.2966 Y40.4365
G01 X104.2934 Y40.4524
G01 X104.2777 Y40.5153
G01 X104.2730 Y40.5308
G01 X104.2511 Y40.5919
G01 X104.2449 Y40.6069
G01 X104.2172 Y40.6655
G01 X104.2096 Y40.6798
G01 X104.1762 Y40.7354
G01 X104.1672 Y40.7489
G01 X104.1286 Y40.8009
G01 X104.1183 Y40.8135
G01 X104.0748 Y40.8615
G01 X104.0633 Y40.8730
G01 X104.0153 Y40.9165
G01 X104.0027 Y40.9268
G01 X103.9507 Y40.9654
G01 X103.9372 Y40.9744
G01 X103.8816 Y41.0078
G01 X103.8673 Y41.0154
G01 X103.8087 Y41.0431
G01 X103.7937 Y41.0493
G01 X103.7326 Y41.0712
G01 X103.7171 Y41.0759
G01 X103.6542 Y41.0916
G01 X103.6383 Y41.0948
G01 X103.5742 Y41.1043
G01 X103.5580 Y41.1059
G01 X103.4905 Y41.1092
G01 X103.4905 Y44.6976
G01 X112.3190 Y44.6976
G01 X112.3190 Y43.4686
G01 X112.2731 Y43.4179
G01 X112.2628 Y43.4054
G01 X112.2183 Y43.3453
G01 X112.2093 Y43.3318
G01 X112.1708 Y43.2677
G01 X112.1632 Y43.2533
G01 X112.1312 Y43.1857
G01 X112.1250 Y43.1707
G01 X112.0998 Y43.1003
G01 X112.0951 Y43.0848
G01 X112.0769 Y43.0123
G01 X112.0737 Y42.9963
G01 X112.0628 Y42.9224
G01 X112.0612 Y42.9062
G01 X112.0575 Y42.8315
G01 X112.0575 Y42.8153
G01 X112.0612 Y42.7406
G01 X112.0628 Y42.7244
G01 X112.0737 Y42.6504
G01 X112.0769 Y42.6345
G01 X112.0951 Y42.5620
G01 X112.0998 Y42.5464
G01 X112.1250 Y42.4760
G01 X112.1312 Y42.4610
G01 X112.1632 Y42.3934
G01 X112.1708 Y42.3791
G01 X112.2093 Y42.3150
G01 X112.2183 Y42.3015
G01 X112.2628 Y42.2414
G01 X112.2731 Y42.2288
G01 X112.3233 Y42.1734
G01 X112.3348 Y42.1619
G01 X112.3902 Y42.1117
G01 X112.4028 Y42.1014
G01 X112.4629 Y42.0569
G01 X112.4764 Y42.0479
G01 X112.5405 Y42.0094
G01 X112.5548 Y42.0018
G01 X112.6224 Y41.9698
G01 X112.6374 Y41.9636
G01 X112.7078 Y41.9384
G01 X112.7234 Y41.9337
G01 X112.7959 Y41.9155
G01 X112.8118 Y41.9123
G01 X112.8858 Y41.9013
G01 X112.9020 Y41.8998
G01 X112.9767 Y41.8961
G01 X112.9929 Y41.8961
G01 X113.0676 Y41.8998
G01 X113.0838 Y41.9013
G01 X113.1577 Y41.9123
G01 X113.1737 Y41.9155
G01 X113.2462 Y41.9337
G01 X113.2617 Y41.9384
G01 X113.3321 Y41.9636
G01 X113.3472 Y41.9698
G01 X113.4148 Y42.0018
G01 X113.4291 Y42.0094
G01 X113.4932 Y42.0479
G01 X113.5067 Y42.0569
G01 X113.5668 Y42.1014
G01 X113.5793 Y42.1117
G01 X113.6347 Y42.1619
G01 X113.6462 Y42.1734
G01 X113.6964 Y42.2288
G01 X113.7068 Y42.2414
G01 X113.7513 Y42.3015
G01 X113.7603 Y42.3150
G01 X113.7988 Y42.3791
G01 X113.8064 Y42.3934
G01 X113.8384 Y42.4610
G01 X113.8446 Y42.4760
G01 X113.8698 Y42.5464
G01 X113.8745 Y42.5620
G01 X113.8927 Y42.6345
G01 X113.8959 Y42.6504
G01 X113.9068 Y42.7244
G01 X113.9084 Y42.7406
G01 X113.9121 Y42.8153
G01 X113.9121 Y42.8315
G01 X113.9084 Y42.9062
G01 X113.9068 Y42.9224
G01 X113.8959 Y42.9963
G01 X113.8927 Y43.0123
G01 X113.8745 Y43.0848
G01 X113.8698 Y43.1003
G01 X113.8446 Y43.1707
G01 X113.8384 Y43.1857
G01 X113.8064 Y43.2533
G01 X113.7988 Y43.2677
G01 X113.7603 Y43.3318
G01 X113.7513 Y43.3453
G01 X113.7068 Y43.4054
G01 X113.6964 Y43.4179
G01 X113.6505 Y43.4686
G01 X113.6505 Y44.6976
G01 X114.8590 Y44.6976
G01 X114.8590 Y41.1092
G01 X114.7915 Y41.1059
G01 X114.7754 Y41.1043
G01 X114.7113 Y41.0948
G01 X114.6953 Y41.0916
G01 X114.6325 Y41.0759
G01 X114.6169 Y41.0712
G01 X114.5559 Y41.0493
G01 X114.5409 Y41.0431
G01 X114.4823 Y41.0154
G01 X114.4680 Y41.0078
G01 X114.4124 Y40.9744
G01 X114.3989 Y40.9654
G01 X114.3468 Y40.9268
G01 X114.3343 Y40.9165
G01 X114.2863 Y40.8730
G01 X114.2748 Y40.8615
G01 X114.2313 Y40.8135
G01 X114.2210 Y40.8009
G01 X114.1824 Y40.7489
G01 X114.1733 Y40.7354
G01 X114.1400 Y40.6798
G01 X114.1324 Y40.6655
G01 X114.1047 Y40.6069
G01 X114.0984 Y40.5919
G01 X114.0766 Y40.5308
G01 X114.0719 Y40.5153
G01 X114.0561 Y40.4524
G01 X114.0530 Y40.4365
G01 X114.0435 Y40.3724
G01 X114.0419 Y40.3562
G01 X114.0387 Y40.2915
G01 X114.0387 Y40.2753
G01 X114.0419 Y40.2105
G01 X114.0435 Y40.1944
G01 X114.0530 Y40.1303
G01 X114.0561 Y40.1143
G01 X114.0719 Y40.0515
G01 X114.0766 Y40.0359
G01 X114.0984 Y39.9749
G01 X114.1047 Y39.9599
G01 X114.1324 Y39.9013
G01 X114.1400 Y39.8870
G01 X114.1733 Y39.8314
G01 X114.1824 Y39.8179
G01 X114.2210 Y39.7658
G01 X114.2313 Y39.7533
G01 X114.2748 Y39.7053
G01 X114.2863 Y39.6938
G01 X114.3343 Y39.6503
G01 X114.3468 Y39.6400
G01 X114.3989 Y39.6014
G01 X114.4124 Y39.5923
G01 X114.4680 Y39.5590
G01 X114.4823 Y39.5514
G01 X114.5409 Y39.5236
G01 X114.5559 Y39.5174
G01 X114.6169 Y39.4956
G01 X114.6325 Y39.4909
G01 X114.6953 Y39.4751
G01 X114.7113 Y39.4720
G01 X114.7754 Y39.4625
G01 X114.7915 Y39.4609
G01 X114.8644 Y39.4575
G01 X116.1852 Y39.4575
G01 X116.2580 Y39.4609
G01 X116.2742 Y39.4625
G01 X116.3383 Y39.4720
G01 X116.3542 Y39.4751
G01 X116.4171 Y39.4909
G01 X116.4326 Y39.4956
G01 X116.4937 Y39.5174
G01 X116.5087 Y39.5236
G01 X116.5673 Y39.5514
G01 X116.5816 Y39.5590
G01 X116.6372 Y39.5923
G01 X116.6507 Y39.6014
G01 X116.7027 Y39.6400
G01 X116.7153 Y39.6503
G01 X116.7633 Y39.6938
G01 X116.7748 Y39.7053
G01 X116.8183 Y39.7533
G01 X116.8286 Y39.7658
G01 X116.8672 Y39.8179
G01 X116.8762 Y39.8314
G01 X116.9096 Y39.8870
G01 X116.9172 Y39.9013
G01 X116.9449 Y39.9599
G01 X116.9511 Y39.9749
G01 X116.9730 Y40.0359
G01 X116.9777 Y40.0515
G01 X116.9934 Y40.1143
G01 X116.9966 Y40.1303
G01 X117.0061 Y40.1944
G01 X117.0077 Y40.2105
G01 X117.0109 Y40.2753
G01 X117.0109 Y40.2915
G01 X117.0077 Y40.3562
G01 X117.0061 Y40.3724
G01 X116.9966 Y40.4365
G01 X116.9934 Y40.4524
G01 X116.9777 Y40.5153
G01 X116.9730 Y40.5308
G01 X116.9511 Y40.5919
G01 X116.9449 Y40.6069
G01 X116.9172 Y40.6655
G01 X116.9096 Y40.6798
G01 X116.8762 Y40.7354
G01 X116.8672 Y40.7489
G01 X116.8286 Y40.8009
G01 X116.8183 Y40.8135
G01 X116.7748 Y40.8615
G01 X116.7633 Y40.8730
G01 X116.7153 Y40.9165
G01 X116.7027 Y40.9268
G01 X116.6507 Y40.9654
G01 X116.6372 Y40.9744
G01 X116.5816 Y41.0078
G01 X116.5673 Y41.0154
G01 X116.5087 Y41.0431
G01 X116.4937 Y41.0493
G01 X116.4326 Y41.0712
G01 X116.4171 Y41.0759
G01 X116.3542 Y41.0916
G01 X116.3383 Y41.0948
G01 X116.2742 Y41.1043
G01 X116.2580 Y41.1059
G01 X116.1905 Y41.1092
G01 X116.1905 Y44.6976
G01 X125.0190 Y44.6976
G01 X125.0190 Y43.4686
G01 X124.9731 Y43.4179
G01 X124.9628 Y43.4054
G01 X124.9183 Y43.3453
G01 X124.9093 Y43.3318
G01 X124.8708 Y43.2677
G01 X124.8632 Y43.2533
G01 X124.8312 Y43.1857
G01 X124.8250 Y43.1707
G01 X124.7998 Y43.1003
G01 X124.7951 Y43.0848
G01 X124.7769 Y43.0123
G01 X124.7737 Y42.9963
G01 X124.7628 Y42.9224
G01 X124.7612 Y42.9062
G01 X124.7575 Y42.8315
G01 X124.7575 Y42.8153
G01 X124.7612 Y42.7406
G01 X124.7628 Y42.7244
G01 X124.7737 Y42.6504
G01 X124.7769 Y42.6345
G01 X124.7951 Y42.5620
G01 X124.7998 Y42.5464
G01 X124.8250 Y42.4760
G01 X124.8312 Y42.4610
G01 X124.8632 Y42.3934
G01 X124.8708 Y42.3791
G01 X124.9093 Y42.3150
G01 X124.9183 Y42.3015
G01 X124.9628 Y42.2414
G01 X124.9731 Y42.2288
G01 X125.0233 Y42.1734
G01 X125.0348 Y42.1619
G01 X125.0902 Y42.1117
G01 X125.1028 Y42.1014
G01 X125.1629 Y42.0569
G01 X125.1764 Y42.0479
G01 X125.2405 Y42.0094
G01 X125.2548 Y42.0018
G01 X125.3224 Y41.9698
G01 X125.3374 Y41.9636
G01 X125.4078 Y41.9384
G01 X125.4234 Y41.9337
G01 X125.4959 Y41.9155
G01 X125.5118 Y41.9123
G01 X125.5858 Y41.9013
G01 X125.6020 Y41.8998
G01 X125.6767 Y41.8961
G01 X125.6929 Y41.8961
G01 X125.7676 Y41.8998
G01 X125.7838 Y41.9013
G01 X125.8577 Y41.9123
G01 X125.8737 Y41.9155
G01 X125.9462 Y41.9337
G01 X125.9617 Y41.9384
G01 X126.0321 Y41.9636
G01 X126.0472 Y41.9698
G01 X126.1148 Y42.0018
G01 X126.1291 Y42.0094
G01 X126.1932 Y42.0479
G01 X126.2067 Y42.0569
G01 X126.2668 Y42.1014
G01 X126.2793 Y42.1117
G01 X126.3347 Y42.1619
G01 X126.3462 Y42.1734
G01 X126.3964 Y42.2288
G01 X126.4068 Y42.2414
G01 X126.4513 Y42.3015
G01 X126.4603 Y42.3150
G01 X126.4988 Y42.3791
G01 X126.5064 Y42.3934
G01 X126.5384 Y42.4610
G01 X126.5446 Y42.4760
G01 X126.5698 Y42.5464
G01 X126.5745 Y42.5620
G01 X126.5927 Y42.6345
G01 X126.5959 Y42.6504
G01 X126.6068 Y42.7244
G01 X126.6084 Y42.7406
G01 X126.6121 Y42.8153
G01 X126.6121 Y42.8315
G01 X126.6084 Y42.9062
G01 X126.6068 Y42.9224
G01 X126.5959 Y42.9963
G01 X126.5927 Y43.0123
G01 X126.5745 Y43.0848
G01 X126.5698 Y43.1003
G01 X126.5446 Y43.1707
G01 X126.5384 Y43.1857
G01 X126.5064 Y43.2533
G01 X126.4988 Y43.2677
G01 X126.4603 Y43.3318
G01 X126.4513 Y43.3453
G01 X126.4068 Y43.4054
G01 X126.3964 Y43.4179
G01 X126.3505 Y43.4686
G01 X126.3505 Y44.6976
G01 X127.5590 Y44.6976
G01 X127.5590 Y41.1092
G01 X127.4915 Y41.1059
G01 X127.4754 Y41.1043
G01 X127.4113 Y41.0948
G01 X127.3953 Y41.0916
G01 X127.3325 Y41.0759
G01 X127.3169 Y41.0712
G01 X127.2559 Y41.0493
G01 X127.2409 Y41.0431
G01 X127.1823 Y41.0154
G01 X127.1680 Y41.0078
G01 X127.1124 Y40.9744
G01 X127.0989 Y40.9654
G01 X127.0468 Y40.9268
G01 X127.0343 Y40.9165
G01 X126.9863 Y40.8730
G01 X126.9748 Y40.8615
G01 X126.9313 Y40.8135
G01 X126.9210 Y40.8009
G01 X126.8824 Y40.7489
G01 X126.8733 Y40.7354
G01 X126.8400 Y40.6798
G01 X126.8324 Y40.6655
G01 X126.8047 Y40.6069
G01 X126.7984 Y40.5919
G01 X126.7766 Y40.5308
G01 X126.7719 Y40.5153
G01 X126.7561 Y40.4524
G01 X126.7530 Y40.4365
G01 X126.7435 Y40.3724
G01 X126.7419 Y40.3562
G01 X126.7387 Y40.2915
G01 X126.7387 Y40.2753
G01 X126.7419 Y40.2105
G01 X126.7435 Y40.1944
G01 X126.7530 Y40.1303
G01 X126.7561 Y40.1143
G01 X126.7719 Y40.0515
G01 X126.7766 Y40.0359
G01 X126.7984 Y39.9749
G01 X126.8047 Y39.9599
G01 X126.8324 Y39.9013
G01 X126.8400 Y39.8870
G01 X126.8733 Y39.8314
G01 X126.8824 Y39.8179
G01 X126.9210 Y39.7658
G01 X126.9313 Y39.7533
G01 X126.9748 Y39.7053
G01 X126.9863 Y39.6938
G01 X127.0343 Y39.6503
G01 X127.0468 Y39.6400
G01 X127.0989 Y39.6014
G01 X127.1124 Y39.5923
G01 X127.1680 Y39.5590
G01 X127.1823 Y39.5514
G01 X127.2409 Y39.5236
G01 X127.2559 Y39.5174
G01 X127.3169 Y39.4956
G01 X127.3325 Y39.4909
G01 X127.3953 Y39.4751
G01 X127.4113 Y39.4720
G01 X127.4754 Y39.4625
G01 X127.4915 Y39.4609
G01 X127.5644 Y39.4575
G01 X128.8852 Y39.4575
G01 X128.9580 Y39.4609
G01 X128.9742 Y39.4625
G01 X129.0383 Y39.4720
G01 X129.0542 Y39.4751
G01 X129.1171 Y39.4909
G01 X129.1326 Y39.4956
G01 X129.1937 Y39.5174
G01 X129.2087 Y39.5236
G01 X129.2673 Y39.5514
G01 X129.2816 Y39.5590
G01 X129.3372 Y39.5923
G01 X129.3507 Y39.6014
G01 X129.4027 Y39.6400
G01 X129.4153 Y39.6503
G01 X129.4633 Y39.6938
G01 X129.4748 Y39.7053
G01 X129.5183 Y39.7533
G01 X129.5286 Y39.7658
G01 X129.5672 Y39.8179
G01 X129.5762 Y39.8314
G01 X129.6096 Y39.8870
G01 X129.6172 Y39.9013
G01 X129.6449 Y39.9599
G01 X129.6511 Y39.9749
G01 X129.6730 Y40.0359
G01 X129.6777 Y40.0515
G01 X129.6934 Y40.1143
G01 X129.6966 Y40.1303
G01 X129.7061 Y40.1944
G01 X129.7077 Y40.2105
G01 X129.7109 Y40.2753
G01 X129.7109 Y40.2915
G01 X129.7077 Y40.3562
G01 X129.7061 Y40.3724
G01 X129.6966 Y40.4365
G01 X129.6934 Y40.4524
G01 X129.6777 Y40.5153
G01 X129.6730 Y40.5308
G01 X129.6511 Y40.5919
G01 X129.6449 Y40.6069
G01 X129.6172 Y40.6655
G01 X129.6096 Y40.6798
G01 X129.5762 Y40.7354
G01 X129.5672 Y40.7489
G01 X129.5286 Y40.8009
G01 X129.5183 Y40.8135
G01 X129.4748 Y40.8615
G01 X129.4633 Y40.8730
G01 X129.4153 Y40.9165
G01 X129.4027 Y40.9268
G01 X129.3507 Y40.9654
G01 X129.3372 Y40.9744
G01 X129.2816 Y41.0078
G01 X129.2673 Y41.0154
G01 X129.2087 Y41.0431
G01 X129.1937 Y41.0493
G01 X129.1326 Y41.0712
G01 X129.1171 Y41.0759
G01 X129.0542 Y41.0916
G01 X129.0383 Y41.0948
G01 X128.9742 Y41.1043
G01 X128.9580 Y41.1059
G01 X128.8905 Y41.1092
G01 X128.8905 Y44.6976
G01 X140.2590 Y44.6976
G01 X140.2590 Y41.1092
G01 X140.1915 Y41.1059
G01 X140.1754 Y41.1043
G01 X140.1113 Y41.0948
G01 X140.0953 Y41.0916
G01 X140.0325 Y41.0759
G01 X140.0169 Y41.0712
G01 X139.9559 Y41.0493
G01 X139.9409 Y41.0431
G01 X139.8823 Y41.0154
G01 X139.8680 Y41.0078
G01 X139.8124 Y40.9744
G01 X139.7989 Y40.9654
G01 X139.7468 Y40.9268
G01 X139.7343 Y40.9165
G01 X139.6863 Y40.8730
G01 X139.6748 Y40.8615
G01 X139.6313 Y40.8135
G01 X139.6210 Y40.8009
G01 X139.5824 Y40.7489
G01 X139.5733 Y40.7354
G01 X139.5400 Y40.6798
G01 X139.5324 Y40.6655
G01 X139.5047 Y40.6069
G01 X139.4984 Y40.5919
G01 X139.4766 Y40.5308
G01 X139.4719 Y40.5153
G01 X139.4561 Y40.4524
G01 X139.4530 Y40.4365
G01 X139.4435 Y40.3724
G01 X139.4419 Y40.3562
G01 X139.4387 Y40.2915
G01 X139.4387 Y40.2753
G01 X139.4419 Y40.2105
G01 X139.4435 Y40.1944
G01 X139.4530 Y40.1303
G01 X139.4561 Y40.1143
G01 X139.4719 Y40.0515
G01 X139.4766 Y40.0359
G01 X139.4984 Y39.9749
G01 X139.5047 Y39.9599
G01 X139.5324 Y39.9013
G01 X139.5400 Y39.8870
G01 X139.5733 Y39.8314
G01 X139.5824 Y39.8179
G01 X139.6210 Y39.7658
G01 X139.6313 Y39.7533
G01 X139.6748 Y39.7053
G01 X139.6863 Y39.6938
G01 X139.7343 Y39.6503
G01 X139.7468 Y39.6400
G01 X139.7989 Y39.6014
G01 X139.8124 Y39.5923
G01 X139.8680 Y39.5590
G01 X139.8823 Y39.5514
G01 X139.9409 Y39.5236
G01 X139.9559 Y39.5174
G01 X140.0169 Y39.4956
G01 X140.0325 Y39.4909
G01 X140.0953 Y39.4751
G01 X140.1113 Y39.4720
G01 X140.1754 Y39.4625
G01 X140.1915 Y39.4609
G01 X140.2644 Y39.4575
G01 X141.5852 Y39.4575
G01 X141.6580 Y39.4609
G01 X141.6742 Y39.4625
G01 X141.7383 Y39.4720
G01 X141.7542 Y39.4751
G01 X141.8171 Y39.4909
G01 X141.8326 Y39.4956
G01 X141.8937 Y39.5174
G01 X141.9087 Y39.5236
G01 X141.9673 Y39.5514
G01 X141.9816 Y39.5590
G01 X142.0372 Y39.5923
G01 X142.0507 Y39.6014
G01 X142.1027 Y39.6400
G01 X142.1153 Y39.6503
G01 X142.1633 Y39.6938
G01 X142.1748 Y39.7053
G01 X142.2183 Y39.7533
G01 X142.2286 Y39.7658
G01 X142.2672 Y39.8179
G01 X142.2762 Y39.8314
G01 X142.3096 Y39.8870
G01 X142.3172 Y39.9013
G01 X142.3449 Y39.9599
G01 X142.3511 Y39.9749
G01 X142.3730 Y40.0359
G01 X142.3777 Y40.0515
G01 X142.3934 Y40.1143
G01 X142.3966 Y40.1303
G01 X142.4061 Y40.1944
G01 X142.4077 Y40.2105
G01 X142.4109 Y40.2753
G01 X142.4109 Y40.2915
G01 X142.4077 Y40.3562
G01 X142.4061 Y40.3724
G01 X142.3966 Y40.4365
G01 X142.3934 Y40.4524
G01 X142.3777 Y40.5153
G01 X142.3730 Y40.5308
G01 X142.3511 Y40.5919
G01 X142.3449 Y40.6069
G01 X142.3172 Y40.6655
G01 X142.3096 Y40.6798
G01 X142.2762 Y40.7354
G01 X142.2672 Y40.7489
G01 X142.2286 Y40.8009
G01 X142.2183 Y40.8135
G01 X142.1748 Y40.8615
G01 X142.1633 Y40.8730
G01 X142.1153 Y40.9165
G01 X142.1027 Y40.9268
G01 X142.0507 Y40.9654
G01 X142.0372 Y40.9744
G01 X141.9816 Y41.0078
G01 X141.9673 Y41.0154
G01 X141.9087 Y41.0431
G01 X141.8937 Y41.0493
G01 X141.8326 Y41.0712
G01 X141.8171 Y41.0759
G01 X141.7542 Y41.0916
G01 X141.7383 Y41.0948
G01 X141.6742 Y41.1043
G01 X141.6580 Y41.1059
G01 X141.5905 Y41.1092
G01 X141.5905 Y45.3634
G01 X141.5879 Y45.4205
G01 X141.5863 Y45.4367
G01 X141.5791 Y45.4853
G01 X141.5760 Y45.5012
G01 X141.5640 Y45.5488
G01 X141.5593 Y45.5644
G01 X141.5428 Y45.6106
G01 X141.5366 Y45.6256
G01 X141.5156 Y45.6700
G01 X141.5079 Y45.6843
G01 X141.4827 Y45.7264
G01 X141.4737 Y45.7399
G01 X141.4444 Y45.7793
G01 X141.4341 Y45.7919
G01 X141.4011 Y45.8283
G01 X141.3897 Y45.8397
G01 X141.3533 Y45.8727
G01 X141.3407 Y45.8830
G01 X141.3013 Y45.9123
G01 X141.2878 Y45.9213
G01 X141.2457 Y45.9465
G01 X141.2314 Y45.9542
G01 X141.1870 Y45.9752
G01 X141.1720 Y45.9814
G01 X141.1258 Y45.9979
G01 X141.1102 Y46.0026
G01 X141.0626 Y46.0146
G01 X141.0467 Y46.0177
G01 X140.9981 Y46.0249
G01 X140.9819 Y46.0265
G01 X140.9248 Y46.0291
G01 X39.3167 Y46.0289
G01 X39.2676 Y46.0265
G01 X39.2515 Y46.0249
G01 X39.2029 Y46.0177
G01 X39.1870 Y46.0146
G01 X39.1394 Y46.0026
G01 X39.1238 Y45.9979
G01 X39.0776 Y45.9814
G01 X39.0626 Y45.9752
G01 X39.0182 Y45.9542
G01 X39.0039 Y45.9465
G01 X38.9618 Y45.9213
G01 X38.9483 Y45.9123
G01 X38.9088 Y45.8830
G01 X38.8963 Y45.8727
G01 X38.8599 Y45.8397
G01 X38.8484 Y45.8283
G01 X38.8155 Y45.7919
G01 X38.8052 Y45.7793
G01 X38.7759 Y45.7399
G01 X38.7669 Y45.7264
G01 X38.7417 Y45.6843
G01 X38.7340 Y45.6700
G01 X38.7130 Y45.6256
G01 X38.7068 Y45.6106
G01 X38.6903 Y45.5644
G01 X38.6855 Y45.5488
G01 X38.6736 Y45.5012
G01 X38.6704 Y45.4853
G01 X38.6632 Y45.4367
G01 X38.6616 Y45.4205
G01 X38.6590 Y45.3634
G01 X38.6590 Y41.1092
G01 X38.5915 Y41.1059
G01 X38.5754 Y41.1043
G01 X38.5113 Y41.0948
G01 X38.4953 Y41.0916
G01 X38.4325 Y41.0759
G01 X38.4169 Y41.0712
G01 X38.3559 Y41.0493
G01 X38.3409 Y41.0431
G01 X38.2823 Y41.0154
G01 X38.2680 Y41.0078
G01 X38.2124 Y40.9744
G01 X38.1989 Y40.9654
G01 X38.1769 Y40.9491
G01 X37.4505 Y40.9491
G01 X37.4505 Y42.1782
G01 X37.4964 Y42.2288
G01 X37.5068 Y42.2414
G01 X37.5513 Y42.3015
G01 X37.5603 Y42.3150
G01 X37.5988 Y42.3791
G01 X37.6064 Y42.3934
G01 X37.6384 Y42.4610
G01 X37.6446 Y42.4760
G01 X37.6698 Y42.5464
G01 X37.6745 Y42.5620
G01 X37.6927 Y42.6345
G01 X37.6959 Y42.6504
G01 X37.7068 Y42.7244
G01 X37.7084 Y42.7406
G01 X37.7121 Y42.8153
G01 X37.7121 Y42.8315
G01 X37.7084 Y42.9062
G01 X37.7068 Y42.9224
G01 X37.6959 Y42.9963
G01 X37.6927 Y43.0123
G01 X37.6745 Y43.0848
G01 X37.6698 Y43.1003
G01 X37.6446 Y43.1707
G01 X37.6384 Y43.1857
G01 X37.6064 Y43.2533
G01 X37.5988 Y43.2677
G01 X37.5603 Y43.3318
G01 X37.5513 Y43.3453
G01 X37.5068 Y43.4054
G01 X37.4964 Y43.4179
G01 X37.4462 Y43.4733
G01 X37.4347 Y43.4848
G01 X37.3793 Y43.5350
G01 X37.3668 Y43.5453
G01 X37.3067 Y43.5899
G01 X37.2932 Y43.5989
G01 X37.2291 Y43.6374
G01 X37.2148 Y43.6450
G01 X37.1472 Y43.6770
G01 X37.1321 Y43.6832
G01 X37.0617 Y43.7084
G01 X37.0462 Y43.7131
G01 X36.9737 Y43.7313
G01 X36.9577 Y43.7344
G01 X36.8838 Y43.7454
G01 X36.8676 Y43.7470
G01 X36.7929 Y43.7507
G01 X36.7767 Y43.7507
G01 X36.7020 Y43.7470
G01 X36.6858 Y43.7454
G01 X36.6118 Y43.7344
G01 X36.5959 Y43.7313
G01 X36.5234 Y43.7131
G01 X36.5078 Y43.7084
G01 X36.4374 Y43.6832
G01 X36.4224 Y43.6770
G01 X36.3548 Y43.6450
G01 X36.3405 Y43.6374
G01 X36.2764 Y43.5989
G01 X36.2629 Y43.5899
G01 X36.2028 Y43.5453
G01 X36.1902 Y43.5350
G01 X36.1348 Y43.4848
G01 X36.1233 Y43.4733
G01 X36.0731 Y43.4179
G01 X36.0628 Y43.4054
G01 X36.0183 Y43.3453
G01 X36.0093 Y43.3318
G01 X35.9708 Y43.2677
G01 X35.9632 Y43.2533
G01 X35.9312 Y43.1857
G01 X35.9250 Y43.1707
G01 X35.8998 Y43.1003
G01 X35.8951 Y43.0848
G01 X35.8769 Y43.0123
G01 X35.8737 Y42.9963
G01 X35.8628 Y42.9224
G01 X35.8612 Y42.9062
G01 X35.8575 Y42.8315
G01 X35.8575 Y42.8153
G01 X35.8612 Y42.7406
G01 X35.8628 Y42.7244
G01 X35.8737 Y42.6504
G01 X35.8769 Y42.6345
G01 X35.8951 Y42.5620
G01 X35.8998 Y42.5464
G01 X35.9250 Y42.4760
G01 X35.9312 Y42.4610
G01 X35.9632 Y42.3934
G01 X35.9708 Y42.3791
G01 X36.0093 Y42.3150
G01 X36.0183 Y42.3015
G01 X36.0628 Y42.2414
G01 X36.0731 Y42.2288
G01 X36.1190 Y42.1782
G01 X36.1190 Y40.9491
G01 X32.3705 Y40.9491
G01 X32.3705 Y44.5376
G01 X32.4380 Y44.5409
G01 X32.4542 Y44.5425
G01 X32.5183 Y44.5520
G01 X32.5342 Y44.5551
G01 X32.5971 Y44.5709
G01 X32.6126 Y44.5756
G01 X32.6737 Y44.5974
G01 X32.6887 Y44.6036
G01 X32.7473 Y44.6314
G01 X32.7616 Y44.6390
G01 X32.8172 Y44.6723
G01 X32.8307 Y44.6814
G01 X32.8827 Y44.7200
G01 X32.8953 Y44.7303
G01 X32.9433 Y44.7738
G01 X32.9548 Y44.7853
G01 X32.9983 Y44.8333
G01 X33.0086 Y44.8458
G01 X33.0472 Y44.8979
G01 X33.0562 Y44.9114
G01 X33.0896 Y44.9670
G01 X33.0972 Y44.9813
G01 X33.1249 Y45.0399
G01 X33.1311 Y45.0549
G01 X33.1530 Y45.1159
G01 X33.1577 Y45.1315
G01 X33.1734 Y45.1943
G01 X33.1766 Y45.2103
G01 X33.1861 Y45.2744
G01 X33.1877 Y45.2905
G01 X33.1909 Y45.3553
G01 X33.1909 Y45.3715
G01 X33.1877 Y45.4362
G01 X33.1861 Y45.4524
G01 X33.1766 Y45.5165
G01 X33.1734 Y45.5324
G01 X33.1577 Y45.5953
G01 X33.1530 Y45.6108
G01 X33.1311 Y45.6719
G01 X33.1249 Y45.6869
G01 X33.0972 Y45.7455
G01 X33.0896 Y45.7598
G01 X33.0562 Y45.8154
G01 X33.0472 Y45.8289
G01 X33.0086 Y45.8809
G01 X32.9983 Y45.8935
G01 X32.9548 Y45.9415
G01 X32.9433 Y45.9530
G01 X32.8953 Y45.9965
G01 X32.8827 Y46.0068
G01 X32.8307 Y46.0454
G01 X32.8172 Y46.0544
G01 X32.7616 Y46.0878
G01 X32.7473 Y46.0954
G01 X32.6887 Y46.1231
G01 X32.6737 Y46.1293
G01 X32.6126 Y46.1512
G01 X32.5971 Y46.1559
G01 X32.5342 Y46.1716
G01 X32.5183 Y46.1748
G01 X32.4542 Y46.1843
G01 X32.4380 Y46.1859
G01 X32.3652 Y46.1893
G01 X31.0444 Y46.1893
G01 X30.9715 Y46.1859
G01 X30.9554 Y46.1843
G01 X30.8913 Y46.1748
G01 X30.8753 Y46.1716
G01 X30.8125 Y46.1559
G01 X30.7969 Y46.1512
G01 X30.7359 Y46.1293
G01 X30.7209 Y46.1231
G01 X30.6623 Y46.0954
G01 X30.6480 Y46.0878
G01 X30.5924 Y46.0544
G01 X30.5789 Y46.0454
G01 X30.5268 Y46.0068
G01 X30.5143 Y45.9965
G01 X30.4663 Y45.9530
G01 X30.4548 Y45.9415
G01 X30.4113 Y45.8935
G01 X30.4010 Y45.8809
G01 X30.3624 Y45.8289
G01 X30.3533 Y45.8154
G01 X30.3200 Y45.7598
G01 X30.3124 Y45.7455
G01 X30.2847 Y45.6869
G01 X30.2784 Y45.6719
G01 X30.2566 Y45.6108
G01 X30.2519 Y45.5953
G01 X30.2361 Y45.5324
G01 X30.2330 Y45.5165
G01 X30.2235 Y45.4524
G01 X30.2219 Y45.4362
G01 X30.2187 Y45.3715
G01 X30.2187 Y45.3553
G01 X30.2219 Y45.2905
G01 X30.2235 Y45.2744
G01 X30.2330 Y45.2103
G01 X30.2361 Y45.1943
G01 X30.2519 Y45.1315
G01 X30.2566 Y45.1159
G01 X30.2784 Y45.0549
G01 X30.2847 Y45.0399
G01 X30.3124 Y44.9813
G01 X30.3200 Y44.9670
G01 X30.3533 Y44.9114
G01 X30.3624 Y44.8979
G01 X30.4010 Y44.8458
G01 X30.4113 Y44.8333
G01 X30.4548 Y44.7853
G01 X30.4663 Y44.7738
G01 X30.5143 Y44.7303
G01 X30.5268 Y44.7200
G01 X30.5789 Y44.6814
G01 X30.5924 Y44.6723
G01 X30.6480 Y44.6390
G01 X30.6623 Y44.6314
G01 X30.7209 Y44.6036
G01 X30.7359 Y44.5974
G01 X30.7969 Y44.5756
G01 X30.8125 Y44.5709
G01 X30.8753 Y44.5551
G01 X30.8913 Y44.5520
G01 X30.9554 Y44.5425
G01 X30.9715 Y44.5409
G01 X31.0390 Y44.5376
G01 X31.0390 Y40.2834
G01 X31.0416 Y40.2262
G01 X31.0432 Y40.2101
G01 X31.0504 Y40.1615
G01 X31.0536 Y40.1456
G01 X31.0655 Y40.0980
G01 X31.0703 Y40.0824
G01 X31.0868 Y40.0362
G01 X31.0930 Y40.0212
G01 X31.1140 Y39.9768
G01 X31.1217 Y39.9625
G01 X31.1469 Y39.9204
G01 X31.1559 Y39.9069
G01 X31.1852 Y39.8674
G01 X31.1955 Y39.8549
G01 X31.2284 Y39.8185
G01 X31.2399 Y39.8070
G01 X31.2763 Y39.7741
G01 X31.2888 Y39.7638
G01 X31.3283 Y39.7345
G01 X31.3418 Y39.7255
G01 X31.3839 Y39.7003
G01 X31.3982 Y39.6926
G01 X31.4426 Y39.6716
G01 X31.4576 Y39.6654
G01 X31.5038 Y39.6489
G01 X31.5194 Y39.6441
G01 X31.5670 Y39.6322
G01 X31.5829 Y39.6290
G01 X31.6315 Y39.6218
G01 X31.6476 Y39.6202
G01 X31.7048 Y39.6176
G01 X33.5790 Y39.6176
G01 X33.5790 Y30.7891
G01 X24.7300 Y30.7891
G01 X24.6793 Y30.8350
G01 X24.6668 Y30.8453
G01 X24.6067 Y30.8899
G01 X24.5932 Y30.8989
G01 X24.5291 Y30.9374
G01 X24.5148 Y30.9450
G01 X24.4472 Y30.9770
G01 X24.4321 Y30.9832
G01 X24.3617 Y31.0084
G01 X24.3462 Y31.0131
G01 X24.2737 Y31.0313
G01 X24.2577 Y31.0344
G01 X24.1838 Y31.0454
G01 X24.1676 Y31.0470
G01 X24.0929 Y31.0507
G01 X24.0767 Y31.0507
G01 X24.0020 Y31.0470
G01 X23.9858 Y31.0454
G01 X23.9118 Y31.0344
G01 X23.8959 Y31.0313
G01 X23.8234 Y31.0131
G01 X23.8078 Y31.0084
G01 X23.7374 Y30.9832
G01 X23.7224 Y30.9770
G01 X23.6548 Y30.9450
G01 X23.6405 Y30.9374
G01 X23.5764 Y30.8989
G01 X23.5629 Y30.8899
G01 X23.5028 Y30.8453
G01 X23.4902 Y30.8350
G01 X23.4348 Y30.7848
G01 X23.4233 Y30.7733
G01 X23.3731 Y30.7179
G01 X23.3628 Y30.7054
G01 X23.3183 Y30.6453
G01 X23.3093 Y30.6318
G01 X23.2708 Y30.5677
G01 X23.2632 Y30.5533
G01 X23.2312 Y30.4857
G01 X23.2250 Y30.4707
G01 X23.1998 Y30.4003
G01 X23.1951 Y30.3848
G01 X23.1769 Y30.3123
G01 X23.1737 Y30.2963
G01 X23.1628 Y30.2224
G01 X23.1612 Y30.2062
G01 X23.1575 Y30.1315
G01 X23.1575 Y30.1153
G01 X23.1612 Y30.0406
G01 X23.1628 Y30.0244
G01 X23.1737 Y29.9504
G01 X23.1769 Y29.9345
G01 X23.1951 Y29.8620
G01 X23.1998 Y29.8464
G01 X23.2250 Y29.7760
G01 X23.2312 Y29.7610
G01 X23.2632 Y29.6934
G01 X23.2708 Y29.6791
G01 X23.3093 Y29.6150
G01 X23.3183 Y29.6015
G01 X23.3628 Y29.5414
G01 X23.3731 Y29.5288
G01 X23.4233 Y29.4734
G01 X23.4348 Y29.4619
G01 X23.4902 Y29.4117
G01 X23.5028 Y29.4014
G01 X23.5629 Y29.3569
G01 X23.5764 Y29.3479
G01 X23.6405 Y29.3094
G01 X23.6548 Y29.3018
G01 X23.7224 Y29.2698
G01 X23.7374 Y29.2636
G01 X23.8078 Y29.2384
G01 X23.8234 Y29.2337
G01 X23.8959 Y29.2155
G01 X23.9118 Y29.2123
G01 X23.9858 Y29.2013
G01 X24.0020 Y29.1998
G01 X24.0767 Y29.1961
G01 X24.0929 Y29.1961
G01 X24.1676 Y29.1998
G01 X24.1838 Y29.2013
G01 X24.2577 Y29.2123
G01 X24.2737 Y29.2155
G01 X24.3462 Y29.2337
G01 X24.3617 Y29.2384
G01 X24.4321 Y29.2636
G01 X24.4472 Y29.2698
G01 X24.5148 Y29.3018
G01 X24.5291 Y29.3094
G01 X24.5932 Y29.3479
G01 X24.6067 Y29.3569
G01 X24.6668 Y29.4014
G01 X24.6793 Y29.4117
G01 X24.7300 Y29.4576
G00 Z2.0000
G00 X24.7300 Y31.9976
G01 F60.00
G01 Z-0.2001
G01 F320.00
G01 X29.1648 Y31.9976
G01 X29.2219 Y32.0002
G01 X29.2381 Y32.0018
G01 X29.2867 Y32.0090
G01 X29.3026 Y32.0122
G01 X29.3502 Y32.0241
G01 X29.3658 Y32.0289
G01 X29.4120 Y32.0454
G01 X29.4270 Y32.0516
G01 X29.4714 Y32.0726
G01 X29.4857 Y32.0803
G01 X29.5278 Y32.1055
G01 X29.5413 Y32.1145
G01 X29.5807 Y32.1438
G01 X29.5933 Y32.1541
G01 X29.6297 Y32.1870
G01 X29.6411 Y32.1985
G01 X29.6741 Y32.2349
G01 X29.6844 Y32.2474
G01 X29.7137 Y32.2869
G01 X29.7227 Y32.3004
G01 X29.7479 Y32.3425
G01 X29.7556 Y32.3568
G01 X29.7766 Y32.4012
G01 X29.7828 Y32.4162
G01 X29.7993 Y32.4624
G01 X29.8040 Y32.4780
G01 X29.8160 Y32.5256
G01 X29.8191 Y32.5415
G01 X29.8263 Y32.5901
G01 X29.8279 Y32.6062
G01 X29.8305 Y32.6634
G01 X29.8303 Y45.3715
G01 X29.8279 Y45.4205
G01 X29.8263 Y45.4367
G01 X29.8191 Y45.4853
G01 X29.8160 Y45.5012
G01 X29.8040 Y45.5488
G01 X29.7993 Y45.5644
G01 X29.7828 Y45.6106
G01 X29.7766 Y45.6256
G01 X29.7556 Y45.6700
G01 X29.7479 Y45.6843
G01 X29.7227 Y45.7264
G01 X29.7137 Y45.7399
G01 X29.6844 Y45.7793
G01 X29.6741 Y45.7919
G01 X29.6411 Y45.8283
G01 X29.6297 Y45.8397
G01 X29.5933 Y45.8727
G01 X29.5807 Y45.8830
G01 X29.5413 Y45.9123
G01 X29.5278 Y45.9213
G01 X29.4857 Y45.9465
G01 X29.4714 Y45.9542
G01 X29.4270 Y45.9752
G01 X29.4120 Y45.9814
G01 X29.3658 Y45.9979
G01 X29.3502 Y46.0026
G01 X29.3026 Y46.0146
G01 X29.2867 Y46.0177
G01 X29.2381 Y46.0249
G01 X29.2219 Y46.0265
G01 X29.1648 Y46.0291
G01 X27.7726 Y46.0291
G01 X27.7507 Y46.0454
G01 X27.7372 Y46.0544
G01 X27.6816 Y46.0878
G01 X27.6673 Y46.0954
G01 X27.6087 Y46.1231
G01 X27.5937 Y46.1293
G01 X27.5326 Y46.1512
G01 X27.5171 Y46.1559
G01 X27.4542 Y46.1716
G01 X27.4383 Y46.1748
G01 X27.3742 Y46.1843
G01 X27.3580 Y46.1859
G01 X27.2852 Y46.1893
G01 X25.9644 Y46.1893
G01 X25.8915 Y46.1859
G01 X25.8754 Y46.1843
G01 X25.8113 Y46.1748
G01 X25.7953 Y46.1716
G01 X25.7325 Y46.1559
G01 X25.7169 Y46.1512
G01 X25.6559 Y46.1293
G01 X25.6409 Y46.1231
G01 X25.5823 Y46.0954
G01 X25.5680 Y46.0878
G01 X25.5124 Y46.0544
G01 X25.4989 Y46.0454
G01 X25.4468 Y46.0068
G01 X25.4343 Y45.9965
G01 X25.3863 Y45.9530
G01 X25.3748 Y45.9415
G01 X25.3313 Y45.8935
G01 X25.3210 Y45.8809
G01 X25.2824 Y45.8289
G01 X25.2733 Y45.8154
G01 X25.2400 Y45.7598
G01 X25.2324 Y45.7455
G01 X25.2047 Y45.6869
G01 X25.1984 Y45.6719
G01 X25.1766 Y45.6108
G01 X25.1719 Y45.5953
G01 X25.1561 Y45.5324
G01 X25.1530 Y45.5165
G01 X25.1435 Y45.4524
G01 X25.1419 Y45.4362
G01 X25.1387 Y45.3715
G01 X25.1387 Y45.3553
G01 X25.1419 Y45.2905
G01 X25.1435 Y45.2744
G01 X25.1530 Y45.2103
G01 X25.1561 Y45.1943
G01 X25.1719 Y45.1315
G01 X25.1766 Y45.1159
G01 X25.1984 Y45.0549
G01 X25.2047 Y45.0399
G01 X25.2324 Y44.9813
G01 X25.2400 Y44.9670
G01 X25.2733 Y44.9114
G01 X25.2824 Y44.8979
G01 X25.3210 Y44.8458
G01 X25.3313 Y44.8333
G01 X25.3748 Y44.7853
G01 X25.3863 Y44.7738
G01 X25.4343 Y44.7303
G01 X25.4468 Y44.7200
G01 X25.4989 Y44.6814
G01 X25.5124 Y44.6723
G01 X25.5680 Y44.6390
G01 X25.5823 Y44.6314
G01 X25.6409 Y44.6036
G01 X25.6559 Y44.5974
G01 X25.7169 Y44.5756
G01 X25.7325 Y44.5709
G01 X25.7953 Y44.5551
G01 X25.8113 Y44.5520
G01 X25.8754 Y44.5425
G01 X25.8915 Y44.5409
G01 X25.9644 Y44.5375
G01 X27.2933 Y44.5377
G01 X27.3580 Y44.5409
G01 X27.3742 Y44.5425
G01 X27.4383 Y44.5520
G01 X27.4542 Y44.5551
G01 X27.5171 Y44.5709
G01 X27.5326 Y44.5756
G01 X27.5937 Y44.5974
G01 X27.6087 Y44.6036
G01 X27.6673 Y44.6314
G01 X27.6816 Y44.6390
G01 X27.7372 Y44.6723
G01 X27.7507 Y44.6814
G01 X27.7726 Y44.6976
G01 X28.4990 Y44.6976
G01 X28.4990 Y33.3291
G01 X24.7300 Y33.3291
G01 X24.6793 Y33.3750
G01 X24.6668 Y33.3853
G01 X24.6067 Y33.4299
G01 X24.5932 Y33.4389
G01 X24.5291 Y33.4774
G01 X24.5148 Y33.4850
G01 X24.4472 Y33.5170
G01 X24.4321 Y33.5232
G01 X24.3617 Y33.5484
G01 X24.3462 Y33.5531
G01 X24.2737 Y33.5713
G01 X24.2577 Y33.5744
G01 X24.1838 Y33.5854
G01 X24.1676 Y33.5870
G01 X24.0929 Y33.5907
G01 X24.0767 Y33.5907
G01 X24.0020 Y33.5870
G01 X23.9858 Y33.5854
G01 X23.9118 Y33.5744
G01 X23.8959 Y33.5713
G01 X23.8234 Y33.5531
G01 X23.8078 Y33.5484
G01 X23.7374 Y33.5232
G01 X23.7224 Y33.5170
G01 X23.6548 Y33.4850
G01 X23.6405 Y33.4774
G01 X23.5764 Y33.4389
G01 X23.5629 Y33.4299
G01 X23.5028 Y33.3853
G01 X23.4902 Y33.3750
G01 X23.4348 Y33.3248
G01 X23.4233 Y33.3133
G01 X23.3731 Y33.2579
G01 X23.3628 Y33.2454
G01 X23.3183 Y33.1853
G01 X23.3093 Y33.1718
G01 X23.2708 Y33.1077
G01 X23.2632 Y33.0933
G01 X23.2312 Y33.0257
G01 X23.2250 Y33.0107
G01 X23.1998 Y32.9403
G01 X23.1951 Y32.9248
G01 X23.1769 Y32.8523
G01 X23.1737 Y32.8363
G01 X23.1628 Y32.7624
G01 X23.1612 Y32.7462
G01 X23.1575 Y32.6715
G01 X23.1575 Y32.6553
G01 X23.1612 Y32.5806
G01 X23.1628 Y32.5644
G01 X23.1737 Y32.4904
G01 X23.1769 Y32.4745
G01 X23.1951 Y32.4020
G01 X23.1998 Y32.3864
G01 X23.2250 Y32.3160
G01 X23.2312 Y32.3010
G01 X23.2632 Y32.2334
G01 X23.2708 Y32.2191
G01 X23.3093 Y32.1550
G01 X23.3183 Y32.1415
G01 X23.3628 Y32.0814
G01 X23.3731 Y32.0688
G01 X23.4233 Y32.0134
G01 X23.4348 Y32.0019
G01 X23.4902 Y31.9517
G01 X23.5028 Y31.9414
G01 X23.5629 Y31.8969
G01 X23.5764 Y31.8879
G01 X23.6405 Y31.8494
G01 X23.6548 Y31.8418
G01 X23.7224 Y31.8098
G01 X23.7374 Y31.8036
G01 X23.8078 Y31.7784
G01 X23.8234 Y31.7737
G01 X23.8959 Y31.7555
G01 X23.9118 Y31.7523
G01 X23.9858 Y31.7413
G01 X24.0020 Y31.7398
G01 X24.0767 Y31.7361
G01 X24.0929 Y31.7361
G01 X24.1676 Y31.7398
G01 X24.1838 Y31.7413
G01 X24.2577 Y31.7523
G01 X24.2737 Y31.7555
G01 X24.3462 Y31.7737
G01 X24.3617 Y31.7784
G01 X24.4321 Y31.8036
G01 X24.4472 Y31.8098
G01 X24.5148 Y31.8418
G01 X24.5291 Y31.8494
G01 X24.5932 Y31.8879
G01 X24.6067 Y31.8969
G01 X24.6668 Y31.9414
G01 X24.6793 Y31.9517
G01 X24.7300 Y31.9976
G00 Z2.0000
G00 X24.7300 Y34.5376
G01 F60.00
G01 Z-0.2001
G01 F320.00
G01 X26.6248 Y34.5376
G01 X26.6819 Y34.5402
G01 X26.6981 Y34.5418
G01 X26.7467 Y34.5490
G01 X26.7626 Y34.5522
G01 X26.8102 Y34.5641
G01 X26.8258 Y34.5689
G01 X26.8720 Y34.5854
G01 X26.8870 Y34.5916
G01 X26.9314 Y34.6126
G01 X26.9457 Y34.6203
G01 X26.9878 Y34.6455
G01 X27.0013 Y34.6545
G01 X27.0407 Y34.6838
G01 X27.0533 Y34.6941
G01 X27.0897 Y34.7270
G01 X27.1011 Y34.7385
G01 X27.1341 Y34.7749
G01 X27.1444 Y34.7874
G01 X27.1737 Y34.8269
G01 X27.1827 Y34.8404
G01 X27.2079 Y34.8825
G01 X27.2156 Y34.8968
G01 X27.2366 Y34.9412
G01 X27.2428 Y34.9562
G01 X27.2593 Y35.0024
G01 X27.2640 Y35.0180
G01 X27.2760 Y35.0656
G01 X27.2791 Y35.0815
G01 X27.2863 Y35.1301
G01 X27.2879 Y35.1462
G01 X27.2905 Y35.2034
G01 X27.2905 Y36.9176
G01 X27.3580 Y36.9209
G01 X27.3742 Y36.9225
G01 X27.4383 Y36.9320
G01 X27.4542 Y36.9351
G01 X27.5171 Y36.9509
G01 X27.5326 Y36.9556
G01 X27.5937 Y36.9774
G01 X27.6087 Y36.9836
G01 X27.6673 Y37.0114
G01 X27.6816 Y37.0190
G01 X27.7372 Y37.0523
G01 X27.7507 Y37.0614
G01 X27.8027 Y37.1000
G01 X27.8153 Y37.1103
G01 X27.8633 Y37.1538
G01 X27.8748 Y37.1653
G01 X27.9183 Y37.2133
G01 X27.9286 Y37.2258
G01 X27.9672 Y37.2779
G01 X27.9762 Y37.2914
G01 X28.0096 Y37.3470
G01 X28.0172 Y37.3613
G01 X28.0449 Y37.4199
G01 X28.0511 Y37.4349
G01 X28.0730 Y37.4959
G01 X28.0777 Y37.5115
G01 X28.0934 Y37.5743
G01 X28.0966 Y37.5903
G01 X28.1061 Y37.6544
G01 X28.1077 Y37.6705
G01 X28.1109 Y37.7353
G01 X28.1109 Y37.7515
G01 X28.1077 Y37.8162
G01 X28.1061 Y37.8324
G01 X28.0966 Y37.8965
G01 X28.0934 Y37.9124
G01 X28.0777 Y37.9753
G01 X28.0730 Y37.9908
G01 X28.0511 Y38.0519
G01 X28.0449 Y38.0669
G01 X28.0172 Y38.1255
G01 X28.0096 Y38.1398
G01 X27.9762 Y38.1954
G01 X27.9672 Y38.2089
G01 X27.9286 Y38.2609
G01 X27.9183 Y38.2735
G01 X27.8748 Y38.3215
G01 X27.8633 Y38.3330
G01 X27.8153 Y38.3765
G01 X27.8027 Y38.3868
G01 X27.7507 Y38.4254
G01 X27.7372 Y38.4344
G01 X27.6816 Y38.4678
G01 X27.6673 Y38.4754
G01 X27.6087 Y38.5031
G01 X27.5937 Y38.5093
G01 X27.5326 Y38.5312
G01 X27.5171 Y38.5359
G01 X27.4542 Y38.5516
G01 X27.4383 Y38.5548
G01 X27.3742 Y38.5643
G01 X27.3580 Y38.5659
G01 X27.2852 Y38.5693
G01 X25.9644 Y38.5693
G01 X25.8915 Y38.5659
G01 X25.8754 Y38.5643
G01 X25.8113 Y38.5548
G01 X25.7953 Y38.5516
G01 X25.7325 Y38.5359
G01 X25.7169 Y38.5312
G01 X25.6559 Y38.5093
G01 X25.6409 Y38.5031
G01 X25.5823 Y38.4754
G01 X25.5680 Y38.4678
G01 X25.5124 Y38.4344
G01 X25.4989 Y38.4254
G01 X25.4468 Y38.3868
G01 X25.4343 Y38.3765
G01 X25.3863 Y38.3330
G01 X25.3748 Y38.3215
G01 X25.3313 Y38.2735
G01 X25.3210 Y38.2609
G01 X25.2824 Y38.2089
G01 X25.2733 Y38.1954
G01 X25.2400 Y38.1398
G01 X25.2324 Y38.1255
G01 X25.2047 Y38.0669
G01 X25.1984 Y38.0519
G01 X25.1766 Y37.9908
G01 X25.1719 Y37.9753
G01 X25.1561 Y37.9124
G01 X25.1530 Y37.8965
G01 X25.1435 Y37.8324
G01 X25.1419 Y37.8162
G01 X25.1387 Y37.7515
G01 X25.1387 Y37.7353
G01 X25.1419 Y37.6705
G01 X25.1435 Y37.6544
G01 X25.1530 Y37.5903
G01 X25.1561 Y37.5743
G01 X25.1719 Y37.5115
G01 X25.1766 Y37.4959
G01 X25.1984 Y37.4349
G01 X25.2047 Y37.4199
G01 X25.2324 Y37.3613
G01 X25.2400 Y37.3470
G01 X25.2733 Y37.2914
G01 X25.2824 Y37.2779
G01 X25.3210 Y37.2258
G01 X25.3313 Y37.2133
G01 X25.3748 Y37.1653
G01 X25.3863 Y37.1538
G01 X25.4343 Y37.1103
G01 X25.4468 Y37.1000
G01 X25.4989 Y37.0614
G01 X25.5124 Y37.0523
G01 X25.5680 Y37.0190
G01 X25.5823 Y37.0114
G01 X25.6409 Y36.9836
G01 X25.6559 Y36.9774
G01 X25.7169 Y36.9556
G01 X25.7325 Y36.9509
G01 X25.7953 Y36.9351
G01 X25.8113 Y36.9320
G01 X25.8754 Y36.9225
G01 X25.8915 Y36.9209
G01 X25.9590 Y36.9176
G01 X25.9590 Y35.8691
G01 X24.7300 Y35.8691
G01 X24.6793 Y35.9150
G01 X24.6668 Y35.9253
G01 X24.6067 Y35.9699
G01 X24.5932 Y35.9789
G01 X24.5291 Y36.0174
G01 X24.5148 Y36.0250
G01 X24.4472 Y36.0570
G01 X24.4321 Y36.0632
G01 X24.3617 Y36.0884
G01 X24.3462 Y36.0931
G01 X24.2737 Y36.1113
G01 X24.2577 Y36.1144
G01 X24.1838 Y36.1254
G01 X24.1676 Y36.1270
G01 X24.0929 Y36.1307
G01 X24.0767 Y36.1307
G01 X24.0020 Y36.1270
G01 X23.9858 Y36.1254
G01 X23.9118 Y36.1144
G01 X23.8959 Y36.1113
G01 X23.8234 Y36.0931
G01 X23.8078 Y36.0884
G01 X23.7374 Y36.0632
G01 X23.7224 Y36.0570
G01 X23.6548 Y36.0250
G01 X23.6405 Y36.0174
G01 X23.5764 Y35.9789
G01 X23.5629 Y35.9699
G01 X23.5028 Y35.9253
G01 X23.4902 Y35.9150
G01 X23.4348 Y35.8648
G01 X23.4233 Y35.8533
G01 X23.3731 Y35.7979
G01 X23.3628 Y35.7854
G01 X23.3183 Y35.7253
G01 X23.3093 Y35.7118
G01 X23.2708 Y35.6477
G01 X23.2632 Y35.6333
G01 X23.2312 Y35.5657
G01 X23.2250 Y35.5507
G01 X23.1998 Y35.4803
G01 X23.1951 Y35.4648
G01 X23.1769 Y35.3923
G01 X23.1737 Y35.3763
G01 X23.1628 Y35.3024
G01 X23.1612 Y35.2862
G01 X23.1575 Y35.2115
G01 X23.1575 Y35.1953
G01 X23.1612 Y35.1206
G01 X23.1628 Y35.1044
G01 X23.1737 Y35.0304
G01 X23.1769 Y35.0145
G01 X23.1951 Y34.9420
G01 X23.1998 Y34.9264
G01 X23.2250 Y34.8560
G01 X23.2312 Y34.8410
G01 X23.2632 Y34.7734
G01 X23.2708 Y34.7591
G01 X23.3093 Y34.6950
G01 X23.3183 Y34.6815
G01 X23.3628 Y34.6214
G01 X23.3731 Y34.6088
G01 X23.4233 Y34.5534
G01 X23.4348 Y34.5419
G01 X23.4902 Y34.4917
G01 X23.5028 Y34.4814
G01 X23.5629 Y34.4369
G01 X23.5764 Y34.4279
G01 X23.6405 Y34.3894
G01 X23.6548 Y34.3818
G01 X23.7224 Y34.3498
G01 X23.7374 Y34.3436
G01 X23.8078 Y34.3184
G01 X23.8234 Y34.3137
G01 X23.8959 Y34.2955
G01 X23.9118 Y34.2923
G01 X23.9858 Y34.2813
G01 X24.0020 Y34.2798
G01 X24.0767 Y34.2761
G01 X24.0929 Y34.2761
G01 X24.1676 Y34.2798
G01 X24.1838 Y34.2813
G01 X24.2577 Y34.2923
G01 X24.2737 Y34.2955
G01 X24.3462 Y34.3137
G01 X24.3617 Y34.3184
G01 X24.4321 Y34.3436
G01 X24.4472 Y34.3498
G01 X24.5148 Y34.3818
G01 X24.5291 Y34.3894
G01 X24.5932 Y34.4279
G01 X24.6067 Y34.4369
G01 X24.6668 Y34.4814
G01 X24.6793 Y34.4917
G01 X24.7300 Y34.5376
G00 Z2.0000
G00 X32.3652 Y36.9175
G01 F60.00
G01 Z-0.2001
G01 F320.00
G01 X32.4380 Y36.9209
G01 X32.4542 Y36.9225
G01 X32.5183 Y36.9320
G01 X32.5342 Y36.9351
G01 X32.5971 Y36.9509
G01 X32.6126 Y36.9556
G01 X32.6737 Y36.9774
G01 X32.6887 Y36.9836
G01 X32.7473 Y37.0114
G01 X32.7616 Y37.0190
G01 X32.8172 Y37.0523
G01 X32.8307 Y37.0614
G01 X32.8827 Y37.1000
G01 X32.8953 Y37.1103
G01 X32.9433 Y37.1538
G01 X32.9548 Y37.1653
G01 X32.9983 Y37.2133
G01 X33.0086 Y37.2258
G01 X33.0472 Y37.2779
G01 X33.0562 Y37.2914
G01 X33.0896 Y37.3470
G01 X33.0972 Y37.3613
G01 X33.1249 Y37.4199
G01 X33.1311 Y37.4349
G01 X33.1530 Y37.4959
G01 X33.1577 Y37.5115
G01 X33.1734 Y37.5743
G01 X33.1766 Y37.5903
G01 X33.1861 Y37.6544
G01 X33.1877 Y37.6705
G01 X33.1909 Y37.7353
G01 X33.1909 Y37.7515
G01 X33.1877 Y37.8162
G01 X33.1861 Y37.8324
G01 X33.1766 Y37.8965
G01 X33.1734 Y37.9124
G01 X33.1577 Y37.9753
G01 X33.1530 Y37.9908
G01 X33.1311 Y38.0519
G01 X33.1249 Y38.0669
G01 X33.0972 Y38.1255
G01 X33.0896 Y38.1398
G01 X33.0562 Y38.1954
G01 X33.0472 Y38.2089
G01 X33.0086 Y38.2609
G01 X32.9983 Y38.2735
G01 X32.9548 Y38.3215
G01 X32.9433 Y38.3330
G01 X32.8953 Y38.3765
G01 X32.8827 Y38.3868
G01 X32.8307 Y38.4254
G01 X32.8172 Y38.4344
G01 X32.7616 Y38.4678
G01 X32.7473 Y38.4754
G01 X32.6887 Y38.5031
G01 X32.6737 Y38.5093
G01 X32.6126 Y38.5312
G01 X32.5971 Y38.5359
G01 X32.5342 Y38.5516
G01 X32.5183 Y38.5548
G01 X32.4542 Y38.5643
G01 X32.4380 Y38.5659
G01 X32.3652 Y38.5693
G01 X31.0444 Y38.5693
G01 X30.9715 Y38.5659
G01 X30.9554 Y38.5643
G01 X30.8913 Y38.5548
G01 X30.8753 Y38.5516
G01 X30.8125 Y38.5359
G01 X30.7969 Y38.5312
G01 X30.7359 Y38.5093
G01 X30.7209 Y38.5031
G01 X30.6623 Y38.4754
G01 X30.6480 Y38.4678
G01 X30.5924 Y38.4344
G01 X30.5789 Y38.4254
G01 X30.5268 Y38.3868
G01 X30.5143 Y38.3765
G01 X30.4663 Y38.3330
G01 X30.4548 Y38.3215
G01 X30.4113 Y38.2735
G01 X30.4010 Y38.2609
G01 X30.3624 Y38.2089
G01 X30.3533 Y38.1954
G01 X30.3200 Y38.1398
G01 X30.3124 Y38.1255
G01 X30.2847 Y38.0669
G01 X30.2784 Y38.0519
G01 X30.2566 Y37.9908
G01 X30.2519 Y37.9753
G01 X30.2361 Y37.9124
G01 X30.2330 Y37.8965
G01 X30.2235 Y37.8324
G01 X30.2219 Y37.8162
G01 X30.2187 Y37.7515
G01 X30.2187 Y37.7353
G01 X30.2219 Y37.6705
G01 X30.2235 Y37.6544
G01 X30.2330 Y37.5903
G01 X30.2361 Y37.5743
G01 X30.2519 Y37.5115
G01 X30.2566 Y37.4959
G01 X30.2784 Y37.4349
G01 X30.2847 Y37.4199
G01 X30.3124 Y37.3613
G01 X30.3200 Y37.3470
G01 X30.3533 Y37.2914
G01 X30.3624 Y37.2779
G01 X30.4010 Y37.2258
G01 X30.4113 Y37.2133
G01 X30.4548 Y37.1653
G01 X30.4663 Y37.1538
G01 X30.5143 Y37.1103
G01 X30.5268 Y37.1000
G01 X30.5789 Y37.0614
G01 X30.5924 Y37.0523
G01 X30.6480 Y37.0190
G01 X30.6623 Y37.0114
G01 X30.7209 Y36.9836
G01 X30.7359 Y36.9774
G01 X30.7969 Y36.9556
G01 X30.8125 Y36.9509
G01 X30.8753 Y36.9351
G01 X30.8913 Y36.9320
G01 X30.9554 Y36.9225
G01 X30.9715 Y36.9209
G01 X31.0444 Y36.9175
G01 X32.3652 Y36.9175
G00 Z2.0000
G00 X39.9852 Y36.9175
G01 F60.00
G01 Z-0.2001
G01 F320.00
G01 X40.0580 Y36.9209
G01 X40.0742 Y36.9225
G01 X40.1383 Y36.9320
G01 X40.1542 Y36.9351
G01 X40.2171 Y36.9509
G01 X40.2326 Y36.9556
G01 X40.2937 Y36.9774
G01 X40.3087 Y36.9836
G01 X40.3673 Y37.0114
G01 X40.3816 Y37.0190
G01 X40.4372 Y37.0523
G01 X40.4507 Y37.0614
G01 X40.5027 Y37.1000
G01 X40.5153 Y37.1103
G01 X40.5633 Y37.1538
G01 X40.5748 Y37.1653
G01 X40.6183 Y37.2133
G01 X40.6286 Y37.2258
G01 X40.6672 Y37.2779
G01 X40.6762 Y37.2914
G01 X40.7096 Y37.3470
G01 X40.7172 Y37.3613
G01 X40.7449 Y37.4199
G01 X40.7511 Y37.4349
G01 X40.7730 Y37.4959
G01 X40.7777 Y37.5115
G01 X40.7934 Y37.5743
G01 X40.7966 Y37.5903
G01 X40.8061 Y37.6544
G01 X40.8077 Y37.6705
G01 X40.8109 Y37.7353
G01 X40.8109 Y37.7515
G01 X40.8077 Y37.8162
G01 X40.8061 Y37.8324
G01 X40.7966 Y37.8965
G01 X40.7934 Y37.9124
G01 X40.7777 Y37.9753
G01 X40.7730 Y37.9908
G01 X40.7511 Y38.0519
G01 X40.7449 Y38.0669
G01 X40.7172 Y38.1255
G01 X40.7096 Y38.1398
G01 X40.6762 Y38.1954
G01 X40.6672 Y38.2089
G01 X40.6286 Y38.2609
G01 X40.6183 Y38.2735
G01 X40.5748 Y38.3215
G01 X40.5633 Y38.3330
G01 X40.5153 Y38.3765
G01 X40.5027 Y38.3868
G01 X40.4507 Y38.4254
G01 X40.4372 Y38.4344
G01 X40.3816 Y38.4678
G01 X40.3673 Y38.4754
G01 X40.3087 Y38.5031
G01 X40.2937 Y38.5093
G01 X40.2326 Y38.5312
G01 X40.2171 Y38.5359
G01 X40.1542 Y38.5516
G01 X40.1383 Y38.5548
G01 X40.0742 Y38.5643
G01 X40.0580 Y38.5659
G01 X39.9852 Y38.5693
G01 X38.6644 Y38.5693
G01 X38.5915 Y38.5659
G01 X38.5754 Y38.5643
G01 X38.5113 Y38.5548
G01 X38.4953 Y38.5516
G01 X38.4325 Y38.5359
G01 X38.4169 Y38.5312
G01 X38.3559 Y38.5093
G01 X38.3409 Y38.5031
G01 X38.2823 Y38.4754
G01 X38.2680 Y38.4678
G01 X38.2124 Y38.4344
G01 X38.1989 Y38.4254
G01 X38.1468 Y38.3868
G01 X38.1343 Y38.3765
G01 X38.0863 Y38.3330
G01 X38.0748 Y38.3215
G01 X38.0313 Y38.2735
G01 X38.0210 Y38.2609
G01 X37.9824 Y38.2089
G01 X37.9733 Y38.1954
G01 X37.9400 Y38.1398
G01 X37.9324 Y38.1255
G01 X37.9047 Y38.0669
G01 X37.8984 Y38.0519
G01 X37.8766 Y37.9908
G01 X37.8719 Y37.9753
G01 X37.8561 Y37.9124
G01 X37.8530 Y37.8965
G01 X37.8435 Y37.8324
G01 X37.8419 Y37.8162
G01 X37.8387 Y37.7515
G01 X37.8387 Y37.7353
G01 X37.8419 Y37.6705
G01 X37.8435 Y37.6544
G01 X37.8530 Y37.5903
G01 X37.8561 Y37.5743
G01 X37.8719 Y37.5115
G01 X37.8766 Y37.4959
G01 X37.8984 Y37.4349
G01 X37.9047 Y37.4199
G01 X37.9324 Y37.3613
G01 X37.9400 Y37.3470
G01 X37.9733 Y37.2914
G01 X37.9824 Y37.2779
G01 X38.0210 Y37.2258
G01 X38.0313 Y37.2133
G01 X38.0748 Y37.1653
G01 X38.0863 Y37.1538
G01 X38.1343 Y37.1103
G01 X38.1468 Y37.1000
G01 X38.1989 Y37.0614
G01 X38.2124 Y37.0523
G01 X38.2680 Y37.0190
G01 X38.2823 Y37.0114
G01 X38.3409 Y36.9836
G01 X38.3559 Y36.9774
G01 X38.4169 Y36.9556
G01 X38.4325 Y36.9509
G01 X38.4953 Y36.9351
G01 X38.5113 Y36.9320
G01 X38.5754 Y36.9225
G01 X38.5915 Y36.9209
G01 X38.6644 Y36.9175
G01 X39.9852 Y36.9175
G00 Z2.0000
G00 X43.7390 Y36.9176
G01 F60.00
G01 Z-0.2001
G01 F320.00
G01 X43.7390 Y35.8486
G01 X43.6931 Y35.7979
G01 X43.6828 Y35.7854
G01 X43.6383 Y35.7253
G01 X43.6293 Y35.7118
G01 X43.5908 Y35.6477
G01 X43.5832 Y35.6333
G01 X43.5512 Y35.5657
G01 X43.5450 Y35.5507
G01 X43.5198 Y35.4803
G01 X43.5151 Y35.4648
G01 X43.4969 Y35.3923
G01 X43.4937 Y35.3763
G01 X43.4828 Y35.3024
G01 X43.4812 Y35.2862
G01 X43.4775 Y35.2115
G01 X43.4775 Y35.1953
G01 X43.4812 Y35.1206
G01 X43.4828 Y35.1044
G01 X43.4937 Y35.0304
G01 X43.4969 Y35.0145
G01 X43.5151 Y34.9420
G01 X43.5198 Y34.9264
G01 X43.5450 Y34.8560
G01 X43.5512 Y34.8410
G01 X43.5832 Y34.7734
G01 X43.5908 Y34.7591
G01 X43.6293 Y34.6950
G01 X43.6383 Y34.6815
G01 X43.6828 Y34.6214
G01 X43.6931 Y34.6088
G01 X43.7433 Y34.5534
G01 X43.7548 Y34.5419
G01 X43.8102 Y34.4917
G01 X43.8228 Y34.4814
G01 X43.8829 Y34.4369
G01 X43.8964 Y34.4279
G01 X43.9605 Y34.3894
G01 X43.9748 Y34.3818
G01 X44.0424 Y34.3498
G01 X44.0574 Y34.3436
G01 X44.1278 Y34.3184
G01 X44.1434 Y34.3137
G01 X44.2159 Y34.2955
G01 X44.2318 Y34.2923
G01 X44.3058 Y34.2813
G01 X44.3220 Y34.2798
G01 X44.3967 Y34.2761
G01 X44.4129 Y34.2761
G01 X44.4876 Y34.2798
G01 X44.5038 Y34.2813
G01 X44.5777 Y34.2923
G01 X44.5937 Y34.2955
G01 X44.6662 Y34.3137
G01 X44.6817 Y34.3184
G01 X44.7521 Y34.3436
G01 X44.7672 Y34.3498
G01 X44.8348 Y34.3818
G01 X44.8491 Y34.3894
G01 X44.9132 Y34.4279
G01 X44.9267 Y34.4369
G01 X44.9868 Y34.4814
G01 X44.9993 Y34.4917
G01 X45.0547 Y34.5419
G01 X45.0662 Y34.5534
G01 X45.1164 Y34.6088
G01 X45.1268 Y34.6214
G01 X45.1713 Y34.6815
G01 X45.1803 Y34.6950
G01 X45.2188 Y34.7591
G01 X45.2264 Y34.7734
G01 X45.2584 Y34.8410
G01 X45.2646 Y34.8560
G01 X45.2898 Y34.9264
G01 X45.2945 Y34.9420
G01 X45.3127 Y35.0145
G01 X45.3159 Y35.0304
G01 X45.3268 Y35.1044
G01 X45.3284 Y35.1206
G01 X45.3321 Y35.1953
G01 X45.3321 Y35.2115
G01 X45.3284 Y35.2862
G01 X45.3268 Y35.3024
G01 X45.3159 Y35.3763
G01 X45.3127 Y35.3923
G01 X45.2945 Y35.4648
G01 X45.2898 Y35.4803
G01 X45.2646 Y35.5507
G01 X45.2584 Y35.5657
G01 X45.2264 Y35.6333
G01 X45.2188 Y35.6477
G01 X45.1803 Y35.7118
G01 X45.1713 Y35.7253
G01 X45.1268 Y35.7854
G01 X45.1164 Y35.7979
G01 X45.0705 Y35.8486
G01 X45.0705 Y36.9176
G01 X45.1380 Y36.9209
G01 X45.1542 Y36.9225
G01 X45.2183 Y36.9320
G01 X45.2342 Y36.9351
G01 X45.2971 Y36.9509
G01 X45.3126 Y36.9556
G01 X45.3737 Y36.9774
G01 X45.3887 Y36.9836
G01 X45.4473 Y37.0114
G01 X45.4616 Y37.0190
G01 X45.5172 Y37.0523
G01 X45.5307 Y37.0614
G01 X45.5827 Y37.1000
G01 X45.5953 Y37.1103
G01 X45.6433 Y37.1538
G01 X45.6548 Y37.1653
G01 X45.6983 Y37.2133
G01 X45.7086 Y37.2258
G01 X45.7472 Y37.2779
G01 X45.7562 Y37.2914
G01 X45.7896 Y37.3470
G01 X45.7972 Y37.3613
G01 X45.8249 Y37.4199
G01 X45.8311 Y37.4349
G01 X45.8530 Y37.4959
G01 X45.8577 Y37.5115
G01 X45.8734 Y37.5743
G01 X45.8766 Y37.5903
G01 X45.8861 Y37.6544
G01 X45.8877 Y37.6705
G01 X45.8909 Y37.7353
G01 X45.8909 Y37.7515
G01 X45.8877 Y37.8162
G01 X45.8861 Y37.8324
G01 X45.8766 Y37.8965
G01 X45.8734 Y37.9124
G01 X45.8577 Y37.9753
G01 X45.8530 Y37.9908
G01 X45.8311 Y38.0519
G01 X45.8249 Y38.0669
G01 X45.7972 Y38.1255
G01 X45.7896 Y38.1398
G01 X45.7562 Y38.1954
G01 X45.7472 Y38.2089
G01 X45.7086 Y38.2609
G01 X45.6983 Y38.2735
G01 X45.6548 Y38.3215
G01 X45.6433 Y38.3330
G01 X45.5953 Y38.3765
G01 X45.5827 Y38.3868
G01 X45.5307 Y38.4254
G01 X45.5172 Y38.4344
G01 X45.4616 Y38.4678
G01 X45.4473 Y38.4754
G01 X45.3887 Y38.5031
G01 X45.3737 Y38.5093
G01 X45.3126 Y38.5312
G01 X45.2971 Y38.5359
G01 X45.2342 Y38.5516
G01 X45.2183 Y38.5548
G01 X45.1542 Y38.5643
G01 X45.1380 Y38.5659
G01 X45.0652 Y38.5693
G01 X43.7444 Y38.5693
G01 X43.6715 Y38.5659
G01 X43.6554 Y38.5643
G01 X43.5913 Y38.5548
G01 X43.5753 Y38.5516
G01 X43.5125 Y38.5359
G01 X43.4969 Y38.5312
G01 X43.4359 Y38.5093
G01 X43.4209 Y38.5031
G01 X43.3623 Y38.4754
G01 X43.3480 Y38.4678
G01 X43.2924 Y38.4344
G01 X43.2789 Y38.4254
G01 X43.2268 Y38.3868
G01 X43.2143 Y38.3765
G01 X43.1663 Y38.3330
G01 X43.1548 Y38.3215
G01 X43.1113 Y38.2735
G01 X43.1010 Y38.2609
G01 X43.0624 Y38.2089
G01 X43.0533 Y38.1954
G01 X43.0200 Y38.1398
G01 X43.0124 Y38.1255
G01 X42.9847 Y38.0669
G01 X42.9784 Y38.0519
G01 X42.9566 Y37.9908
G01 X42.9519 Y37.9753
G01 X42.9361 Y37.9124
G01 X42.9330 Y37.8965
G01 X42.9235 Y37.8324
G01 X42.9219 Y37.8162
G01 X42.9187 Y37.7515
G01 X42.9187 Y37.7353
G01 X42.9219 Y37.6705
G01 X42.9235 Y37.6544
G01 X42.9330 Y37.5903
G01 X42.9361 Y37.5743
G01 X42.9519 Y37.5115
G01 X42.9566 Y37.4959
G01 X42.9784 Y37.4349
G01 X42.9847 Y37.4199
G01 X43.0124 Y37.3613
G01 X43.0200 Y37.3470
G01 X43.0533 Y37.2914
G01 X43.0624 Y37.2779
G01 X43.1010 Y37.2258
G01 X43.1113 Y37.2133
G01 X43.1548 Y37.1653
G01 X43.1663 Y37.1538
G01 X43.2143 Y37.1103
G01 X43.2268 Y37.1000
G01 X43.2789 Y37.0614
G01 X43.2924 Y37.0523
G01 X43.3480 Y37.0190
G01 X43.3623 Y37.0114
G01 X43.4209 Y36.9836
G01 X43.4359 Y36.9774
G01 X43.4969 Y36.9556
G01 X43.5125 Y36.9509
G01 X43.5753 Y36.9351
G01 X43.5913 Y36.9320
G01 X43.6554 Y36.9225
G01 X43.6715 Y36.9209
G01 X43.7390 Y36.9176
G00 Z2.0000
G00 X45.5526 Y39.6176
G01 F60.00
G01 Z-0.2001
G01 F320.00
G01 X46.9448 Y39.6176
G01 X47.0019 Y39.6202
G01 X47.0181 Y39.6218
G01 X47.0667 Y39.6290
G01 X47.0826 Y39.6322
G01 X47.1302 Y39.6441
G01 X47.1458 Y39.6489
G01 X47.1920 Y39.6654
G01 X47.2070 Y39.6716
G01 X47.2514 Y39.6926
G01 X47.2657 Y39.7003
G01 X47.3078 Y39.7255
G01 X47.3213 Y39.7345
G01 X47.3607 Y39.7638
G01 X47.3733 Y39.7741
G01 X47.4097 Y39.8070
G01 X47.4211 Y39.8185
G01 X47.4541 Y39.8549
G01 X47.4644 Y39.8674
G01 X47.4937 Y39.9069
G01 X47.5027 Y39.9204
G01 X47.5279 Y39.9625
G01 X47.5356 Y39.9768
G01 X47.5566 Y40.0212
G01 X47.5628 Y40.0362
G01 X47.5793 Y40.0824
G01 X47.5840 Y40.0980
G01 X47.5960 Y40.1456
G01 X47.5991 Y40.1615
G01 X47.6063 Y40.2101
G01 X47.6079 Y40.2262
G01 X47.6103 Y40.2753
G01 X47.6105 Y42.1782
G01 X47.6564 Y42.2288
G01 X47.6668 Y42.2414
G01 X47.7113 Y42.3015
G01 X47.7203 Y42.3150
G01 X47.7588 Y42.3791
G01 X47.7664 Y42.3934
G01 X47.7984 Y42.4610
G01 X47.8046 Y42.4760
G01 X47.8298 Y42.5464
G01 X47.8345 Y42.5620
G01 X47.8527 Y42.6345
G01 X47.8559 Y42.6504
G01 X47.8668 Y42.7244
G01 X47.8684 Y42.7406
G01 X47.8721 Y42.8153
G01 X47.8721 Y42.8315
G01 X47.8684 Y42.9062
G01 X47.8668 Y42.9224
G01 X47.8559 Y42.9963
G01 X47.8527 Y43.0123
G01 X47.8345 Y43.0848
G01 X47.8298 Y43.1003
G01 X47.8046 Y43.1707
G01 X47.7984 Y43.1857
G01 X47.7664 Y43.2533
G01 X47.7588 Y43.2677
G01 X47.7203 Y43.3318
G01 X47.7113 Y43.3453
G01 X47.6668 Y43.4054
G01 X47.6564 Y43.4179
G01 X47.6062 Y43.4733
G01 X47.5947 Y43.4848
G01 X47.5393 Y43.5350
G01 X47.5268 Y43.5453
G01 X47.4667 Y43.5899
G01 X47.4532 Y43.5989
G01 X47.3891 Y43.6374
G01 X47.3748 Y43.6450
G01 X47.3072 Y43.6770
G01 X47.2921 Y43.6832
G01 X47.2217 Y43.7084
G01 X47.2062 Y43.7131
G01 X47.1337 Y43.7313
G01 X47.1177 Y43.7344
G01 X47.0438 Y43.7454
G01 X47.0276 Y43.7470
G01 X46.9529 Y43.7507
G01 X46.9367 Y43.7507
G01 X46.8620 Y43.7470
G01 X46.8458 Y43.7454
G01 X46.7718 Y43.7344
G01 X46.7559 Y43.7313
G01 X46.6834 Y43.7131
G01 X46.6678 Y43.7084
G01 X46.5974 Y43.6832
G01 X46.5824 Y43.6770
G01 X46.5148 Y43.6450
G01 X46.5005 Y43.6374
G01 X46.4364 Y43.5989
G01 X46.4229 Y43.5899
G01 X46.3628 Y43.5453
G01 X46.3502 Y43.5350
G01 X46.2948 Y43.4848
G01 X46.2833 Y43.4733
G01 X46.2331 Y43.4179
G01 X46.2228 Y43.4054
G01 X46.1783 Y43.3453
G01 X46.1693 Y43.3318
G01 X46.1308 Y43.2677
G01 X46.1232 Y43.2533
G01 X46.0912 Y43.1857
G01 X46.0850 Y43.1707
G01 X46.0598 Y43.1003
G01 X46.0551 Y43.0848
G01 X46.0369 Y43.0123
G01 X46.0337 Y42.9963
G01 X46.0228 Y42.9224
G01 X46.0212 Y42.9062
G01 X46.0175 Y42.8315
G01 X46.0175 Y42.8153
G01 X46.0212 Y42.7406
G01 X46.0228 Y42.7244
G01 X46.0337 Y42.6504
G01 X46.0369 Y42.6345
G01 X46.0551 Y42.5620
G01 X46.0598 Y42.5464
G01 X46.0850 Y42.4760
G01 X46.0912 Y42.4610
G01 X46.1232 Y42.3934
G01 X46.1308 Y42.3791
G01 X46.1693 Y42.3150
G01 X46.1783 Y42.3015
G01 X46.2228 Y42.2414
G01 X46.2331 Y42.2288
G01 X46.2790 Y42.1782
G01 X46.2790 Y40.9491
G01 X45.5526 Y40.9491
G01 X45.5307 Y40.9654
G01 X45.5172 Y40.9744
G01 X45.4616 Y41.0078
G01 X45.4473 Y41.0154
G01 X45.3887 Y41.0431
G01 X45.3737 Y41.0493
G01 X45.3126 Y41.0712
G01 X45.2971 Y41.0759
G01 X45.2342 Y41.0916
G01 X45.2183 Y41.0948
G01 X45.1542 Y41.1043
G01 X45.1380 Y41.1059
G01 X45.0652 Y41.1093
G01 X43.7444 Y41.1093
G01 X43.6715 Y41.1059
G01 X43.6554 Y41.1043
G01 X43.5913 Y41.0948
G01 X43.5753 Y41.0916
G01 X43.5125 Y41.0759
G01 X43.4969 Y41.0712
G01 X43.4359 Y41.0493
G01 X43.4209 Y41.0431
G01 X43.3623 Y41.0154
G01 X43.3480 Y41.0078
G01 X43.2924 Y40.9744
G01 X43.2789 Y40.9654
G01 X43.2268 Y40.9268
G01 X43.2143 Y40.9165
G01 X43.1663 Y40.8730
G01 X43.1548 Y40.8615
G01 X43.1113 Y40.8135
G01 X43.1010 Y40.8009
G01 X43.0624 Y40.7489
G01 X43.0533 Y40.7354
G01 X43.0200 Y40.6798
G01 X43.0124 Y40.6655
G01 X42.9847 Y40.6069
G01 X42.9784 Y40.5919
G01 X42.9566 Y40.5308
G01 X42.9519 Y40.5153
G01 X42.9361 Y40.4524
G01 X42.9330 Y40.4365
G01 X42.9235 Y40.3724
G01 X42.9219 Y40.3562
G01 X42.9187 Y40.2915
G01 X42.9187 Y40.2753
G01 X42.9219 Y40.2105
G01 X42.9235 Y40.1944
G01 X42.9330 Y40.1303
G01 X42.9361 Y40.1143
G01 X42.9519 Y40.0515
G01 X42.9566 Y40.0359
G01 X42.9784 Y39.9749
G01 X42.9847 Y39.9599
G01 X43.0124 Y39.9013
G01 X43.0200 Y39.8870
G01 X43.0533 Y39.8314
G01 X43.0624 Y39.8179
G01 X43.1010 Y39.7658
G01 X43.1113 Y39.7533
G01 X43.1548 Y39.7053
G01 X43.1663 Y39.6938
G01 X43.2143 Y39.6503
G01 X43.2268 Y39.6400
G01 X43.2789 Y39.6014
G01 X43.2924 Y39.5923
G01 X43.3480 Y39.5590
G01 X43.3623 Y39.5514
G01 X43.4209 Y39.5236
G01 X43.4359 Y39.5174
G01 X43.4969 Y39.4956
G01 X43.5125 Y39.4909
G01 X43.5753 Y39.4751
G01 X43.5913 Y39.4720
G01 X43.6554 Y39.4625
G01 X43.6715 Y39.4609
G01 X43.7363 Y39.4577
G01 X45.0733 Y39.4577
G01 X45.1380 Y39.4609
G01 X45.1542 Y39.4625
G01 X45.2183 Y39.4720
G01 X45.2342 Y39.4751
G01 X45.2971 Y39.4909
G01 X45.3126 Y39.4956
G01 X45.3737 Y39.5174
G01 X45.3887 Y39.5236
G01 X45.4473 Y39.5514
G01 X45.4616 Y39.5590
G01 X45.5172 Y39.5923
G01 X45.5307 Y39.6014
G01 X45.5526 Y39.6176
G00 Z2.0000
G00 X45.0652 Y47.0775
G01 F60.00
G01 Z-0.2001
G01 F320.00
G01 X45.1380 Y47.0809
G01 X45.1542 Y47.0825
G01 X45.2183 Y47.0920
G01 X45.2342 Y47.0951
G01 X45.2971 Y47.1109
G01 X45.3126 Y47.1156
G01 X45.3737 Y47.1374
G01 X45.3887 Y47.1436
G01 X45.4473 Y47.1714
G01 X45.4616 Y47.1790
G01 X45.5172 Y47.2123
G01 X45.5307 Y47.2214
G01 X45.5827 Y47.2600
G01 X45.5953 Y47.2703
G01 X45.6433 Y47.3138
G01 X45.6548 Y47.3253
G01 X45.6983 Y47.3733
G01 X45.7086 Y47.3858
G01 X45.7472 Y47.4379
G01 X45.7562 Y47.4514
G01 X45.7896 Y47.5070
G01 X45.7972 Y47.5213
G01 X45.8249 Y47.5799
G01 X45.8311 Y47.5949
G01 X45.8530 Y47.6559
G01 X45.8577 Y47.6715
G01 X45.8734 Y47.7343
G01 X45.8766 Y47.7503
G01 X45.8861 Y47.8144
G01 X45.8877 Y47.8305
G01 X45.8909 Y47.8953
G01 X45.8909 Y47.9115
G01 X45.8877 Y47.9762
