(G-CODE GENERATED BY FLATCAM v8.991 - www.flatcam.org - Version Date: 2019/12/27)

(Name: 002_Carry_Iso2_cnc)
(Type: G-code from Geometry)
(Units: MM)

(Created on Wednesday, 26 February 2020 at 10:29)

(TOOL DIAMETER: 0.331 mm)
(Feedrate: 320.0 mm/min)
(Feedrate_Z: 60.0 mm/min)
(Feedrate rapids 1500.0 mm/min)

(Z_Cut: -0.2001 mm)
(Z_Move: 2.0 mm)
(Z Toolchange: 15.0 mm)
(X,Y Toolchange: 0.0000, 0.0000 mm)
(Z Start: None mm)
(Z End: 15.0 mm)
(Steps per circle: 64)
(Preprocessor Geometry: default)

(X range:    5.0799 ...  147.7884  mm)
(Y range:    3.4985 ...   97.3882  mm)

(Spindle Speed: None RPM)
G21
G90
G94

M03 S3000


G01 F320.00
G00 Z2.0000

M03
G00 X12.6999 Y4.7461
G01 F60.00
G01 Z-0.2001
G01 F320.00
G01 X12.6999 Y4.7006
G01 X12.7036 Y4.6260
G01 X12.7081 Y4.5807
G01 X12.7190 Y4.5067
G01 X12.7279 Y4.4621
G01 X12.7461 Y4.3896
G01 X12.7593 Y4.3461
G01 X12.7845 Y4.2757
G01 X12.8019 Y4.2337
G01 X12.8339 Y4.1661
G01 X12.8553 Y4.1259
G01 X12.8937 Y4.0618
G01 X12.9190 Y4.0240
G01 X12.9635 Y3.9639
G01 X12.9924 Y3.9288
G01 X13.0426 Y3.8734
G01 X13.0748 Y3.8412
G01 X13.1302 Y3.7910
G01 X13.1653 Y3.7621
G01 X13.2254 Y3.7176
G01 X13.2632 Y3.6923
G01 X13.3273 Y3.6539
G01 X13.3675 Y3.6325
G01 X13.4351 Y3.6005
G01 X13.4771 Y3.5831
G01 X13.5475 Y3.5579
G01 X13.5910 Y3.5447
G01 X13.6635 Y3.5265
G01 X13.7081 Y3.5176
G01 X13.7821 Y3.5067
G01 X13.8274 Y3.5022
G01 X13.9021 Y3.4985
G01 X13.9475 Y3.4985
G01 X14.0222 Y3.5022
G01 X14.0675 Y3.5067
G01 X14.1414 Y3.5176
G01 X14.1860 Y3.5265
G01 X14.2586 Y3.5447
G01 X14.3021 Y3.5579
G01 X14.3725 Y3.5831
G01 X14.4145 Y3.6005
G01 X14.4821 Y3.6325
G01 X14.5222 Y3.6539
G01 X14.5864 Y3.6923
G01 X14.6242 Y3.7176
G01 X14.6842 Y3.7621
G01 X14.7194 Y3.7910
G01 X14.7748 Y3.8412
G01 X14.8070 Y3.8734
G01 X14.8572 Y3.9288
G01 X14.8860 Y3.9639
G01 X14.9306 Y4.0240
G01 X14.9558 Y4.0618
G01 X14.9943 Y4.1259
G01 X15.0157 Y4.1661
G01 X15.0477 Y4.2337
G01 X15.0651 Y4.2757
G01 X15.0903 Y4.3461
G01 X15.1035 Y4.3896
G01 X15.1217 Y4.4621
G01 X15.1305 Y4.5067
G01 X15.1415 Y4.5807
G01 X15.1460 Y4.6260
G01 X15.1496 Y4.7006
G01 X15.1496 Y4.7461
G01 X15.1460 Y4.8208
G01 X15.1415 Y4.8661
G01 X15.1305 Y4.9400
G01 X15.1217 Y4.9846
G01 X15.1035 Y5.0572
G01 X15.0903 Y5.1007
G01 X15.0651 Y5.1711
G01 X15.0477 Y5.2131
G01 X15.0157 Y5.2807
G01 X14.9943 Y5.3208
G01 X14.9558 Y5.3850
G01 X14.9306 Y5.4228
G01 X14.8860 Y5.4828
G01 X14.8572 Y5.5180
G01 X14.8070 Y5.5734
G01 X14.7748 Y5.6056
G01 X14.7194 Y5.6558
G01 X14.6842 Y5.6846
G01 X14.6242 Y5.7292
G01 X14.5864 Y5.7544
G01 X14.5222 Y5.7929
G01 X14.4821 Y5.8143
G01 X14.4145 Y5.8463
G01 X14.3725 Y5.8637
G01 X14.3021 Y5.8889
G01 X14.2586 Y5.9021
G01 X14.1860 Y5.9203
G01 X14.1414 Y5.9291
G01 X14.0675 Y5.9401
G01 X14.0222 Y5.9446
G01 X13.9475 Y5.9482
G01 X13.9021 Y5.9482
G01 X13.8274 Y5.9446
G01 X13.7821 Y5.9401
G01 X13.7081 Y5.9291
G01 X13.6635 Y5.9203
G01 X13.5910 Y5.9021
G01 X13.5475 Y5.8889
G01 X13.4771 Y5.8637
G01 X13.4351 Y5.8463
G01 X13.3675 Y5.8143
G01 X13.3273 Y5.7929
G01 X13.2632 Y5.7544
G01 X13.2254 Y5.7292
G01 X13.1653 Y5.6846
G01 X13.1302 Y5.6558
G01 X13.0748 Y5.6056
G01 X13.0426 Y5.5734
G01 X12.9924 Y5.5180
G01 X12.9635 Y5.4828
G01 X12.9190 Y5.4228
G01 X12.8937 Y5.3850
G01 X12.8553 Y5.3208
G01 X12.8339 Y5.2807
G01 X12.8019 Y5.2131
G01 X12.7845 Y5.1711
G01 X12.7593 Y5.1007
G01 X12.7461 Y5.0572
G01 X12.7279 Y4.9846
G01 X12.7190 Y4.9400
G01 X12.7081 Y4.8661
G01 X12.7036 Y4.8208
G01 X12.6999 Y4.7461
G00 Z2.0000
G00 X26.7421 Y9.7862
G01 F60.00
G01 Z-0.2001
G01 F320.00
G01 X26.7421 Y9.7408
G01 X26.7517 Y9.5447
G01 X26.7562 Y9.4995
G01 X26.7850 Y9.3053
G01 X26.7938 Y9.2607
G01 X26.8415 Y9.0703
G01 X26.8547 Y9.0268
G01 X26.9209 Y8.8420
G01 X26.9383 Y8.8000
G01 X27.0222 Y8.6226
G01 X27.0436 Y8.5825
G01 X27.1445 Y8.4141
G01 X27.1698 Y8.3763
G01 X27.2867 Y8.2187
G01 X27.3155 Y8.1835
G01 X27.4474 Y8.0381
G01 X27.4795 Y8.0059
G01 X27.6249 Y7.8741
G01 X27.6601 Y7.8453
G01 X27.8177 Y7.7284
G01 X27.8555 Y7.7031
G01 X28.0239 Y7.6022
G01 X28.0640 Y7.5808
G01 X28.2414 Y7.4968
G01 X28.2834 Y7.4794
G01 X28.4682 Y7.4133
G01 X28.5118 Y7.4001
G01 X28.7021 Y7.3524
G01 X28.7467 Y7.3436
G01 X28.9409 Y7.3148
G01 X28.9861 Y7.3103
G01 X29.1822 Y7.3007
G01 X29.2277 Y7.3007
G01 X29.4237 Y7.3103
G01 X29.4689 Y7.3148
G01 X29.6631 Y7.3436
G01 X29.7077 Y7.3524
G01 X29.8981 Y7.4001
G01 X29.9416 Y7.4133
G01 X30.1264 Y7.4794
G01 X30.1684 Y7.4968
G01 X30.3458 Y7.5808
G01 X30.3859 Y7.6022
G01 X30.5543 Y7.7031
G01 X30.5921 Y7.7284
G01 X30.7497 Y7.8453
G01 X30.7849 Y7.8741
G01 X30.9303 Y8.0059
G01 X30.9625 Y8.0381
G01 X31.0943 Y8.1835
G01 X31.1231 Y8.2187
G01 X31.2401 Y8.3763
G01 X31.2653 Y8.4141
G01 X31.3662 Y8.5825
G01 X31.3877 Y8.6226
G01 X31.4716 Y8.8000
G01 X31.4890 Y8.8420
G01 X31.5551 Y9.0268
G01 X31.5683 Y9.0703
G01 X31.6160 Y9.2607
G01 X31.6249 Y9.3053
G01 X31.6537 Y9.4995
G01 X31.6581 Y9.5447
G01 X31.6678 Y9.7408
G01 X31.6678 Y9.7862
G01 X31.6581 Y9.9823
G01 X31.6537 Y10.0275
G01 X31.6249 Y10.2217
G01 X31.6160 Y10.2663
G01 X31.5683 Y10.4567
G01 X31.5551 Y10.5002
G01 X31.4890 Y10.6850
G01 X31.4716 Y10.7270
G01 X31.3877 Y10.9044
G01 X31.3662 Y10.9445
G01 X31.2653 Y11.1129
G01 X31.2401 Y11.1507
G01 X31.1231 Y11.3083
G01 X31.0943 Y11.3435
G01 X30.9625 Y11.4889
G01 X30.9303 Y11.5211
G01 X30.7849 Y11.6529
G01 X30.7497 Y11.6817
G01 X30.5921 Y11.7986
G01 X30.5543 Y11.8239
G01 X30.3859 Y11.9248
G01 X30.3458 Y11.9463
G01 X30.1684 Y12.0302
G01 X30.1264 Y12.0476
G01 X29.9416 Y12.1137
G01 X29.8981 Y12.1269
G01 X29.7077 Y12.1746
G01 X29.6631 Y12.1835
G01 X29.4689 Y12.2123
G01 X29.4237 Y12.2167
G01 X29.2277 Y12.2263
G01 X29.1822 Y12.2263
G01 X28.9861 Y12.2167
G01 X28.9409 Y12.2123
G01 X28.7467 Y12.1835
G01 X28.7021 Y12.1746
G01 X28.5118 Y12.1269
G01 X28.4682 Y12.1137
G01 X28.2834 Y12.0476
G01 X28.2414 Y12.0302
G01 X28.0640 Y11.9463
G01 X28.0239 Y11.9248
G01 X27.8555 Y11.8239
G01 X27.8177 Y11.7986
G01 X27.6601 Y11.6817
G01 X27.6249 Y11.6529
G01 X27.4795 Y11.5211
G01 X27.4474 Y11.4889
G01 X27.3155 Y11.3435
G01 X27.2867 Y11.3083
G01 X27.1698 Y11.1507
G01 X27.1445 Y11.1129
G01 X27.0436 Y10.9445
G01 X27.0222 Y10.9044
G01 X26.9383 Y10.7270
G01 X26.9209 Y10.6850
G01 X26.8547 Y10.5002
G01 X26.8415 Y10.4567
G01 X26.7938 Y10.2663
G01 X26.7850 Y10.2217
G01 X26.7562 Y10.0275
G01 X26.7517 Y9.9823
G01 X26.7421 Y9.7862
G00 Z2.0000
G00 X19.7610 Y18.9997
G01 F60.00
G01 Z-0.2001
G01 F320.00
G01 X61.2211 Y18.9997
G01 X61.2211 Y9.8034
G01 X61.2217 Y9.7806
G01 X61.2241 Y9.7316
G01 X61.2286 Y9.6864
G01 X61.2358 Y9.6378
G01 X61.2446 Y9.5932
G01 X61.2566 Y9.5456
G01 X61.2698 Y9.5021
G01 X61.2863 Y9.4558
G01 X61.3037 Y9.4138
G01 X61.3247 Y9.3694
G01 X61.3461 Y9.3293
G01 X61.3714 Y9.2872
G01 X61.3966 Y9.2494
G01 X61.4259 Y9.2100
G01 X61.4547 Y9.1748
G01 X61.4877 Y9.1385
G01 X61.5199 Y9.1063
G01 X61.5562 Y9.0733
G01 X61.5914 Y9.0445
G01 X61.6308 Y9.0152
G01 X61.6686 Y8.9900
G01 X61.7107 Y8.9647
G01 X61.7508 Y8.9433
G01 X61.7952 Y8.9223
G01 X61.8372 Y8.9049
G01 X61.8835 Y8.8884
G01 X61.9270 Y8.8752
G01 X61.9746 Y8.8632
G01 X62.0192 Y8.8544
G01 X62.0678 Y8.8472
G01 X62.1130 Y8.8427
G01 X62.1621 Y8.8403
G01 X62.1848 Y8.8397
G01 X63.9686 Y8.8397
G01 X64.0254 Y8.7976
G01 X64.0632 Y8.7723
G01 X64.1273 Y8.7339
G01 X64.1675 Y8.7125
G01 X64.2351 Y8.6805
G01 X64.2771 Y8.6631
G01 X64.3475 Y8.6379
G01 X64.3910 Y8.6247
G01 X64.4635 Y8.6065
G01 X64.5081 Y8.5976
G01 X64.5821 Y8.5867
G01 X64.6274 Y8.5822
G01 X64.7021 Y8.5785
G01 X64.7475 Y8.5785
G01 X64.8222 Y8.5822
G01 X64.8675 Y8.5867
G01 X64.9414 Y8.5976
G01 X64.9860 Y8.6065
G01 X65.0586 Y8.6247
G01 X65.1021 Y8.6379
G01 X65.1725 Y8.6631
G01 X65.2145 Y8.6805
G01 X65.2821 Y8.7125
G01 X65.3222 Y8.7339
G01 X65.3864 Y8.7723
G01 X65.4242 Y8.7976
G01 X65.4842 Y8.8421
G01 X65.5194 Y8.8710
G01 X65.5748 Y8.9212
G01 X65.6070 Y8.9534
G01 X65.6572 Y9.0088
G01 X65.6860 Y9.0439
G01 X65.7306 Y9.1040
G01 X65.7558 Y9.1418
G01 X65.7943 Y9.2059
G01 X65.8157 Y9.2461
G01 X65.8477 Y9.3137
G01 X65.8651 Y9.3557
G01 X65.8903 Y9.4261
G01 X65.9035 Y9.4696
G01 X65.9217 Y9.5421
G01 X65.9305 Y9.5867
G01 X65.9415 Y9.6607
G01 X65.9460 Y9.7060
G01 X65.9496 Y9.7806
G01 X65.9496 Y9.8261
G01 X65.9460 Y9.9008
G01 X65.9415 Y9.9461
G01 X65.9305 Y10.0200
G01 X65.9217 Y10.0646
G01 X65.9035 Y10.1372
G01 X65.8903 Y10.1807
G01 X65.8651 Y10.2511
G01 X65.8477 Y10.2931
G01 X65.8157 Y10.3607
G01 X65.7943 Y10.4008
G01 X65.7558 Y10.4650
G01 X65.7306 Y10.5028
G01 X65.6860 Y10.5628
G01 X65.6572 Y10.5980
G01 X65.6070 Y10.6534
G01 X65.5748 Y10.6856
G01 X65.5194 Y10.7358
G01 X65.4842 Y10.7646
G01 X65.4242 Y10.8092
G01 X65.3864 Y10.8344
G01 X65.3222 Y10.8729
G01 X65.2821 Y10.8943
G01 X65.2145 Y10.9263
G01 X65.1725 Y10.9437
G01 X65.1021 Y10.9689
G01 X65.0586 Y10.9821
G01 X64.9860 Y11.0003
G01 X64.9414 Y11.0091
G01 X64.8675 Y11.0201
G01 X64.8222 Y11.0246
G01 X64.7475 Y11.0282
G01 X64.7021 Y11.0282
G01 X64.6274 Y11.0246
G01 X64.5821 Y11.0201
G01 X64.5081 Y11.0091
G01 X64.4635 Y11.0003
G01 X64.3910 Y10.9821
G01 X64.3475 Y10.9689
G01 X64.2771 Y10.9437
G01 X64.2351 Y10.9263
G01 X64.1675 Y10.8943
G01 X64.1273 Y10.8729
G01 X64.0632 Y10.8344
G01 X64.0254 Y10.8092
G01 X63.9686 Y10.7670
G01 X63.1484 Y10.7670
G01 X63.1484 Y19.9634
G01 X63.1479 Y19.9861
G01 X63.1455 Y20.0352
G01 X63.1410 Y20.0804
G01 X63.1338 Y20.1290
G01 X63.1249 Y20.1736
G01 X63.1130 Y20.2212
G01 X63.0998 Y20.2647
G01 X63.0833 Y20.3109
G01 X63.0659 Y20.3529
G01 X63.0449 Y20.3973
G01 X63.0234 Y20.4374
G01 X62.9982 Y20.4795
G01 X62.9729 Y20.5174
G01 X62.9437 Y20.5568
G01 X62.9148 Y20.5919
G01 X62.8819 Y20.6283
G01 X62.8497 Y20.6605
G01 X62.8133 Y20.6934
G01 X62.7782 Y20.7223
G01 X62.7388 Y20.7515
G01 X62.7009 Y20.7768
G01 X62.6588 Y20.8020
G01 X62.6187 Y20.8235
G01 X62.5744 Y20.8445
G01 X62.5323 Y20.8619
G01 X62.4861 Y20.8784
G01 X62.4426 Y20.8916
G01 X62.3950 Y20.9035
G01 X62.3504 Y20.9124
G01 X62.3018 Y20.9196
G01 X62.2566 Y20.9241
G01 X62.2075 Y20.9265
G01 X62.1848 Y20.9270
G01 X19.7610 Y20.9270
G01 X19.7042 Y20.9692
G01 X19.6664 Y20.9944
G01 X19.6022 Y21.0329
G01 X19.5621 Y21.0543
G01 X19.4945 Y21.0863
G01 X19.4525 Y21.1037
G01 X19.3821 Y21.1289
G01 X19.3386 Y21.1421
G01 X19.2660 Y21.1603
G01 X19.2214 Y21.1691
G01 X19.1475 Y21.1801
G01 X19.1022 Y21.1846
G01 X19.0275 Y21.1882
G01 X18.9821 Y21.1882
G01 X18.9074 Y21.1846
G01 X18.8621 Y21.1801
G01 X18.7881 Y21.1691
G01 X18.7435 Y21.1603
G01 X18.6710 Y21.1421
G01 X18.6275 Y21.1289
G01 X18.5571 Y21.1037
G01 X18.5151 Y21.0863
G01 X18.4475 Y21.0543
G01 X18.4073 Y21.0329
G01 X18.3432 Y20.9944
G01 X18.3054 Y20.9692
G01 X18.2453 Y20.9246
G01 X18.2102 Y20.8958
G01 X18.1548 Y20.8456
G01 X18.1226 Y20.8134
G01 X18.0724 Y20.7580
G01 X18.0435 Y20.7228
G01 X17.9990 Y20.6628
G01 X17.9737 Y20.6250
G01 X17.9353 Y20.5608
G01 X17.9139 Y20.5207
G01 X17.8819 Y20.4531
G01 X17.8645 Y20.4111
G01 X17.8393 Y20.3407
G01 X17.8261 Y20.2972
G01 X17.8079 Y20.2246
G01 X17.7990 Y20.1800
G01 X17.7881 Y20.1061
G01 X17.7836 Y20.0608
G01 X17.7799 Y19.9861
G01 X17.7799 Y19.9406
G01 X17.7836 Y19.8660
G01 X17.7881 Y19.8207
G01 X17.7990 Y19.7467
G01 X17.8079 Y19.7021
G01 X17.8261 Y19.6296
G01 X17.8393 Y19.5861
G01 X17.8645 Y19.5157
G01 X17.8819 Y19.4737
G01 X17.9139 Y19.4061
G01 X17.9353 Y19.3659
G01 X17.9737 Y19.3018
G01 X17.9990 Y19.2640
G01 X18.0435 Y19.2039
G01 X18.0724 Y19.1688
G01 X18.1226 Y19.1134
G01 X18.1548 Y19.0812
G01 X18.2102 Y19.0310
G01 X18.2453 Y19.0021
G01 X18.3054 Y18.9576
G01 X18.3432 Y18.9323
G01 X18.4073 Y18.8939
G01 X18.4475 Y18.8725
G01 X18.5151 Y18.8405
G01 X18.5571 Y18.8231
G01 X18.6275 Y18.7979
G01 X18.6710 Y18.7847
G01 X18.7435 Y18.7665
G01 X18.7881 Y18.7576
G01 X18.8621 Y18.7467
G01 X18.9074 Y18.7422
G01 X18.9821 Y18.7385
G01 X19.0275 Y18.7385
G01 X19.1022 Y18.7422
G01 X19.1475 Y18.7467
G01 X19.2214 Y18.7576
G01 X19.2660 Y18.7665
G01 X19.3386 Y18.7847
G01 X19.3821 Y18.7979
G01 X19.4525 Y18.8231
G01 X19.4945 Y18.8405
G01 X19.5621 Y18.8725
G01 X19.6022 Y18.8939
G01 X19.6664 Y18.9323
G01 X19.7042 Y18.9576
G01 X19.7610 Y18.9997
G00 Z2.0000
G00 X19.7610 Y21.5397
G01 F60.00
G01 Z-0.2001
G01 F320.00
G01 X63.7611 Y21.5397
G01 X63.7611 Y13.0996
G01 X63.7190 Y13.0428
G01 X63.6937 Y13.0050
G01 X63.6553 Y12.9408
G01 X63.6339 Y12.9007
G01 X63.6019 Y12.8331
G01 X63.5845 Y12.7911
G01 X63.5593 Y12.7207
G01 X63.5461 Y12.6772
G01 X63.5279 Y12.6046
G01 X63.5190 Y12.5600
G01 X63.5081 Y12.4861
G01 X63.5036 Y12.4408
G01 X63.4999 Y12.3661
G01 X63.4999 Y12.3206
G01 X63.5036 Y12.2460
G01 X63.5081 Y12.2007
G01 X63.5190 Y12.1267
G01 X63.5279 Y12.0821
G01 X63.5461 Y12.0096
G01 X63.5593 Y11.9661
G01 X63.5845 Y11.8957
G01 X63.6019 Y11.8537
G01 X63.6339 Y11.7861
G01 X63.6553 Y11.7459
G01 X63.6937 Y11.6818
G01 X63.7190 Y11.6440
G01 X63.7635 Y11.5839
G01 X63.7924 Y11.5488
G01 X63.8426 Y11.4934
G01 X63.8748 Y11.4612
G01 X63.9302 Y11.4110
G01 X63.9653 Y11.3821
G01 X64.0254 Y11.3376
G01 X64.0632 Y11.3123
G01 X64.1273 Y11.2739
G01 X64.1675 Y11.2525
G01 X64.2351 Y11.2205
G01 X64.2771 Y11.2031
G01 X64.3475 Y11.1779
G01 X64.3910 Y11.1647
G01 X64.4635 Y11.1465
G01 X64.5081 Y11.1376
G01 X64.5821 Y11.1267
G01 X64.6274 Y11.1222
G01 X64.7021 Y11.1185
G01 X64.7475 Y11.1185
G01 X64.8222 Y11.1222
G01 X64.8675 Y11.1267
G01 X64.9414 Y11.1376
G01 X64.9860 Y11.1465
G01 X65.0586 Y11.1647
G01 X65.1021 Y11.1779
G01 X65.1725 Y11.2031
G01 X65.2145 Y11.2205
G01 X65.2821 Y11.2525
G01 X65.3222 Y11.2739
G01 X65.3864 Y11.3123
G01 X65.4242 Y11.3376
G01 X65.4842 Y11.3821
G01 X65.5194 Y11.4110
G01 X65.5748 Y11.4612
G01 X65.6070 Y11.4934
G01 X65.6572 Y11.5488
G01 X65.6860 Y11.5839
G01 X65.7306 Y11.6440
G01 X65.7558 Y11.6818
G01 X65.7943 Y11.7459
G01 X65.8157 Y11.7861
G01 X65.8477 Y11.8537
G01 X65.8651 Y11.8957
G01 X65.8903 Y11.9661
G01 X65.9035 Y12.0096
G01 X65.9217 Y12.0821
G01 X65.9305 Y12.1267
G01 X65.9415 Y12.2007
G01 X65.9460 Y12.2460
G01 X65.9496 Y12.3206
G01 X65.9496 Y12.3661
G01 X65.9460 Y12.4408
G01 X65.9415 Y12.4861
G01 X65.9305 Y12.5600
G01 X65.9217 Y12.6046
G01 X65.9035 Y12.6772
G01 X65.8903 Y12.7207
G01 X65.8651 Y12.7911
G01 X65.8477 Y12.8331
G01 X65.8157 Y12.9007
G01 X65.7943 Y12.9408
G01 X65.7558 Y13.0050
G01 X65.7306 Y13.0428
G01 X65.6884 Y13.0996
G01 X65.6884 Y22.5034
G01 X65.6879 Y22.5261
G01 X65.6855 Y22.5752
G01 X65.6810 Y22.6204
G01 X65.6738 Y22.6690
G01 X65.6649 Y22.7136
G01 X65.6530 Y22.7612
G01 X65.6398 Y22.8047
G01 X65.6233 Y22.8509
G01 X65.6059 Y22.8929
G01 X65.5849 Y22.9373
G01 X65.5634 Y22.9774
G01 X65.5382 Y23.0195
G01 X65.5129 Y23.0574
G01 X65.4837 Y23.0968
G01 X65.4548 Y23.1319
G01 X65.4219 Y23.1683
G01 X65.3897 Y23.2005
G01 X65.3533 Y23.2334
G01 X65.3182 Y23.2623
G01 X65.2788 Y23.2915
G01 X65.2409 Y23.3168
G01 X65.1988 Y23.3420
G01 X65.1587 Y23.3635
G01 X65.1144 Y23.3845
G01 X65.0723 Y23.4019
G01 X65.0261 Y23.4184
G01 X64.9826 Y23.4316
G01 X64.9350 Y23.4435
G01 X64.8904 Y23.4524
G01 X64.8418 Y23.4596
G01 X64.7966 Y23.4641
G01 X64.7475 Y23.4665
G01 X64.7248 Y23.4670
G01 X19.7610 Y23.4670
G01 X19.7042 Y23.5092
G01 X19.6664 Y23.5344
G01 X19.6022 Y23.5729
G01 X19.5621 Y23.5943
G01 X19.4945 Y23.6263
G01 X19.4525 Y23.6437
G01 X19.3821 Y23.6689
G01 X19.3386 Y23.6821
G01 X19.2660 Y23.7003
G01 X19.2214 Y23.7091
G01 X19.1475 Y23.7201
G01 X19.1022 Y23.7246
G01 X19.0275 Y23.7282
G01 X18.9821 Y23.7282
G01 X18.9074 Y23.7246
G01 X18.8621 Y23.7201
G01 X18.7881 Y23.7091
G01 X18.7435 Y23.7003
G01 X18.6710 Y23.6821
G01 X18.6275 Y23.6689
G01 X18.5571 Y23.6437
G01 X18.5151 Y23.6263
G01 X18.4475 Y23.5943
G01 X18.4073 Y23.5729
G01 X18.3432 Y23.5344
G01 X18.3054 Y23.5092
G01 X18.2453 Y23.4646
G01 X18.2102 Y23.4358
G01 X18.1548 Y23.3856
G01 X18.1226 Y23.3534
G01 X18.0724 Y23.2980
G01 X18.0435 Y23.2628
G01 X17.9990 Y23.2028
G01 X17.9737 Y23.1650
G01 X17.9353 Y23.1008
G01 X17.9139 Y23.0607
G01 X17.8819 Y22.9931
G01 X17.8645 Y22.9511
G01 X17.8393 Y22.8807
G01 X17.8261 Y22.8372
G01 X17.8079 Y22.7646
G01 X17.7990 Y22.7200
G01 X17.7881 Y22.6461
G01 X17.7836 Y22.6008
G01 X17.7799 Y22.5261
G01 X17.7799 Y22.4806
G01 X17.7836 Y22.4060
G01 X17.7881 Y22.3607
G01 X17.7990 Y22.2867
G01 X17.8079 Y22.2421
G01 X17.8261 Y22.1696
G01 X17.8393 Y22.1261
G01 X17.8645 Y22.0557
G01 X17.8819 Y22.0137
G01 X17.9139 Y21.9461
G01 X17.9353 Y21.9059
G01 X17.9737 Y21.8418
G01 X17.9990 Y21.8040
G01 X18.0435 Y21.7439
G01 X18.0724 Y21.7088
G01 X18.1226 Y21.6534
G01 X18.1548 Y21.6212
G01 X18.2102 Y21.5710
G01 X18.2453 Y21.5421
G01 X18.3054 Y21.4976
G01 X18.3432 Y21.4723
G01 X18.4073 Y21.4339
G01 X18.4475 Y21.4125
G01 X18.5151 Y21.3805
G01 X18.5571 Y21.3631
G01 X18.6275 Y21.3379
G01 X18.6710 Y21.3247
G01 X18.7435 Y21.3065
G01 X18.7881 Y21.2976
G01 X18.8621 Y21.2867
G01 X18.9074 Y21.2822
G01 X18.9821 Y21.2785
G01 X19.0275 Y21.2785
G01 X19.1022 Y21.2822
G01 X19.1475 Y21.2867
G01 X19.2214 Y21.2976
G01 X19.2660 Y21.3065
G01 X19.3386 Y21.3247
G01 X19.3821 Y21.3379
G01 X19.4525 Y21.3631
G01 X19.4945 Y21.3805
G01 X19.5621 Y21.4125
G01 X19.6022 Y21.4339
G01 X19.6664 Y21.4723
G01 X19.7042 Y21.4976
G01 X19.7610 Y21.5397
G00 Z2.0000
G00 X15.5011 Y31.9072
G01 F60.00
G01 Z-0.2001
G01 F320.00
G01 X15.5011 Y5.4796
G01 X15.4590 Y5.4228
G01 X15.4337 Y5.3850
G01 X15.3953 Y5.3208
G01 X15.3739 Y5.2807
G01 X15.3419 Y5.2131
G01 X15.3245 Y5.1711
G01 X15.2993 Y5.1007
G01 X15.2861 Y5.0572
G01 X15.2679 Y4.9846
G01 X15.2590 Y4.9400
G01 X15.2481 Y4.8661
G01 X15.2436 Y4.8208
G01 X15.2399 Y4.7461
G01 X15.2399 Y4.7006
G01 X15.2436 Y4.6260
G01 X15.2481 Y4.5807
G01 X15.2590 Y4.5067
G01 X15.2679 Y4.4621
G01 X15.2861 Y4.3896
G01 X15.2993 Y4.3461
G01 X15.3245 Y4.2757
G01 X15.3419 Y4.2337
G01 X15.3739 Y4.1661
G01 X15.3953 Y4.1259
G01 X15.4337 Y4.0618
G01 X15.4590 Y4.0240
G01 X15.5035 Y3.9639
G01 X15.5324 Y3.9288
G01 X15.5826 Y3.8734
G01 X15.6148 Y3.8412
G01 X15.6702 Y3.7910
G01 X15.7053 Y3.7621
G01 X15.7654 Y3.7176
G01 X15.8032 Y3.6923
G01 X15.8673 Y3.6539
G01 X15.9075 Y3.6325
G01 X15.9751 Y3.6005
G01 X16.0171 Y3.5831
G01 X16.0875 Y3.5579
G01 X16.1310 Y3.5447
G01 X16.2035 Y3.5265
G01 X16.2481 Y3.5176
G01 X16.3221 Y3.5067
G01 X16.3674 Y3.5022
G01 X16.4421 Y3.4985
G01 X16.4875 Y3.4985
G01 X16.5622 Y3.5022
G01 X16.6075 Y3.5067
G01 X16.6814 Y3.5176
G01 X16.7260 Y3.5265
G01 X16.7986 Y3.5447
G01 X16.8421 Y3.5579
G01 X16.9125 Y3.5831
G01 X16.9545 Y3.6005
G01 X17.0221 Y3.6325
G01 X17.0622 Y3.6539
G01 X17.1264 Y3.6923
G01 X17.1642 Y3.7176
G01 X17.2242 Y3.7621
G01 X17.2594 Y3.7910
G01 X17.3148 Y3.8412
G01 X17.3470 Y3.8734
G01 X17.3972 Y3.9288
G01 X17.4260 Y3.9639
G01 X17.4706 Y4.0240
G01 X17.4958 Y4.0618
G01 X17.5343 Y4.1259
G01 X17.5557 Y4.1661
G01 X17.5877 Y4.2337
G01 X17.6051 Y4.2757
G01 X17.6303 Y4.3461
G01 X17.6435 Y4.3896
G01 X17.6617 Y4.4621
G01 X17.6705 Y4.5067
G01 X17.6815 Y4.5807
G01 X17.6860 Y4.6260
G01 X17.6896 Y4.7006
G01 X17.6896 Y4.7461
G01 X17.6860 Y4.8208
G01 X17.6815 Y4.8661
G01 X17.6705 Y4.9400
G01 X17.6617 Y4.9846
G01 X17.6435 Y5.0572
G01 X17.6303 Y5.1007
G01 X17.6051 Y5.1711
G01 X17.5877 Y5.2131
G01 X17.5557 Y5.2807
G01 X17.5343 Y5.3208
G01 X17.4958 Y5.3850
G01 X17.4706 Y5.4228
G01 X17.4284 Y5.4796
G01 X17.4284 Y31.9072
G01 X17.4706 Y31.9640
G01 X17.4958 Y32.0018
G01 X17.5343 Y32.0659
G01 X17.5557 Y32.1061
G01 X17.5877 Y32.1737
G01 X17.6051 Y32.2157
G01 X17.6303 Y32.2861
G01 X17.6435 Y32.3296
G01 X17.6617 Y32.4021
G01 X17.6705 Y32.4467
G01 X17.6815 Y32.5207
G01 X17.6860 Y32.5660
G01 X17.6896 Y32.6406
G01 X17.6896 Y32.6861
G01 X17.6860 Y32.7608
G01 X17.6815 Y32.8061
G01 X17.6705 Y32.8800
G01 X17.6617 Y32.9246
G01 X17.6435 Y32.9972
G01 X17.6303 Y33.0407
G01 X17.6051 Y33.1111
G01 X17.5877 Y33.1531
G01 X17.5557 Y33.2207
G01 X17.5343 Y33.2608
G01 X17.4958 Y33.3250
G01 X17.4706 Y33.3628
G01 X17.4260 Y33.4228
G01 X17.3972 Y33.4580
G01 X17.3470 Y33.5134
G01 X17.3148 Y33.5456
G01 X17.2594 Y33.5958
G01 X17.2242 Y33.6246
G01 X17.1642 Y33.6692
G01 X17.1264 Y33.6944
G01 X17.0622 Y33.7329
G01 X17.0221 Y33.7543
G01 X16.9545 Y33.7863
G01 X16.9125 Y33.8037
G01 X16.8421 Y33.8289
G01 X16.7986 Y33.8421
G01 X16.7260 Y33.8603
G01 X16.6814 Y33.8691
G01 X16.6075 Y33.8801
G01 X16.5622 Y33.8846
G01 X16.4875 Y33.8882
G01 X16.4421 Y33.8882
G01 X16.3674 Y33.8846
G01 X16.3221 Y33.8801
G01 X16.2481 Y33.8691
G01 X16.2035 Y33.8603
G01 X16.1310 Y33.8421
G01 X16.0875 Y33.8289
G01 X16.0171 Y33.8037
G01 X15.9751 Y33.7863
G01 X15.9075 Y33.7543
G01 X15.8673 Y33.7329
G01 X15.8032 Y33.6944
G01 X15.7654 Y33.6692
G01 X15.7053 Y33.6246
G01 X15.6702 Y33.5958
G01 X15.6148 Y33.5456
G01 X15.5826 Y33.5134
G01 X15.5324 Y33.4580
G01 X15.5035 Y33.4228
G01 X15.4590 Y33.3628
G01 X15.4337 Y33.3250
G01 X15.3953 Y33.2608
G01 X15.3739 Y33.2207
G01 X15.3419 Y33.1531
G01 X15.3245 Y33.1111
G01 X15.2993 Y33.0407
G01 X15.2861 Y32.9972
G01 X15.2679 Y32.9246
G01 X15.2590 Y32.8800
G01 X15.2481 Y32.8061
G01 X15.2436 Y32.7608
G01 X15.2399 Y32.6861
G01 X15.2399 Y32.6406
G01 X15.2436 Y32.5660
G01 X15.2481 Y32.5207
G01 X15.2590 Y32.4467
G01 X15.2679 Y32.4021
G01 X15.2861 Y32.3296
G01 X15.2993 Y32.2861
G01 X15.3245 Y32.2157
G01 X15.3419 Y32.1737
G01 X15.3739 Y32.1061
G01 X15.3953 Y32.0659
G01 X15.4337 Y32.0018
G01 X15.4590 Y31.9640
G01 X15.5011 Y31.9072
G00 Z2.0000
G00 X24.8410 Y34.2397
G01 F60.00
G01 Z-0.2001
G01 F320.00
G01 X26.6248 Y34.2397
G01 X26.6475 Y34.2403
G01 X26.6966 Y34.2427
G01 X26.7418 Y34.2472
G01 X26.7904 Y34.2544
G01 X26.8350 Y34.2632
G01 X26.8826 Y34.2752
G01 X26.9261 Y34.2884
G01 X26.9723 Y34.3049
G01 X27.0144 Y34.3223
G01 X27.0587 Y34.3433
G01 X27.0988 Y34.3647
G01 X27.1409 Y34.3900
G01 X27.1788 Y34.4152
G01 X27.2182 Y34.4445
G01 X27.2533 Y34.4733
G01 X27.2897 Y34.5063
G01 X27.3219 Y34.5385
G01 X27.3548 Y34.5748
G01 X27.3837 Y34.6100
G01 X27.4129 Y34.6494
G01 X27.4382 Y34.6872
G01 X27.4634 Y34.7293
G01 X27.4849 Y34.7694
G01 X27.5059 Y34.8138
G01 X27.5233 Y34.8558
G01 X27.5398 Y34.9021
G01 X27.5530 Y34.9456
G01 X27.5649 Y34.9932
G01 X27.5738 Y35.0378
G01 X27.5810 Y35.0864
G01 X27.5855 Y35.1316
G01 X27.5879 Y35.1806
G01 X27.5884 Y35.2034
G01 X27.5884 Y36.6616
G01 X27.6330 Y36.6751
G01 X27.6940 Y36.6969
G01 X27.7360 Y36.7143
G01 X27.7946 Y36.7421
G01 X27.8347 Y36.7635
G01 X27.8903 Y36.7968
G01 X27.9281 Y36.8221
G01 X27.9802 Y36.8607
G01 X28.0153 Y36.8895
G01 X28.0634 Y36.9331
G01 X28.0955 Y36.9652
G01 X28.1390 Y37.0132
G01 X28.1679 Y37.0484
G01 X28.2011 Y37.0932
G01 X28.2011 Y33.6270
G01 X24.8410 Y33.6270
G01 X24.7842 Y33.6692
G01 X24.7464 Y33.6944
G01 X24.6822 Y33.7329
G01 X24.6421 Y33.7543
G01 X24.5745 Y33.7863
G01 X24.5325 Y33.8037
G01 X24.4621 Y33.8289
G01 X24.4186 Y33.8421
G01 X24.3460 Y33.8603
G01 X24.3014 Y33.8691
G01 X24.2275 Y33.8801
G01 X24.1822 Y33.8846
G01 X24.1075 Y33.8882
G01 X24.0621 Y33.8882
G01 X23.9874 Y33.8846
G01 X23.9421 Y33.8801
G01 X23.8681 Y33.8691
G01 X23.8235 Y33.8603
G01 X23.7510 Y33.8421
G01 X23.7075 Y33.8289
G01 X23.6371 Y33.8037
G01 X23.5951 Y33.7863
G01 X23.5275 Y33.7543
G01 X23.4873 Y33.7329
G01 X23.4232 Y33.6944
G01 X23.3854 Y33.6692
G01 X23.3253 Y33.6246
G01 X23.2902 Y33.5958
G01 X23.2348 Y33.5456
G01 X23.2026 Y33.5134
G01 X23.1524 Y33.4580
G01 X23.1235 Y33.4228
G01 X23.0790 Y33.3628
G01 X23.0537 Y33.3250
G01 X23.0153 Y33.2608
G01 X22.9939 Y33.2207
G01 X22.9619 Y33.1531
G01 X22.9445 Y33.1111
G01 X22.9193 Y33.0407
G01 X22.9061 Y32.9972
G01 X22.8879 Y32.9246
G01 X22.8790 Y32.8800
G01 X22.8681 Y32.8061
G01 X22.8636 Y32.7608
G01 X22.8599 Y32.6861
G01 X22.8599 Y32.6406
G01 X22.8636 Y32.5660
G01 X22.8681 Y32.5207
G01 X22.8790 Y32.4467
G01 X22.8879 Y32.4021
G01 X22.9061 Y32.3296
G01 X22.9193 Y32.2861
G01 X22.9445 Y32.2157
G01 X22.9619 Y32.1737
G01 X22.9939 Y32.1061
G01 X23.0153 Y32.0659
G01 X23.0537 Y32.0018
G01 X23.0790 Y31.9640
G01 X23.1235 Y31.9039
G01 X23.1524 Y31.8688
G01 X23.2026 Y31.8134
G01 X23.2348 Y31.7812
G01 X23.2902 Y31.7310
G01 X23.3253 Y31.7021
G01 X23.3854 Y31.6576
G01 X23.4232 Y31.6323
G01 X23.4873 Y31.5939
G01 X23.5275 Y31.5725
G01 X23.5951 Y31.5405
G01 X23.6371 Y31.5231
G01 X23.7075 Y31.4979
G01 X23.7510 Y31.4847
G01 X23.8235 Y31.4665
G01 X23.8681 Y31.4576
G01 X23.9421 Y31.4467
G01 X23.9874 Y31.4422
G01 X24.0621 Y31.4385
G01 X24.1075 Y31.4385
G01 X24.1822 Y31.4422
G01 X24.2275 Y31.4467
G01 X24.3014 Y31.4576
G01 X24.3460 Y31.4665
G01 X24.4186 Y31.4847
G01 X24.4621 Y31.4979
G01 X24.5325 Y31.5231
G01 X24.5745 Y31.5405
G01 X24.6421 Y31.5725
G01 X24.6822 Y31.5939
G01 X24.7464 Y31.6323
G01 X24.7842 Y31.6576
G01 X24.8410 Y31.6997
G01 X29.1648 Y31.6997
G01 X29.1875 Y31.7003
G01 X29.2366 Y31.7027
G01 X29.2818 Y31.7072
G01 X29.3304 Y31.7144
G01 X29.3750 Y31.7232
G01 X29.4226 Y31.7352
G01 X29.4661 Y31.7484
G01 X29.5123 Y31.7649
G01 X29.5544 Y31.7823
G01 X29.5987 Y31.8033
G01 X29.6388 Y31.8247
G01 X29.6809 Y31.8500
G01 X29.7188 Y31.8752
G01 X29.7582 Y31.9045
G01 X29.7933 Y31.9333
G01 X29.8297 Y31.9663
G01 X29.8619 Y31.9985
G01 X29.8948 Y32.0348
G01 X29.9237 Y32.0700
G01 X29.9529 Y32.1094
G01 X29.9782 Y32.1472
G01 X30.0034 Y32.1893
G01 X30.0249 Y32.2294
G01 X30.0459 Y32.2738
G01 X30.0633 Y32.3158
G01 X30.0798 Y32.3621
G01 X30.0930 Y32.4056
G01 X30.1049 Y32.4532
G01 X30.1138 Y32.4978
G01 X30.1210 Y32.5464
G01 X30.1255 Y32.5916
G01 X30.1279 Y32.6406
G01 X30.1284 Y32.6634
G01 X30.1284 Y37.0932
G01 X30.1617 Y37.0484
G01 X30.1905 Y37.0132
G01 X30.2341 Y36.9652
G01 X30.2662 Y36.9331
G01 X30.3142 Y36.8895
G01 X30.3494 Y36.8607
G01 X30.4014 Y36.8221
G01 X30.4393 Y36.7968
G01 X30.4948 Y36.7635
G01 X30.5349 Y36.7421
G01 X30.5935 Y36.7143
G01 X30.6356 Y36.6969
G01 X30.6966 Y36.6751
G01 X30.7401 Y36.6619
G01 X30.8030 Y36.6462
G01 X30.8476 Y36.6373
G01 X30.9117 Y36.6278
G01 X30.9569 Y36.6233
G01 X31.0217 Y36.6201
G01 X31.0444 Y36.6196
G01 X32.3652 Y36.6196
G01 X32.3879 Y36.6201
G01 X32.4527 Y36.6233
G01 X32.4979 Y36.6278
G01 X32.5620 Y36.6373
G01 X32.6066 Y36.6462
G01 X32.6695 Y36.6619
G01 X32.7130 Y36.6751
G01 X32.7740 Y36.6969
G01 X32.8160 Y36.7143
G01 X32.8746 Y36.7421
G01 X32.9147 Y36.7635
G01 X32.9703 Y36.7968
G01 X33.0081 Y36.8221
G01 X33.0602 Y36.8607
G01 X33.0953 Y36.8895
G01 X33.1434 Y36.9331
G01 X33.1755 Y36.9652
G01 X33.2190 Y37.0132
G01 X33.2479 Y37.0484
G01 X33.2811 Y37.0932
G01 X33.2811 Y31.0870
G01 X24.8410 Y31.0870
G01 X24.7842 Y31.1292
G01 X24.7464 Y31.1544
G01 X24.6822 Y31.1929
G01 X24.6421 Y31.2143
G01 X24.5745 Y31.2463
G01 X24.5325 Y31.2637
G01 X24.4621 Y31.2889
G01 X24.4186 Y31.3021
G01 X24.3460 Y31.3203
G01 X24.3014 Y31.3291
G01 X24.2275 Y31.3401
G01 X24.1822 Y31.3446
G01 X24.1075 Y31.3482
G01 X24.0621 Y31.3482
G01 X23.9874 Y31.3446
G01 X23.9421 Y31.3401
G01 X23.8681 Y31.3291
G01 X23.8235 Y31.3203
G01 X23.7510 Y31.3021
G01 X23.7075 Y31.2889
G01 X23.6371 Y31.2637
G01 X23.5951 Y31.2463
G01 X23.5275 Y31.2143
G01 X23.4873 Y31.1929
G01 X23.4232 Y31.1544
G01 X23.3854 Y31.1292
G01 X23.3253 Y31.0846
G01 X23.2902 Y31.0558
G01 X23.2348 Y31.0056
G01 X23.2026 Y30.9734
G01 X23.1524 Y30.9180
G01 X23.1235 Y30.8828
G01 X23.0790 Y30.8228
G01 X23.0537 Y30.7850
G01 X23.0153 Y30.7208
G01 X22.9939 Y30.6807
G01 X22.9619 Y30.6131
G01 X22.9445 Y30.5711
G01 X22.9193 Y30.5007
G01 X22.9061 Y30.4572
G01 X22.8879 Y30.3846
G01 X22.8790 Y30.3400
G01 X22.8681 Y30.2661
G01 X22.8636 Y30.2208
G01 X22.8599 Y30.1461
G01 X22.8599 Y30.1006
G01 X22.8636 Y30.0260
G01 X22.8681 Y29.9807
G01 X22.8790 Y29.9067
G01 X22.8879 Y29.8621
G01 X22.9061 Y29.7896
G01 X22.9193 Y29.7461
G01 X22.9445 Y29.6757
G01 X22.9619 Y29.6337
G01 X22.9939 Y29.5661
G01 X23.0153 Y29.5259
G01 X23.0537 Y29.4618
G01 X23.0790 Y29.4240
G01 X23.1235 Y29.3639
G01 X23.1524 Y29.3288
G01 X23.2026 Y29.2734
G01 X23.2348 Y29.2412
G01 X23.2902 Y29.1910
G01 X23.3253 Y29.1621
G01 X23.3854 Y29.1176
G01 X23.4232 Y29.0923
G01 X23.4873 Y29.0539
G01 X23.5275 Y29.0325
G01 X23.5951 Y29.0005
G01 X23.6371 Y28.9831
G01 X23.7075 Y28.9579
G01 X23.7510 Y28.9447
G01 X23.8235 Y28.9265
G01 X23.8681 Y28.9176
G01 X23.9421 Y28.9067
G01 X23.9874 Y28.9022
G01 X24.0621 Y28.8985
G01 X24.1075 Y28.8985
G01 X24.1822 Y28.9022
G01 X24.2275 Y28.9067
G01 X24.3014 Y28.9176
G01 X24.3460 Y28.9265
G01 X24.4186 Y28.9447
G01 X24.4621 Y28.9579
G01 X24.5325 Y28.9831
G01 X24.5745 Y29.0005
G01 X24.6421 Y29.0325
G01 X24.6822 Y29.0539
G01 X24.7464 Y29.0923
G01 X24.7842 Y29.1176
G01 X24.8410 Y29.1597
G01 X34.2448 Y29.1597
G01 X34.2675 Y29.1603
G01 X34.3166 Y29.1627
G01 X34.3618 Y29.1672
G01 X34.4104 Y29.1744
G01 X34.4550 Y29.1832
G01 X34.5026 Y29.1952
G01 X34.5461 Y29.2084
G01 X34.5923 Y29.2249
G01 X34.6344 Y29.2423
G01 X34.6787 Y29.2633
G01 X34.7188 Y29.2847
G01 X34.7609 Y29.3100
G01 X34.7988 Y29.3352
G01 X34.8382 Y29.3645
G01 X34.8733 Y29.3933
G01 X34.9097 Y29.4263
G01 X34.9419 Y29.4585
G01 X34.9748 Y29.4948
G01 X35.0037 Y29.5300
G01 X35.0329 Y29.5694
G01 X35.0582 Y29.6072
G01 X35.0834 Y29.6493
G01 X35.1049 Y29.6894
G01 X35.1259 Y29.7338
G01 X35.1433 Y29.7758
G01 X35.1598 Y29.8221
G01 X35.1730 Y29.8656
G01 X35.1849 Y29.9132
G01 X35.1938 Y29.9578
G01 X35.2010 Y30.0064
G01 X35.2055 Y30.0516
G01 X35.2079 Y30.1006
G01 X35.2084 Y30.1234
G01 X35.2084 Y39.3197
G01 X38.0877 Y39.3197
G01 X38.1148 Y39.3035
G01 X38.1549 Y39.2821
G01 X38.2135 Y39.2543
G01 X38.2556 Y39.2369
G01 X38.3166 Y39.2151
G01 X38.3601 Y39.2019
G01 X38.4230 Y39.1862
G01 X38.4676 Y39.1773
G01 X38.5317 Y39.1678
G01 X38.5769 Y39.1633
G01 X38.6417 Y39.1601
G01 X38.6644 Y39.1596
G01 X39.9852 Y39.1596
G01 X40.0079 Y39.1601
G01 X40.0727 Y39.1633
G01 X40.1179 Y39.1678
G01 X40.1820 Y39.1773
G01 X40.2266 Y39.1862
G01 X40.2895 Y39.2019
G01 X40.3330 Y39.2151
G01 X40.3940 Y39.2369
G01 X40.4360 Y39.2543
G01 X40.4946 Y39.2821
G01 X40.5347 Y39.3035
G01 X40.5903 Y39.3368
G01 X40.6281 Y39.3621
G01 X40.6802 Y39.4007
G01 X40.7153 Y39.4295
G01 X40.7634 Y39.4731
G01 X40.7955 Y39.5052
G01 X40.8390 Y39.5532
G01 X40.8679 Y39.5884
G01 X40.9065 Y39.6404
G01 X40.9318 Y39.6783
G01 X40.9651 Y39.7338
G01 X40.9865 Y39.7739
G01 X41.0142 Y39.8325
G01 X41.0316 Y39.8745
G01 X41.0535 Y39.9356
G01 X41.0667 Y39.9791
G01 X41.0824 Y40.0419
G01 X41.0913 Y40.0866
G01 X41.1008 Y40.1507
G01 X41.1052 Y40.1959
G01 X41.1084 Y40.2606
G01 X41.1084 Y40.3061
G01 X41.1052 Y40.3709
G01 X41.1008 Y40.4161
G01 X41.0913 Y40.4802
G01 X41.0824 Y40.5248
G01 X41.0667 Y40.5877
G01 X41.0535 Y40.6312
G01 X41.0316 Y40.6922
G01 X41.0142 Y40.7342
G01 X40.9865 Y40.7928
G01 X40.9651 Y40.8329
G01 X40.9318 Y40.8885
G01 X40.9065 Y40.9263
G01 X40.8679 Y40.9784
G01 X40.8390 Y41.0135
G01 X40.7955 Y41.0616
G01 X40.7634 Y41.0937
G01 X40.7153 Y41.1372
G01 X40.6802 Y41.1661
G01 X40.6281 Y41.2047
G01 X40.5903 Y41.2300
G01 X40.5347 Y41.2633
G01 X40.4946 Y41.2847
G01 X40.4360 Y41.3124
G01 X40.3940 Y41.3298
G01 X40.3330 Y41.3517
G01 X40.2884 Y41.3651
G01 X40.2884 Y44.3997
G01 X48.5211 Y44.3997
G01 X48.5211 Y43.5796
G01 X48.4790 Y43.5228
G01 X48.4537 Y43.4850
G01 X48.4153 Y43.4208
G01 X48.3939 Y43.3807
G01 X48.3619 Y43.3131
G01 X48.3445 Y43.2711
G01 X48.3193 Y43.2007
G01 X48.3061 Y43.1572
G01 X48.2879 Y43.0846
G01 X48.2790 Y43.0400
G01 X48.2681 Y42.9661
G01 X48.2636 Y42.9208
G01 X48.2599 Y42.8461
G01 X48.2599 Y42.8006
G01 X48.2636 Y42.7260
G01 X48.2681 Y42.6807
G01 X48.2790 Y42.6067
G01 X48.2879 Y42.5621
G01 X48.3061 Y42.4896
G01 X48.3193 Y42.4461
G01 X48.3445 Y42.3757
G01 X48.3619 Y42.3337
G01 X48.3939 Y42.2661
G01 X48.4153 Y42.2259
G01 X48.4537 Y42.1618
G01 X48.4790 Y42.1240
G01 X48.5235 Y42.0639
G01 X48.5524 Y42.0288
G01 X48.6026 Y41.9734
G01 X48.6348 Y41.9412
G01 X48.6902 Y41.8910
G01 X48.7253 Y41.8621
G01 X48.7854 Y41.8176
G01 X48.8232 Y41.7923
G01 X48.8873 Y41.7539
G01 X48.9275 Y41.7325
G01 X48.9951 Y41.7005
G01 X49.0371 Y41.6831
G01 X49.1075 Y41.6579
G01 X49.1510 Y41.6447
G01 X49.2235 Y41.6265
G01 X49.2681 Y41.6176
G01 X49.3421 Y41.6067
G01 X49.3874 Y41.6022
G01 X49.4621 Y41.5985
G01 X49.5075 Y41.5985
G01 X49.5822 Y41.6022
G01 X49.6275 Y41.6067
G01 X49.7014 Y41.6176
G01 X49.7460 Y41.6265
G01 X49.8186 Y41.6447
G01 X49.8621 Y41.6579
G01 X49.9325 Y41.6831
G01 X49.9745 Y41.7005
G01 X50.0421 Y41.7325
G01 X50.0822 Y41.7539
G01 X50.1464 Y41.7923
G01 X50.1842 Y41.8176
G01 X50.2442 Y41.8621
G01 X50.2794 Y41.8910
G01 X50.3348 Y41.9412
G01 X50.3670 Y41.9734
G01 X50.4172 Y42.0288
G01 X50.4460 Y42.0639
G01 X50.4906 Y42.1240
G01 X50.5158 Y42.1618
G01 X50.5543 Y42.2259
G01 X50.5757 Y42.2661
G01 X50.6077 Y42.3337
G01 X50.6251 Y42.3757
G01 X50.6503 Y42.4461
G01 X50.6635 Y42.4896
G01 X50.6817 Y42.5621
G01 X50.6905 Y42.6067
G01 X50.7015 Y42.6807
G01 X50.7060 Y42.7260
G01 X50.7096 Y42.8006
G01 X50.7096 Y42.8461
G01 X50.7060 Y42.9208
G01 X50.7015 Y42.9661
G01 X50.6905 Y43.0400
G01 X50.6817 Y43.0846
G01 X50.6635 Y43.1572
G01 X50.6503 Y43.2007
G01 X50.6251 Y43.2711
G01 X50.6077 Y43.3131
G01 X50.5757 Y43.3807
G01 X50.5543 Y43.4208
G01 X50.5158 Y43.4850
G01 X50.4906 Y43.5228
G01 X50.4484 Y43.5796
G01 X50.4484 Y44.3997
G01 X51.0611 Y44.3997
G01 X51.0611 Y41.3651
G01 X51.0166 Y41.3517
G01 X50.9556 Y41.3298
G01 X50.9135 Y41.3124
G01 X50.8549 Y41.2847
G01 X50.8148 Y41.2633
G01 X50.7593 Y41.2300
G01 X50.7214 Y41.2047
G01 X50.6694 Y41.1661
G01 X50.6342 Y41.1372
G01 X50.5862 Y41.0937
G01 X50.5541 Y41.0616
G01 X50.5105 Y41.0135
G01 X50.4817 Y40.9784
G01 X50.4431 Y40.9263
G01 X50.4178 Y40.8885
G01 X50.3845 Y40.8329
G01 X50.3631 Y40.7928
G01 X50.3354 Y40.7342
G01 X50.3179 Y40.6922
G01 X50.2961 Y40.6312
G01 X50.2829 Y40.5877
G01 X50.2672 Y40.5248
G01 X50.2583 Y40.4802
G01 X50.2488 Y40.4161
G01 X50.2443 Y40.3709
G01 X50.2411 Y40.3061
G01 X50.2411 Y40.2606
G01 X50.2443 Y40.1959
G01 X50.2488 Y40.1507
G01 X50.2583 Y40.0866
G01 X50.2672 Y40.0419
G01 X50.2829 Y39.9791
G01 X50.2961 Y39.9356
G01 X50.3179 Y39.8745
G01 X50.3354 Y39.8325
G01 X50.3631 Y39.7739
G01 X50.3845 Y39.7338
G01 X50.4178 Y39.6783
G01 X50.4431 Y39.6404
G01 X50.4817 Y39.5884
G01 X50.5105 Y39.5532
G01 X50.5541 Y39.5052
G01 X50.5862 Y39.4731
G01 X50.6342 Y39.4295
G01 X50.6694 Y39.4007
G01 X50.7214 Y39.3621
G01 X50.7593 Y39.3368
G01 X50.8148 Y39.3035
G01 X50.8549 Y39.2821
G01 X50.9135 Y39.2543
G01 X50.9556 Y39.2369
G01 X51.0166 Y39.2151
G01 X51.0601 Y39.2019
G01 X51.1230 Y39.1862
G01 X51.1676 Y39.1773
G01 X51.2317 Y39.1678
G01 X51.2769 Y39.1633
G01 X51.3417 Y39.1601
G01 X51.3644 Y39.1596
G01 X52.6852 Y39.1596
G01 X52.7079 Y39.1601
G01 X52.7727 Y39.1633
G01 X52.8179 Y39.1678
G01 X52.8820 Y39.1773
G01 X52.9266 Y39.1862
G01 X52.9895 Y39.2019
G01 X53.0330 Y39.2151
G01 X53.0940 Y39.2369
G01 X53.1360 Y39.2543
G01 X53.1946 Y39.2821
G01 X53.2347 Y39.3035
G01 X53.2903 Y39.3368
G01 X53.3281 Y39.3621
G01 X53.3802 Y39.4007
G01 X53.4153 Y39.4295
G01 X53.4634 Y39.4731
G01 X53.4955 Y39.5052
G01 X53.5390 Y39.5532
G01 X53.5679 Y39.5884
G01 X53.6065 Y39.6404
G01 X53.6318 Y39.6783
G01 X53.6651 Y39.7338
G01 X53.6865 Y39.7739
G01 X53.7142 Y39.8325
G01 X53.7316 Y39.8745
G01 X53.7535 Y39.9356
G01 X53.7667 Y39.9791
G01 X53.7824 Y40.0419
G01 X53.7913 Y40.0866
G01 X53.8008 Y40.1507
G01 X53.8052 Y40.1959
G01 X53.8084 Y40.2606
G01 X53.8084 Y40.3061
G01 X53.8052 Y40.3709
G01 X53.8008 Y40.4161
G01 X53.7913 Y40.4802
G01 X53.7824 Y40.5248
G01 X53.7667 Y40.5877
G01 X53.7535 Y40.6312
G01 X53.7316 Y40.6922
G01 X53.7142 Y40.7342
G01 X53.6865 Y40.7928
G01 X53.6651 Y40.8329
G01 X53.6318 Y40.8885
G01 X53.6065 Y40.9263
G01 X53.5679 Y40.9784
G01 X53.5390 Y41.0135
G01 X53.4955 Y41.0616
G01 X53.4634 Y41.0937
G01 X53.4153 Y41.1372
G01 X53.3802 Y41.1661
G01 X53.3281 Y41.2047
G01 X53.2903 Y41.2300
G01 X53.2347 Y41.2633
G01 X53.1946 Y41.2847
G01 X53.1360 Y41.3124
G01 X53.0940 Y41.3298
G01 X53.0330 Y41.3517
G01 X52.9884 Y41.3651
G01 X52.9884 Y44.3997
G01 X61.2211 Y44.3997
G01 X61.2211 Y43.5796
G01 X61.1790 Y43.5228
G01 X61.1537 Y43.4850
G01 X61.1153 Y43.4208
G01 X61.0939 Y43.3807
G01 X61.0619 Y43.3131
G01 X61.0445 Y43.2711
G01 X61.0193 Y43.2007
G01 X61.0061 Y43.1572
G01 X60.9879 Y43.0846
G01 X60.9790 Y43.0400
G01 X60.9681 Y42.9661
G01 X60.9636 Y42.9208
G01 X60.9599 Y42.8461
G01 X60.9599 Y42.8006
G01 X60.9636 Y42.7260
G01 X60.9681 Y42.6807
G01 X60.9790 Y42.6067
G01 X60.9879 Y42.5621
G01 X61.0061 Y42.4896
G01 X61.0193 Y42.4461
G01 X61.0445 Y42.3757
G01 X61.0619 Y42.3337
G01 X61.0939 Y42.2661
G01 X61.1153 Y42.2259
G01 X61.1537 Y42.1618
G01 X61.1790 Y42.1240
G01 X61.2235 Y42.0639
G01 X61.2524 Y42.0288
G01 X61.3026 Y41.9734
G01 X61.3348 Y41.9412
G01 X61.3902 Y41.8910
G01 X61.4253 Y41.8621
G01 X61.4854 Y41.8176
G01 X61.5232 Y41.7923
G01 X61.5873 Y41.7539
G01 X61.6275 Y41.7325
G01 X61.6951 Y41.7005
G01 X61.7371 Y41.6831
G01 X61.8075 Y41.6579
G01 X61.8510 Y41.6447
G01 X61.9235 Y41.6265
G01 X61.9681 Y41.6176
G01 X62.0421 Y41.6067
G01 X62.0874 Y41.6022
G01 X62.1621 Y41.5985
G01 X62.2075 Y41.5985
G01 X62.2822 Y41.6022
G01 X62.3275 Y41.6067
G01 X62.4014 Y41.6176
G01 X62.4460 Y41.6265
G01 X62.5186 Y41.6447
G01 X62.5621 Y41.6579
G01 X62.6325 Y41.6831
G01 X62.6745 Y41.7005
G01 X62.7421 Y41.7325
G01 X62.7822 Y41.7539
G01 X62.8464 Y41.7923
G01 X62.8842 Y41.8176
G01 X62.9442 Y41.8621
G01 X62.9794 Y41.8910
G01 X63.0348 Y41.9412
G01 X63.0670 Y41.9734
G01 X63.1172 Y42.0288
G01 X63.1460 Y42.0639
G01 X63.1906 Y42.1240
G01 X63.2158 Y42.1618
G01 X63.2543 Y42.2259
G01 X63.2757 Y42.2661
G01 X63.3077 Y42.3337
G01 X63.3251 Y42.3757
G01 X63.3503 Y42.4461
G01 X63.3635 Y42.4896
G01 X63.3817 Y42.5621
G01 X63.3905 Y42.6067
G01 X63.4015 Y42.6807
G01 X63.4060 Y42.7260
G01 X63.4096 Y42.8006
G01 X63.4096 Y42.8461
G01 X63.4060 Y42.9208
G01 X63.4015 Y42.9661
G01 X63.3905 Y43.0400
G01 X63.3817 Y43.0846
G01 X63.3635 Y43.1572
G01 X63.3503 Y43.2007
G01 X63.3251 Y43.2711
G01 X63.3077 Y43.3131
G01 X63.2757 Y43.3807
G01 X63.2543 Y43.4208
G01 X63.2158 Y43.4850
G01 X63.1906 Y43.5228
G01 X63.1484 Y43.5796
G01 X63.1484 Y44.3997
G01 X63.7611 Y44.3997
G01 X63.7611 Y41.3651
G01 X63.7166 Y41.3517
G01 X63.6556 Y41.3298
G01 X63.6135 Y41.3124
G01 X63.5549 Y41.2847
G01 X63.5148 Y41.2633
G01 X63.4593 Y41.2300
G01 X63.4214 Y41.2047
G01 X63.3694 Y41.1661
G01 X63.3342 Y41.1372
G01 X63.2862 Y41.0937
G01 X63.2541 Y41.0616
G01 X63.2105 Y41.0135
G01 X63.1817 Y40.9784
G01 X63.1431 Y40.9263
G01 X63.1178 Y40.8885
G01 X63.0845 Y40.8329
G01 X63.0631 Y40.7928
G01 X63.0354 Y40.7342
G01 X63.0179 Y40.6922
G01 X62.9961 Y40.6312
G01 X62.9829 Y40.5877
G01 X62.9672 Y40.5248
G01 X62.9583 Y40.4802
G01 X62.9488 Y40.4161
G01 X62.9443 Y40.3709
G01 X62.9411 Y40.3061
G01 X62.9411 Y40.2606
G01 X62.9443 Y40.1959
G01 X62.9488 Y40.1507
G01 X62.9583 Y40.0866
G01 X62.9672 Y40.0419
G01 X62.9829 Y39.9791
G01 X62.9961 Y39.9356
G01 X63.0179 Y39.8745
G01 X63.0354 Y39.8325
G01 X63.0631 Y39.7739
G01 X63.0845 Y39.7338
G01 X63.1178 Y39.6783
G01 X63.1431 Y39.6404
G01 X63.1817 Y39.5884
G01 X63.2105 Y39.5532
G01 X63.2541 Y39.5052
G01 X63.2862 Y39.4731
G01 X63.3342 Y39.4295
G01 X63.3694 Y39.4007
G01 X63.4214 Y39.3621
G01 X63.4593 Y39.3368
G01 X63.5148 Y39.3035
G01 X63.5549 Y39.2821
G01 X63.6135 Y39.2543
G01 X63.6556 Y39.2369
G01 X63.7166 Y39.2151
G01 X63.7601 Y39.2019
G01 X63.8230 Y39.1862
G01 X63.8676 Y39.1773
G01 X63.9317 Y39.1678
G01 X63.9769 Y39.1633
G01 X64.0417 Y39.1601
G01 X64.0644 Y39.1596
G01 X65.3852 Y39.1596
G01 X65.4079 Y39.1601
G01 X65.4727 Y39.1633
G01 X65.5179 Y39.1678
G01 X65.5820 Y39.1773
G01 X65.6266 Y39.1862
G01 X65.6895 Y39.2019
G01 X65.7330 Y39.2151
G01 X65.7940 Y39.2369
G01 X65.8360 Y39.2543
G01 X65.8946 Y39.2821
G01 X65.9347 Y39.3035
G01 X65.9903 Y39.3368
G01 X66.0281 Y39.3621
G01 X66.0802 Y39.4007
G01 X66.1153 Y39.4295
G01 X66.1634 Y39.4731
G01 X66.1955 Y39.5052
G01 X66.2390 Y39.5532
G01 X66.2679 Y39.5884
G01 X66.3065 Y39.6404
G01 X66.3318 Y39.6783
G01 X66.3651 Y39.7338
G01 X66.3865 Y39.7739
G01 X66.4142 Y39.8325
G01 X66.4316 Y39.8745
G01 X66.4535 Y39.9356
G01 X66.4667 Y39.9791
G01 X66.4824 Y40.0419
G01 X66.4913 Y40.0866
G01 X66.5008 Y40.1507
G01 X66.5052 Y40.1959
G01 X66.5084 Y40.2606
G01 X66.5084 Y40.3061
G01 X66.5052 Y40.3709
G01 X66.5008 Y40.4161
G01 X66.4913 Y40.4802
G01 X66.4824 Y40.5248
G01 X66.4667 Y40.5877
G01 X66.4535 Y40.6312
G01 X66.4316 Y40.6922
G01 X66.4142 Y40.7342
G01 X66.3865 Y40.7928
G01 X66.3651 Y40.8329
G01 X66.3318 Y40.8885
G01 X66.3065 Y40.9263
G01 X66.2679 Y40.9784
G01 X66.2390 Y41.0135
G01 X66.1955 Y41.0616
G01 X66.1634 Y41.0937
G01 X66.1153 Y41.1372
G01 X66.0802 Y41.1661
G01 X66.0281 Y41.2047
G01 X65.9903 Y41.2300
G01 X65.9347 Y41.2633
G01 X65.8946 Y41.2847
G01 X65.8360 Y41.3124
G01 X65.7940 Y41.3298
G01 X65.7330 Y41.3517
G01 X65.6884 Y41.3651
G01 X65.6884 Y44.3997
G01 X73.9211 Y44.3997
G01 X73.9211 Y43.5796
G01 X73.8790 Y43.5228
G01 X73.8537 Y43.4850
G01 X73.8153 Y43.4208
G01 X73.7939 Y43.3807
G01 X73.7619 Y43.3131
G01 X73.7445 Y43.2711
G01 X73.7193 Y43.2007
G01 X73.7061 Y43.1572
G01 X73.6879 Y43.0846
G01 X73.6790 Y43.0400
G01 X73.6681 Y42.9661
G01 X73.6636 Y42.9208
G01 X73.6599 Y42.8461
G01 X73.6599 Y42.8006
G01 X73.6636 Y42.7260
G01 X73.6681 Y42.6807
G01 X73.6790 Y42.6067
G01 X73.6879 Y42.5621
G01 X73.7061 Y42.4896
G01 X73.7193 Y42.4461
G01 X73.7445 Y42.3757
G01 X73.7619 Y42.3337
G01 X73.7939 Y42.2661
G01 X73.8153 Y42.2259
G01 X73.8537 Y42.1618
G01 X73.8790 Y42.1240
G01 X73.9235 Y42.0639
G01 X73.9524 Y42.0288
G01 X74.0026 Y41.9734
G01 X74.0348 Y41.9412
G01 X74.0902 Y41.8910
G01 X74.1253 Y41.8621
G01 X74.1854 Y41.8176
G01 X74.2232 Y41.7923
G01 X74.2873 Y41.7539
G01 X74.3275 Y41.7325
G01 X74.3951 Y41.7005
G01 X74.4371 Y41.6831
G01 X74.5075 Y41.6579
G01 X74.5510 Y41.6447
G01 X74.6235 Y41.6265
G01 X74.6681 Y41.6176
G01 X74.7421 Y41.6067
G01 X74.7874 Y41.6022
G01 X74.8621 Y41.5985
G01 X74.9075 Y41.5985
G01 X74.9822 Y41.6022
G01 X75.0275 Y41.6067
G01 X75.1014 Y41.6176
G01 X75.1460 Y41.6265
G01 X75.2186 Y41.6447
G01 X75.2621 Y41.6579
G01 X75.3325 Y41.6831
G01 X75.3745 Y41.7005
G01 X75.4421 Y41.7325
G01 X75.4822 Y41.7539
G01 X75.5464 Y41.7923
G01 X75.5842 Y41.8176
G01 X75.6442 Y41.8621
G01 X75.6794 Y41.8910
G01 X75.7348 Y41.9412
G01 X75.7670 Y41.9734
G01 X75.8172 Y42.0288
G01 X75.8460 Y42.0639
G01 X75.8906 Y42.1240
G01 X75.9158 Y42.1618
G01 X75.9543 Y42.2259
G01 X75.9757 Y42.2661
G01 X76.0077 Y42.3337
G01 X76.0251 Y42.3757
G01 X76.0503 Y42.4461
G01 X76.0635 Y42.4896
G01 X76.0817 Y42.5621
G01 X76.0905 Y42.6067
G01 X76.1015 Y42.6807
G01 X76.1060 Y42.7260
G01 X76.1096 Y42.8006
G01 X76.1096 Y42.8461
G01 X76.1060 Y42.9208
G01 X76.1015 Y42.9661
G01 X76.0905 Y43.0400
G01 X76.0817 Y43.0846
G01 X76.0635 Y43.1572
G01 X76.0503 Y43.2007
G01 X76.0251 Y43.2711
G01 X76.0077 Y43.3131
G01 X75.9757 Y43.3807
G01 X75.9543 Y43.4208
G01 X75.9158 Y43.4850
G01 X75.8906 Y43.5228
G01 X75.8484 Y43.5796
G01 X75.8484 Y44.3997
G01 X76.4611 Y44.3997
G01 X76.4611 Y41.3651
G01 X76.4166 Y41.3517
G01 X76.3556 Y41.3298
G01 X76.3135 Y41.3124
G01 X76.2549 Y41.2847
G01 X76.2148 Y41.2633
G01 X76.1593 Y41.2300
G01 X76.1214 Y41.2047
G01 X76.0694 Y41.1661
G01 X76.0342 Y41.1372
G01 X75.9862 Y41.0937
G01 X75.9541 Y41.0616
G01 X75.9105 Y41.0135
G01 X75.8817 Y40.9784
G01 X75.8431 Y40.9263
G01 X75.8178 Y40.8885
G01 X75.7845 Y40.8329
G01 X75.7631 Y40.7928
G01 X75.7354 Y40.7342
G01 X75.7179 Y40.6922
G01 X75.6961 Y40.6312
G01 X75.6829 Y40.5877
G01 X75.6672 Y40.5248
G01 X75.6583 Y40.4802
G01 X75.6488 Y40.4161
G01 X75.6443 Y40.3709
G01 X75.6411 Y40.3061
G01 X75.6411 Y40.2606
G01 X75.6443 Y40.1959
G01 X75.6488 Y40.1507
G01 X75.6583 Y40.0866
G01 X75.6672 Y40.0419
G01 X75.6829 Y39.9791
G01 X75.6961 Y39.9356
G01 X75.7179 Y39.8745
G01 X75.7354 Y39.8325
G01 X75.7631 Y39.7739
G01 X75.7845 Y39.7338
G01 X75.8178 Y39.6783
G01 X75.8431 Y39.6404
G01 X75.8817 Y39.5884
G01 X75.9105 Y39.5532
G01 X75.9541 Y39.5052
G01 X75.9862 Y39.4731
G01 X76.0342 Y39.4295
G01 X76.0694 Y39.4007
G01 X76.1214 Y39.3621
G01 X76.1593 Y39.3368
G01 X76.2148 Y39.3035
G01 X76.2549 Y39.2821
G01 X76.3135 Y39.2543
G01 X76.3556 Y39.2369
G01 X76.4166 Y39.2151
G01 X76.4601 Y39.2019
G01 X76.5230 Y39.1862
G01 X76.5676 Y39.1773
G01 X76.6317 Y39.1678
G01 X76.6769 Y39.1633
G01 X76.7417 Y39.1601
G01 X76.7644 Y39.1596
G01 X78.0852 Y39.1596
G01 X78.1079 Y39.1601
G01 X78.1727 Y39.1633
G01 X78.2179 Y39.1678
G01 X78.2820 Y39.1773
G01 X78.3266 Y39.1862
G01 X78.3895 Y39.2019
G01 X78.4330 Y39.2151
G01 X78.4940 Y39.2369
G01 X78.5360 Y39.2543
G01 X78.5946 Y39.2821
G01 X78.6347 Y39.3035
G01 X78.6903 Y39.3368
G01 X78.7281 Y39.3621
G01 X78.7802 Y39.4007
G01 X78.8153 Y39.4295
G01 X78.8634 Y39.4731
G01 X78.8955 Y39.5052
G01 X78.9390 Y39.5532
G01 X78.9679 Y39.5884
G01 X79.0065 Y39.6404
G01 X79.0318 Y39.6783
G01 X79.0651 Y39.7338
G01 X79.0865 Y39.7739
G01 X79.1142 Y39.8325
G01 X79.1316 Y39.8745
G01 X79.1535 Y39.9356
G01 X79.1667 Y39.9791
G01 X79.1824 Y40.0419
G01 X79.1913 Y40.0866
G01 X79.2008 Y40.1507
G01 X79.2052 Y40.1959
G01 X79.2084 Y40.2606
G01 X79.2084 Y40.3061
G01 X79.2052 Y40.3709
G01 X79.2008 Y40.4161
G01 X79.1913 Y40.4802
G01 X79.1824 Y40.5248
G01 X79.1667 Y40.5877
G01 X79.1535 Y40.6312
G01 X79.1316 Y40.6922
G01 X79.1142 Y40.7342
G01 X79.0865 Y40.7928
G01 X79.0651 Y40.8329
G01 X79.0318 Y40.8885
G01 X79.0065 Y40.9263
G01 X78.9679 Y40.9784
G01 X78.9390 Y41.0135
G01 X78.8955 Y41.0616
G01 X78.8634 Y41.0937
G01 X78.8153 Y41.1372
G01 X78.7802 Y41.1661
G01 X78.7281 Y41.2047
G01 X78.6903 Y41.2300
G01 X78.6347 Y41.2633
G01 X78.5946 Y41.2847
G01 X78.5360 Y41.3124
G01 X78.4940 Y41.3298
G01 X78.4330 Y41.3517
G01 X78.3884 Y41.3651
G01 X78.3884 Y44.3997
G01 X86.6211 Y44.3997
G01 X86.6211 Y43.5796
G01 X86.5790 Y43.5228
G01 X86.5537 Y43.4850
G01 X86.5153 Y43.4208
G01 X86.4939 Y43.3807
G01 X86.4619 Y43.3131
G01 X86.4445 Y43.2711
G01 X86.4193 Y43.2007
G01 X86.4061 Y43.1572
G01 X86.3879 Y43.0846
G01 X86.3790 Y43.0400
G01 X86.3681 Y42.9661
G01 X86.3636 Y42.9208
G01 X86.3599 Y42.8461
G01 X86.3599 Y42.8006
G01 X86.3636 Y42.7260
G01 X86.3681 Y42.6807
G01 X86.3790 Y42.6067
G01 X86.3879 Y42.5621
G01 X86.4061 Y42.4896
G01 X86.4193 Y42.4461
G01 X86.4445 Y42.3757
G01 X86.4619 Y42.3337
G01 X86.4939 Y42.2661
G01 X86.5153 Y42.2259
G01 X86.5537 Y42.1618
G01 X86.5790 Y42.1240
G01 X86.6235 Y42.0639
G01 X86.6524 Y42.0288
G01 X86.7026 Y41.9734
G01 X86.7348 Y41.9412
G01 X86.7902 Y41.8910
G01 X86.8253 Y41.8621
G01 X86.8854 Y41.8176
G01 X86.9232 Y41.7923
G01 X86.9873 Y41.7539
G01 X87.0275 Y41.7325
G01 X87.0951 Y41.7005
G01 X87.1371 Y41.6831
G01 X87.2075 Y41.6579
G01 X87.2510 Y41.6447
G01 X87.3235 Y41.6265
G01 X87.3681 Y41.6176
G01 X87.4421 Y41.6067
G01 X87.4874 Y41.6022
G01 X87.5621 Y41.5985
G01 X87.6075 Y41.5985
G01 X87.6822 Y41.6022
G01 X87.7275 Y41.6067
G01 X87.8014 Y41.6176
G01 X87.8460 Y41.6265
G01 X87.9186 Y41.6447
G01 X87.9621 Y41.6579
G01 X88.0325 Y41.6831
G01 X88.0745 Y41.7005
G01 X88.1421 Y41.7325
G01 X88.1822 Y41.7539
G01 X88.2464 Y41.7923
G01 X88.2842 Y41.8176
G01 X88.3442 Y41.8621
G01 X88.3794 Y41.8910
G01 X88.4348 Y41.9412
G01 X88.4670 Y41.9734
G01 X88.5172 Y42.0288
G01 X88.5460 Y42.0639
G01 X88.5906 Y42.1240
G01 X88.6158 Y42.1618
G01 X88.6543 Y42.2259
G01 X88.6757 Y42.2661
G01 X88.7077 Y42.3337
G01 X88.7251 Y42.3757
G01 X88.7503 Y42.4461
G01 X88.7635 Y42.4896
G01 X88.7817 Y42.5621
G01 X88.7905 Y42.6067
G01 X88.8015 Y42.6807
G01 X88.8060 Y42.7260
G01 X88.8096 Y42.8006
G01 X88.8096 Y42.8461
G01 X88.8060 Y42.9208
G01 X88.8015 Y42.9661
G01 X88.7905 Y43.0400
G01 X88.7817 Y43.0846
G01 X88.7635 Y43.1572
G01 X88.7503 Y43.2007
G01 X88.7251 Y43.2711
G01 X88.7077 Y43.3131
G01 X88.6757 Y43.3807
G01 X88.6543 Y43.4208
G01 X88.6158 Y43.4850
G01 X88.5906 Y43.5228
G01 X88.5484 Y43.5796
G01 X88.5484 Y44.3997
G01 X89.1611 Y44.3997
G01 X89.1611 Y41.3651
G01 X89.1166 Y41.3517
G01 X89.0556 Y41.3298
G01 X89.0135 Y41.3124
G01 X88.9549 Y41.2847
G01 X88.9148 Y41.2633
G01 X88.8593 Y41.2300
G01 X88.8214 Y41.2047
G01 X88.7694 Y41.1661
G01 X88.7342 Y41.1372
G01 X88.6862 Y41.0937
G01 X88.6541 Y41.0616
G01 X88.6105 Y41.0135
G01 X88.5817 Y40.9784
G01 X88.5431 Y40.9263
G01 X88.5178 Y40.8885
G01 X88.4845 Y40.8329
G01 X88.4631 Y40.7928
G01 X88.4354 Y40.7342
G01 X88.4179 Y40.6922
G01 X88.3961 Y40.6312
G01 X88.3829 Y40.5877
G01 X88.3672 Y40.5248
G01 X88.3583 Y40.4802
G01 X88.3488 Y40.4161
G01 X88.3443 Y40.3709
G01 X88.3411 Y40.3061
G01 X88.3411 Y40.2606
G01 X88.3443 Y40.1959
G01 X88.3488 Y40.1507
G01 X88.3583 Y40.0866
G01 X88.3672 Y40.0419
G01 X88.3829 Y39.9791
G01 X88.3961 Y39.9356
G01 X88.4179 Y39.8745
G01 X88.4354 Y39.8325
G01 X88.4631 Y39.7739
G01 X88.4845 Y39.7338
G01 X88.5178 Y39.6783
G01 X88.5431 Y39.6404
G01 X88.5817 Y39.5884
G01 X88.6105 Y39.5532
G01 X88.6541 Y39.5052
G01 X88.6862 Y39.4731
G01 X88.7342 Y39.4295
G01 X88.7694 Y39.4007
G01 X88.8214 Y39.3621
G01 X88.8593 Y39.3368
G01 X88.9148 Y39.3035
G01 X88.9549 Y39.2821
G01 X89.0135 Y39.2543
G01 X89.0556 Y39.2369
G01 X89.1166 Y39.2151
G01 X89.1601 Y39.2019
G01 X89.2230 Y39.1862
G01 X89.2676 Y39.1773
G01 X89.3317 Y39.1678
G01 X89.3769 Y39.1633
G01 X89.4417 Y39.1601
G01 X89.4644 Y39.1596
G01 X90.7852 Y39.1596
G01 X90.8079 Y39.1601
G01 X90.8727 Y39.1633
G01 X90.9179 Y39.1678
G01 X90.9820 Y39.1773
G01 X91.0266 Y39.1862
G01 X91.0895 Y39.2019
G01 X91.1330 Y39.2151
G01 X91.1940 Y39.2369
G01 X91.2360 Y39.2543
G01 X91.2946 Y39.2821
G01 X91.3347 Y39.3035
G01 X91.3903 Y39.3368
G01 X91.4281 Y39.3621
G01 X91.4802 Y39.4007
G01 X91.5153 Y39.4295
G01 X91.5634 Y39.4731
G01 X91.5955 Y39.5052
G01 X91.6390 Y39.5532
G01 X91.6679 Y39.5884
G01 X91.7065 Y39.6404
G01 X91.7318 Y39.6783
G01 X91.7651 Y39.7338
G01 X91.7865 Y39.7739
G01 X91.8142 Y39.8325
G01 X91.8316 Y39.8745
G01 X91.8535 Y39.9356
G01 X91.8667 Y39.9791
G01 X91.8824 Y40.0419
G01 X91.8913 Y40.0866
G01 X91.9008 Y40.1507
G01 X91.9052 Y40.1959
G01 X91.9084 Y40.2606
G01 X91.9084 Y40.3061
G01 X91.9052 Y40.3709
G01 X91.9008 Y40.4161
G01 X91.8913 Y40.4802
G01 X91.8824 Y40.5248
G01 X91.8667 Y40.5877
G01 X91.8535 Y40.6312
G01 X91.8316 Y40.6922
G01 X91.8142 Y40.7342
G01 X91.7865 Y40.7928
G01 X91.7651 Y40.8329
G01 X91.7318 Y40.8885
G01 X91.7065 Y40.9263
G01 X91.6679 Y40.9784
G01 X91.6390 Y41.0135
G01 X91.5955 Y41.0616
G01 X91.5634 Y41.0937
G01 X91.5153 Y41.1372
G01 X91.4802 Y41.1661
G01 X91.4281 Y41.2047
G01 X91.3903 Y41.2300
G01 X91.3347 Y41.2633
G01 X91.2946 Y41.2847
G01 X91.2360 Y41.3124
G01 X91.1940 Y41.3298
G01 X91.1330 Y41.3517
G01 X91.0884 Y41.3651
G01 X91.0884 Y44.3997
G01 X99.3211 Y44.3997
G01 X99.3211 Y43.5796
G01 X99.2790 Y43.5228
G01 X99.2537 Y43.4850
G01 X99.2153 Y43.4208
G01 X99.1939 Y43.3807
G01 X99.1619 Y43.3131
G01 X99.1445 Y43.2711
G01 X99.1193 Y43.2007
G01 X99.1061 Y43.1572
G01 X99.0879 Y43.0846
G01 X99.0790 Y43.0400
G01 X99.0681 Y42.9661
G01 X99.0636 Y42.9208
G01 X99.0599 Y42.8461
G01 X99.0599 Y42.8006
G01 X99.0636 Y42.7260
G01 X99.0681 Y42.6807
G01 X99.0790 Y42.6067
G01 X99.0879 Y42.5621
G01 X99.1061 Y42.4896
G01 X99.1193 Y42.4461
G01 X99.1445 Y42.3757
G01 X99.1619 Y42.3337
G01 X99.1939 Y42.2661
G01 X99.2153 Y42.2259
G01 X99.2537 Y42.1618
G01 X99.2790 Y42.1240
G01 X99.3235 Y42.0639
G01 X99.3524 Y42.0288
G01 X99.4026 Y41.9734
G01 X99.4348 Y41.9412
G01 X99.4902 Y41.8910
G01 X99.5253 Y41.8621
G01 X99.5854 Y41.8176
G01 X99.6232 Y41.7923
G01 X99.6873 Y41.7539
G01 X99.7275 Y41.7325
G01 X99.7951 Y41.7005
G01 X99.8371 Y41.6831
G01 X99.9075 Y41.6579
G01 X99.9510 Y41.6447
G01 X100.0235 Y41.6265
G01 X100.0681 Y41.6176
G01 X100.1421 Y41.6067
G01 X100.1874 Y41.6022
G01 X100.2621 Y41.5985
G01 X100.3075 Y41.5985
G01 X100.3822 Y41.6022
G01 X100.4275 Y41.6067
G01 X100.5014 Y41.6176
G01 X100.5460 Y41.6265
G01 X100.6186 Y41.6447
G01 X100.6621 Y41.6579
G01 X100.7325 Y41.6831
G01 X100.7745 Y41.7005
G01 X100.8421 Y41.7325
G01 X100.8822 Y41.7539
G01 X100.9464 Y41.7923
G01 X100.9842 Y41.8176
G01 X101.0442 Y41.8621
G01 X101.0794 Y41.8910
G01 X101.1348 Y41.9412
G01 X101.1670 Y41.9734
G01 X101.2172 Y42.0288
G01 X101.2460 Y42.0639
G01 X101.2906 Y42.1240
G01 X101.3158 Y42.1618
G01 X101.3543 Y42.2259
G01 X101.3757 Y42.2661
G01 X101.4077 Y42.3337
G01 X101.4251 Y42.3757
G01 X101.4503 Y42.4461
G01 X101.4635 Y42.4896
G01 X101.4817 Y42.5621
G01 X101.4905 Y42.6067
G01 X101.5015 Y42.6807
G01 X101.5060 Y42.7260
G01 X101.5096 Y42.8006
G01 X101.5096 Y42.8461
G01 X101.5060 Y42.9208
G01 X101.5015 Y42.9661
G01 X101.4905 Y43.0400
G01 X101.4817 Y43.0846
G01 X101.4635 Y43.1572
G01 X101.4503 Y43.2007
G01 X101.4251 Y43.2711
G01 X101.4077 Y43.3131
G01 X101.3757 Y43.3807
G01 X101.3543 Y43.4208
G01 X101.3158 Y43.4850
G01 X101.2906 Y43.5228
G01 X101.2484 Y43.5796
G01 X101.2484 Y44.3997
G01 X101.8611 Y44.3997
G01 X101.8611 Y41.3651
G01 X101.8166 Y41.3517
G01 X101.7556 Y41.3298
G01 X101.7135 Y41.3124
G01 X101.6549 Y41.2847
G01 X101.6148 Y41.2633
G01 X101.5593 Y41.2300
G01 X101.5214 Y41.2047
G01 X101.4694 Y41.1661
G01 X101.4342 Y41.1372
G01 X101.3862 Y41.0937
G01 X101.3541 Y41.0616
G01 X101.3105 Y41.0135
G01 X101.2817 Y40.9784
G01 X101.2431 Y40.9263
G01 X101.2178 Y40.8885
G01 X101.1845 Y40.8329
G01 X101.1631 Y40.7928
G01 X101.1354 Y40.7342
G01 X101.1179 Y40.6922
G01 X101.0961 Y40.6312
G01 X101.0829 Y40.5877
G01 X101.0672 Y40.5248
G01 X101.0583 Y40.4802
G01 X101.0488 Y40.4161
G01 X101.0443 Y40.3709
G01 X101.0411 Y40.3061
G01 X101.0411 Y40.2606
G01 X101.0443 Y40.1959
G01 X101.0488 Y40.1507
G01 X101.0583 Y40.0866
G01 X101.0672 Y40.0419
G01 X101.0829 Y39.9791
G01 X101.0961 Y39.9356
G01 X101.1179 Y39.8745
G01 X101.1354 Y39.8325
G01 X101.1631 Y39.7739
G01 X101.1845 Y39.7338
G01 X101.2178 Y39.6783
G01 X101.2431 Y39.6404
G01 X101.2817 Y39.5884
G01 X101.3105 Y39.5532
G01 X101.3541 Y39.5052
G01 X101.3862 Y39.4731
G01 X101.4342 Y39.4295
G01 X101.4694 Y39.4007
G01 X101.5214 Y39.3621
G01 X101.5593 Y39.3368
G01 X101.6148 Y39.3035
G01 X101.6549 Y39.2821
G01 X101.7135 Y39.2543
G01 X101.7556 Y39.2369
G01 X101.8166 Y39.2151
G01 X101.8601 Y39.2019
G01 X101.9230 Y39.1862
G01 X101.9676 Y39.1773
G01 X102.0317 Y39.1678
G01 X102.0769 Y39.1633
G01 X102.1417 Y39.1601
G01 X102.1644 Y39.1596
G01 X103.4852 Y39.1596
G01 X103.5079 Y39.1601
G01 X103.5727 Y39.1633
G01 X103.6179 Y39.1678
G01 X103.6820 Y39.1773
G01 X103.7266 Y39.1862
G01 X103.7895 Y39.2019
G01 X103.8330 Y39.2151
G01 X103.8940 Y39.2369
G01 X103.9360 Y39.2543
G01 X103.9946 Y39.2821
G01 X104.0347 Y39.3035
G01 X104.0903 Y39.3368
G01 X104.1281 Y39.3621
G01 X104.1802 Y39.4007
G01 X104.2153 Y39.4295
G01 X104.2634 Y39.4731
G01 X104.2955 Y39.5052
G01 X104.3390 Y39.5532
G01 X104.3679 Y39.5884
G01 X104.4065 Y39.6404
G01 X104.4318 Y39.6783
G01 X104.4651 Y39.7338
G01 X104.4865 Y39.7739
G01 X104.5142 Y39.8325
G01 X104.5316 Y39.8745
G01 X104.5535 Y39.9356
G01 X104.5667 Y39.9791
G01 X104.5824 Y40.0419
G01 X104.5913 Y40.0866
G01 X104.6008 Y40.1507
G01 X104.6052 Y40.1959
G01 X104.6084 Y40.2606
G01 X104.6084 Y40.3061
G01 X104.6052 Y40.3709
G01 X104.6008 Y40.4161
G01 X104.5913 Y40.4802
G01 X104.5824 Y40.5248
G01 X104.5667 Y40.5877
G01 X104.5535 Y40.6312
G01 X104.5316 Y40.6922
G01 X104.5142 Y40.7342
G01 X104.4865 Y40.7928
G01 X104.4651 Y40.8329
G01 X104.4318 Y40.8885
G01 X104.4065 Y40.9263
G01 X104.3679 Y40.9784
G01 X104.3390 Y41.0135
G01 X104.2955 Y41.0616
G01 X104.2634 Y41.0937
G01 X104.2153 Y41.1372
G01 X104.1802 Y41.1661
G01 X104.1281 Y41.2047
G01 X104.0903 Y41.2300
G01 X104.0347 Y41.2633
G01 X103.9946 Y41.2847
G01 X103.9360 Y41.3124
G01 X103.8940 Y41.3298
G01 X103.8330 Y41.3517
G01 X103.7884 Y41.3651
G01 X103.7884 Y44.3997
G01 X112.0211 Y44.3997
G01 X112.0211 Y43.5796
G01 X111.9790 Y43.5228
G01 X111.9537 Y43.4850
G01 X111.9153 Y43.4208
G01 X111.8939 Y43.3807
G01 X111.8619 Y43.3131
G01 X111.8445 Y43.2711
G01 X111.8193 Y43.2007
G01 X111.8061 Y43.1572
G01 X111.7879 Y43.0846
G01 X111.7790 Y43.0400
G01 X111.7681 Y42.9661
G01 X111.7636 Y42.9208
G01 X111.7599 Y42.8461
G01 X111.7599 Y42.8006
G01 X111.7636 Y42.7260
G01 X111.7681 Y42.6807
G01 X111.7790 Y42.6067
G01 X111.7879 Y42.5621
G01 X111.8061 Y42.4896
G01 X111.8193 Y42.4461
G01 X111.8445 Y42.3757
G01 X111.8619 Y42.3337
G01 X111.8939 Y42.2661
G01 X111.9153 Y42.2259
G01 X111.9537 Y42.1618
G01 X111.9790 Y42.1240
G01 X112.0235 Y42.0639
G01 X112.0524 Y42.0288
G01 X112.1026 Y41.9734
G01 X112.1348 Y41.9412
G01 X112.1902 Y41.8910
G01 X112.2253 Y41.8621
G01 X112.2854 Y41.8176
G01 X112.3232 Y41.7923
G01 X112.3873 Y41.7539
G01 X112.4275 Y41.7325
G01 X112.4951 Y41.7005
G01 X112.5371 Y41.6831
G01 X112.6075 Y41.6579
G01 X112.6510 Y41.6447
G01 X112.7235 Y41.6265
G01 X112.7681 Y41.6176
G01 X112.8421 Y41.6067
G01 X112.8874 Y41.6022
G01 X112.9621 Y41.5985
G01 X113.0075 Y41.5985
G01 X113.0822 Y41.6022
G01 X113.1275 Y41.6067
G01 X113.2014 Y41.6176
G01 X113.2460 Y41.6265
G01 X113.3186 Y41.6447
G01 X113.3621 Y41.6579
G01 X113.4325 Y41.6831
G01 X113.4745 Y41.7005
G01 X113.5421 Y41.7325
G01 X113.5822 Y41.7539
G01 X113.6464 Y41.7923
G01 X113.6842 Y41.8176
G01 X113.7442 Y41.8621
G01 X113.7794 Y41.8910
G01 X113.8348 Y41.9412
G01 X113.8670 Y41.9734
G01 X113.9172 Y42.0288
G01 X113.9460 Y42.0639
G01 X113.9906 Y42.1240
G01 X114.0158 Y42.1618
G01 X114.0543 Y42.2259
G01 X114.0757 Y42.2661
G01 X114.1077 Y42.3337
G01 X114.1251 Y42.3757
G01 X114.1503 Y42.4461
G01 X114.1635 Y42.4896
G01 X114.1817 Y42.5621
G01 X114.1905 Y42.6067
G01 X114.2015 Y42.6807
G01 X114.2060 Y42.7260
G01 X114.2096 Y42.8006
G01 X114.2096 Y42.8461
G01 X114.2060 Y42.9208
G01 X114.2015 Y42.9661
G01 X114.1905 Y43.0400
G01 X114.1817 Y43.0846
G01 X114.1635 Y43.1572
G01 X114.1503 Y43.2007
G01 X114.1251 Y43.2711
G01 X114.1077 Y43.3131
G01 X114.0757 Y43.3807
G01 X114.0543 Y43.4208
G01 X114.0158 Y43.4850
G01 X113.9906 Y43.5228
G01 X113.9484 Y43.5796
G01 X113.9484 Y44.3997
G01 X114.5611 Y44.3997
G01 X114.5611 Y41.3651
G01 X114.5166 Y41.3517
G01 X114.4556 Y41.3298
G01 X114.4135 Y41.3124
G01 X114.3549 Y41.2847
G01 X114.3148 Y41.2633
G01 X114.2593 Y41.2300
G01 X114.2214 Y41.2047
G01 X114.1694 Y41.1661
G01 X114.1342 Y41.1372
G01 X114.0862 Y41.0937
G01 X114.0541 Y41.0616
G01 X114.0105 Y41.0135
G01 X113.9817 Y40.9784
G01 X113.9431 Y40.9263
G01 X113.9178 Y40.8885
G01 X113.8845 Y40.8329
G01 X113.8631 Y40.7928
G01 X113.8354 Y40.7342
G01 X113.8179 Y40.6922
G01 X113.7961 Y40.6312
G01 X113.7829 Y40.5877
G01 X113.7672 Y40.5248
G01 X113.7583 Y40.4802
G01 X113.7488 Y40.4161
G01 X113.7443 Y40.3709
G01 X113.7411 Y40.3061
G01 X113.7411 Y40.2606
G01 X113.7443 Y40.1959
G01 X113.7488 Y40.1507
G01 X113.7583 Y40.0866
G01 X113.7672 Y40.0419
G01 X113.7829 Y39.9791
G01 X113.7961 Y39.9356
G01 X113.8179 Y39.8745
G01 X113.8354 Y39.8325
G01 X113.8631 Y39.7739
G01 X113.8845 Y39.7338
G01 X113.9178 Y39.6783
G01 X113.9431 Y39.6404
G01 X113.9817 Y39.5884
G01 X114.0105 Y39.5532
G01 X114.0541 Y39.5052
G01 X114.0862 Y39.4731
G01 X114.1342 Y39.4295
G01 X114.1694 Y39.4007
G01 X114.2214 Y39.3621
G01 X114.2593 Y39.3368
G01 X114.3148 Y39.3035
G01 X114.3549 Y39.2821
G01 X114.4135 Y39.2543
G01 X114.4556 Y39.2369
G01 X114.5166 Y39.2151
G01 X114.5601 Y39.2019
G01 X114.6230 Y39.1862
G01 X114.6676 Y39.1773
G01 X114.7317 Y39.1678
G01 X114.7769 Y39.1633
G01 X114.8417 Y39.1601
G01 X114.8644 Y39.1596
G01 X116.1852 Y39.1596
G01 X116.2079 Y39.1601
G01 X116.2727 Y39.1633
G01 X116.3179 Y39.1678
G01 X116.3820 Y39.1773
G01 X116.4266 Y39.1862
G01 X116.4895 Y39.2019
G01 X116.5330 Y39.2151
G01 X116.5940 Y39.2369
G01 X116.6360 Y39.2543
G01 X116.6946 Y39.2821
G01 X116.7347 Y39.3035
G01 X116.7903 Y39.3368
G01 X116.8281 Y39.3621
G01 X116.8802 Y39.4007
G01 X116.9153 Y39.4295
G01 X116.9634 Y39.4731
G01 X116.9955 Y39.5052
G01 X117.0390 Y39.5532
G01 X117.0679 Y39.5884
G01 X117.1065 Y39.6404
G01 X117.1318 Y39.6783
G01 X117.1651 Y39.7338
G01 X117.1865 Y39.7739
G01 X117.2142 Y39.8325
G01 X117.2316 Y39.8745
G01 X117.2535 Y39.9356
G01 X117.2667 Y39.9791
G01 X117.2824 Y40.0419
G01 X117.2913 Y40.0866
G01 X117.3008 Y40.1507
G01 X117.3052 Y40.1959
G01 X117.3084 Y40.2606
G01 X117.3084 Y40.3061
G01 X117.3052 Y40.3709
G01 X117.3008 Y40.4161
G01 X117.2913 Y40.4802
G01 X117.2824 Y40.5248
G01 X117.2667 Y40.5877
G01 X117.2535 Y40.6312
G01 X117.2316 Y40.6922
G01 X117.2142 Y40.7342
G01 X117.1865 Y40.7928
G01 X117.1651 Y40.8329
G01 X117.1318 Y40.8885
G01 X117.1065 Y40.9263
G01 X117.0679 Y40.9784
G01 X117.0390 Y41.0135
G01 X116.9955 Y41.0616
G01 X116.9634 Y41.0937
G01 X116.9153 Y41.1372
G01 X116.8802 Y41.1661
G01 X116.8281 Y41.2047
G01 X116.7903 Y41.2300
G01 X116.7347 Y41.2633
G01 X116.6946 Y41.2847
G01 X116.6360 Y41.3124
G01 X116.5940 Y41.3298
G01 X116.5330 Y41.3517
G01 X116.4884 Y41.3651
G01 X116.4884 Y44.3997
G01 X124.7211 Y44.3997
G01 X124.7211 Y43.5796
G01 X124.6790 Y43.5228
G01 X124.6537 Y43.4850
G01 X124.6153 Y43.4208
G01 X124.5939 Y43.3807
G01 X124.5619 Y43.3131
G01 X124.5445 Y43.2711
G01 X124.5193 Y43.2007
G01 X124.5061 Y43.1572
G01 X124.4879 Y43.0846
G01 X124.4790 Y43.0400
G01 X124.4681 Y42.9661
G01 X124.4636 Y42.9208
G01 X124.4599 Y42.8461
G01 X124.4599 Y42.8006
G01 X124.4636 Y42.7260
G01 X124.4681 Y42.6807
G01 X124.4790 Y42.6067
G01 X124.4879 Y42.5621
G01 X124.5061 Y42.4896
G01 X124.5193 Y42.4461
G01 X124.5445 Y42.3757
G01 X124.5619 Y42.3337
G01 X124.5939 Y42.2661
G01 X124.6153 Y42.2259
G01 X124.6537 Y42.1618
G01 X124.6790 Y42.1240
G01 X124.7235 Y42.0639
G01 X124.7524 Y42.0288
G01 X124.8026 Y41.9734
G01 X124.8348 Y41.9412
G01 X124.8902 Y41.8910
G01 X124.9253 Y41.8621
G01 X124.9854 Y41.8176
G01 X125.0232 Y41.7923
G01 X125.0873 Y41.7539
G01 X125.1275 Y41.7325
G01 X125.1951 Y41.7005
G01 X125.2371 Y41.6831
G01 X125.3075 Y41.6579
G01 X125.3510 Y41.6447
G01 X125.4235 Y41.6265
G01 X125.4681 Y41.6176
G01 X125.5421 Y41.6067
G01 X125.5874 Y41.6022
G01 X125.6621 Y41.5985
G01 X125.7075 Y41.5985
G01 X125.7822 Y41.6022
G01 X125.8275 Y41.6067
G01 X125.9014 Y41.6176
G01 X125.9460 Y41.6265
G01 X126.0186 Y41.6447
G01 X126.0621 Y41.6579
G01 X126.1325 Y41.6831
G01 X126.1745 Y41.7005
G01 X126.2421 Y41.7325
G01 X126.2822 Y41.7539
G01 X126.3464 Y41.7923
G01 X126.3842 Y41.8176
G01 X126.4442 Y41.8621
G01 X126.4794 Y41.8910
G01 X126.5348 Y41.9412
G01 X126.5670 Y41.9734
G01 X126.6172 Y42.0288
G01 X126.6460 Y42.0639
G01 X126.6906 Y42.1240
G01 X126.7158 Y42.1618
G01 X126.7543 Y42.2259
G01 X126.7757 Y42.2661
G01 X126.8077 Y42.3337
G01 X126.8251 Y42.3757
G01 X126.8503 Y42.4461
G01 X126.8635 Y42.4896
G01 X126.8817 Y42.5621
G01 X126.8905 Y42.6067
G01 X126.9015 Y42.6807
G01 X126.9060 Y42.7260
G01 X126.9096 Y42.8006
G01 X126.9096 Y42.8461
G01 X126.9060 Y42.9208
G01 X126.9015 Y42.9661
G01 X126.8905 Y43.0400
G01 X126.8817 Y43.0846
G01 X126.8635 Y43.1572
G01 X126.8503 Y43.2007
G01 X126.8251 Y43.2711
G01 X126.8077 Y43.3131
G01 X126.7757 Y43.3807
G01 X126.7543 Y43.4208
G01 X126.7158 Y43.4850
G01 X126.6906 Y43.5228
G01 X126.6484 Y43.5796
G01 X126.6484 Y44.3997
G01 X127.2611 Y44.3997
G01 X127.2611 Y41.3651
G01 X127.2166 Y41.3517
G01 X127.1556 Y41.3298
G01 X127.1135 Y41.3124
G01 X127.0549 Y41.2847
G01 X127.0148 Y41.2633
G01 X126.9593 Y41.2300
G01 X126.9214 Y41.2047
G01 X126.8694 Y41.1661
G01 X126.8342 Y41.1372
G01 X126.7862 Y41.0937
G01 X126.7541 Y41.0616
G01 X126.7105 Y41.0135
G01 X126.6817 Y40.9784
G01 X126.6431 Y40.9263
G01 X126.6178 Y40.8885
G01 X126.5845 Y40.8329
G01 X126.5631 Y40.7928
G01 X126.5354 Y40.7342
G01 X126.5179 Y40.6922
G01 X126.4961 Y40.6312
G01 X126.4829 Y40.5877
G01 X126.4672 Y40.5248
G01 X126.4583 Y40.4802
G01 X126.4488 Y40.4161
G01 X126.4443 Y40.3709
G01 X126.4411 Y40.3061
G01 X126.4411 Y40.2606
G01 X126.4443 Y40.1959
G01 X126.4488 Y40.1507
G01 X126.4583 Y40.0866
G01 X126.4672 Y40.0419
G01 X126.4829 Y39.9791
G01 X126.4961 Y39.9356
G01 X126.5179 Y39.8745
G01 X126.5354 Y39.8325
G01 X126.5631 Y39.7739
G01 X126.5845 Y39.7338
G01 X126.6178 Y39.6783
G01 X126.6431 Y39.6404
G01 X126.6817 Y39.5884
G01 X126.7105 Y39.5532
G01 X126.7541 Y39.5052
G01 X126.7862 Y39.4731
G01 X126.8342 Y39.4295
G01 X126.8694 Y39.4007
G01 X126.9214 Y39.3621
G01 X126.9593 Y39.3368
G01 X127.0148 Y39.3035
G01 X127.0549 Y39.2821
G01 X127.1135 Y39.2543
G01 X127.1556 Y39.2369
G01 X127.2166 Y39.2151
G01 X127.2601 Y39.2019
G01 X127.3230 Y39.1862
G01 X127.3676 Y39.1773
G01 X127.4317 Y39.1678
G01 X127.4769 Y39.1633
G01 X127.5417 Y39.1601
G01 X127.5644 Y39.1596
G01 X128.8852 Y39.1596
G01 X128.9079 Y39.1601
G01 X128.9727 Y39.1633
G01 X129.0179 Y39.1678
G01 X129.0820 Y39.1773
G01 X129.1266 Y39.1862
G01 X129.1895 Y39.2019
G01 X129.2330 Y39.2151
G01 X129.2940 Y39.2369
G01 X129.3360 Y39.2543
G01 X129.3946 Y39.2821
G01 X129.4347 Y39.3035
G01 X129.4903 Y39.3368
G01 X129.5281 Y39.3621
G01 X129.5802 Y39.4007
G01 X129.6153 Y39.4295
G01 X129.6634 Y39.4731
G01 X129.6955 Y39.5052
G01 X129.7390 Y39.5532
G01 X129.7679 Y39.5884
G01 X129.8065 Y39.6404
G01 X129.8318 Y39.6783
G01 X129.8651 Y39.7338
G01 X129.8865 Y39.7739
G01 X129.9142 Y39.8325
G01 X129.9316 Y39.8745
G01 X129.9535 Y39.9356
G01 X129.9667 Y39.9791
G01 X129.9824 Y40.0419
G01 X129.9913 Y40.0866
G01 X130.0008 Y40.1507
G01 X130.0052 Y40.1959
G01 X130.0084 Y40.2606
G01 X130.0084 Y40.3061
G01 X130.0052 Y40.3709
G01 X130.0008 Y40.4161
G01 X129.9913 Y40.4802
G01 X129.9824 Y40.5248
G01 X129.9667 Y40.5877
G01 X129.9535 Y40.6312
G01 X129.9316 Y40.6922
G01 X129.9142 Y40.7342
G01 X129.8865 Y40.7928
G01 X129.8651 Y40.8329
G01 X129.8318 Y40.8885
G01 X129.8065 Y40.9263
G01 X129.7679 Y40.9784
G01 X129.7390 Y41.0135
G01 X129.6955 Y41.0616
G01 X129.6634 Y41.0937
G01 X129.6153 Y41.1372
G01 X129.5802 Y41.1661
G01 X129.5281 Y41.2047
G01 X129.4903 Y41.2300
G01 X129.4347 Y41.2633
G01 X129.3946 Y41.2847
G01 X129.3360 Y41.3124
G01 X129.2940 Y41.3298
G01 X129.2330 Y41.3517
G01 X129.1884 Y41.3651
G01 X129.1884 Y44.3997
G01 X139.9611 Y44.3997
G01 X139.9611 Y41.3651
G01 X139.9166 Y41.3517
G01 X139.8556 Y41.3298
G01 X139.8135 Y41.3124
G01 X139.7549 Y41.2847
G01 X139.7148 Y41.2633
G01 X139.6593 Y41.2300
G01 X139.6214 Y41.2047
G01 X139.5694 Y41.1661
G01 X139.5342 Y41.1372
G01 X139.4862 Y41.0937
G01 X139.4541 Y41.0616
G01 X139.4105 Y41.0135
G01 X139.3817 Y40.9784
G01 X139.3431 Y40.9263
G01 X139.3178 Y40.8885
G01 X139.2845 Y40.8329
G01 X139.2631 Y40.7928
G01 X139.2354 Y40.7342
G01 X139.2179 Y40.6922
G01 X139.1961 Y40.6312
G01 X139.1829 Y40.5877
G01 X139.1672 Y40.5248
G01 X139.1583 Y40.4802
G01 X139.1488 Y40.4161
G01 X139.1443 Y40.3709
G01 X139.1411 Y40.3061
G01 X139.1411 Y40.2606
G01 X139.1443 Y40.1959
G01 X139.1488 Y40.1507
G01 X139.1583 Y40.0866
G01 X139.1672 Y40.0419
G01 X139.1829 Y39.9791
G01 X139.1961 Y39.9356
G01 X139.2179 Y39.8745
G01 X139.2354 Y39.8325
G01 X139.2631 Y39.7739
G01 X139.2845 Y39.7338
G01 X139.3178 Y39.6783
G01 X139.3431 Y39.6404
G01 X139.3817 Y39.5884
G01 X139.4105 Y39.5532
G01 X139.4541 Y39.5052
G01 X139.4862 Y39.4731
G01 X139.5342 Y39.4295
G01 X139.5694 Y39.4007
G01 X139.6214 Y39.3621
G01 X139.6593 Y39.3368
G01 X139.7148 Y39.3035
G01 X139.7549 Y39.2821
G01 X139.8135 Y39.2543
G01 X139.8556 Y39.2369
G01 X139.9166 Y39.2151
G01 X139.9601 Y39.2019
G01 X140.0230 Y39.1862
G01 X140.0676 Y39.1773
G01 X140.1317 Y39.1678
G01 X140.1769 Y39.1633
G01 X140.2417 Y39.1601
G01 X140.2644 Y39.1596
G01 X141.5852 Y39.1596
G01 X141.6079 Y39.1601
G01 X141.6727 Y39.1633
G01 X141.7179 Y39.1678
G01 X141.7820 Y39.1773
G01 X141.8266 Y39.1862
G01 X141.8895 Y39.2019
G01 X141.9330 Y39.2151
G01 X141.9940 Y39.2369
G01 X142.0360 Y39.2543
G01 X142.0946 Y39.2821
G01 X142.1347 Y39.3035
G01 X142.1903 Y39.3368
G01 X142.2281 Y39.3621
G01 X142.2802 Y39.4007
G01 X142.3153 Y39.4295
G01 X142.3634 Y39.4731
G01 X142.3955 Y39.5052
G01 X142.4390 Y39.5532
G01 X142.4679 Y39.5884
G01 X142.5065 Y39.6404
G01 X142.5318 Y39.6783
G01 X142.5651 Y39.7338
G01 X142.5865 Y39.7739
G01 X142.6140 Y39.8321
G01 X142.6261 Y39.8093
G01 X142.6514 Y39.7672
G01 X142.6766 Y39.7294
G01 X142.7059 Y39.6900
G01 X142.7347 Y39.6548
G01 X142.7677 Y39.6185
G01 X142.7999 Y39.5863
G01 X142.8362 Y39.5533
G01 X142.8714 Y39.5245
G01 X142.9108 Y39.4952
G01 X142.9486 Y39.4700
G01 X142.9907 Y39.4447
G01 X143.0308 Y39.4233
G01 X143.0752 Y39.4023
G01 X143.1172 Y39.3849
G01 X143.1635 Y39.3684
G01 X143.2070 Y39.3552
G01 X143.2546 Y39.3432
G01 X143.2992 Y39.3344
G01 X143.3478 Y39.3272
G01 X143.3930 Y39.3227
G01 X143.4421 Y39.3203
G01 X143.4648 Y39.3197
G01 X144.7677 Y39.3197
G01 X144.7948 Y39.3035
G01 X144.8349 Y39.2821
G01 X144.8935 Y39.2543
G01 X144.9356 Y39.2369
G01 X144.9966 Y39.2151
G01 X145.0401 Y39.2019
G01 X145.1030 Y39.1862
G01 X145.1476 Y39.1773
G01 X145.2117 Y39.1678
G01 X145.2569 Y39.1633
G01 X145.3217 Y39.1601
G01 X145.3444 Y39.1596
G01 X146.6652 Y39.1596
G01 X146.6879 Y39.1601
G01 X146.7527 Y39.1633
G01 X146.7979 Y39.1678
G01 X146.8620 Y39.1773
G01 X146.9066 Y39.1862
G01 X146.9695 Y39.2019
G01 X147.0130 Y39.2151
G01 X147.0740 Y39.2369
G01 X147.1160 Y39.2543
G01 X147.1746 Y39.2821
G01 X147.2147 Y39.3035
G01 X147.2703 Y39.3368
G01 X147.3081 Y39.3621
G01 X147.3602 Y39.4007
G01 X147.3953 Y39.4295
G01 X147.4434 Y39.4731
G01 X147.4755 Y39.5052
G01 X147.5190 Y39.5532
G01 X147.5479 Y39.5884
G01 X147.5865 Y39.6404
G01 X147.6118 Y39.6783
G01 X147.6451 Y39.7338
G01 X147.6665 Y39.7739
G01 X147.6942 Y39.8325
G01 X147.7116 Y39.8745
G01 X147.7335 Y39.9356
G01 X147.7467 Y39.9791
G01 X147.7624 Y40.0419
G01 X147.7713 Y40.0866
G01 X147.7808 Y40.1507
G01 X147.7852 Y40.1959
G01 X147.7884 Y40.2606
G01 X147.7884 Y40.3061
G01 X147.7852 Y40.3709
G01 X147.7808 Y40.4161
G01 X147.7713 Y40.4802
G01 X147.7624 Y40.5248
G01 X147.7467 Y40.5877
G01 X147.7335 Y40.6312
G01 X147.7116 Y40.6922
G01 X147.6942 Y40.7342
G01 X147.6665 Y40.7928
G01 X147.6451 Y40.8329
G01 X147.6118 Y40.8885
G01 X147.5865 Y40.9263
G01 X147.5479 Y40.9784
G01 X147.5190 Y41.0135
G01 X147.4755 Y41.0616
G01 X147.4434 Y41.0937
G01 X147.3953 Y41.1372
G01 X147.3602 Y41.1661
G01 X147.3081 Y41.2047
G01 X147.2703 Y41.2300
G01 X147.2147 Y41.2633
G01 X147.1746 Y41.2847
G01 X147.1160 Y41.3124
G01 X147.0740 Y41.3298
G01 X147.0130 Y41.3517
G01 X146.9695 Y41.3649
G01 X146.9066 Y41.3806
G01 X146.8620 Y41.3895
G01 X146.7979 Y41.3990
G01 X146.7527 Y41.4034
G01 X146.6879 Y41.4066
G01 X146.6652 Y41.4072
G01 X145.3444 Y41.4072
G01 X145.3217 Y41.4066
G01 X145.2569 Y41.4034
G01 X145.2117 Y41.3990
G01 X145.1476 Y41.3895
G01 X145.1030 Y41.3806
G01 X145.0401 Y41.3649
G01 X144.9966 Y41.3517
G01 X144.9356 Y41.3298
G01 X144.8935 Y41.3124
G01 X144.8349 Y41.2847
G01 X144.7948 Y41.2633
G01 X144.7677 Y41.2470
G01 X144.4284 Y41.2470
G01 X144.4284 Y47.2532
G01 X144.4617 Y47.2084
G01 X144.4905 Y47.1732
G01 X144.5341 Y47.1252
G01 X144.5662 Y47.0931
G01 X144.6142 Y47.0495
G01 X144.6494 Y47.0207
G01 X144.7014 Y46.9821
G01 X144.7393 Y46.9568
G01 X144.7948 Y46.9235
G01 X144.8349 Y46.9021
G01 X144.8935 Y46.8743
G01 X144.9356 Y46.8569
G01 X144.9966 Y46.8351
G01 X145.0401 Y46.8219
G01 X145.1030 Y46.8062
G01 X145.1476 Y46.7973
G01 X145.2117 Y46.7878
G01 X145.2569 Y46.7833
G01 X145.3217 Y46.7801
G01 X145.3444 Y46.7796
G01 X146.6652 Y46.7796
G01 X146.6879 Y46.7801
G01 X146.7527 Y46.7833
G01 X146.7979 Y46.7878
G01 X146.8620 Y46.7973
G01 X146.9066 Y46.8062
G01 X146.9695 Y46.8219
G01 X147.0130 Y46.8351
G01 X147.0740 Y46.8569
G01 X147.1160 Y46.8743
G01 X147.1746 Y46.9021
G01 X147.2147 Y46.9235
G01 X147.2703 Y46.9568
G01 X147.3081 Y46.9821
G01 X147.3602 Y47.0207
G01 X147.3953 Y47.0495
G01 X147.4434 Y47.0931
G01 X147.4755 Y47.1252
G01 X147.5190 Y47.1732
G01 X147.5479 Y47.2084
G01 X147.5865 Y47.2604
G01 X147.6118 Y47.2983
G01 X147.6451 Y47.3538
G01 X147.6665 Y47.3939
G01 X147.6942 Y47.4525
G01 X147.7116 Y47.4945
G01 X147.7335 Y47.5556
G01 X147.7467 Y47.5991
G01 X147.7624 Y47.6619
G01 X147.7713 Y47.7066
G01 X147.7808 Y47.7707
G01 X147.7852 Y47.8159
G01 X147.7884 Y47.8806
G01 X147.7884 Y47.9261
G01 X147.7852 Y47.9909
G01 X147.7808 Y48.0361
G01 X147.7713 Y48.1002
G01 X147.7624 Y48.1448
G01 X147.7467 Y48.2077
G01 X147.7335 Y48.2512
G01 X147.7116 Y48.3122
G01 X147.6942 Y48.3542
G01 X147.6665 Y48.4128
G01 X147.6451 Y48.4529
G01 X147.6118 Y48.5085
G01 X147.5865 Y48.5463
G01 X147.5479 Y48.5984
G01 X147.5190 Y48.6335
G01 X147.4755 Y48.6816
G01 X147.4434 Y48.7137
G01 X147.3953 Y48.7572
G01 X147.3602 Y48.7861
G01 X147.3081 Y48.8247
G01 X147.2703 Y48.8500
G01 X147.2147 Y48.8833
G01 X147.1746 Y48.9047
G01 X147.1160 Y48.9324
G01 X147.0740 Y48.9498
G01 X147.0130 Y48.9717
G01 X146.9695 Y48.9849
G01 X146.9066 Y49.0006
G01 X146.8620 Y49.0095
G01 X146.7979 Y49.0190
G01 X146.7527 Y49.0234
G01 X146.6879 Y49.0266
G01 X146.6652 Y49.0272
G01 X145.3444 Y49.0272
G01 X145.3217 Y49.0266
G01 X145.2569 Y49.0234
G01 X145.2117 Y49.0190
G01 X145.1476 Y49.0095
G01 X145.1030 Y49.0006
G01 X145.0401 Y48.9849
G01 X144.9966 Y48.9717
G01 X144.9356 Y48.9498
G01 X144.8935 Y48.9324
G01 X144.8349 Y48.9047
G01 X144.7948 Y48.8833
G01 X144.7393 Y48.8500
G01 X144.7014 Y48.8247
G01 X144.6494 Y48.7861
G01 X144.6142 Y48.7572
G01 X144.5662 Y48.7137
G01 X144.5341 Y48.6816
G01 X144.4905 Y48.6335
G01 X144.4617 Y48.5984
G01 X144.4284 Y48.5535
G01 X144.4284 Y96.1634
G01 X144.4279 Y96.1861
G01 X144.4255 Y96.2352
G01 X144.4210 Y96.2804
G01 X144.4138 Y96.3290
G01 X144.4049 Y96.3736
G01 X144.3930 Y96.4212
G01 X144.3798 Y96.4647
G01 X144.3633 Y96.5109
G01 X144.3459 Y96.5529
G01 X144.3249 Y96.5973
G01 X144.3034 Y96.6374
G01 X144.2782 Y96.6795
G01 X144.2529 Y96.7174
G01 X144.2237 Y96.7568
G01 X144.1948 Y96.7919
G01 X144.1619 Y96.8283
G01 X144.1297 Y96.8605
G01 X144.0933 Y96.8934
G01 X144.0582 Y96.9223
G01 X144.0188 Y96.9515
G01 X143.9809 Y96.9768
G01 X143.9388 Y97.0020
G01 X143.8987 Y97.0235
G01 X143.8544 Y97.0445
G01 X143.8123 Y97.0619
G01 X143.7661 Y97.0784
G01 X143.7226 Y97.0916
G01 X143.6750 Y97.1035
G01 X143.6304 Y97.1124
G01 X143.5818 Y97.1196
G01 X143.5366 Y97.1241
G01 X143.4875 Y97.1265
G01 X143.4648 Y97.1270
G01 X108.6610 Y97.1270
G01 X108.6042 Y97.1692
G01 X108.5664 Y97.1944
G01 X108.5022 Y97.2329
G01 X108.4621 Y97.2543
G01 X108.3945 Y97.2863
G01 X108.3525 Y97.3037
G01 X108.2821 Y97.3289
G01 X108.2386 Y97.3421
G01 X108.1660 Y97.3603
G01 X108.1214 Y97.3691
G01 X108.0475 Y97.3801
G01 X108.0022 Y97.3846
G01 X107.9275 Y97.3882
G01 X107.8821 Y97.3882
G01 X107.8074 Y97.3846
G01 X107.7621 Y97.3801
G01 X107.6881 Y97.3691
G01 X107.6435 Y97.3603
G01 X107.5710 Y97.3421
G01 X107.5275 Y97.3289
G01 X107.4571 Y97.3037
G01 X107.4151 Y97.2863
G01 X107.3475 Y97.2543
G01 X107.3073 Y97.2329
G01 X107.2432 Y97.1944
G01 X107.2054 Y97.1692
G01 X107.1453 Y97.1246
G01 X107.1102 Y97.0958
G01 X107.0548 Y97.0456
G01 X107.0226 Y97.0134
G01 X106.9724 Y96.9580
G01 X106.9435 Y96.9228
G01 X106.8990 Y96.8628
G01 X106.8737 Y96.8250
G01 X106.8353 Y96.7608
G01 X106.8139 Y96.7207
G01 X106.7819 Y96.6531
G01 X106.7645 Y96.6111
G01 X106.7393 Y96.5407
G01 X106.7261 Y96.4972
G01 X106.7079 Y96.4246
G01 X106.6990 Y96.3800
G01 X106.6881 Y96.3061
G01 X106.6836 Y96.2608
G01 X106.6799 Y96.1861
G01 X106.6799 Y96.1406
G01 X106.6836 Y96.0660
G01 X106.6881 Y96.0207
G01 X106.6990 Y95.9467
G01 X106.7079 Y95.9021
G01 X106.7261 Y95.8296
G01 X106.7393 Y95.7861
G01 X106.7645 Y95.7157
G01 X106.7819 Y95.6737
G01 X106.8139 Y95.6061
G01 X106.8353 Y95.5659
G01 X106.8737 Y95.5018
G01 X106.8990 Y95.4640
G01 X106.9435 Y95.4039
G01 X106.9724 Y95.3688
G01 X107.0226 Y95.3134
G01 X107.0548 Y95.2812
G01 X107.1102 Y95.2310
G01 X107.1453 Y95.2021
G01 X107.2054 Y95.1576
G01 X107.2432 Y95.1323
G01 X107.3073 Y95.0939
G01 X107.3475 Y95.0725
G01 X107.4151 Y95.0405
G01 X107.4571 Y95.0231
G01 X107.5275 Y94.9979
G01 X107.5710 Y94.9847
G01 X107.6435 Y94.9665
G01 X107.6881 Y94.9576
G01 X107.7621 Y94.9467
G01 X107.8074 Y94.9422
G01 X107.8821 Y94.9385
G01 X107.9275 Y94.9385
G01 X108.0022 Y94.9422
G01 X108.0475 Y94.9467
G01 X108.1214 Y94.9576
G01 X108.1660 Y94.9665
G01 X108.2386 Y94.9847
G01 X108.2821 Y94.9979
G01 X108.3525 Y95.0231
G01 X108.3945 Y95.0405
G01 X108.4621 Y95.0725
G01 X108.5022 Y95.0939
G01 X108.5664 Y95.1323
G01 X108.6042 Y95.1576
G01 X108.6610 Y95.1997
G01 X142.5011 Y95.1997
G01 X142.5011 Y48.5535
G01 X142.4679 Y48.5984
G01 X142.4390 Y48.6335
G01 X142.3955 Y48.6816
G01 X142.3634 Y48.7137
G01 X142.3153 Y48.7572
G01 X142.2802 Y48.7861
G01 X142.2281 Y48.8247
G01 X142.1903 Y48.8500
G01 X142.1347 Y48.8833
G01 X142.0946 Y48.9047
G01 X142.0360 Y48.9324
G01 X141.9940 Y48.9498
G01 X141.9330 Y48.9717
G01 X141.8884 Y48.9851
G01 X141.8884 Y50.4434
G01 X141.8879 Y50.4661
G01 X141.8855 Y50.5152
G01 X141.8810 Y50.5604
G01 X141.8738 Y50.6090
G01 X141.8649 Y50.6536
G01 X141.8530 Y50.7012
G01 X141.8398 Y50.7447
G01 X141.8233 Y50.7909
G01 X141.8059 Y50.8329
G01 X141.7849 Y50.8773
G01 X141.7634 Y50.9174
G01 X141.7382 Y50.9595
G01 X141.7129 Y50.9974
G01 X141.6837 Y51.0368
G01 X141.6548 Y51.0719
G01 X141.6219 Y51.1083
G01 X141.5897 Y51.1405
G01 X141.5533 Y51.1734
G01 X141.5182 Y51.2023
G01 X141.4788 Y51.2315
G01 X141.4409 Y51.2568
G01 X141.3988 Y51.2820
G01 X141.3587 Y51.3035
G01 X141.3144 Y51.3245
G01 X141.2723 Y51.3419
G01 X141.2261 Y51.3584
G01 X141.1826 Y51.3716
G01 X141.1350 Y51.3835
G01 X141.0904 Y51.3924
G01 X141.0418 Y51.3996
G01 X140.9966 Y51.4041
G01 X140.9475 Y51.4065
G01 X140.9248 Y51.4070
G01 X134.2684 Y51.4070
G01 X134.2684 Y51.9016
G01 X134.3130 Y51.9151
G01 X134.3740 Y51.9369
G01 X134.4160 Y51.9543
G01 X134.4746 Y51.9821
G01 X134.5147 Y52.0035
G01 X134.5703 Y52.0368
G01 X134.6081 Y52.0621
G01 X134.6602 Y52.1007
G01 X134.6953 Y52.1295
G01 X134.7434 Y52.1731
G01 X134.7755 Y52.2052
G01 X134.8190 Y52.2532
G01 X134.8479 Y52.2884
G01 X134.8865 Y52.3404
G01 X134.9118 Y52.3783
G01 X134.9451 Y52.4338
G01 X134.9665 Y52.4739
G01 X134.9942 Y52.5325
G01 X135.0116 Y52.5745
G01 X135.0335 Y52.6356
G01 X135.0467 Y52.6791
G01 X135.0624 Y52.7419
G01 X135.0713 Y52.7866
G01 X135.0808 Y52.8507
G01 X135.0852 Y52.8959
G01 X135.0884 Y52.9606
G01 X135.0884 Y53.0061
G01 X135.0852 Y53.0709
G01 X135.0808 Y53.1161
G01 X135.0713 Y53.1802
G01 X135.0624 Y53.2248
G01 X135.0467 Y53.2877
G01 X135.0335 Y53.3312
G01 X135.0116 Y53.3922
G01 X134.9942 Y53.4342
G01 X134.9665 Y53.4928
G01 X134.9451 Y53.5329
G01 X134.9118 Y53.5885
G01 X134.8865 Y53.6263
G01 X134.8479 Y53.6784
G01 X134.8190 Y53.7135
G01 X134.7755 Y53.7616
G01 X134.7434 Y53.7937
G01 X134.6953 Y53.8372
G01 X134.6602 Y53.8661
G01 X134.6081 Y53.9047
G01 X134.5703 Y53.9300
G01 X134.5147 Y53.9633
G01 X134.4746 Y53.9847
G01 X134.4160 Y54.0124
G01 X134.3740 Y54.0298
G01 X134.3130 Y54.0517
G01 X134.2684 Y54.0651
G01 X134.2684 Y54.4416
G01 X134.3130 Y54.4551
G01 X134.3740 Y54.4769
G01 X134.4160 Y54.4943
G01 X134.4746 Y54.5221
G01 X134.5147 Y54.5435
G01 X134.5703 Y54.5768
G01 X134.6081 Y54.6021
G01 X134.6602 Y54.6407
G01 X134.6953 Y54.6695
G01 X134.7434 Y54.7131
G01 X134.7755 Y54.7452
G01 X134.8190 Y54.7932
G01 X134.8479 Y54.8284
G01 X134.8865 Y54.8804
G01 X134.9118 Y54.9183
G01 X134.9451 Y54.9738
G01 X134.9665 Y55.0139
G01 X134.9942 Y55.0725
G01 X135.0116 Y55.1145
G01 X135.0335 Y55.1756
G01 X135.0467 Y55.2191
G01 X135.0624 Y55.2819
G01 X135.0713 Y55.3266
G01 X135.0808 Y55.3907
G01 X135.0852 Y55.4359
G01 X135.0884 Y55.5006
G01 X135.0884 Y55.5461
G01 X135.0852 Y55.6109
G01 X135.0808 Y55.6561
G01 X135.0713 Y55.7202
G01 X135.0624 Y55.7648
G01 X135.0467 Y55.8277
G01 X135.0335 Y55.8712
G01 X135.0116 Y55.9322
G01 X134.9942 Y55.9742
G01 X134.9665 Y56.0328
G01 X134.9451 Y56.0729
G01 X134.9118 Y56.1285
G01 X134.8865 Y56.1663
G01 X134.8479 Y56.2184
G01 X134.8190 Y56.2535
G01 X134.7755 Y56.3016
G01 X134.7434 Y56.3337
G01 X134.6953 Y56.3772
G01 X134.6602 Y56.4061
G01 X134.6081 Y56.4447
G01 X134.5703 Y56.4700
G01 X134.5147 Y56.5033
G01 X134.4746 Y56.5247
G01 X134.4160 Y56.5524
G01 X134.3740 Y56.5698
G01 X134.3130 Y56.5917
G01 X134.2695 Y56.6049
G01 X134.2066 Y56.6206
G01 X134.1620 Y56.6295
G01 X134.0979 Y56.6390
G01 X134.0527 Y56.6434
G01 X133.9879 Y56.6466
G01 X133.9652 Y56.6472
G01 X132.6444 Y56.6472
G01 X132.6217 Y56.6466
G01 X132.5569 Y56.6434
G01 X132.5117 Y56.6390
G01 X132.4476 Y56.6295
G01 X132.4030 Y56.6206
G01 X132.3401 Y56.6049
G01 X132.2966 Y56.5917
G01 X132.2356 Y56.5698
G01 X132.1935 Y56.5524
G01 X132.1349 Y56.5247
G01 X132.0948 Y56.5033
G01 X132.0677 Y56.4870
G01 X131.7284 Y56.4870
G01 X131.7284 Y62.4932
G01 X131.7617 Y62.4484
G01 X131.7905 Y62.4132
G01 X131.8341 Y62.3652
G01 X131.8662 Y62.3331
G01 X131.9142 Y62.2895
G01 X131.9494 Y62.2607
G01 X132.0014 Y62.2221
G01 X132.0393 Y62.1968
G01 X132.0948 Y62.1635
G01 X132.1349 Y62.1421
G01 X132.1935 Y62.1143
G01 X132.2356 Y62.0969
G01 X132.2966 Y62.0751
G01 X132.3401 Y62.0619
G01 X132.4030 Y62.0462
G01 X132.4476 Y62.0373
G01 X132.5117 Y62.0278
G01 X132.5569 Y62.0233
G01 X132.6217 Y62.0201
G01 X132.6444 Y62.0196
G01 X133.9652 Y62.0196
G01 X133.9879 Y62.0201
G01 X134.0527 Y62.0233
G01 X134.0979 Y62.0278
G01 X134.1620 Y62.0373
G01 X134.2066 Y62.0462
G01 X134.2695 Y62.0619
G01 X134.3130 Y62.0751
G01 X134.3740 Y62.0969
G01 X134.4160 Y62.1143
G01 X134.4746 Y62.1421
G01 X134.5147 Y62.1635
G01 X134.5703 Y62.1968
G01 X134.6081 Y62.2221
G01 X134.6602 Y62.2607
G01 X134.6953 Y62.2895
G01 X134.7434 Y62.3331
G01 X134.7755 Y62.3652
G01 X134.8190 Y62.4132
G01 X134.8479 Y62.4484
G01 X134.8865 Y62.5004
G01 X134.9118 Y62.5383
G01 X134.9451 Y62.5938
G01 X134.9665 Y62.6339
G01 X134.9942 Y62.6925
G01 X135.0116 Y62.7345
G01 X135.0335 Y62.7956
G01 X135.0467 Y62.8391
G01 X135.0624 Y62.9019
G01 X135.0713 Y62.9466
G01 X135.0808 Y63.0107
G01 X135.0852 Y63.0559
G01 X135.0884 Y63.1206
G01 X135.0884 Y63.1661
G01 X135.0852 Y63.2309
G01 X135.0808 Y63.2761
G01 X135.0713 Y63.3402
G01 X135.0624 Y63.3848
G01 X135.0467 Y63.4477
G01 X135.0335 Y63.4912
G01 X135.0116 Y63.5522
G01 X134.9942 Y63.5942
G01 X134.9665 Y63.6528
G01 X134.9451 Y63.6929
G01 X134.9118 Y63.7485
G01 X134.8865 Y63.7863
G01 X134.8479 Y63.8384
G01 X134.8190 Y63.8735
G01 X134.7755 Y63.9216
G01 X134.7434 Y63.9537
G01 X134.6953 Y63.9972
G01 X134.6602 Y64.0261
G01 X134.6081 Y64.0647
G01 X134.5703 Y64.0900
G01 X134.5147 Y64.1233
G01 X134.4746 Y64.1447
G01 X134.4160 Y64.1724
G01 X134.3740 Y64.1898
G01 X134.3130 Y64.2117
G01 X134.2695 Y64.2249
G01 X134.2066 Y64.2406
G01 X134.1620 Y64.2495
G01 X134.0979 Y64.2590
G01 X134.0527 Y64.2634
G01 X133.9879 Y64.2666
G01 X133.9652 Y64.2672
G01 X132.6444 Y64.2672
G01 X132.6217 Y64.2666
G01 X132.5569 Y64.2634
G01 X132.5117 Y64.2590
G01 X132.4476 Y64.2495
G01 X132.4030 Y64.2406
G01 X132.3401 Y64.2249
G01 X132.2966 Y64.2117
G01 X132.2356 Y64.1898
G01 X132.1935 Y64.1724
G01 X132.1349 Y64.1447
G01 X132.0948 Y64.1233
G01 X132.0393 Y64.0900
G01 X132.0014 Y64.0647
G01 X131.9494 Y64.0261
G01 X131.9142 Y63.9972
G01 X131.8662 Y63.9537
G01 X131.8341 Y63.9216
G01 X131.7905 Y63.8735
G01 X131.7617 Y63.8384
G01 X131.7284 Y63.7935
G01 X131.7284 Y67.2597
G01 X132.0677 Y67.2597
G01 X132.0948 Y67.2435
G01 X132.1349 Y67.2221
G01 X132.1935 Y67.1943
G01 X132.2356 Y67.1769
G01 X132.2966 Y67.1551
G01 X132.3401 Y67.1419
G01 X132.4030 Y67.1262
G01 X132.4476 Y67.1173
G01 X132.5117 Y67.1078
G01 X132.5569 Y67.1033
G01 X132.6217 Y67.1001
G01 X132.6444 Y67.0996
G01 X133.9652 Y67.0996
G01 X133.9879 Y67.1001
G01 X134.0527 Y67.1033
G01 X134.0979 Y67.1078
G01 X134.1620 Y67.1173
G01 X134.2066 Y67.1262
G01 X134.2695 Y67.1419
G01 X134.3130 Y67.1551
G01 X134.3740 Y67.1769
G01 X134.4160 Y67.1943
G01 X134.4746 Y67.2221
G01 X134.5147 Y67.2435
G01 X134.5703 Y67.2768
G01 X134.6081 Y67.3021
G01 X134.6602 Y67.3407
G01 X134.6953 Y67.3695
G01 X134.7434 Y67.4131
G01 X134.7755 Y67.4452
G01 X134.8190 Y67.4932
G01 X134.8479 Y67.5284
G01 X134.8811 Y67.5732
G01 X134.8811 Y66.4396
G01 X134.8390 Y66.3828
G01 X134.8137 Y66.3450
G01 X134.7753 Y66.2808
G01 X134.7539 Y66.2407
G01 X134.7219 Y66.1731
G01 X134.7045 Y66.1311
G01 X134.6793 Y66.0607
G01 X134.6661 Y66.0172
G01 X134.6479 Y65.9446
G01 X134.6390 Y65.9000
G01 X134.6281 Y65.8261
G01 X134.6236 Y65.7808
G01 X134.6199 Y65.7061
G01 X134.6199 Y65.6606
G01 X134.6236 Y65.5860
G01 X134.6281 Y65.5407
G01 X134.6390 Y65.4667
G01 X134.6479 Y65.4221
G01 X134.6661 Y65.3496
G01 X134.6793 Y65.3061
G01 X134.7045 Y65.2357
G01 X134.7219 Y65.1937
G01 X134.7539 Y65.1261
G01 X134.7753 Y65.0859
G01 X134.8137 Y65.0218
G01 X134.8390 Y64.9840
G01 X134.8835 Y64.9239
G01 X134.9124 Y64.8888
G01 X134.9626 Y64.8334
G01 X134.9948 Y64.8012
G01 X135.0502 Y64.7510
G01 X135.0853 Y64.7221
G01 X135.1454 Y64.6776
G01 X135.1832 Y64.6523
G01 X135.2473 Y64.6139
G01 X135.2875 Y64.5925
G01 X135.3551 Y64.5605
G01 X135.3971 Y64.5431
G01 X135.4675 Y64.5179
G01 X135.5110 Y64.5047
G01 X135.5835 Y64.4865
G01 X135.6281 Y64.4776
G01 X135.7021 Y64.4667
G01 X135.7474 Y64.4622
G01 X135.8221 Y64.4585
G01 X135.8675 Y64.4585
G01 X135.9422 Y64.4622
G01 X135.9875 Y64.4667
G01 X136.0614 Y64.4776
G01 X136.1060 Y64.4865
G01 X136.1786 Y64.5047
G01 X136.2221 Y64.5179
G01 X136.2925 Y64.5431
G01 X136.3345 Y64.5605
G01 X136.4021 Y64.5925
G01 X136.4422 Y64.6139
G01 X136.5064 Y64.6523
G01 X136.5442 Y64.6776
G01 X136.6042 Y64.7221
G01 X136.6394 Y64.7510
G01 X136.6948 Y64.8012
G01 X136.7270 Y64.8334
G01 X136.7772 Y64.8888
G01 X136.8060 Y64.9239
G01 X136.8506 Y64.9840
G01 X136.8758 Y65.0218
G01 X136.9143 Y65.0859
G01 X136.9357 Y65.1261
G01 X136.9677 Y65.1937
G01 X136.9851 Y65.2357
G01 X137.0103 Y65.3061
G01 X137.0235 Y65.3496
G01 X137.0417 Y65.4221
G01 X137.0505 Y65.4667
G01 X137.0615 Y65.5407
G01 X137.0660 Y65.5860
G01 X137.0696 Y65.6606
G01 X137.0696 Y65.7061
G01 X137.0660 Y65.7808
G01 X137.0615 Y65.8261
G01 X137.0505 Y65.9000
G01 X137.0417 Y65.9446
G01 X137.0235 Y66.0172
G01 X137.0103 Y66.0607
G01 X136.9851 Y66.1311
G01 X136.9677 Y66.1731
G01 X136.9357 Y66.2407
G01 X136.9143 Y66.2808
G01 X136.8758 Y66.3450
G01 X136.8506 Y66.3828
G01 X136.8084 Y66.4396
G01 X136.8084 Y70.7634
G01 X136.8079 Y70.7861
G01 X136.8055 Y70.8352
G01 X136.8010 Y70.8804
G01 X136.7938 Y70.9290
G01 X136.7849 Y70.9736
G01 X136.7730 Y71.0212
G01 X136.7598 Y71.0647
G01 X136.7433 Y71.1109
G01 X136.7259 Y71.1529
G01 X136.7049 Y71.1973
G01 X136.6834 Y71.2374
G01 X136.6582 Y71.2795
G01 X136.6329 Y71.3174
G01 X136.6037 Y71.3568
G01 X136.5748 Y71.3919
G01 X136.5419 Y71.4283
G01 X136.5097 Y71.4605
G01 X136.4733 Y71.4934
G01 X136.4382 Y71.5223
G01 X136.3988 Y71.5515
G01 X136.3609 Y71.5768
G01 X136.3188 Y71.6020
G01 X136.2787 Y71.6235
G01 X136.2344 Y71.6445
G01 X136.1923 Y71.6619
G01 X136.1461 Y71.6784
G01 X136.1026 Y71.6916
G01 X136.0550 Y71.7035
G01 X136.0104 Y71.7124
G01 X135.9618 Y71.7196
G01 X135.9166 Y71.7241
G01 X135.8675 Y71.7265
G01 X135.8448 Y71.7270
G01 X134.5418 Y71.7270
G01 X134.5147 Y71.7433
G01 X134.4746 Y71.7647
G01 X134.4160 Y71.7924
G01 X134.3740 Y71.8098
G01 X134.3130 Y71.8317
G01 X134.2695 Y71.8449
G01 X134.2066 Y71.8606
G01 X134.1620 Y71.8695
G01 X134.0979 Y71.8790
G01 X134.0527 Y71.8834
G01 X133.9879 Y71.8866
G01 X133.9652 Y71.8872
G01 X132.6444 Y71.8872
G01 X132.6217 Y71.8866
G01 X132.5569 Y71.8834
G01 X132.5117 Y71.8790
G01 X132.4476 Y71.8695
G01 X132.4030 Y71.8606
G01 X132.3401 Y71.8449
G01 X132.2966 Y71.8317
G01 X132.2356 Y71.8098
G01 X132.1935 Y71.7924
G01 X132.1349 Y71.7647
G01 X132.0948 Y71.7433
G01 X132.0677 Y71.7270
G01 X131.7284 Y71.7270
G01 X131.7284 Y77.7332
G01 X131.7617 Y77.6884
G01 X131.7905 Y77.6532
G01 X131.8341 Y77.6052
G01 X131.8662 Y77.5731
G01 X131.9142 Y77.5295
G01 X131.9494 Y77.5007
G01 X132.0014 Y77.4621
G01 X132.0393 Y77.4368
G01 X132.0948 Y77.4035
G01 X132.1349 Y77.3821
G01 X132.1935 Y77.3543
G01 X132.2356 Y77.3369
G01 X132.2966 Y77.3151
G01 X132.3401 Y77.3019
G01 X132.4030 Y77.2862
G01 X132.4476 Y77.2773
G01 X132.5117 Y77.2678
G01 X132.5569 Y77.2633
G01 X132.6217 Y77.2601
G01 X132.6444 Y77.2596
G01 X133.9652 Y77.2596
G01 X133.9879 Y77.2601
G01 X134.0527 Y77.2633
G01 X134.0979 Y77.2678
G01 X134.1620 Y77.2773
G01 X134.2066 Y77.2862
G01 X134.2695 Y77.3019
G01 X134.3130 Y77.3151
G01 X134.3740 Y77.3369
G01 X134.4160 Y77.3543
G01 X134.4746 Y77.3821
G01 X134.5147 Y77.4035
G01 X134.5703 Y77.4368
G01 X134.6081 Y77.4621
G01 X134.6602 Y77.5007
G01 X134.6953 Y77.5295
G01 X134.7434 Y77.5731
G01 X134.7755 Y77.6052
G01 X134.8190 Y77.6532
G01 X134.8479 Y77.6884
G01 X134.8865 Y77.7404
G01 X134.9118 Y77.7783
G01 X134.9451 Y77.8338
G01 X134.9665 Y77.8739
G01 X134.9942 Y77.9325
G01 X135.0116 Y77.9745
G01 X135.0335 Y78.0356
G01 X135.0467 Y78.0791
G01 X135.0624 Y78.1419
G01 X135.0713 Y78.1866
G01 X135.0808 Y78.2507
G01 X135.0852 Y78.2959
G01 X135.0884 Y78.3606
G01 X135.0884 Y78.4061
G01 X135.0852 Y78.4709
G01 X135.0808 Y78.5161
G01 X135.0713 Y78.5802
G01 X135.0624 Y78.6248
G01 X135.0467 Y78.6877
G01 X135.0335 Y78.7312
G01 X135.0116 Y78.7922
G01 X134.9942 Y78.8342
G01 X134.9665 Y78.8928
G01 X134.9451 Y78.9329
G01 X134.9118 Y78.9885
G01 X134.8865 Y79.0263
G01 X134.8479 Y79.0784
G01 X134.8190 Y79.1135
G01 X134.7755 Y79.1616
G01 X134.7434 Y79.1937
G01 X134.6953 Y79.2372
G01 X134.6602 Y79.2661
G01 X134.6081 Y79.3047
G01 X134.5703 Y79.3300
G01 X134.5147 Y79.3633
G01 X134.4746 Y79.3847
G01 X134.4160 Y79.4124
G01 X134.3740 Y79.4298
G01 X134.3130 Y79.4517
G01 X134.2695 Y79.4649
G01 X134.2066 Y79.4806
G01 X134.1620 Y79.4895
G01 X134.0979 Y79.4990
G01 X134.0527 Y79.5034
G01 X133.9879 Y79.5066
G01 X133.9652 Y79.5072
G01 X132.6444 Y79.5072
G01 X132.6217 Y79.5066
G01 X132.5569 Y79.5034
G01 X132.5117 Y79.4990
G01 X132.4476 Y79.4895
G01 X132.4030 Y79.4806
G01 X132.3401 Y79.4649
G01 X132.2966 Y79.4517
G01 X132.2356 Y79.4298
G01 X132.1935 Y79.4124
G01 X132.1349 Y79.3847
G01 X132.0948 Y79.3633
G01 X132.0393 Y79.3300
G01 X132.0014 Y79.3047
G01 X131.9494 Y79.2661
G01 X131.9142 Y79.2372
G01 X131.8662 Y79.1937
G01 X131.8341 Y79.1616
G01 X131.7905 Y79.1135
G01 X131.7617 Y79.0784
G01 X131.7284 Y79.0335
G01 X131.7284 Y93.6234
G01 X131.7279 Y93.6461
G01 X131.7255 Y93.6952
G01 X131.7210 Y93.7404
G01 X131.7138 Y93.7890
G01 X131.7049 Y93.8336
G01 X131.6930 Y93.8812
G01 X131.6798 Y93.9247
G01 X131.6633 Y93.9709
G01 X131.6459 Y94.0129
G01 X131.6249 Y94.0573
G01 X131.6034 Y94.0974
G01 X131.5782 Y94.1395
G01 X131.5529 Y94.1774
G01 X131.5237 Y94.2168
G01 X131.4948 Y94.2519
G01 X131.4619 Y94.2883
G01 X131.4297 Y94.3205
G01 X131.3933 Y94.3534
G01 X131.3582 Y94.3823
G01 X131.3188 Y94.4115
G01 X131.2809 Y94.4368
G01 X131.2388 Y94.4620
G01 X131.1987 Y94.4835
G01 X131.1544 Y94.5045
G01 X131.1123 Y94.5219
G01 X131.0661 Y94.5384
G01 X131.0226 Y94.5516
G01 X130.9750 Y94.5635
G01 X130.9304 Y94.5724
G01 X130.8818 Y94.5796
G01 X130.8366 Y94.5841
G01 X130.7875 Y94.5865
G01 X130.7648 Y94.5870
G01 X106.3284 Y94.5870
G01 X106.3284 Y95.4072
G01 X106.3706 Y95.4640
G01 X106.3958 Y95.5018
G01 X106.4343 Y95.5659
G01 X106.4557 Y95.6061
G01 X106.4877 Y95.6737
G01 X106.5051 Y95.7157
G01 X106.5303 Y95.7861
G01 X106.5435 Y95.8296
G01 X106.5617 Y95.9021
G01 X106.5705 Y95.9467
G01 X106.5815 Y96.0207
G01 X106.5860 Y96.0660
G01 X106.5896 Y96.1406
G01 X106.5896 Y96.1861
G01 X106.5860 Y96.2608
G01 X106.5815 Y96.3061
G01 X106.5705 Y96.3800
G01 X106.5617 Y96.4246
G01 X106.5435 Y96.4972
G01 X106.5303 Y96.5407
G01 X106.5051 Y96.6111
G01 X106.4877 Y96.6531
G01 X106.4557 Y96.7207
G01 X106.4343 Y96.7608
G01 X106.3958 Y96.8250
G01 X106.3706 Y96.8628
G01 X106.3260 Y96.9228
G01 X106.2972 Y96.9580
G01 X106.2470 Y97.0134
G01 X106.2148 Y97.0456
G01 X106.1594 Y97.0958
G01 X106.1242 Y97.1246
G01 X106.0642 Y97.1692
G01 X106.0264 Y97.1944
G01 X105.9622 Y97.2329
G01 X105.9221 Y97.2543
G01 X105.8545 Y97.2863
G01 X105.8125 Y97.3037
G01 X105.7421 Y97.3289
G01 X105.6986 Y97.3421
G01 X105.6260 Y97.3603
G01 X105.5814 Y97.3691
G01 X105.5075 Y97.3801
G01 X105.4622 Y97.3846
G01 X105.3875 Y97.3882
G01 X105.3421 Y97.3882
G01 X105.2674 Y97.3846
G01 X105.2221 Y97.3801
G01 X105.1481 Y97.3691
G01 X105.1035 Y97.3603
G01 X105.0310 Y97.3421
G01 X104.9875 Y97.3289
G01 X104.9171 Y97.3037
G01 X104.8751 Y97.2863
G01 X104.8075 Y97.2543
G01 X104.7673 Y97.2329
G01 X104.7032 Y97.1944
G01 X104.6654 Y97.1692
G01 X104.6053 Y97.1246
G01 X104.5702 Y97.0958
G01 X104.5148 Y97.0456
G01 X104.4826 Y97.0134
G01 X104.4324 Y96.9580
G01 X104.4035 Y96.9228
G01 X104.3590 Y96.8628
G01 X104.3337 Y96.8250
G01 X104.2953 Y96.7608
G01 X104.2739 Y96.7207
G01 X104.2419 Y96.6531
G01 X104.2245 Y96.6111
G01 X104.1993 Y96.5407
G01 X104.1861 Y96.4972
G01 X104.1679 Y96.4246
G01 X104.1590 Y96.3800
G01 X104.1481 Y96.3061
G01 X104.1436 Y96.2608
G01 X104.1399 Y96.1861
G01 X104.1399 Y96.1406
G01 X104.1436 Y96.0660
G01 X104.1481 Y96.0207
G01 X104.1590 Y95.9467
G01 X104.1679 Y95.9021
G01 X104.1861 Y95.8296
G01 X104.1993 Y95.7861
G01 X104.2245 Y95.7157
G01 X104.2419 Y95.6737
G01 X104.2739 Y95.6061
G01 X104.2953 Y95.5659
G01 X104.3337 Y95.5018
G01 X104.3590 Y95.4640
G01 X104.4011 Y95.4072
G01 X104.4011 Y93.6234
G01 X104.4017 Y93.6006
G01 X104.4041 Y93.5516
G01 X104.4086 Y93.5064
G01 X104.4158 Y93.4578
G01 X104.4246 Y93.4132
G01 X104.4366 Y93.3656
G01 X104.4498 Y93.3221
G01 X104.4663 Y93.2758
G01 X104.4837 Y93.2338
G01 X104.5047 Y93.1894
G01 X104.5261 Y93.1493
G01 X104.5514 Y93.1072
G01 X104.5766 Y93.0694
G01 X104.6059 Y93.0300
G01 X104.6347 Y92.9948
G01 X104.6677 Y92.9585
G01 X104.6999 Y92.9263
G01 X104.7362 Y92.8933
G01 X104.7714 Y92.8645
G01 X104.8108 Y92.8352
G01 X104.8486 Y92.8100
G01 X104.8907 Y92.7847
G01 X104.9308 Y92.7633
G01 X104.9752 Y92.7423
G01 X105.0172 Y92.7249
G01 X105.0635 Y92.7084
G01 X105.1070 Y92.6952
G01 X105.1546 Y92.6832
G01 X105.1992 Y92.6744
G01 X105.2478 Y92.6672
G01 X105.2930 Y92.6627
G01 X105.3421 Y92.6603
G01 X105.3648 Y92.6597
G01 X129.8011 Y92.6597
G01 X129.8011 Y79.0335
G01 X129.7679 Y79.0784
G01 X129.7390 Y79.1135
G01 X129.6955 Y79.1616
G01 X129.6634 Y79.1937
G01 X129.6153 Y79.2372
G01 X129.5802 Y79.2661
G01 X129.5281 Y79.3047
G01 X129.4903 Y79.3300
G01 X129.4347 Y79.3633
G01 X129.3946 Y79.3847
G01 X129.3360 Y79.4124
G01 X129.2940 Y79.4298
G01 X129.2330 Y79.4517
G01 X129.1895 Y79.4649
G01 X129.1266 Y79.4806
G01 X129.0820 Y79.4895
G01 X129.0179 Y79.4990
G01 X128.9727 Y79.5034
G01 X128.9079 Y79.5066
G01 X128.8852 Y79.5072
G01 X127.5644 Y79.5072
G01 X127.5417 Y79.5066
G01 X127.4769 Y79.5034
G01 X127.4317 Y79.4990
G01 X127.3676 Y79.4895
G01 X127.3230 Y79.4806
G01 X127.2601 Y79.4649
G01 X127.2166 Y79.4517
G01 X127.1556 Y79.4298
G01 X127.1135 Y79.4124
G01 X127.0549 Y79.3847
G01 X127.0148 Y79.3633
G01 X126.9877 Y79.3470
G01 X121.8418 Y79.3470
G01 X121.8147 Y79.3633
G01 X121.7746 Y79.3847
G01 X121.7160 Y79.4124
G01 X121.6740 Y79.4298
G01 X121.6130 Y79.4517
G01 X121.5695 Y79.4649
G01 X121.5066 Y79.4806
G01 X121.4620 Y79.4895
G01 X121.3979 Y79.4990
G01 X121.3527 Y79.5034
G01 X121.2879 Y79.5066
G01 X121.2652 Y79.5072
G01 X119.9444 Y79.5072
G01 X119.9217 Y79.5066
G01 X119.8569 Y79.5034
G01 X119.8117 Y79.4990
G01 X119.7476 Y79.4895
G01 X119.7030 Y79.4806
G01 X119.6401 Y79.4649
G01 X119.5966 Y79.4517
G01 X119.5356 Y79.4298
G01 X119.4935 Y79.4124
G01 X119.4349 Y79.3847
G01 X119.3948 Y79.3633
G01 X119.3393 Y79.3300
G01 X119.3014 Y79.3047
G01 X119.2494 Y79.2661
G01 X119.2142 Y79.2372
G01 X119.1662 Y79.1937
G01 X119.1341 Y79.1616
G01 X119.0905 Y79.1135
G01 X119.0617 Y79.0784
G01 X119.0284 Y79.0335
G01 X119.0284 Y91.0834
G01 X119.0279 Y91.1061
G01 X119.0255 Y91.1552
G01 X119.0210 Y91.2004
G01 X119.0138 Y91.2490
G01 X119.0049 Y91.2936
G01 X118.9930 Y91.3412
G01 X118.9798 Y91.3847
G01 X118.9633 Y91.4309
G01 X118.9459 Y91.4729
G01 X118.9249 Y91.5173
G01 X118.9034 Y91.5574
G01 X118.8782 Y91.5995
G01 X118.8529 Y91.6374
G01 X118.8237 Y91.6768
G01 X118.7948 Y91.7119
G01 X118.7619 Y91.7483
G01 X118.7297 Y91.7805
G01 X118.6933 Y91.8134
G01 X118.6582 Y91.8423
G01 X118.6188 Y91.8715
G01 X118.5809 Y91.8968
G01 X118.5388 Y91.9220
G01 X118.4987 Y91.9435
G01 X118.4544 Y91.9645
G01 X118.4123 Y91.9819
G01 X118.3661 Y91.9984
G01 X118.3226 Y92.0116
G01 X118.2750 Y92.0235
G01 X118.2304 Y92.0324
G01 X118.1818 Y92.0396
G01 X118.1366 Y92.0441
G01 X118.0875 Y92.0465
G01 X118.0648 Y92.0470
G01 X103.7884 Y92.0470
G01 X103.7884 Y95.4072
G01 X103.8306 Y95.4640
G01 X103.8558 Y95.5018
G01 X103.8943 Y95.5659
G01 X103.9157 Y95.6061
G01 X103.9477 Y95.6737
G01 X103.9651 Y95.7157
G01 X103.9903 Y95.7861
G01 X104.0035 Y95.8296
G01 X104.0217 Y95.9021
G01 X104.0305 Y95.9467
G01 X104.0415 Y96.0207
G01 X104.0460 Y96.0660
G01 X104.0496 Y96.1406
G01 X104.0496 Y96.1861
G01 X104.0460 Y96.2608
G01 X104.0415 Y96.3061
G01 X104.0305 Y96.3800
G01 X104.0217 Y96.4246
G01 X104.0035 Y96.4972
G01 X103.9903 Y96.5407
G01 X103.9651 Y96.6111
G01 X103.9477 Y96.6531
G01 X103.9157 Y96.7207
G01 X103.8943 Y96.7608
G01 X103.8558 Y96.8250
G01 X103.8306 Y96.8628
G01 X103.7860 Y96.9228
G01 X103.7572 Y96.9580
G01 X103.7070 Y97.0134
G01 X103.6748 Y97.0456
G01 X103.6194 Y97.0958
G01 X103.5842 Y97.1246
G01 X103.5242 Y97.1692
G01 X103.4864 Y97.1944
G01 X103.4222 Y97.2329
G01 X103.3821 Y97.2543
G01 X103.3145 Y97.2863
G01 X103.2725 Y97.3037
G01 X103.2021 Y97.3289
G01 X103.1586 Y97.3421
G01 X103.0860 Y97.3603
G01 X103.0414 Y97.3691
G01 X102.9675 Y97.3801
G01 X102.9222 Y97.3846
G01 X102.8475 Y97.3882
G01 X102.8021 Y97.3882
G01 X102.7274 Y97.3846
G01 X102.6821 Y97.3801
G01 X102.6081 Y97.3691
G01 X102.5635 Y97.3603
G01 X102.4910 Y97.3421
G01 X102.4475 Y97.3289
G01 X102.3771 Y97.3037
G01 X102.3351 Y97.2863
G01 X102.2675 Y97.2543
G01 X102.2273 Y97.2329
G01 X102.1632 Y97.1944
G01 X102.1254 Y97.1692
G01 X102.0653 Y97.1246
G01 X102.0302 Y97.0958
G01 X101.9748 Y97.0456
G01 X101.9426 Y97.0134
G01 X101.8924 Y96.9580
G01 X101.8635 Y96.9228
G01 X101.8190 Y96.8628
G01 X101.7937 Y96.8250
G01 X101.7553 Y96.7608
G01 X101.7339 Y96.7207
G01 X101.7019 Y96.6531
G01 X101.6845 Y96.6111
G01 X101.6593 Y96.5407
G01 X101.6461 Y96.4972
G01 X101.6279 Y96.4246
G01 X101.6190 Y96.3800
G01 X101.6081 Y96.3061
G01 X101.6036 Y96.2608
G01 X101.5999 Y96.1861
G01 X101.5999 Y96.1406
G01 X101.6036 Y96.0660
G01 X101.6081 Y96.0207
G01 X101.6190 Y95.9467
G01 X101.6279 Y95.9021
G01 X101.6461 Y95.8296
G01 X101.6593 Y95.7861
G01 X101.6845 Y95.7157
G01 X101.7019 Y95.6737
G01 X101.7339 Y95.6061
G01 X101.7553 Y95.5659
G01 X101.7937 Y95.5018
G01 X101.8190 Y95.4640
G01 X101.8611 Y95.4072
G01 X101.8611 Y91.0834
G01 X101.8617 Y91.0606
G01 X101.8641 Y91.0116
G01 X101.8686 Y90.9664
G01 X101.8758 Y90.9178
G01 X101.8846 Y90.8732
G01 X101.8966 Y90.8256
