(G-CODE GENERATED BY FLATCAM v8.991 - www.flatcam.org - Version Date: 2019/12/27)

(Name: 003_Carry_Iso3_cnc)
(Type: G-code from Geometry)
(Units: MM)

(Created on Wednesday, 26 February 2020 at 10:29)

(TOOL DIAMETER: 0.331 mm)
(Feedrate: 320.0 mm/min)
(Feedrate_Z: 60.0 mm/min)
(Feedrate rapids 1500.0 mm/min)

(Z_Cut: -0.2001 mm)
(Z_Move: 2.0 mm)
(Z Toolchange: 15.0 mm)
(X,Y Toolchange: 0.0000, 0.0000 mm)
(Z Start: None mm)
(Z End: 15.0 mm)
(Steps per circle: 64)
(Preprocessor Geometry: default)

(X range:    4.7824 ...  148.0860  mm)
(Y range:    3.2010 ...   97.6858  mm)

(Spindle Speed: None RPM)
G21
G90
G94

M03 S3000


G01 F320.00
G00 Z2.0000

M03
G00 X7.5832 Y19.1365
G01 F60.00
G01 Z-0.2001
G01 F320.00
G01 X7.5663 Y19.1112
G01 X7.5663 Y5.5756
G01 X7.5748 Y5.5629
G01 X7.5832 Y5.5756
G01 X7.5832 Y19.1365
G00 Z2.0000
G00 X7.5663 Y21.6765
G01 F60.00
G01 Z-0.2001
G01 F320.00
G01 X7.5663 Y20.8156
G01 X7.5832 Y20.7903
G01 X7.5832 Y21.6512
G01 X7.5663 Y21.6765
G00 Z2.0000
G00 X7.5832 Y29.2965
G01 F60.00
G01 Z-0.2001
G01 F320.00
G01 X7.5663 Y29.2712
G01 X7.5663 Y23.3303
G01 X7.5832 Y23.3556
G01 X7.5832 Y29.2965
G00 Z2.0000
G00 X7.5663 Y34.3765
G01 F60.00
G01 Z-0.2001
G01 F320.00
G01 X7.5663 Y30.9756
G01 X7.5832 Y30.9503
G01 X7.5832 Y34.3512
G01 X7.5663 Y34.3765
G00 Z2.0000
G00 X22.8063 Y30.9503
G01 F60.00
G01 Z-0.2001
G01 F320.00
G01 X22.8397 Y31.0002
G01 X22.8843 Y31.0603
G01 X22.9317 Y31.1180
G01 X22.9819 Y31.1735
G01 X23.0347 Y31.2263
G01 X23.0901 Y31.2765
G01 X23.1479 Y31.3239
G01 X23.2079 Y31.3684
G01 X23.2453 Y31.3934
G01 X23.2079 Y31.4183
G01 X23.1479 Y31.4629
G01 X23.0901 Y31.5103
G01 X23.0347 Y31.5605
G01 X22.9819 Y31.6133
G01 X22.9317 Y31.6687
G01 X22.8843 Y31.7265
G01 X22.8397 Y31.7865
G01 X22.8063 Y31.8365
G01 X22.8063 Y30.9503
G00 Z2.0000
G00 X24.9243 Y31.3934
G01 F60.00
G01 Z-0.2001
G01 F320.00
G01 X24.9370 Y31.3849
G01 X32.9832 Y31.3849
G01 X32.9832 Y36.4639
G01 X32.9434 Y36.4450
G01 X32.8744 Y36.4165
G01 X32.8134 Y36.3946
G01 X32.7419 Y36.3729
G01 X32.6790 Y36.3572
G01 X32.6057 Y36.3426
G01 X32.5416 Y36.3331
G01 X32.4673 Y36.3258
G01 X32.4025 Y36.3226
G01 X32.3652 Y36.3217
G01 X31.0444 Y36.3217
G01 X31.0070 Y36.3226
G01 X30.9423 Y36.3258
G01 X30.8680 Y36.3331
G01 X30.8038 Y36.3426
G01 X30.7306 Y36.3572
G01 X30.6677 Y36.3729
G01 X30.5962 Y36.3946
G01 X30.5352 Y36.4165
G01 X30.4662 Y36.4450
G01 X30.4263 Y36.4639
G01 X30.4263 Y32.6634
G01 X30.4254 Y32.6260
G01 X30.4230 Y32.5770
G01 X30.4157 Y32.5026
G01 X30.4085 Y32.4541
G01 X30.3939 Y32.3808
G01 X30.3820 Y32.3332
G01 X30.3603 Y32.2617
G01 X30.3438 Y32.2155
G01 X30.3152 Y32.1465
G01 X30.2942 Y32.1021
G01 X30.2590 Y32.0362
G01 X30.2337 Y31.9941
G01 X30.1922 Y31.9320
G01 X30.1630 Y31.8925
G01 X30.1156 Y31.8348
G01 X30.0826 Y31.7984
G01 X30.0298 Y31.7456
G01 X29.9934 Y31.7126
G01 X29.9356 Y31.6652
G01 X29.8962 Y31.6360
G01 X29.8341 Y31.5945
G01 X29.7920 Y31.5692
G01 X29.7261 Y31.5340
G01 X29.6817 Y31.5130
G01 X29.6127 Y31.4844
G01 X29.5665 Y31.4679
G01 X29.4950 Y31.4462
G01 X29.4474 Y31.4343
G01 X29.3741 Y31.4197
G01 X29.3255 Y31.4125
G01 X29.2512 Y31.4052
G01 X29.2021 Y31.4028
G01 X29.1648 Y31.4018
G01 X24.9370 Y31.4018
G01 X24.9243 Y31.3934
G00 Z2.0000
G00 X24.9370 Y33.9418
G01 F60.00
G01 Z-0.2001
G01 F320.00
G01 X24.9243 Y33.9334
G01 X24.9370 Y33.9249
G01 X27.9032 Y33.9249
G01 X27.9032 Y36.4639
G01 X27.8863 Y36.4559
G01 X27.8863 Y35.2034
G01 X27.8854 Y35.1660
G01 X27.8830 Y35.1170
G01 X27.8757 Y35.0426
G01 X27.8685 Y34.9941
G01 X27.8539 Y34.9208
G01 X27.8420 Y34.8732
G01 X27.8203 Y34.8017
G01 X27.8038 Y34.7555
G01 X27.7752 Y34.6865
G01 X27.7542 Y34.6421
G01 X27.7190 Y34.5762
G01 X27.6937 Y34.5341
G01 X27.6522 Y34.4720
G01 X27.6230 Y34.4325
G01 X27.5756 Y34.3748
G01 X27.5426 Y34.3384
G01 X27.4898 Y34.2856
G01 X27.4534 Y34.2526
G01 X27.3956 Y34.2052
G01 X27.3562 Y34.1760
G01 X27.2941 Y34.1345
G01 X27.2520 Y34.1092
G01 X27.1861 Y34.0740
G01 X27.1417 Y34.0530
G01 X27.0727 Y34.0244
G01 X27.0265 Y34.0079
G01 X26.9550 Y33.9862
G01 X26.9074 Y33.9743
G01 X26.8341 Y33.9597
G01 X26.7855 Y33.9525
G01 X26.7112 Y33.9452
G01 X26.6621 Y33.9428
G01 X26.6248 Y33.9418
G01 X24.9370 Y33.9418
G00 Z2.0000
G00 X23.2453 Y33.9334
G01 F60.00
G01 Z-0.2001
G01 F320.00
G01 X23.2079 Y33.9583
G01 X23.1479 Y34.0029
G01 X23.0901 Y34.0503
G01 X23.0347 Y34.1005
G01 X22.9819 Y34.1533
G01 X22.9317 Y34.2087
G01 X22.8843 Y34.2665
G01 X22.8397 Y34.3265
G01 X22.8063 Y34.3765
G01 X22.8063 Y33.4903
G01 X22.8397 Y33.5402
G01 X22.8843 Y33.6003
G01 X22.9317 Y33.6580
G01 X22.9819 Y33.7135
G01 X23.0347 Y33.7663
G01 X23.0901 Y33.8165
G01 X23.1479 Y33.8639
G01 X23.2079 Y33.9084
G01 X23.2453 Y33.9334
G00 Z2.0000
G00 X31.1227 Y39.1651
G01 F60.00
G01 Z-0.2001
G01 F320.00
G01 X31.0776 Y39.1892
G01 X31.0355 Y39.2145
G01 X30.9734 Y39.2560
G01 X30.9339 Y39.2852
G01 X30.8762 Y39.3326
G01 X30.8398 Y39.3656
G01 X30.7870 Y39.4184
G01 X30.7540 Y39.4548
G01 X30.7066 Y39.5125
G01 X30.6774 Y39.5520
G01 X30.6359 Y39.6141
G01 X30.6106 Y39.6562
G01 X30.5754 Y39.7221
G01 X30.5544 Y39.7665
G01 X30.5258 Y39.8355
G01 X30.5093 Y39.8817
G01 X30.4876 Y39.9532
G01 X30.4757 Y40.0008
G01 X30.4611 Y40.0741
G01 X30.4539 Y40.1226
G01 X30.4466 Y40.1970
G01 X30.4442 Y40.2460
G01 X30.4432 Y40.2834
G01 X30.4432 Y44.0759
G01 X30.4263 Y44.0839
G01 X30.4263 Y39.0229
G01 X30.4662 Y39.0417
G01 X30.5352 Y39.0703
G01 X30.5962 Y39.0921
G01 X30.6677 Y39.1138
G01 X30.7306 Y39.1296
G01 X30.8038 Y39.1442
G01 X30.8680 Y39.1537
G01 X30.9423 Y39.1610
G01 X31.0070 Y39.1642
G01 X31.0444 Y39.1651
G01 X31.1227 Y39.1651
G00 Z2.0000
G00 X32.9663 Y41.9965
G01 F60.00
G01 Z-0.2001
G01 F320.00
G01 X32.9663 Y41.5449
G01 X33.4179 Y41.5449
G01 X33.3679 Y41.5783
G01 X33.3079 Y41.6229
G01 X33.2501 Y41.6703
G01 X33.1947 Y41.7205
G01 X33.1419 Y41.7733
G01 X33.0917 Y41.8287
G01 X33.0443 Y41.8865
G01 X32.9997 Y41.9465
G01 X32.9663 Y41.9965
G00 Z2.0000
G00 X32.9832 Y44.0839
G01 F60.00
G01 Z-0.2001
G01 F320.00
G01 X32.9663 Y44.0759
G01 X32.9663 Y43.6503
G01 X32.9832 Y43.6756
G01 X32.9832 Y44.0839
G00 Z2.0000
G00 X35.0717 Y41.5449
G01 F60.00
G01 Z-0.2001
G01 F320.00
G01 X35.5232 Y41.5449
G01 X35.5232 Y41.9712
G01 X35.5148 Y41.9839
G01 X35.4898 Y41.9465
G01 X35.4453 Y41.8865
G01 X35.3979 Y41.8287
G01 X35.3477 Y41.7733
G01 X35.2949 Y41.7205
G01 X35.2395 Y41.6703
G01 X35.1817 Y41.6229
G01 X35.1216 Y41.5783
G01 X35.0717 Y41.5449
G00 Z2.0000
G00 X38.0632 Y41.9965
G01 F60.00
G01 Z-0.2001
G01 F320.00
G01 X38.0463 Y41.9712
G01 X38.0463 Y41.5629
G01 X38.0632 Y41.5709
G01 X38.0632 Y41.9965
G00 Z2.0000
G00 X40.6054 Y46.6249
G01 F60.00
G01 Z-0.2001
G01 F320.00
G01 X43.1241 Y46.6249
G01 X43.1076 Y46.6328
G01 X43.0417 Y46.6680
G01 X42.9861 Y46.7013
G01 X42.9240 Y46.7428
G01 X42.8719 Y46.7814
G01 X42.8142 Y46.8288
G01 X42.7662 Y46.8723
G01 X42.7133 Y46.9252
G01 X42.6698 Y46.9732
G01 X42.6224 Y47.0309
G01 X42.5838 Y47.0830
G01 X42.5423 Y47.1451
G01 X42.5090 Y47.2007
G01 X42.4738 Y47.2666
G01 X42.4461 Y47.3252
G01 X42.4175 Y47.3942
G01 X42.3956 Y47.4552
G01 X42.3739 Y47.5267
G01 X42.3582 Y47.5896
G01 X42.3436 Y47.6628
G01 X42.3341 Y47.7269
G01 X42.3268 Y47.8013
G01 X42.3236 Y47.8660
G01 X42.3236 Y47.9407
G01 X42.3268 Y48.0055
G01 X42.3341 Y48.0798
G01 X42.3436 Y48.1439
G01 X42.3582 Y48.2172
G01 X42.3739 Y48.2801
G01 X42.3956 Y48.3516
G01 X42.4175 Y48.4126
G01 X42.4461 Y48.4816
G01 X42.4738 Y48.5402
G01 X42.5090 Y48.6061
G01 X42.5423 Y48.6617
G01 X42.5838 Y48.7238
G01 X42.6224 Y48.7758
G01 X42.6698 Y48.8336
G01 X42.7133 Y48.8816
G01 X42.7662 Y48.9344
G01 X42.8142 Y48.9780
G01 X42.8719 Y49.0254
G01 X42.9240 Y49.0640
G01 X42.9861 Y49.1055
G01 X43.0417 Y49.1388
G01 X43.1076 Y49.1740
G01 X43.1662 Y49.2017
G01 X43.2352 Y49.2303
G01 X43.2962 Y49.2521
G01 X43.3677 Y49.2738
G01 X43.4306 Y49.2896
G01 X43.5038 Y49.3042
G01 X43.5680 Y49.3137
G01 X43.6423 Y49.3210
G01 X43.7070 Y49.3242
G01 X43.7444 Y49.3251
G01 X43.8227 Y49.3251
G01 X43.7776 Y49.3492
G01 X43.7355 Y49.3745
G01 X43.6734 Y49.4160
G01 X43.6339 Y49.4452
G01 X43.5762 Y49.4926
G01 X43.5398 Y49.5256
G01 X43.4870 Y49.5784
G01 X43.4540 Y49.6148
G01 X43.4066 Y49.6725
G01 X43.3774 Y49.7120
G01 X43.3359 Y49.7741
G01 X43.3106 Y49.8162
G01 X43.2754 Y49.8821
G01 X43.2544 Y49.9265
G01 X43.2258 Y49.9955
G01 X43.2093 Y50.0417
G01 X43.1876 Y50.1132
G01 X43.1757 Y50.1608
G01 X43.1611 Y50.2341
G01 X43.1539 Y50.2826
G01 X43.1466 Y50.3570
G01 X43.1442 Y50.4060
G01 X43.1432 Y50.4434
G01 X43.1432 Y51.6959
G01 X43.1076 Y51.7128
G01 X43.0417 Y51.7480
G01 X42.9861 Y51.7813
G01 X42.9240 Y51.8228
G01 X42.8719 Y51.8614
G01 X42.8142 Y51.9088
G01 X42.7662 Y51.9523
G01 X42.7133 Y52.0052
G01 X42.6698 Y52.0532
G01 X42.6224 Y52.1109
G01 X42.5838 Y52.1630
G01 X42.5423 Y52.2251
G01 X42.5090 Y52.2807
G01 X42.4738 Y52.3466
G01 X42.4461 Y52.4052
G01 X42.4175 Y52.4742
G01 X42.3956 Y52.5352
G01 X42.3739 Y52.6067
G01 X42.3582 Y52.6696
G01 X42.3436 Y52.7428
G01 X42.3341 Y52.8069
G01 X42.3268 Y52.8813
G01 X42.3236 Y52.9460
G01 X42.3236 Y53.0207
G01 X42.3268 Y53.0855
G01 X42.3341 Y53.1598
G01 X42.3436 Y53.2239
G01 X42.3582 Y53.2972
G01 X42.3739 Y53.3601
G01 X42.3956 Y53.4316
G01 X42.4175 Y53.4926
G01 X42.4461 Y53.5616
G01 X42.4738 Y53.6202
G01 X42.5090 Y53.6861
G01 X42.5423 Y53.7417
G01 X42.5838 Y53.8038
G01 X42.6224 Y53.8558
G01 X42.6698 Y53.9136
G01 X42.7133 Y53.9616
G01 X42.7662 Y54.0144
G01 X42.8142 Y54.0580
G01 X42.8719 Y54.1054
G01 X42.9240 Y54.1440
G01 X42.9861 Y54.1855
G01 X43.0417 Y54.2188
G01 X43.1064 Y54.2534
G01 X43.0906 Y54.2618
G01 X41.8648 Y54.2618
G01 X41.8274 Y54.2628
G01 X41.7784 Y54.2652
G01 X41.7040 Y54.2725
G01 X41.6555 Y54.2797
G01 X41.5822 Y54.2943
G01 X41.5346 Y54.3062
G01 X41.4631 Y54.3279
G01 X41.4169 Y54.3444
G01 X41.3479 Y54.3730
G01 X41.3035 Y54.3940
G01 X41.2376 Y54.4292
G01 X41.1955 Y54.4545
G01 X41.1334 Y54.4960
G01 X41.0939 Y54.5252
G01 X41.0390 Y54.5703
G01 X41.0162 Y54.5452
G01 X40.9634 Y54.4923
G01 X40.9154 Y54.4488
G01 X40.8576 Y54.4014
G01 X40.8056 Y54.3628
G01 X40.7435 Y54.3213
G01 X40.6879 Y54.2880
G01 X40.6232 Y54.2534
G01 X40.6879 Y54.2188
G01 X40.7435 Y54.1855
G01 X40.8056 Y54.1440
G01 X40.8576 Y54.1054
G01 X40.9154 Y54.0580
G01 X40.9634 Y54.0144
G01 X41.0162 Y53.9616
G01 X41.0598 Y53.9136
G01 X41.1072 Y53.8558
G01 X41.1458 Y53.8038
G01 X41.1873 Y53.7417
G01 X41.2206 Y53.6861
G01 X41.2558 Y53.6202
G01 X41.2835 Y53.5616
G01 X41.3121 Y53.4926
G01 X41.3339 Y53.4316
G01 X41.3556 Y53.3601
G01 X41.3714 Y53.2972
G01 X41.3860 Y53.2239
G01 X41.3955 Y53.1598
G01 X41.4028 Y53.0855
G01 X41.4060 Y53.0207
G01 X41.4060 Y52.9460
G01 X41.4028 Y52.8813
G01 X41.3955 Y52.8069
G01 X41.3860 Y52.7428
G01 X41.3714 Y52.6696
G01 X41.3556 Y52.6067
G01 X41.3339 Y52.5352
G01 X41.3121 Y52.4742
G01 X41.2835 Y52.4052
G01 X41.2558 Y52.3466
G01 X41.2206 Y52.2807
G01 X41.1873 Y52.2251
G01 X41.1458 Y52.1630
G01 X41.1072 Y52.1109
G01 X41.0598 Y52.0532
G01 X41.0162 Y52.0052
G01 X40.9634 Y51.9523
G01 X40.9154 Y51.9088
G01 X40.8576 Y51.8614
G01 X40.8056 Y51.8228
G01 X40.7435 Y51.7813
G01 X40.6879 Y51.7480
G01 X40.6220 Y51.7128
G01 X40.5634 Y51.6850
G01 X40.4944 Y51.6565
G01 X40.4334 Y51.6346
G01 X40.3619 Y51.6129
G01 X40.2990 Y51.5972
G01 X40.2257 Y51.5826
G01 X40.1616 Y51.5731
G01 X40.0873 Y51.5658
G01 X40.0225 Y51.5626
G01 X39.9852 Y51.5617
G01 X39.9068 Y51.5617
G01 X39.9520 Y51.5376
G01 X39.9941 Y51.5123
G01 X40.0562 Y51.4708
G01 X40.0956 Y51.4416
G01 X40.1534 Y51.3942
G01 X40.1898 Y51.3612
G01 X40.2426 Y51.3084
G01 X40.2756 Y51.2720
G01 X40.3230 Y51.2142
G01 X40.3522 Y51.1748
G01 X40.3937 Y51.1127
G01 X40.4190 Y51.0706
G01 X40.4542 Y51.0047
G01 X40.4752 Y50.9603
G01 X40.5038 Y50.8913
G01 X40.5203 Y50.8451
G01 X40.5420 Y50.7736
G01 X40.5539 Y50.7260
G01 X40.5685 Y50.6527
G01 X40.5757 Y50.6041
G01 X40.5830 Y50.5298
G01 X40.5854 Y50.4807
G01 X40.5863 Y50.4434
G01 X40.5863 Y49.1909
G01 X40.6220 Y49.1740
G01 X40.6879 Y49.1388
G01 X40.7435 Y49.1055
G01 X40.8056 Y49.0640
G01 X40.8576 Y49.0254
G01 X40.9154 Y48.9780
G01 X40.9634 Y48.9344
G01 X41.0162 Y48.8816
G01 X41.0598 Y48.8336
G01 X41.1072 Y48.7758
G01 X41.1458 Y48.7238
G01 X41.1873 Y48.6617
G01 X41.2206 Y48.6061
G01 X41.2558 Y48.5402
G01 X41.2835 Y48.4816
G01 X41.3121 Y48.4126
G01 X41.3339 Y48.3516
G01 X41.3556 Y48.2801
G01 X41.3714 Y48.2172
G01 X41.3860 Y48.1439
G01 X41.3955 Y48.0798
G01 X41.4028 Y48.0055
G01 X41.4060 Y47.9407
G01 X41.4060 Y47.8660
G01 X41.4028 Y47.8013
G01 X41.3955 Y47.7269
G01 X41.3860 Y47.6628
G01 X41.3714 Y47.5896
G01 X41.3556 Y47.5267
G01 X41.3339 Y47.4552
G01 X41.3121 Y47.3942
G01 X41.2835 Y47.3252
G01 X41.2558 Y47.2666
G01 X41.2206 Y47.2007
G01 X41.1873 Y47.1451
G01 X41.1458 Y47.0830
G01 X41.1072 Y47.0309
G01 X41.0598 Y46.9732
G01 X41.0162 Y46.9252
G01 X40.9634 Y46.8723
G01 X40.9154 Y46.8288
G01 X40.8576 Y46.7814
G01 X40.8056 Y46.7428
G01 X40.7435 Y46.7013
G01 X40.6879 Y46.6680
G01 X40.6220 Y46.6328
G01 X40.6054 Y46.6249
G00 Z2.0000
G00 X45.6854 Y49.1818
G01 F60.00
G01 Z-0.2001
G01 F320.00
G01 X45.7020 Y49.1740
G01 X45.7679 Y49.1388
G01 X45.8235 Y49.1055
G01 X45.8856 Y49.0640
G01 X45.9376 Y49.0254
G01 X45.9954 Y48.9780
G01 X46.0434 Y48.9344
G01 X46.0962 Y48.8816
G01 X46.1398 Y48.8336
G01 X46.1872 Y48.7758
G01 X46.2258 Y48.7238
G01 X46.2673 Y48.6617
G01 X46.3006 Y48.6061
G01 X46.3358 Y48.5402
G01 X46.3635 Y48.4816
G01 X46.3921 Y48.4126
G01 X46.4139 Y48.3516
G01 X46.4356 Y48.2801
G01 X46.4514 Y48.2172
G01 X46.4660 Y48.1439
G01 X46.4755 Y48.0798
G01 X46.4828 Y48.0055
G01 X46.4860 Y47.9407
G01 X46.4860 Y47.8660
G01 X46.4828 Y47.8013
G01 X46.4755 Y47.7269
G01 X46.4660 Y47.6628
G01 X46.4514 Y47.5896
G01 X46.4356 Y47.5267
G01 X46.4139 Y47.4552
G01 X46.3921 Y47.3942
G01 X46.3635 Y47.3252
G01 X46.3358 Y47.2666
G01 X46.3006 Y47.2007
G01 X46.2673 Y47.1451
G01 X46.2258 Y47.0830
G01 X46.1872 Y47.0309
G01 X46.1398 Y46.9732
G01 X46.0962 Y46.9252
G01 X46.0434 Y46.8723
G01 X45.9954 Y46.8288
G01 X45.9376 Y46.7814
G01 X45.8856 Y46.7428
G01 X45.8235 Y46.7013
G01 X45.7679 Y46.6680
G01 X45.7020 Y46.6328
G01 X45.6854 Y46.6249
G01 X50.7441 Y46.6249
G01 X50.7276 Y46.6328
G01 X50.6617 Y46.6680
G01 X50.6061 Y46.7013
G01 X50.5440 Y46.7428
G01 X50.4919 Y46.7814
G01 X50.4342 Y46.8288
G01 X50.3862 Y46.8723
G01 X50.3333 Y46.9252
G01 X50.2898 Y46.9732
G01 X50.2424 Y47.0309
G01 X50.2038 Y47.0830
G01 X50.1623 Y47.1451
G01 X50.1290 Y47.2007
G01 X50.0938 Y47.2666
G01 X50.0661 Y47.3252
G01 X50.0375 Y47.3942
G01 X50.0156 Y47.4552
G01 X49.9939 Y47.5267
G01 X49.9782 Y47.5896
G01 X49.9636 Y47.6628
G01 X49.9541 Y47.7269
G01 X49.9468 Y47.8013
G01 X49.9436 Y47.8660
G01 X49.9436 Y47.9407
G01 X49.9468 Y48.0055
G01 X49.9541 Y48.0798
G01 X49.9636 Y48.1439
G01 X49.9782 Y48.2172
G01 X49.9939 Y48.2801
G01 X50.0156 Y48.3516
G01 X50.0375 Y48.4126
G01 X50.0661 Y48.4816
G01 X50.0938 Y48.5402
G01 X50.1290 Y48.6061
G01 X50.1623 Y48.6617
G01 X50.2038 Y48.7238
G01 X50.2424 Y48.7758
G01 X50.2898 Y48.8336
G01 X50.3333 Y48.8816
G01 X50.3862 Y48.9344
G01 X50.4342 Y48.9780
G01 X50.4919 Y49.0254
G01 X50.5440 Y49.0640
G01 X50.6061 Y49.1055
G01 X50.6617 Y49.1388
G01 X50.7276 Y49.1740
G01 X50.7441 Y49.1818
G01 X45.6854 Y49.1818
G00 Z2.0000
G00 X48.2148 Y43.6629
G01 F60.00
G01 Z-0.2001
G01 F320.00
G01 X48.2232 Y43.6756
G01 X48.2232 Y44.1018
G01 X47.7717 Y44.1018
G01 X47.8216 Y44.0684
G01 X47.8817 Y44.0239
G01 X47.9395 Y43.9765
G01 X47.9949 Y43.9263
G01 X48.0477 Y43.8735
G01 X48.0979 Y43.8180
G01 X48.1453 Y43.7603
G01 X48.1898 Y43.7002
G01 X48.2148 Y43.6629
G00 Z2.0000
G00 X50.7632 Y43.6503
G01 F60.00
G01 Z-0.2001
G01 F320.00
G01 X50.7632 Y44.1018
G01 X50.7463 Y44.1018
G01 X50.7463 Y43.6756
G01 X50.7632 Y43.6503
G00 Z2.0000
G00 X53.3054 Y46.6249
G01 F60.00
G01 Z-0.2001
G01 F320.00
G01 X55.8241 Y46.6249
G01 X55.8076 Y46.6328
G01 X55.7417 Y46.6680
G01 X55.6861 Y46.7013
G01 X55.6240 Y46.7428
G01 X55.5719 Y46.7814
G01 X55.5142 Y46.8288
G01 X55.4662 Y46.8723
G01 X55.4133 Y46.9252
G01 X55.3698 Y46.9732
G01 X55.3224 Y47.0309
G01 X55.2838 Y47.0830
G01 X55.2423 Y47.1451
G01 X55.2090 Y47.2007
G01 X55.1738 Y47.2666
G01 X55.1461 Y47.3252
G01 X55.1175 Y47.3942
G01 X55.0956 Y47.4552
G01 X55.0739 Y47.5267
G01 X55.0582 Y47.5896
G01 X55.0436 Y47.6628
G01 X55.0341 Y47.7269
G01 X55.0268 Y47.8013
G01 X55.0236 Y47.8660
G01 X55.0236 Y47.9407
G01 X55.0268 Y48.0055
G01 X55.0341 Y48.0798
G01 X55.0436 Y48.1439
G01 X55.0582 Y48.2172
G01 X55.0739 Y48.2801
G01 X55.0956 Y48.3516
G01 X55.1175 Y48.4126
G01 X55.1461 Y48.4816
G01 X55.1738 Y48.5402
G01 X55.2090 Y48.6061
G01 X55.2423 Y48.6617
G01 X55.2838 Y48.7238
G01 X55.3224 Y48.7758
G01 X55.3698 Y48.8336
G01 X55.4133 Y48.8816
G01 X55.4662 Y48.9344
G01 X55.5142 Y48.9780
G01 X55.5719 Y49.0254
G01 X55.6240 Y49.0640
G01 X55.6861 Y49.1055
G01 X55.7417 Y49.1388
G01 X55.8076 Y49.1740
G01 X55.8662 Y49.2017
G01 X55.9352 Y49.2303
G01 X55.9962 Y49.2521
G01 X56.0677 Y49.2738
G01 X56.1306 Y49.2896
G01 X56.2038 Y49.3042
G01 X56.2680 Y49.3137
G01 X56.3423 Y49.3210
G01 X56.4070 Y49.3242
G01 X56.4444 Y49.3251
G01 X56.5227 Y49.3251
G01 X56.4776 Y49.3492
G01 X56.4355 Y49.3745
G01 X56.3734 Y49.4160
G01 X56.3339 Y49.4452
G01 X56.2762 Y49.4926
G01 X56.2398 Y49.5256
G01 X56.1870 Y49.5784
G01 X56.1540 Y49.6148
G01 X56.1066 Y49.6725
G01 X56.0774 Y49.7120
G01 X56.0359 Y49.7741
G01 X56.0106 Y49.8162
G01 X55.9754 Y49.8821
G01 X55.9544 Y49.9265
G01 X55.9258 Y49.9955
G01 X55.9093 Y50.0417
G01 X55.8876 Y50.1132
G01 X55.8757 Y50.1608
G01 X55.8611 Y50.2341
G01 X55.8539 Y50.2826
G01 X55.8466 Y50.3570
G01 X55.8442 Y50.4060
G01 X55.8432 Y50.4434
G01 X55.8432 Y51.6959
G01 X55.8076 Y51.7128
G01 X55.7417 Y51.7480
G01 X55.6861 Y51.7813
G01 X55.6240 Y51.8228
G01 X55.5719 Y51.8614
G01 X55.5142 Y51.9088
G01 X55.4662 Y51.9523
G01 X55.4133 Y52.0052
G01 X55.3698 Y52.0532
G01 X55.3224 Y52.1109
G01 X55.2838 Y52.1630
G01 X55.2423 Y52.2251
G01 X55.2090 Y52.2807
G01 X55.1738 Y52.3466
G01 X55.1461 Y52.4052
G01 X55.1175 Y52.4742
G01 X55.0956 Y52.5352
G01 X55.0739 Y52.6067
G01 X55.0582 Y52.6696
G01 X55.0436 Y52.7428
G01 X55.0341 Y52.8069
G01 X55.0268 Y52.8813
G01 X55.0236 Y52.9460
G01 X55.0236 Y53.0207
G01 X55.0268 Y53.0855
G01 X55.0341 Y53.1598
G01 X55.0436 Y53.2239
G01 X55.0582 Y53.2972
G01 X55.0739 Y53.3601
G01 X55.0956 Y53.4316
G01 X55.1175 Y53.4926
G01 X55.1461 Y53.5616
G01 X55.1738 Y53.6202
G01 X55.2090 Y53.6861
G01 X55.2423 Y53.7417
G01 X55.2838 Y53.8038
G01 X55.3224 Y53.8558
G01 X55.3698 Y53.9136
G01 X55.4133 Y53.9616
G01 X55.4662 Y54.0144
G01 X55.5142 Y54.0580
G01 X55.5719 Y54.1054
G01 X55.6240 Y54.1440
G01 X55.6861 Y54.1855
G01 X55.7417 Y54.2188
G01 X55.8064 Y54.2534
G01 X55.7906 Y54.2618
G01 X54.5648 Y54.2618
G01 X54.5274 Y54.2628
G01 X54.4784 Y54.2652
G01 X54.4040 Y54.2725
G01 X54.3555 Y54.2797
G01 X54.2822 Y54.2943
G01 X54.2346 Y54.3062
G01 X54.1631 Y54.3279
G01 X54.1169 Y54.3444
G01 X54.0479 Y54.3730
G01 X54.0035 Y54.3940
G01 X53.9376 Y54.4292
G01 X53.8955 Y54.4545
G01 X53.8334 Y54.4960
G01 X53.7939 Y54.5252
G01 X53.7390 Y54.5703
G01 X53.7162 Y54.5452
G01 X53.6634 Y54.4923
G01 X53.6154 Y54.4488
G01 X53.5576 Y54.4014
G01 X53.5056 Y54.3628
G01 X53.4435 Y54.3213
G01 X53.3879 Y54.2880
G01 X53.3232 Y54.2534
G01 X53.3879 Y54.2188
G01 X53.4435 Y54.1855
G01 X53.5056 Y54.1440
G01 X53.5576 Y54.1054
G01 X53.6154 Y54.0580
G01 X53.6634 Y54.0144
G01 X53.7162 Y53.9616
G01 X53.7598 Y53.9136
G01 X53.8072 Y53.8558
G01 X53.8458 Y53.8038
G01 X53.8873 Y53.7417
G01 X53.9206 Y53.6861
G01 X53.9558 Y53.6202
G01 X53.9835 Y53.5616
G01 X54.0121 Y53.4926
G01 X54.0339 Y53.4316
G01 X54.0556 Y53.3601
G01 X54.0714 Y53.2972
G01 X54.0860 Y53.2239
G01 X54.0955 Y53.1598
G01 X54.1028 Y53.0855
G01 X54.1060 Y53.0207
G01 X54.1060 Y52.9460
G01 X54.1028 Y52.8813
G01 X54.0955 Y52.8069
G01 X54.0860 Y52.7428
G01 X54.0714 Y52.6696
G01 X54.0556 Y52.6067
G01 X54.0339 Y52.5352
G01 X54.0121 Y52.4742
G01 X53.9835 Y52.4052
G01 X53.9558 Y52.3466
G01 X53.9206 Y52.2807
G01 X53.8873 Y52.2251
G01 X53.8458 Y52.1630
G01 X53.8072 Y52.1109
G01 X53.7598 Y52.0532
G01 X53.7162 Y52.0052
G01 X53.6634 Y51.9523
G01 X53.6154 Y51.9088
G01 X53.5576 Y51.8614
G01 X53.5056 Y51.8228
G01 X53.4435 Y51.7813
G01 X53.3879 Y51.7480
G01 X53.3220 Y51.7128
G01 X53.2634 Y51.6850
G01 X53.1944 Y51.6565
G01 X53.1334 Y51.6346
G01 X53.0619 Y51.6129
G01 X52.9990 Y51.5972
G01 X52.9257 Y51.5826
G01 X52.8616 Y51.5731
G01 X52.7873 Y51.5658
G01 X52.7225 Y51.5626
G01 X52.6852 Y51.5617
G01 X52.6068 Y51.5617
G01 X52.6520 Y51.5376
G01 X52.6941 Y51.5123
G01 X52.7562 Y51.4708
G01 X52.7956 Y51.4416
G01 X52.8534 Y51.3942
G01 X52.8898 Y51.3612
G01 X52.9426 Y51.3084
G01 X52.9756 Y51.2720
G01 X53.0230 Y51.2142
G01 X53.0522 Y51.1748
G01 X53.0937 Y51.1127
G01 X53.1190 Y51.0706
G01 X53.1542 Y51.0047
G01 X53.1752 Y50.9603
G01 X53.2038 Y50.8913
G01 X53.2203 Y50.8451
G01 X53.2420 Y50.7736
G01 X53.2539 Y50.7260
G01 X53.2685 Y50.6527
G01 X53.2757 Y50.6041
G01 X53.2830 Y50.5298
G01 X53.2854 Y50.4807
G01 X53.2863 Y50.4434
G01 X53.2863 Y49.1909
G01 X53.3220 Y49.1740
G01 X53.3879 Y49.1388
G01 X53.4435 Y49.1055
G01 X53.5056 Y49.0640
G01 X53.5576 Y49.0254
G01 X53.6154 Y48.9780
G01 X53.6634 Y48.9344
G01 X53.7162 Y48.8816
G01 X53.7598 Y48.8336
G01 X53.8072 Y48.7758
G01 X53.8458 Y48.7238
G01 X53.8873 Y48.6617
G01 X53.9206 Y48.6061
G01 X53.9558 Y48.5402
G01 X53.9835 Y48.4816
G01 X54.0121 Y48.4126
G01 X54.0339 Y48.3516
G01 X54.0556 Y48.2801
G01 X54.0714 Y48.2172
G01 X54.0860 Y48.1439
G01 X54.0955 Y48.0798
G01 X54.1028 Y48.0055
G01 X54.1060 Y47.9407
G01 X54.1060 Y47.8660
G01 X54.1028 Y47.8013
G01 X54.0955 Y47.7269
G01 X54.0860 Y47.6628
G01 X54.0714 Y47.5896
G01 X54.0556 Y47.5267
G01 X54.0339 Y47.4552
G01 X54.0121 Y47.3942
G01 X53.9835 Y47.3252
G01 X53.9558 Y47.2666
G01 X53.9206 Y47.2007
G01 X53.8873 Y47.1451
G01 X53.8458 Y47.0830
G01 X53.8072 Y47.0309
G01 X53.7598 Y46.9732
G01 X53.7162 Y46.9252
G01 X53.6634 Y46.8723
G01 X53.6154 Y46.8288
G01 X53.5576 Y46.7814
G01 X53.5056 Y46.7428
G01 X53.4435 Y46.7013
G01 X53.3879 Y46.6680
G01 X53.3220 Y46.6328
G01 X53.3054 Y46.6249
G00 Z2.0000
G00 X58.3854 Y49.1818
G01 F60.00
G01 Z-0.2001
G01 F320.00
G01 X58.4020 Y49.1740
G01 X58.4679 Y49.1388
G01 X58.5235 Y49.1055
G01 X58.5856 Y49.0640
G01 X58.6376 Y49.0254
G01 X58.6954 Y48.9780
G01 X58.7434 Y48.9344
G01 X58.7962 Y48.8816
G01 X58.8398 Y48.8336
G01 X58.8872 Y48.7758
G01 X58.9258 Y48.7238
G01 X58.9673 Y48.6617
G01 X59.0006 Y48.6061
G01 X59.0358 Y48.5402
G01 X59.0635 Y48.4816
G01 X59.0921 Y48.4126
G01 X59.1139 Y48.3516
G01 X59.1356 Y48.2801
G01 X59.1514 Y48.2172
G01 X59.1660 Y48.1439
G01 X59.1755 Y48.0798
G01 X59.1828 Y48.0055
G01 X59.1860 Y47.9407
G01 X59.1860 Y47.8660
G01 X59.1828 Y47.8013
G01 X59.1755 Y47.7269
G01 X59.1660 Y47.6628
G01 X59.1514 Y47.5896
G01 X59.1356 Y47.5267
G01 X59.1139 Y47.4552
G01 X59.0921 Y47.3942
G01 X59.0635 Y47.3252
G01 X59.0358 Y47.2666
G01 X59.0006 Y47.2007
G01 X58.9673 Y47.1451
G01 X58.9258 Y47.0830
G01 X58.8872 Y47.0309
G01 X58.8398 Y46.9732
G01 X58.7962 Y46.9252
G01 X58.7434 Y46.8723
G01 X58.6954 Y46.8288
G01 X58.6376 Y46.7814
G01 X58.5856 Y46.7428
G01 X58.5235 Y46.7013
G01 X58.4679 Y46.6680
G01 X58.4020 Y46.6328
G01 X58.3854 Y46.6249
G01 X63.4441 Y46.6249
G01 X63.4276 Y46.6328
G01 X63.3617 Y46.6680
G01 X63.3061 Y46.7013
G01 X63.2440 Y46.7428
G01 X63.1919 Y46.7814
G01 X63.1342 Y46.8288
G01 X63.0862 Y46.8723
G01 X63.0333 Y46.9252
G01 X62.9898 Y46.9732
G01 X62.9424 Y47.0309
G01 X62.9038 Y47.0830
G01 X62.8623 Y47.1451
G01 X62.8290 Y47.2007
G01 X62.7938 Y47.2666
G01 X62.7661 Y47.3252
G01 X62.7375 Y47.3942
G01 X62.7156 Y47.4552
G01 X62.6939 Y47.5267
G01 X62.6782 Y47.5896
G01 X62.6636 Y47.6628
G01 X62.6541 Y47.7269
G01 X62.6468 Y47.8013
G01 X62.6436 Y47.8660
G01 X62.6436 Y47.9407
G01 X62.6468 Y48.0055
G01 X62.6541 Y48.0798
G01 X62.6636 Y48.1439
G01 X62.6782 Y48.2172
G01 X62.6939 Y48.2801
G01 X62.7156 Y48.3516
G01 X62.7375 Y48.4126
G01 X62.7661 Y48.4816
G01 X62.7938 Y48.5402
G01 X62.8290 Y48.6061
G01 X62.8623 Y48.6617
G01 X62.9038 Y48.7238
G01 X62.9424 Y48.7758
G01 X62.9898 Y48.8336
G01 X63.0333 Y48.8816
G01 X63.0862 Y48.9344
G01 X63.1342 Y48.9780
G01 X63.1919 Y49.0254
G01 X63.2440 Y49.0640
G01 X63.3061 Y49.1055
G01 X63.3617 Y49.1388
G01 X63.4276 Y49.1740
G01 X63.4441 Y49.1818
G01 X58.3854 Y49.1818
G00 Z2.0000
G00 X60.9148 Y43.6629
G01 F60.00
G01 Z-0.2001
G01 F320.00
G01 X60.9232 Y43.6756
G01 X60.9232 Y44.1018
G01 X60.4717 Y44.1018
G01 X60.5216 Y44.0684
G01 X60.5817 Y44.0239
G01 X60.6395 Y43.9765
G01 X60.6949 Y43.9263
G01 X60.7477 Y43.8735
G01 X60.7979 Y43.8180
G01 X60.8453 Y43.7603
G01 X60.8898 Y43.7002
G01 X60.9148 Y43.6629
G00 Z2.0000
G00 X63.4632 Y43.6503
G01 F60.00
G01 Z-0.2001
G01 F320.00
G01 X63.4632 Y44.1018
G01 X63.4463 Y44.1018
G01 X63.4463 Y43.6756
G01 X63.4632 Y43.6503
G00 Z2.0000
G00 X66.0054 Y46.6249
G01 F60.00
G01 Z-0.2001
G01 F320.00
G01 X68.5241 Y46.6249
G01 X68.5076 Y46.6328
G01 X68.4417 Y46.6680
G01 X68.3861 Y46.7013
G01 X68.3240 Y46.7428
G01 X68.2719 Y46.7814
G01 X68.2142 Y46.8288
G01 X68.1662 Y46.8723
G01 X68.1133 Y46.9252
G01 X68.0698 Y46.9732
G01 X68.0224 Y47.0309
G01 X67.9838 Y47.0830
G01 X67.9423 Y47.1451
G01 X67.9090 Y47.2007
G01 X67.8738 Y47.2666
G01 X67.8461 Y47.3252
G01 X67.8175 Y47.3942
G01 X67.7956 Y47.4552
G01 X67.7739 Y47.5267
G01 X67.7582 Y47.5896
G01 X67.7436 Y47.6628
G01 X67.7341 Y47.7269
G01 X67.7268 Y47.8013
G01 X67.7236 Y47.8660
G01 X67.7236 Y47.9407
G01 X67.7268 Y48.0055
G01 X67.7341 Y48.0798
G01 X67.7436 Y48.1439
G01 X67.7582 Y48.2172
G01 X67.7739 Y48.2801
G01 X67.7956 Y48.3516
G01 X67.8175 Y48.4126
G01 X67.8461 Y48.4816
G01 X67.8738 Y48.5402
G01 X67.9090 Y48.6061
G01 X67.9423 Y48.6617
G01 X67.9838 Y48.7238
G01 X68.0224 Y48.7758
G01 X68.0698 Y48.8336
G01 X68.1133 Y48.8816
G01 X68.1662 Y48.9344
G01 X68.2142 Y48.9780
G01 X68.2719 Y49.0254
G01 X68.3240 Y49.0640
G01 X68.3861 Y49.1055
G01 X68.4417 Y49.1388
G01 X68.5076 Y49.1740
G01 X68.5662 Y49.2017
G01 X68.6352 Y49.2303
G01 X68.6962 Y49.2521
G01 X68.7677 Y49.2738
G01 X68.8306 Y49.2896
G01 X68.9038 Y49.3042
G01 X68.9680 Y49.3137
G01 X69.0423 Y49.3210
G01 X69.1070 Y49.3242
G01 X69.1444 Y49.3251
G01 X69.2227 Y49.3251
G01 X69.1776 Y49.3492
G01 X69.1355 Y49.3745
G01 X69.0734 Y49.4160
G01 X69.0339 Y49.4452
G01 X68.9762 Y49.4926
G01 X68.9398 Y49.5256
G01 X68.8870 Y49.5784
G01 X68.8540 Y49.6148
G01 X68.8066 Y49.6725
G01 X68.7774 Y49.7120
G01 X68.7359 Y49.7741
G01 X68.7106 Y49.8162
G01 X68.6754 Y49.8821
G01 X68.6544 Y49.9265
G01 X68.6258 Y49.9955
G01 X68.6093 Y50.0417
G01 X68.5876 Y50.1132
G01 X68.5757 Y50.1608
G01 X68.5611 Y50.2341
G01 X68.5539 Y50.2826
G01 X68.5466 Y50.3570
G01 X68.5442 Y50.4060
G01 X68.5432 Y50.4434
G01 X68.5432 Y51.6959
G01 X68.5076 Y51.7128
G01 X68.4417 Y51.7480
G01 X68.3861 Y51.7813
G01 X68.3240 Y51.8228
G01 X68.2719 Y51.8614
G01 X68.2142 Y51.9088
G01 X68.1662 Y51.9523
G01 X68.1133 Y52.0052
G01 X68.0698 Y52.0532
G01 X68.0224 Y52.1109
G01 X67.9838 Y52.1630
G01 X67.9423 Y52.2251
G01 X67.9090 Y52.2807
G01 X67.8738 Y52.3466
G01 X67.8461 Y52.4052
G01 X67.8175 Y52.4742
G01 X67.7956 Y52.5352
G01 X67.7739 Y52.6067
G01 X67.7582 Y52.6696
G01 X67.7436 Y52.7428
G01 X67.7341 Y52.8069
G01 X67.7268 Y52.8813
G01 X67.7236 Y52.9460
G01 X67.7236 Y53.0207
G01 X67.7268 Y53.0855
G01 X67.7341 Y53.1598
G01 X67.7436 Y53.2239
G01 X67.7582 Y53.2972
G01 X67.7739 Y53.3601
G01 X67.7956 Y53.4316
G01 X67.8175 Y53.4926
G01 X67.8461 Y53.5616
G01 X67.8738 Y53.6202
G01 X67.9090 Y53.6861
G01 X67.9423 Y53.7417
G01 X67.9838 Y53.8038
G01 X68.0224 Y53.8558
G01 X68.0698 Y53.9136
G01 X68.1133 Y53.9616
G01 X68.1662 Y54.0144
G01 X68.2142 Y54.0580
G01 X68.2719 Y54.1054
G01 X68.3240 Y54.1440
G01 X68.3861 Y54.1855
G01 X68.4417 Y54.2188
G01 X68.5064 Y54.2534
G01 X68.4906 Y54.2618
G01 X67.2648 Y54.2618
G01 X67.2274 Y54.2628
G01 X67.1784 Y54.2652
G01 X67.1040 Y54.2725
G01 X67.0555 Y54.2797
G01 X66.9822 Y54.2943
G01 X66.9346 Y54.3062
G01 X66.8631 Y54.3279
G01 X66.8169 Y54.3444
G01 X66.7479 Y54.3730
G01 X66.7035 Y54.3940
G01 X66.6376 Y54.4292
G01 X66.5955 Y54.4545
G01 X66.5334 Y54.4960
G01 X66.4939 Y54.5252
G01 X66.4390 Y54.5703
G01 X66.4162 Y54.5452
G01 X66.3634 Y54.4923
G01 X66.3154 Y54.4488
G01 X66.2576 Y54.4014
G01 X66.2056 Y54.3628
G01 X66.1435 Y54.3213
G01 X66.0879 Y54.2880
G01 X66.0232 Y54.2534
G01 X66.0879 Y54.2188
G01 X66.1435 Y54.1855
G01 X66.2056 Y54.1440
G01 X66.2576 Y54.1054
G01 X66.3154 Y54.0580
G01 X66.3634 Y54.0144
G01 X66.4162 Y53.9616
G01 X66.4598 Y53.9136
G01 X66.5072 Y53.8558
G01 X66.5458 Y53.8038
G01 X66.5873 Y53.7417
G01 X66.6206 Y53.6861
G01 X66.6558 Y53.6202
G01 X66.6835 Y53.5616
G01 X66.7121 Y53.4926
G01 X66.7339 Y53.4316
G01 X66.7556 Y53.3601
G01 X66.7714 Y53.2972
G01 X66.7860 Y53.2239
G01 X66.7955 Y53.1598
G01 X66.8028 Y53.0855
G01 X66.8060 Y53.0207
G01 X66.8060 Y52.9460
G01 X66.8028 Y52.8813
G01 X66.7955 Y52.8069
G01 X66.7860 Y52.7428
G01 X66.7714 Y52.6696
G01 X66.7556 Y52.6067
G01 X66.7339 Y52.5352
G01 X66.7121 Y52.4742
G01 X66.6835 Y52.4052
G01 X66.6558 Y52.3466
G01 X66.6206 Y52.2807
G01 X66.5873 Y52.2251
G01 X66.5458 Y52.1630
G01 X66.5072 Y52.1109
G01 X66.4598 Y52.0532
G01 X66.4162 Y52.0052
G01 X66.3634 Y51.9523
G01 X66.3154 Y51.9088
G01 X66.2576 Y51.8614
G01 X66.2056 Y51.8228
G01 X66.1435 Y51.7813
G01 X66.0879 Y51.7480
G01 X66.0220 Y51.7128
G01 X65.9634 Y51.6850
G01 X65.8944 Y51.6565
G01 X65.8334 Y51.6346
G01 X65.7619 Y51.6129
G01 X65.6990 Y51.5972
G01 X65.6257 Y51.5826
G01 X65.5616 Y51.5731
G01 X65.4873 Y51.5658
G01 X65.4225 Y51.5626
G01 X65.3852 Y51.5617
G01 X65.3068 Y51.5617
G01 X65.3520 Y51.5376
G01 X65.3941 Y51.5123
G01 X65.4562 Y51.4708
G01 X65.4956 Y51.4416
G01 X65.5534 Y51.3942
G01 X65.5898 Y51.3612
G01 X65.6426 Y51.3084
G01 X65.6756 Y51.2720
G01 X65.7230 Y51.2142
G01 X65.7522 Y51.1748
G01 X65.7937 Y51.1127
G01 X65.8190 Y51.0706
G01 X65.8542 Y51.0047
G01 X65.8752 Y50.9603
G01 X65.9038 Y50.8913
G01 X65.9203 Y50.8451
G01 X65.9420 Y50.7736
G01 X65.9539 Y50.7260
G01 X65.9685 Y50.6527
G01 X65.9757 Y50.6041
G01 X65.9830 Y50.5298
G01 X65.9854 Y50.4807
G01 X65.9863 Y50.4434
G01 X65.9863 Y49.1909
G01 X66.0220 Y49.1740
G01 X66.0879 Y49.1388
G01 X66.1435 Y49.1055
G01 X66.2056 Y49.0640
G01 X66.2576 Y49.0254
G01 X66.3154 Y48.9780
G01 X66.3634 Y48.9344
G01 X66.4162 Y48.8816
G01 X66.4598 Y48.8336
G01 X66.5072 Y48.7758
G01 X66.5458 Y48.7238
G01 X66.5873 Y48.6617
G01 X66.6206 Y48.6061
G01 X66.6558 Y48.5402
G01 X66.6835 Y48.4816
G01 X66.7121 Y48.4126
G01 X66.7339 Y48.3516
G01 X66.7556 Y48.2801
G01 X66.7714 Y48.2172
G01 X66.7860 Y48.1439
G01 X66.7955 Y48.0798
G01 X66.8028 Y48.0055
G01 X66.8060 Y47.9407
G01 X66.8060 Y47.8660
G01 X66.8028 Y47.8013
G01 X66.7955 Y47.7269
G01 X66.7860 Y47.6628
G01 X66.7714 Y47.5896
G01 X66.7556 Y47.5267
G01 X66.7339 Y47.4552
G01 X66.7121 Y47.3942
G01 X66.6835 Y47.3252
G01 X66.6558 Y47.2666
G01 X66.6206 Y47.2007
G01 X66.5873 Y47.1451
G01 X66.5458 Y47.0830
G01 X66.5072 Y47.0309
G01 X66.4598 Y46.9732
G01 X66.4162 Y46.9252
G01 X66.3634 Y46.8723
G01 X66.3154 Y46.8288
G01 X66.2576 Y46.7814
G01 X66.2056 Y46.7428
G01 X66.1435 Y46.7013
G01 X66.0879 Y46.6680
G01 X66.0220 Y46.6328
G01 X66.0054 Y46.6249
G00 Z2.0000
G00 X71.0854 Y49.1818
G01 F60.00
G01 Z-0.2001
G01 F320.00
G01 X71.1020 Y49.1740
G01 X71.1679 Y49.1388
G01 X71.2235 Y49.1055
G01 X71.2856 Y49.0640
G01 X71.3376 Y49.0254
G01 X71.3954 Y48.9780
G01 X71.4434 Y48.9344
G01 X71.4962 Y48.8816
G01 X71.5398 Y48.8336
G01 X71.5872 Y48.7758
G01 X71.6258 Y48.7238
G01 X71.6673 Y48.6617
G01 X71.7006 Y48.6061
G01 X71.7358 Y48.5402
G01 X71.7635 Y48.4816
G01 X71.7921 Y48.4126
G01 X71.8139 Y48.3516
G01 X71.8356 Y48.2801
G01 X71.8514 Y48.2172
G01 X71.8660 Y48.1439
G01 X71.8755 Y48.0798
G01 X71.8828 Y48.0055
G01 X71.8860 Y47.9407
G01 X71.8860 Y47.8660
G01 X71.8828 Y47.8013
G01 X71.8755 Y47.7269
G01 X71.8660 Y47.6628
G01 X71.8514 Y47.5896
G01 X71.8356 Y47.5267
G01 X71.8139 Y47.4552
G01 X71.7921 Y47.3942
G01 X71.7635 Y47.3252
G01 X71.7358 Y47.2666
G01 X71.7006 Y47.2007
G01 X71.6673 Y47.1451
G01 X71.6258 Y47.0830
G01 X71.5872 Y47.0309
G01 X71.5398 Y46.9732
G01 X71.4962 Y46.9252
G01 X71.4434 Y46.8723
G01 X71.3954 Y46.8288
G01 X71.3376 Y46.7814
G01 X71.2856 Y46.7428
G01 X71.2235 Y46.7013
G01 X71.1679 Y46.6680
G01 X71.1020 Y46.6328
G01 X71.0854 Y46.6249
G01 X76.1441 Y46.6249
G01 X76.1276 Y46.6328
G01 X76.0617 Y46.6680
G01 X76.0061 Y46.7013
G01 X75.9440 Y46.7428
G01 X75.8919 Y46.7814
G01 X75.8342 Y46.8288
G01 X75.7862 Y46.8723
G01 X75.7333 Y46.9252
G01 X75.6898 Y46.9732
G01 X75.6424 Y47.0309
G01 X75.6038 Y47.0830
G01 X75.5623 Y47.1451
G01 X75.5290 Y47.2007
G01 X75.4938 Y47.2666
G01 X75.4661 Y47.3252
G01 X75.4375 Y47.3942
G01 X75.4156 Y47.4552
G01 X75.3939 Y47.5267
G01 X75.3782 Y47.5896
G01 X75.3636 Y47.6628
G01 X75.3541 Y47.7269
G01 X75.3468 Y47.8013
G01 X75.3436 Y47.8660
G01 X75.3436 Y47.9407
G01 X75.3468 Y48.0055
G01 X75.3541 Y48.0798
G01 X75.3636 Y48.1439
G01 X75.3782 Y48.2172
G01 X75.3939 Y48.2801
G01 X75.4156 Y48.3516
G01 X75.4375 Y48.4126
G01 X75.4661 Y48.4816
G01 X75.4938 Y48.5402
G01 X75.5290 Y48.6061
G01 X75.5623 Y48.6617
G01 X75.6038 Y48.7238
G01 X75.6424 Y48.7758
G01 X75.6898 Y48.8336
G01 X75.7333 Y48.8816
G01 X75.7862 Y48.9344
G01 X75.8342 Y48.9780
G01 X75.8919 Y49.0254
G01 X75.9440 Y49.0640
G01 X76.0061 Y49.1055
G01 X76.0617 Y49.1388
G01 X76.1276 Y49.1740
G01 X76.1441 Y49.1818
G01 X71.0854 Y49.1818
G00 Z2.0000
G00 X76.1441 Y51.7049
G01 F60.00
G01 Z-0.2001
G01 F320.00
G01 X76.1276 Y51.7128
G01 X76.0617 Y51.7480
G01 X76.0061 Y51.7813
G01 X75.9440 Y51.8228
G01 X75.8919 Y51.8614
G01 X75.8342 Y51.9088
G01 X75.7862 Y51.9523
G01 X75.7333 Y52.0052
G01 X75.6898 Y52.0532
G01 X75.6424 Y52.1109
G01 X75.6038 Y52.1630
G01 X75.5623 Y52.2251
G01 X75.5290 Y52.2807
G01 X75.4938 Y52.3466
G01 X75.4661 Y52.4052
G01 X75.4375 Y52.4742
G01 X75.4156 Y52.5352
G01 X75.3939 Y52.6067
G01 X75.3782 Y52.6696
G01 X75.3636 Y52.7428
G01 X75.3541 Y52.8069
G01 X75.3468 Y52.8813
G01 X75.3436 Y52.9460
G01 X75.3436 Y53.0207
G01 X75.3468 Y53.0855
G01 X75.3541 Y53.1598
G01 X75.3636 Y53.2239
G01 X75.3782 Y53.2972
G01 X75.3939 Y53.3601
G01 X75.4156 Y53.4316
G01 X75.4375 Y53.4926
G01 X75.4661 Y53.5616
G01 X75.4938 Y53.6202
G01 X75.5290 Y53.6861
G01 X75.5623 Y53.7417
G01 X75.6038 Y53.8038
G01 X75.6424 Y53.8558
G01 X75.6898 Y53.9136
G01 X75.7333 Y53.9616
G01 X75.7862 Y54.0144
G01 X75.8342 Y54.0580
G01 X75.8919 Y54.1054
G01 X75.9440 Y54.1440
G01 X76.0061 Y54.1855
G01 X76.0617 Y54.2188
G01 X76.1264 Y54.2534
G01 X76.1106 Y54.2618
G01 X74.8848 Y54.2618
G01 X74.8474 Y54.2628
G01 X74.7984 Y54.2652
G01 X74.7240 Y54.2725
G01 X74.6755 Y54.2797
G01 X74.6022 Y54.2943
G01 X74.5546 Y54.3062
G01 X74.4831 Y54.3279
G01 X74.4369 Y54.3444
G01 X74.3679 Y54.3730
G01 X74.3235 Y54.3940
G01 X74.2576 Y54.4292
G01 X74.2155 Y54.4545
G01 X74.1534 Y54.4960
G01 X74.1139 Y54.5252
G01 X74.0562 Y54.5726
G01 X74.0198 Y54.6056
G01 X73.9670 Y54.6584
G01 X73.9340 Y54.6948
G01 X73.8866 Y54.7525
G01 X73.8574 Y54.7920
G01 X73.8159 Y54.8541
G01 X73.7906 Y54.8962
G01 X73.7554 Y54.9621
G01 X73.7344 Y55.0065
G01 X73.7058 Y55.0755
G01 X73.6893 Y55.1217
G01 X73.6676 Y55.1932
G01 X73.6557 Y55.2408
G01 X73.6411 Y55.3141
G01 X73.6339 Y55.3626
G01 X73.6266 Y55.4370
G01 X73.6242 Y55.4860
G01 X73.6232 Y55.5234
G01 X73.6232 Y57.2112
G01 X73.5982 Y57.2487
G01 X73.5598 Y57.3128
G01 X73.5246 Y57.3787
G01 X73.4926 Y57.4463
G01 X73.4640 Y57.5153
G01 X73.4388 Y57.5857
G01 X73.4171 Y57.6572
G01 X73.3989 Y57.7297
G01 X73.3844 Y57.8030
G01 X73.3734 Y57.8770
G01 X73.3661 Y57.9513
G01 X73.3624 Y58.0260
G01 X73.3624 Y58.1007
G01 X73.3661 Y58.1754
G01 X73.3734 Y58.2498
G01 X73.3844 Y58.3237
G01 X73.3989 Y58.3970
G01 X73.4171 Y58.4696
G01 X73.4388 Y58.5411
G01 X73.4640 Y58.6115
G01 X73.4926 Y58.6805
G01 X73.5246 Y58.7481
G01 X73.5598 Y58.8140
G01 X73.5982 Y58.8781
G01 X73.6232 Y58.9156
G01 X73.6232 Y59.7512
G01 X73.5982 Y59.7887
G01 X73.5598 Y59.8528
G01 X73.5246 Y59.9187
G01 X73.4926 Y59.9863
G01 X73.4640 Y60.0553
G01 X73.4388 Y60.1257
G01 X73.4171 Y60.1972
G01 X73.3989 Y60.2697
G01 X73.3844 Y60.3430
G01 X73.3734 Y60.4170
G01 X73.3661 Y60.4913
G01 X73.3624 Y60.5660
G01 X73.3624 Y60.6407
G01 X73.3661 Y60.7154
G01 X73.3734 Y60.7898
G01 X73.3844 Y60.8637
G01 X73.3989 Y60.9370
G01 X73.4171 Y61.0096
G01 X73.4388 Y61.0811
G01 X73.4640 Y61.1515
G01 X73.4926 Y61.2205
G01 X73.5246 Y61.2881
G01 X73.5598 Y61.3540
G01 X73.5982 Y61.4181
G01 X73.6397 Y61.4802
G01 X73.6843 Y61.5403
G01 X73.7317 Y61.5980
G01 X73.7819 Y61.6535
G01 X73.8347 Y61.7063
G01 X73.8901 Y61.7565
G01 X73.9479 Y61.8039
G01 X74.0079 Y61.8484
G01 X74.0579 Y61.8818
G01 X71.1190 Y61.8818
G01 X71.1020 Y61.8728
G01 X71.0434 Y61.8450
G01 X70.9744 Y61.8165
G01 X70.9134 Y61.7946
G01 X70.8419 Y61.7729
G01 X70.7790 Y61.7572
G01 X70.7057 Y61.7426
G01 X70.6416 Y61.7331
G01 X70.5673 Y61.7258
G01 X70.5025 Y61.7226
G01 X70.4652 Y61.7217
G01 X69.1444 Y61.7217
G01 X69.1070 Y61.7226
G01 X69.0423 Y61.7258
G01 X68.9680 Y61.7331
G01 X68.9038 Y61.7426
G01 X68.8306 Y61.7572
G01 X68.7677 Y61.7729
G01 X68.6962 Y61.7946
G01 X68.6352 Y61.8165
G01 X68.5662 Y61.8450
G01 X68.5263 Y61.8639
G01 X68.5263 Y56.8029
G01 X68.5662 Y56.8217
G01 X68.6352 Y56.8503
G01 X68.6962 Y56.8721
G01 X68.7677 Y56.8938
G01 X68.8306 Y56.9096
G01 X68.9038 Y56.9242
G01 X68.9680 Y56.9337
G01 X69.0423 Y56.9410
G01 X69.1070 Y56.9442
G01 X69.1444 Y56.9451
G01 X70.4652 Y56.9451
G01 X70.5025 Y56.9442
G01 X70.5673 Y56.9410
G01 X70.6416 Y56.9337
G01 X70.7057 Y56.9242
G01 X70.7790 Y56.9096
G01 X70.8419 Y56.8938
G01 X70.9134 Y56.8721
G01 X70.9744 Y56.8503
G01 X71.0434 Y56.8217
G01 X71.1020 Y56.7940
G01 X71.1679 Y56.7588
G01 X71.2235 Y56.7255
G01 X71.2856 Y56.6840
G01 X71.3376 Y56.6454
G01 X71.3954 Y56.5980
G01 X71.4434 Y56.5544
G01 X71.4962 Y56.5016
G01 X71.5398 Y56.4536
G01 X71.5872 Y56.3958
G01 X71.6258 Y56.3438
G01 X71.6673 Y56.2817
G01 X71.7006 Y56.2261
G01 X71.7358 Y56.1602
G01 X71.7635 Y56.1016
G01 X71.7921 Y56.0326
G01 X71.8139 Y55.9716
G01 X71.8356 Y55.9001
G01 X71.8514 Y55.8372
G01 X71.8660 Y55.7639
G01 X71.8755 Y55.6998
G01 X71.8828 Y55.6255
G01 X71.8860 Y55.5607
G01 X71.8860 Y55.4860
G01 X71.8828 Y55.4213
G01 X71.8755 Y55.3469
G01 X71.8660 Y55.2828
G01 X71.8514 Y55.2096
G01 X71.8356 Y55.1467
G01 X71.8139 Y55.0752
G01 X71.7921 Y55.0142
G01 X71.7635 Y54.9452
G01 X71.7358 Y54.8866
G01 X71.7006 Y54.8207
G01 X71.6673 Y54.7651
G01 X71.6258 Y54.7030
G01 X71.5872 Y54.6509
G01 X71.5398 Y54.5932
G01 X71.4962 Y54.5452
G01 X71.4434 Y54.4923
G01 X71.3954 Y54.4488
G01 X71.3376 Y54.4014
G01 X71.2856 Y54.3628
G01 X71.2235 Y54.3213
G01 X71.1679 Y54.2880
G01 X71.1032 Y54.2534
G01 X71.1679 Y54.2188
G01 X71.2235 Y54.1855
G01 X71.2856 Y54.1440
G01 X71.3376 Y54.1054
G01 X71.3954 Y54.0580
G01 X71.4434 Y54.0144
G01 X71.4962 Y53.9616
G01 X71.5398 Y53.9136
G01 X71.5872 Y53.8558
G01 X71.6258 Y53.8038
G01 X71.6673 Y53.7417
G01 X71.7006 Y53.6861
G01 X71.7358 Y53.6202
G01 X71.7635 Y53.5616
G01 X71.7921 Y53.4926
G01 X71.8139 Y53.4316
G01 X71.8356 Y53.3601
G01 X71.8514 Y53.2972
G01 X71.8660 Y53.2239
G01 X71.8755 Y53.1598
G01 X71.8828 Y53.0855
G01 X71.8860 Y53.0207
G01 X71.8860 Y52.9460
G01 X71.8828 Y52.8813
G01 X71.8755 Y52.8069
G01 X71.8660 Y52.7428
G01 X71.8514 Y52.6696
G01 X71.8356 Y52.6067
G01 X71.8139 Y52.5352
G01 X71.7921 Y52.4742
G01 X71.7635 Y52.4052
G01 X71.7358 Y52.3466
G01 X71.7006 Y52.2807
G01 X71.6673 Y52.2251
G01 X71.6258 Y52.1630
G01 X71.5872 Y52.1109
G01 X71.5398 Y52.0532
G01 X71.4962 Y52.0052
G01 X71.4434 Y51.9523
G01 X71.3954 Y51.9088
G01 X71.3376 Y51.8614
G01 X71.2856 Y51.8228
G01 X71.2235 Y51.7813
G01 X71.1679 Y51.7480
G01 X71.1020 Y51.7128
G01 X71.0854 Y51.7049
G01 X76.1441 Y51.7049
G00 Z2.0000
G00 X78.7054 Y46.6249
G01 F60.00
G01 Z-0.2001
G01 F320.00
G01 X81.2241 Y46.6249
G01 X81.2076 Y46.6328
G01 X81.1417 Y46.6680
G01 X81.0861 Y46.7013
G01 X81.0240 Y46.7428
G01 X80.9719 Y46.7814
G01 X80.9142 Y46.8288
G01 X80.8662 Y46.8723
G01 X80.8133 Y46.9252
G01 X80.7698 Y46.9732
G01 X80.7224 Y47.0309
G01 X80.6838 Y47.0830
G01 X80.6423 Y47.1451
G01 X80.6090 Y47.2007
G01 X80.5738 Y47.2666
G01 X80.5461 Y47.3252
G01 X80.5175 Y47.3942
G01 X80.4956 Y47.4552
G01 X80.4739 Y47.5267
G01 X80.4582 Y47.5896
G01 X80.4436 Y47.6628
G01 X80.4341 Y47.7269
G01 X80.4268 Y47.8013
G01 X80.4236 Y47.8660
G01 X80.4236 Y47.9407
G01 X80.4268 Y48.0055
G01 X80.4341 Y48.0798
G01 X80.4436 Y48.1439
G01 X80.4582 Y48.2172
G01 X80.4739 Y48.2801
G01 X80.4956 Y48.3516
G01 X80.5175 Y48.4126
G01 X80.5461 Y48.4816
G01 X80.5738 Y48.5402
G01 X80.6090 Y48.6061
G01 X80.6423 Y48.6617
G01 X80.6838 Y48.7238
G01 X80.7224 Y48.7758
G01 X80.7698 Y48.8336
G01 X80.8133 Y48.8816
G01 X80.8662 Y48.9344
G01 X80.9142 Y48.9780
G01 X80.9719 Y49.0254
G01 X81.0240 Y49.0640
G01 X81.0861 Y49.1055
G01 X81.1417 Y49.1388
G01 X81.2076 Y49.1740
G01 X81.2662 Y49.2017
G01 X81.3352 Y49.2303
G01 X81.3962 Y49.2521
G01 X81.4677 Y49.2738
G01 X81.5306 Y49.2896
G01 X81.6038 Y49.3042
G01 X81.6680 Y49.3137
G01 X81.7423 Y49.3210
G01 X81.8070 Y49.3242
G01 X81.8444 Y49.3251
G01 X81.9227 Y49.3251
G01 X81.8776 Y49.3492
G01 X81.8355 Y49.3745
G01 X81.7734 Y49.4160
G01 X81.7339 Y49.4452
G01 X81.6762 Y49.4926
G01 X81.6398 Y49.5256
G01 X81.5870 Y49.5784
G01 X81.5540 Y49.6148
G01 X81.5066 Y49.6725
G01 X81.4774 Y49.7120
G01 X81.4359 Y49.7741
G01 X81.4106 Y49.8162
G01 X81.3754 Y49.8821
G01 X81.3544 Y49.9265
G01 X81.3258 Y49.9955
G01 X81.3093 Y50.0417
G01 X81.2876 Y50.1132
G01 X81.2757 Y50.1608
G01 X81.2611 Y50.2341
G01 X81.2539 Y50.2826
G01 X81.2466 Y50.3570
G01 X81.2442 Y50.4060
G01 X81.2432 Y50.4434
G01 X81.2432 Y51.6959
G01 X81.2076 Y51.7128
G01 X81.1417 Y51.7480
G01 X81.0861 Y51.7813
G01 X81.0240 Y51.8228
G01 X80.9719 Y51.8614
G01 X80.9142 Y51.9088
G01 X80.8662 Y51.9523
G01 X80.8133 Y52.0052
G01 X80.7698 Y52.0532
G01 X80.7224 Y52.1109
G01 X80.6838 Y52.1630
G01 X80.6423 Y52.2251
G01 X80.6090 Y52.2807
G01 X80.5738 Y52.3466
G01 X80.5461 Y52.4052
G01 X80.5175 Y52.4742
G01 X80.4956 Y52.5352
G01 X80.4739 Y52.6067
G01 X80.4582 Y52.6696
G01 X80.4436 Y52.7428
G01 X80.4341 Y52.8069
G01 X80.4268 Y52.8813
G01 X80.4236 Y52.9460
G01 X80.4236 Y53.0207
G01 X80.4268 Y53.0855
G01 X80.4341 Y53.1598
G01 X80.4436 Y53.2239
G01 X80.4582 Y53.2972
G01 X80.4739 Y53.3601
G01 X80.4956 Y53.4316
G01 X80.5175 Y53.4926
G01 X80.5461 Y53.5616
G01 X80.5738 Y53.6202
G01 X80.6090 Y53.6861
G01 X80.6423 Y53.7417
G01 X80.6838 Y53.8038
G01 X80.7224 Y53.8558
G01 X80.7698 Y53.9136
G01 X80.8133 Y53.9616
G01 X80.8662 Y54.0144
G01 X80.9142 Y54.0580
G01 X80.9719 Y54.1054
G01 X81.0240 Y54.1440
G01 X81.0861 Y54.1855
G01 X81.1417 Y54.2188
G01 X81.2064 Y54.2534
G01 X81.1906 Y54.2618
G01 X79.9648 Y54.2618
G01 X79.9274 Y54.2628
G01 X79.8784 Y54.2652
G01 X79.8040 Y54.2725
G01 X79.7555 Y54.2797
G01 X79.6822 Y54.2943
G01 X79.6346 Y54.3062
G01 X79.5631 Y54.3279
G01 X79.5169 Y54.3444
G01 X79.4479 Y54.3730
G01 X79.4035 Y54.3940
G01 X79.3376 Y54.4292
G01 X79.2955 Y54.4545
G01 X79.2334 Y54.4960
G01 X79.1939 Y54.5252
G01 X79.1390 Y54.5703
G01 X79.1162 Y54.5452
G01 X79.0634 Y54.4923
G01 X79.0154 Y54.4488
G01 X78.9576 Y54.4014
G01 X78.9056 Y54.3628
G01 X78.8435 Y54.3213
G01 X78.7879 Y54.2880
G01 X78.7232 Y54.2534
G01 X78.7879 Y54.2188
G01 X78.8435 Y54.1855
G01 X78.9056 Y54.1440
G01 X78.9576 Y54.1054
G01 X79.0154 Y54.0580
G01 X79.0634 Y54.0144
G01 X79.1162 Y53.9616
G01 X79.1598 Y53.9136
G01 X79.2072 Y53.8558
G01 X79.2458 Y53.8038
G01 X79.2873 Y53.7417
G01 X79.3206 Y53.6861
G01 X79.3558 Y53.6202
G01 X79.3835 Y53.5616
G01 X79.4121 Y53.4926
G01 X79.4339 Y53.4316
G01 X79.4556 Y53.3601
G01 X79.4714 Y53.2972
G01 X79.4860 Y53.2239
G01 X79.4955 Y53.1598
G01 X79.5028 Y53.0855
G01 X79.5060 Y53.0207
G01 X79.5060 Y52.9460
G01 X79.5028 Y52.8813
G01 X79.4955 Y52.8069
G01 X79.4860 Y52.7428
G01 X79.4714 Y52.6696
G01 X79.4556 Y52.6067
G01 X79.4339 Y52.5352
G01 X79.4121 Y52.4742
G01 X79.3835 Y52.4052
G01 X79.3558 Y52.3466
G01 X79.3206 Y52.2807
G01 X79.2873 Y52.2251
G01 X79.2458 Y52.1630
G01 X79.2072 Y52.1109
G01 X79.1598 Y52.0532
G01 X79.1162 Y52.0052
G01 X79.0634 Y51.9523
G01 X79.0154 Y51.9088
G01 X78.9576 Y51.8614
G01 X78.9056 Y51.8228
G01 X78.8435 Y51.7813
G01 X78.7879 Y51.7480
G01 X78.7220 Y51.7128
G01 X78.6634 Y51.6850
G01 X78.5944 Y51.6565
G01 X78.5334 Y51.6346
G01 X78.4619 Y51.6129
G01 X78.3990 Y51.5972
G01 X78.3257 Y51.5826
G01 X78.2616 Y51.5731
G01 X78.1873 Y51.5658
G01 X78.1225 Y51.5626
G01 X78.0852 Y51.5617
G01 X78.0068 Y51.5617
G01 X78.0520 Y51.5376
G01 X78.0941 Y51.5123
G01 X78.1562 Y51.4708
G01 X78.1956 Y51.4416
G01 X78.2534 Y51.3942
G01 X78.2898 Y51.3612
G01 X78.3426 Y51.3084
G01 X78.3756 Y51.2720
G01 X78.4230 Y51.2142
G01 X78.4522 Y51.1748
G01 X78.4937 Y51.1127
G01 X78.5190 Y51.0706
G01 X78.5542 Y51.0047
G01 X78.5752 Y50.9603
G01 X78.6038 Y50.8913
G01 X78.6203 Y50.8451
G01 X78.6420 Y50.7736
G01 X78.6539 Y50.7260
G01 X78.6685 Y50.6527
G01 X78.6757 Y50.6041
G01 X78.6830 Y50.5298
G01 X78.6854 Y50.4807
G01 X78.6863 Y50.4434
G01 X78.6863 Y49.1909
G01 X78.7220 Y49.1740
G01 X78.7879 Y49.1388
G01 X78.8435 Y49.1055
G01 X78.9056 Y49.0640
G01 X78.9576 Y49.0254
G01 X79.0154 Y48.9780
G01 X79.0634 Y48.9344
G01 X79.1162 Y48.8816
G01 X79.1598 Y48.8336
G01 X79.2072 Y48.7758
G01 X79.2458 Y48.7238
G01 X79.2873 Y48.6617
G01 X79.3206 Y48.6061
G01 X79.3558 Y48.5402
G01 X79.3835 Y48.4816
G01 X79.4121 Y48.4126
G01 X79.4339 Y48.3516
G01 X79.4556 Y48.2801
G01 X79.4714 Y48.2172
G01 X79.4860 Y48.1439
G01 X79.4955 Y48.0798
G01 X79.5028 Y48.0055
G01 X79.5060 Y47.9407
G01 X79.5060 Y47.8660
G01 X79.5028 Y47.8013
G01 X79.4955 Y47.7269
G01 X79.4860 Y47.6628
G01 X79.4714 Y47.5896
G01 X79.4556 Y47.5267
G01 X79.4339 Y47.4552
G01 X79.4121 Y47.3942
G01 X79.3835 Y47.3252
G01 X79.3558 Y47.2666
G01 X79.3206 Y47.2007
G01 X79.2873 Y47.1451
G01 X79.2458 Y47.0830
G01 X79.2072 Y47.0309
G01 X79.1598 Y46.9732
G01 X79.1162 Y46.9252
G01 X79.0634 Y46.8723
G01 X79.0154 Y46.8288
G01 X78.9576 Y46.7814
G01 X78.9056 Y46.7428
G01 X78.8435 Y46.7013
G01 X78.7879 Y46.6680
G01 X78.7220 Y46.6328
G01 X78.7054 Y46.6249
G00 Z2.0000
G00 X76.1632 Y43.6503
G01 F60.00
G01 Z-0.2001
G01 F320.00
G01 X76.1632 Y44.1018
G01 X76.1463 Y44.1018
G01 X76.1463 Y43.6756
G01 X76.1632 Y43.6503
G00 Z2.0000
G00 X73.6148 Y43.6629
G01 F60.00
G01 Z-0.2001
G01 F320.00
G01 X73.6232 Y43.6756
G01 X73.6232 Y44.1018
G01 X73.1717 Y44.1018
G01 X73.2216 Y44.0684
G01 X73.2817 Y44.0239
G01 X73.3395 Y43.9765
G01 X73.3949 Y43.9263
G01 X73.4477 Y43.8735
G01 X73.4979 Y43.8180
G01 X73.5453 Y43.7603
G01 X73.5898 Y43.7002
G01 X73.6148 Y43.6629
G00 Z2.0000
G00 X83.7854 Y49.1818
G01 F60.00
G01 Z-0.2001
G01 F320.00
G01 X83.8020 Y49.1740
G01 X83.8679 Y49.1388
G01 X83.9235 Y49.1055
G01 X83.9856 Y49.0640
G01 X84.0376 Y49.0254
G01 X84.0954 Y48.9780
G01 X84.1434 Y48.9344
G01 X84.1962 Y48.8816
G01 X84.2398 Y48.8336
G01 X84.2872 Y48.7758
G01 X84.3258 Y48.7238
G01 X84.3673 Y48.6617
G01 X84.4006 Y48.6061
G01 X84.4358 Y48.5402
G01 X84.4635 Y48.4816
G01 X84.4921 Y48.4126
G01 X84.5139 Y48.3516
G01 X84.5356 Y48.2801
G01 X84.5514 Y48.2172
G01 X84.5660 Y48.1439
G01 X84.5755 Y48.0798
G01 X84.5828 Y48.0055
G01 X84.5860 Y47.9407
G01 X84.5860 Y47.8660
G01 X84.5828 Y47.8013
G01 X84.5755 Y47.7269
G01 X84.5660 Y47.6628
G01 X84.5514 Y47.5896
G01 X84.5356 Y47.5267
G01 X84.5139 Y47.4552
G01 X84.4921 Y47.3942
G01 X84.4635 Y47.3252
G01 X84.4358 Y47.2666
G01 X84.4006 Y47.2007
G01 X84.3673 Y47.1451
G01 X84.3258 Y47.0830
G01 X84.2872 Y47.0309
G01 X84.2398 Y46.9732
G01 X84.1962 Y46.9252
G01 X84.1434 Y46.8723
G01 X84.0954 Y46.8288
G01 X84.0376 Y46.7814
G01 X83.9856 Y46.7428
G01 X83.9235 Y46.7013
G01 X83.8679 Y46.6680
G01 X83.8020 Y46.6328
G01 X83.7854 Y46.6249
G01 X88.8441 Y46.6249
G01 X88.8276 Y46.6328
G01 X88.7617 Y46.6680
G01 X88.7061 Y46.7013
G01 X88.6440 Y46.7428
G01 X88.5919 Y46.7814
G01 X88.5342 Y46.8288
G01 X88.4862 Y46.8723
G01 X88.4333 Y46.9252
G01 X88.3898 Y46.9732
G01 X88.3424 Y47.0309
G01 X88.3038 Y47.0830
G01 X88.2623 Y47.1451
G01 X88.2290 Y47.2007
G01 X88.1938 Y47.2666
G01 X88.1661 Y47.3252
G01 X88.1375 Y47.3942
G01 X88.1156 Y47.4552
G01 X88.0939 Y47.5267
G01 X88.0782 Y47.5896
G01 X88.0636 Y47.6628
G01 X88.0541 Y47.7269
G01 X88.0468 Y47.8013
G01 X88.0436 Y47.8660
G01 X88.0436 Y47.9407
G01 X88.0468 Y48.0055
G01 X88.0541 Y48.0798
G01 X88.0636 Y48.1439
G01 X88.0782 Y48.2172
G01 X88.0939 Y48.2801
G01 X88.1156 Y48.3516
G01 X88.1375 Y48.4126
G01 X88.1661 Y48.4816
G01 X88.1938 Y48.5402
G01 X88.2290 Y48.6061
G01 X88.2623 Y48.6617
G01 X88.3038 Y48.7238
G01 X88.3424 Y48.7758
G01 X88.3898 Y48.8336
G01 X88.4333 Y48.8816
G01 X88.4862 Y48.9344
G01 X88.5342 Y48.9780
G01 X88.5919 Y49.0254
G01 X88.6440 Y49.0640
G01 X88.7061 Y49.1055
G01 X88.7617 Y49.1388
G01 X88.8276 Y49.1740
G01 X88.8441 Y49.1818
G01 X83.7854 Y49.1818
G00 Z2.0000
G00 X88.8441 Y51.7049
G01 F60.00
G01 Z-0.2001
G01 F320.00
G01 X88.8276 Y51.7128
G01 X88.7617 Y51.7480
G01 X88.7061 Y51.7813
G01 X88.6440 Y51.8228
G01 X88.5919 Y51.8614
G01 X88.5342 Y51.9088
G01 X88.4862 Y51.9523
G01 X88.4333 Y52.0052
G01 X88.3898 Y52.0532
G01 X88.3424 Y52.1109
G01 X88.3038 Y52.1630
G01 X88.2623 Y52.2251
G01 X88.2290 Y52.2807
G01 X88.1938 Y52.3466
G01 X88.1661 Y52.4052
G01 X88.1375 Y52.4742
G01 X88.1156 Y52.5352
G01 X88.0939 Y52.6067
G01 X88.0782 Y52.6696
G01 X88.0636 Y52.7428
G01 X88.0541 Y52.8069
G01 X88.0468 Y52.8813
G01 X88.0436 Y52.9460
G01 X88.0436 Y53.0207
G01 X88.0468 Y53.0855
G01 X88.0541 Y53.1598
G01 X88.0636 Y53.2239
G01 X88.0782 Y53.2972
G01 X88.0939 Y53.3601
G01 X88.1156 Y53.4316
G01 X88.1375 Y53.4926
G01 X88.1661 Y53.5616
G01 X88.1938 Y53.6202
G01 X88.2290 Y53.6861
G01 X88.2623 Y53.7417
G01 X88.3038 Y53.8038
G01 X88.3424 Y53.8558
G01 X88.3898 Y53.9136
G01 X88.4333 Y53.9616
G01 X88.4862 Y54.0144
G01 X88.5342 Y54.0580
G01 X88.5919 Y54.1054
G01 X88.6440 Y54.1440
G01 X88.7061 Y54.1855
G01 X88.7617 Y54.2188
G01 X88.8264 Y54.2534
G01 X88.8106 Y54.2618
G01 X87.5848 Y54.2618
G01 X87.5474 Y54.2628
G01 X87.4984 Y54.2652
G01 X87.4240 Y54.2725
G01 X87.3755 Y54.2797
G01 X87.3022 Y54.2943
G01 X87.2546 Y54.3062
G01 X87.1831 Y54.3279
G01 X87.1369 Y54.3444
G01 X87.0679 Y54.3730
G01 X87.0235 Y54.3940
G01 X86.9576 Y54.4292
G01 X86.9155 Y54.4545
G01 X86.8534 Y54.4960
G01 X86.8139 Y54.5252
G01 X86.7562 Y54.5726
G01 X86.7198 Y54.6056
G01 X86.6670 Y54.6584
G01 X86.6340 Y54.6948
G01 X86.5866 Y54.7525
G01 X86.5574 Y54.7920
G01 X86.5159 Y54.8541
G01 X86.4906 Y54.8962
G01 X86.4554 Y54.9621
G01 X86.4344 Y55.0065
G01 X86.4058 Y55.0755
G01 X86.3893 Y55.1217
G01 X86.3676 Y55.1932
G01 X86.3557 Y55.2408
G01 X86.3411 Y55.3141
G01 X86.3339 Y55.3626
G01 X86.3266 Y55.4370
G01 X86.3242 Y55.4860
G01 X86.3232 Y55.5234
G01 X86.3232 Y57.2112
G01 X86.2982 Y57.2487
G01 X86.2598 Y57.3128
G01 X86.2246 Y57.3787
G01 X86.1926 Y57.4463
G01 X86.1640 Y57.5153
G01 X86.1388 Y57.5857
G01 X86.1171 Y57.6572
G01 X86.0989 Y57.7297
G01 X86.0844 Y57.8030
G01 X86.0734 Y57.8770
G01 X86.0661 Y57.9513
G01 X86.0624 Y58.0260
G01 X86.0624 Y58.1007
G01 X86.0661 Y58.1754
G01 X86.0734 Y58.2498
G01 X86.0844 Y58.3237
G01 X86.0989 Y58.3970
G01 X86.1171 Y58.4696
G01 X86.1388 Y58.5411
G01 X86.1640 Y58.6115
G01 X86.1926 Y58.6805
G01 X86.2246 Y58.7481
G01 X86.2598 Y58.8140
G01 X86.2982 Y58.8781
G01 X86.3232 Y58.9156
G01 X86.3232 Y59.7512
G01 X86.2982 Y59.7887
G01 X86.2598 Y59.8528
G01 X86.2246 Y59.9187
G01 X86.1926 Y59.9863
G01 X86.1640 Y60.0553
G01 X86.1388 Y60.1257
G01 X86.1171 Y60.1972
G01 X86.0989 Y60.2697
G01 X86.0844 Y60.3430
G01 X86.0734 Y60.4170
G01 X86.0661 Y60.4913
G01 X86.0624 Y60.5660
G01 X86.0624 Y60.6407
G01 X86.0661 Y60.7154
G01 X86.0734 Y60.7898
G01 X86.0844 Y60.8637
G01 X86.0989 Y60.9370
G01 X86.1171 Y61.0096
G01 X86.1388 Y61.0811
G01 X86.1640 Y61.1515
G01 X86.1926 Y61.2205
G01 X86.2246 Y61.2881
G01 X86.2598 Y61.3540
G01 X86.2982 Y61.4181
G01 X86.3397 Y61.4802
G01 X86.3843 Y61.5403
G01 X86.4317 Y61.5980
G01 X86.4819 Y61.6535
G01 X86.5347 Y61.7063
G01 X86.5901 Y61.7565
G01 X86.6479 Y61.8039
G01 X86.7079 Y61.8484
G01 X86.7579 Y61.8818
G01 X83.8190 Y61.8818
G01 X83.8020 Y61.8728
G01 X83.7434 Y61.8450
G01 X83.6744 Y61.8165
G01 X83.6134 Y61.7946
G01 X83.5419 Y61.7729
G01 X83.4790 Y61.7572
G01 X83.4057 Y61.7426
G01 X83.3416 Y61.7331
G01 X83.2673 Y61.7258
G01 X83.2025 Y61.7226
G01 X83.1652 Y61.7217
G01 X81.8444 Y61.7217
G01 X81.8070 Y61.7226
G01 X81.7423 Y61.7258
G01 X81.6680 Y61.7331
G01 X81.6038 Y61.7426
G01 X81.5306 Y61.7572
G01 X81.4677 Y61.7729
G01 X81.3962 Y61.7946
G01 X81.3352 Y61.8165
G01 X81.2662 Y61.8450
G01 X81.2263 Y61.8639
G01 X81.2263 Y56.8029
G01 X81.2662 Y56.8217
G01 X81.3352 Y56.8503
G01 X81.3962 Y56.8721
G01 X81.4677 Y56.8938
G01 X81.5306 Y56.9096
G01 X81.6038 Y56.9242
G01 X81.6680 Y56.9337
G01 X81.7423 Y56.9410
G01 X81.8070 Y56.9442
G01 X81.8444 Y56.9451
G01 X83.1652 Y56.9451
G01 X83.2025 Y56.9442
G01 X83.2673 Y56.9410
G01 X83.3416 Y56.9337
G01 X83.4057 Y56.9242
G01 X83.4790 Y56.9096
G01 X83.5419 Y56.8938
G01 X83.6134 Y56.8721
G01 X83.6744 Y56.8503
G01 X83.7434 Y56.8217
G01 X83.8020 Y56.7940
G01 X83.8679 Y56.7588
G01 X83.9235 Y56.7255
G01 X83.9856 Y56.6840
G01 X84.0376 Y56.6454
G01 X84.0954 Y56.5980
G01 X84.1434 Y56.5544
G01 X84.1962 Y56.5016
G01 X84.2398 Y56.4536
G01 X84.2872 Y56.3958
G01 X84.3258 Y56.3438
G01 X84.3673 Y56.2817
G01 X84.4006 Y56.2261
G01 X84.4358 Y56.1602
G01 X84.4635 Y56.1016
G01 X84.4921 Y56.0326
G01 X84.5139 Y55.9716
G01 X84.5356 Y55.9001
G01 X84.5514 Y55.8372
G01 X84.5660 Y55.7639
G01 X84.5755 Y55.6998
G01 X84.5828 Y55.6255
G01 X84.5860 Y55.5607
G01 X84.5860 Y55.4860
G01 X84.5828 Y55.4213
G01 X84.5755 Y55.3469
G01 X84.5660 Y55.2828
G01 X84.5514 Y55.2096
G01 X84.5356 Y55.1467
G01 X84.5139 Y55.0752
G01 X84.4921 Y55.0142
G01 X84.4635 Y54.9452
G01 X84.4358 Y54.8866
G01 X84.4006 Y54.8207
G01 X84.3673 Y54.7651
G01 X84.3258 Y54.7030
G01 X84.2872 Y54.6509
G01 X84.2398 Y54.5932
G01 X84.1962 Y54.5452
G01 X84.1434 Y54.4923
G01 X84.0954 Y54.4488
G01 X84.0376 Y54.4014
G01 X83.9856 Y54.3628
G01 X83.9235 Y54.3213
G01 X83.8679 Y54.2880
G01 X83.8032 Y54.2534
G01 X83.8679 Y54.2188
G01 X83.9235 Y54.1855
G01 X83.9856 Y54.1440
G01 X84.0376 Y54.1054
G01 X84.0954 Y54.0580
G01 X84.1434 Y54.0144
G01 X84.1962 Y53.9616
G01 X84.2398 Y53.9136
G01 X84.2872 Y53.8558
G01 X84.3258 Y53.8038
G01 X84.3673 Y53.7417
G01 X84.4006 Y53.6861
G01 X84.4358 Y53.6202
G01 X84.4635 Y53.5616
G01 X84.4921 Y53.4926
G01 X84.5139 Y53.4316
G01 X84.5356 Y53.3601
G01 X84.5514 Y53.2972
G01 X84.5660 Y53.2239
G01 X84.5755 Y53.1598
G01 X84.5828 Y53.0855
G01 X84.5860 Y53.0207
G01 X84.5860 Y52.9460
G01 X84.5828 Y52.8813
G01 X84.5755 Y52.8069
G01 X84.5660 Y52.7428
G01 X84.5514 Y52.6696
G01 X84.5356 Y52.6067
G01 X84.5139 Y52.5352
G01 X84.4921 Y52.4742
G01 X84.4635 Y52.4052
G01 X84.4358 Y52.3466
G01 X84.4006 Y52.2807
G01 X84.3673 Y52.2251
G01 X84.3258 Y52.1630
G01 X84.2872 Y52.1109
G01 X84.2398 Y52.0532
G01 X84.1962 Y52.0052
G01 X84.1434 Y51.9523
G01 X84.0954 Y51.9088
G01 X84.0376 Y51.8614
G01 X83.9856 Y51.8228
G01 X83.9235 Y51.7813
G01 X83.8679 Y51.7480
G01 X83.8020 Y51.7128
G01 X83.7854 Y51.7049
G01 X88.8441 Y51.7049
G00 Z2.0000
G00 X91.4054 Y46.6249
G01 F60.00
G01 Z-0.2001
G01 F320.00
G01 X93.9241 Y46.6249
G01 X93.9076 Y46.6328
G01 X93.8417 Y46.6680
G01 X93.7861 Y46.7013
G01 X93.7240 Y46.7428
G01 X93.6719 Y46.7814
G01 X93.6142 Y46.8288
G01 X93.5662 Y46.8723
G01 X93.5133 Y46.9252
G01 X93.4698 Y46.9732
G01 X93.4224 Y47.0309
G01 X93.3838 Y47.0830
G01 X93.3423 Y47.1451
G01 X93.3090 Y47.2007
G01 X93.2738 Y47.2666
G01 X93.2461 Y47.3252
G01 X93.2175 Y47.3942
G01 X93.1956 Y47.4552
G01 X93.1739 Y47.5267
G01 X93.1582 Y47.5896
G01 X93.1436 Y47.6628
G01 X93.1341 Y47.7269
G01 X93.1268 Y47.8013
G01 X93.1236 Y47.8660
G01 X93.1236 Y47.9407
G01 X93.1268 Y48.0055
G01 X93.1341 Y48.0798
G01 X93.1436 Y48.1439
G01 X93.1582 Y48.2172
G01 X93.1739 Y48.2801
G01 X93.1956 Y48.3516
G01 X93.2175 Y48.4126
G01 X93.2461 Y48.4816
G01 X93.2738 Y48.5402
G01 X93.3090 Y48.6061
G01 X93.3423 Y48.6617
G01 X93.3838 Y48.7238
G01 X93.4224 Y48.7758
G01 X93.4698 Y48.8336
G01 X93.5133 Y48.8816
G01 X93.5662 Y48.9344
G01 X93.6142 Y48.9780
G01 X93.6719 Y49.0254
G01 X93.7240 Y49.0640
G01 X93.7861 Y49.1055
G01 X93.8417 Y49.1388
G01 X93.9076 Y49.1740
G01 X93.9662 Y49.2017
G01 X94.0352 Y49.2303
G01 X94.0962 Y49.2521
G01 X94.1677 Y49.2738
G01 X94.2306 Y49.2896
G01 X94.3038 Y49.3042
G01 X94.3680 Y49.3137
G01 X94.4423 Y49.3210
G01 X94.5070 Y49.3242
G01 X94.5444 Y49.3251
G01 X94.6227 Y49.3251
G01 X94.5776 Y49.3492
G01 X94.5355 Y49.3745
G01 X94.4734 Y49.4160
G01 X94.4339 Y49.4452
G01 X94.3762 Y49.4926
G01 X94.3398 Y49.5256
G01 X94.2870 Y49.5784
G01 X94.2540 Y49.6148
G01 X94.2066 Y49.6725
G01 X94.1774 Y49.7120
G01 X94.1359 Y49.7741
G01 X94.1106 Y49.8162
G01 X94.0754 Y49.8821
G01 X94.0544 Y49.9265
G01 X94.0258 Y49.9955
G01 X94.0093 Y50.0417
G01 X93.9876 Y50.1132
G01 X93.9757 Y50.1608
G01 X93.9611 Y50.2341
G01 X93.9539 Y50.2826
G01 X93.9466 Y50.3570
G01 X93.9442 Y50.4060
G01 X93.9432 Y50.4434
G01 X93.9432 Y51.6959
G01 X93.9076 Y51.7128
G01 X93.8417 Y51.7480
G01 X93.7861 Y51.7813
G01 X93.7240 Y51.8228
G01 X93.6719 Y51.8614
G01 X93.6142 Y51.9088
G01 X93.5662 Y51.9523
G01 X93.5133 Y52.0052
G01 X93.4698 Y52.0532
G01 X93.4224 Y52.1109
G01 X93.3838 Y52.1630
G01 X93.3423 Y52.2251
G01 X93.3090 Y52.2807
G01 X93.2738 Y52.3466
G01 X93.2461 Y52.4052
G01 X93.2175 Y52.4742
G01 X93.1956 Y52.5352
G01 X93.1739 Y52.6067
G01 X93.1582 Y52.6696
G01 X93.1436 Y52.7428
G01 X93.1341 Y52.8069
G01 X93.1268 Y52.8813
G01 X93.1236 Y52.9460
G01 X93.1236 Y53.0207
G01 X93.1268 Y53.0855
G01 X93.1341 Y53.1598
G01 X93.1436 Y53.2239
G01 X93.1582 Y53.2972
G01 X93.1739 Y53.3601
G01 X93.1956 Y53.4316
G01 X93.2175 Y53.4926
G01 X93.2461 Y53.5616
G01 X93.2738 Y53.6202
G01 X93.3090 Y53.6861
G01 X93.3423 Y53.7417
G01 X93.3838 Y53.8038
G01 X93.4224 Y53.8558
G01 X93.4698 Y53.9136
G01 X93.5133 Y53.9616
G01 X93.5662 Y54.0144
G01 X93.6142 Y54.0580
G01 X93.6719 Y54.1054
G01 X93.7240 Y54.1440
G01 X93.7861 Y54.1855
G01 X93.8417 Y54.2188
G01 X93.9064 Y54.2534
G01 X93.8906 Y54.2618
G01 X92.6648 Y54.2618
G01 X92.6274 Y54.2628
G01 X92.5784 Y54.2652
G01 X92.5040 Y54.2725
G01 X92.4555 Y54.2797
G01 X92.3822 Y54.2943
G01 X92.3346 Y54.3062
G01 X92.2631 Y54.3279
G01 X92.2169 Y54.3444
G01 X92.1479 Y54.3730
G01 X92.1035 Y54.3940
G01 X92.0376 Y54.4292
G01 X91.9955 Y54.4545
G01 X91.9334 Y54.4960
G01 X91.8939 Y54.5252
G01 X91.8390 Y54.5703
G01 X91.8162 Y54.5452
G01 X91.7634 Y54.4923
G01 X91.7154 Y54.4488
G01 X91.6576 Y54.4014
G01 X91.6056 Y54.3628
G01 X91.5435 Y54.3213
G01 X91.4879 Y54.2880
G01 X91.4232 Y54.2534
G01 X91.4879 Y54.2188
G01 X91.5435 Y54.1855
G01 X91.6056 Y54.1440
G01 X91.6576 Y54.1054
G01 X91.7154 Y54.0580
G01 X91.7634 Y54.0144
G01 X91.8162 Y53.9616
G01 X91.8598 Y53.9136
G01 X91.9072 Y53.8558
G01 X91.9458 Y53.8038
G01 X91.9873 Y53.7417
G01 X92.0206 Y53.6861
G01 X92.0558 Y53.6202
G01 X92.0835 Y53.5616
G01 X92.1121 Y53.4926
G01 X92.1339 Y53.4316
G01 X92.1556 Y53.3601
G01 X92.1714 Y53.2972
G01 X92.1860 Y53.2239
G01 X92.1955 Y53.1598
G01 X92.2028 Y53.0855
G01 X92.2060 Y53.0207
G01 X92.2060 Y52.9460
G01 X92.2028 Y52.8813
G01 X92.1955 Y52.8069
G01 X92.1860 Y52.7428
G01 X92.1714 Y52.6696
G01 X92.1556 Y52.6067
G01 X92.1339 Y52.5352
G01 X92.1121 Y52.4742
G01 X92.0835 Y52.4052
G01 X92.0558 Y52.3466
G01 X92.0206 Y52.2807
G01 X91.9873 Y52.2251
G01 X91.9458 Y52.1630
G01 X91.9072 Y52.1109
G01 X91.8598 Y52.0532
G01 X91.8162 Y52.0052
G01 X91.7634 Y51.9523
G01 X91.7154 Y51.9088
G01 X91.6576 Y51.8614
G01 X91.6056 Y51.8228
G01 X91.5435 Y51.7813
G01 X91.4879 Y51.7480
G01 X91.4220 Y51.7128
G01 X91.3634 Y51.6850
G01 X91.2944 Y51.6565
G01 X91.2334 Y51.6346
G01 X91.1619 Y51.6129
G01 X91.0990 Y51.5972
G01 X91.0257 Y51.5826
G01 X90.9616 Y51.5731
G01 X90.8873 Y51.5658
G01 X90.8225 Y51.5626
G01 X90.7852 Y51.5617
G01 X90.7068 Y51.5617
G01 X90.7520 Y51.5376
G01 X90.7941 Y51.5123
G01 X90.8562 Y51.4708
G01 X90.8956 Y51.4416
G01 X90.9534 Y51.3942
G01 X90.9898 Y51.3612
G01 X91.0426 Y51.3084
G01 X91.0756 Y51.2720
G01 X91.1230 Y51.2142
G01 X91.1522 Y51.1748
G01 X91.1937 Y51.1127
G01 X91.2190 Y51.0706
G01 X91.2542 Y51.0047
G01 X91.2752 Y50.9603
G01 X91.3038 Y50.8913
G01 X91.3203 Y50.8451
G01 X91.3420 Y50.7736
G01 X91.3539 Y50.7260
G01 X91.3685 Y50.6527
G01 X91.3757 Y50.6041
G01 X91.3830 Y50.5298
G01 X91.3854 Y50.4807
G01 X91.3863 Y50.4434
G01 X91.3863 Y49.1909
G01 X91.4220 Y49.1740
G01 X91.4879 Y49.1388
G01 X91.5435 Y49.1055
G01 X91.6056 Y49.0640
G01 X91.6576 Y49.0254
G01 X91.7154 Y48.9780
G01 X91.7634 Y48.9344
G01 X91.8162 Y48.8816
G01 X91.8598 Y48.8336
G01 X91.9072 Y48.7758
G01 X91.9458 Y48.7238
G01 X91.9873 Y48.6617
G01 X92.0206 Y48.6061
G01 X92.0558 Y48.5402
G01 X92.0835 Y48.4816
G01 X92.1121 Y48.4126
G01 X92.1339 Y48.3516
G01 X92.1556 Y48.2801
G01 X92.1714 Y48.2172
G01 X92.1860 Y48.1439
G01 X92.1955 Y48.0798
G01 X92.2028 Y48.0055
G01 X92.2060 Y47.9407
G01 X92.2060 Y47.8660
G01 X92.2028 Y47.8013
G01 X92.1955 Y47.7269
G01 X92.1860 Y47.6628
G01 X92.1714 Y47.5896
G01 X92.1556 Y47.5267
G01 X92.1339 Y47.4552
G01 X92.1121 Y47.3942
G01 X92.0835 Y47.3252
G01 X92.0558 Y47.2666
G01 X92.0206 Y47.2007
G01 X91.9873 Y47.1451
G01 X91.9458 Y47.0830
G01 X91.9072 Y47.0309
G01 X91.8598 Y46.9732
G01 X91.8162 Y46.9252
G01 X91.7634 Y46.8723
G01 X91.7154 Y46.8288
G01 X91.6576 Y46.7814
G01 X91.6056 Y46.7428
G01 X91.5435 Y46.7013
G01 X91.4879 Y46.6680
G01 X91.4220 Y46.6328
G01 X91.4054 Y46.6249
G00 Z2.0000
G00 X88.8632 Y43.6503
G01 F60.00
G01 Z-0.2001
G01 F320.00
G01 X88.8632 Y44.1018
G01 X88.8463 Y44.1018
G01 X88.8463 Y43.6756
G01 X88.8632 Y43.6503
G00 Z2.0000
G00 X86.3148 Y43.6629
G01 F60.00
G01 Z-0.2001
G01 F320.00
G01 X86.3232 Y43.6756
G01 X86.3232 Y44.1018
G01 X85.8717 Y44.1018
G01 X85.9216 Y44.0684
G01 X85.9817 Y44.0239
G01 X86.0395 Y43.9765
G01 X86.0949 Y43.9263
G01 X86.1477 Y43.8735
G01 X86.1979 Y43.8180
G01 X86.2453 Y43.7603
G01 X86.2898 Y43.7002
G01 X86.3148 Y43.6629
G00 Z2.0000
G00 X96.4854 Y49.1818
G01 F60.00
G01 Z-0.2001
G01 F320.00
G01 X96.5020 Y49.1740
G01 X96.5679 Y49.1388
G01 X96.6235 Y49.1055
G01 X96.6856 Y49.0640
G01 X96.7376 Y49.0254
G01 X96.7954 Y48.9780
G01 X96.8434 Y48.9344
G01 X96.8962 Y48.8816
G01 X96.9398 Y48.8336
G01 X96.9872 Y48.7758
G01 X97.0258 Y48.7238
G01 X97.0673 Y48.6617
G01 X97.1006 Y48.6061
G01 X97.1358 Y48.5402
G01 X97.1635 Y48.4816
G01 X97.1921 Y48.4126
G01 X97.2139 Y48.3516
G01 X97.2356 Y48.2801
G01 X97.2514 Y48.2172
G01 X97.2660 Y48.1439
G01 X97.2755 Y48.0798
G01 X97.2828 Y48.0055
G01 X97.2860 Y47.9407
G01 X97.2860 Y47.8660
G01 X97.2828 Y47.8013
G01 X97.2755 Y47.7269
G01 X97.2660 Y47.6628
G01 X97.2514 Y47.5896
G01 X97.2356 Y47.5267
G01 X97.2139 Y47.4552
G01 X97.1921 Y47.3942
G01 X97.1635 Y47.3252
G01 X97.1358 Y47.2666
G01 X97.1006 Y47.2007
G01 X97.0673 Y47.1451
G01 X97.0258 Y47.0830
G01 X96.9872 Y47.0309
G01 X96.9398 Y46.9732
G01 X96.8962 Y46.9252
G01 X96.8434 Y46.8723
G01 X96.7954 Y46.8288
G01 X96.7376 Y46.7814
G01 X96.6856 Y46.7428
G01 X96.6235 Y46.7013
G01 X96.5679 Y46.6680
G01 X96.5020 Y46.6328
G01 X96.4854 Y46.6249
G01 X101.5441 Y46.6249
G01 X101.5276 Y46.6328
G01 X101.4617 Y46.6680
G01 X101.4061 Y46.7013
G01 X101.3440 Y46.7428
G01 X101.2919 Y46.7814
G01 X101.2342 Y46.8288
G01 X101.1862 Y46.8723
G01 X101.1333 Y46.9252
G01 X101.0898 Y46.9732
G01 X101.0424 Y47.0309
G01 X101.0038 Y47.0830
G01 X100.9623 Y47.1451
G01 X100.9290 Y47.2007
G01 X100.8938 Y47.2666
G01 X100.8661 Y47.3252
G01 X100.8375 Y47.3942
G01 X100.8156 Y47.4552
G01 X100.7939 Y47.5267
G01 X100.7782 Y47.5896
G01 X100.7636 Y47.6628
G01 X100.7541 Y47.7269
G01 X100.7468 Y47.8013
G01 X100.7436 Y47.8660
G01 X100.7436 Y47.9407
G01 X100.7468 Y48.0055
G01 X100.7541 Y48.0798
G01 X100.7636 Y48.1439
G01 X100.7782 Y48.2172
G01 X100.7939 Y48.2801
G01 X100.8156 Y48.3516
G01 X100.8375 Y48.4126
G01 X100.8661 Y48.4816
G01 X100.8938 Y48.5402
G01 X100.9290 Y48.6061
G01 X100.9623 Y48.6617
G01 X101.0038 Y48.7238
G01 X101.0424 Y48.7758
G01 X101.0898 Y48.8336
G01 X101.1333 Y48.8816
G01 X101.1862 Y48.9344
G01 X101.2342 Y48.9780
G01 X101.2919 Y49.0254
G01 X101.3440 Y49.0640
G01 X101.4061 Y49.1055
G01 X101.4617 Y49.1388
G01 X101.5276 Y49.1740
G01 X101.5441 Y49.1818
G01 X96.4854 Y49.1818
G00 Z2.0000
G00 X101.5441 Y51.7049
G01 F60.00
G01 Z-0.2001
G01 F320.00
G01 X101.5276 Y51.7128
G01 X101.4617 Y51.7480
G01 X101.4061 Y51.7813
G01 X101.3440 Y51.8228
G01 X101.2919 Y51.8614
G01 X101.2342 Y51.9088
G01 X101.1862 Y51.9523
G01 X101.1333 Y52.0052
G01 X101.0898 Y52.0532
G01 X101.0424 Y52.1109
G01 X101.0038 Y52.1630
G01 X100.9623 Y52.2251
G01 X100.9290 Y52.2807
G01 X100.8938 Y52.3466
G01 X100.8661 Y52.4052
G01 X100.8375 Y52.4742
G01 X100.8156 Y52.5352
G01 X100.7939 Y52.6067
G01 X100.7782 Y52.6696
G01 X100.7636 Y52.7428
G01 X100.7541 Y52.8069
G01 X100.7468 Y52.8813
G01 X100.7436 Y52.9460
G01 X100.7436 Y53.0207
G01 X100.7468 Y53.0855
G01 X100.7541 Y53.1598
G01 X100.7636 Y53.2239
G01 X100.7782 Y53.2972
G01 X100.7939 Y53.3601
G01 X100.8156 Y53.4316
G01 X100.8375 Y53.4926
G01 X100.8661 Y53.5616
G01 X100.8938 Y53.6202
G01 X100.9290 Y53.6861
G01 X100.9623 Y53.7417
G01 X101.0038 Y53.8038
G01 X101.0424 Y53.8558
G01 X101.0898 Y53.9136
G01 X101.1333 Y53.9616
G01 X101.1862 Y54.0144
G01 X101.2342 Y54.0580
G01 X101.2919 Y54.1054
G01 X101.3440 Y54.1440
G01 X101.4061 Y54.1855
G01 X101.4617 Y54.2188
G01 X101.5264 Y54.2534
G01 X101.5106 Y54.2618
G01 X100.2848 Y54.2618
G01 X100.2474 Y54.2628
G01 X100.1984 Y54.2652
G01 X100.1240 Y54.2725
G01 X100.0755 Y54.2797
G01 X100.0022 Y54.2943
G01 X99.9546 Y54.3062
G01 X99.8831 Y54.3279
G01 X99.8369 Y54.3444
G01 X99.7679 Y54.3730
G01 X99.7235 Y54.3940
G01 X99.6576 Y54.4292
G01 X99.6155 Y54.4545
G01 X99.5534 Y54.4960
G01 X99.5139 Y54.5252
G01 X99.4562 Y54.5726
G01 X99.4198 Y54.6056
G01 X99.3670 Y54.6584
G01 X99.3340 Y54.6948
G01 X99.2866 Y54.7525
G01 X99.2574 Y54.7920
G01 X99.2159 Y54.8541
G01 X99.1906 Y54.8962
G01 X99.1554 Y54.9621
G01 X99.1344 Y55.0065
G01 X99.1058 Y55.0755
G01 X99.0893 Y55.1217
G01 X99.0676 Y55.1932
G01 X99.0557 Y55.2408
G01 X99.0411 Y55.3141
G01 X99.0339 Y55.3626
G01 X99.0266 Y55.4370
G01 X99.0242 Y55.4860
G01 X99.0232 Y55.5234
G01 X99.0232 Y57.2112
G01 X98.9982 Y57.2487
G01 X98.9598 Y57.3128
G01 X98.9246 Y57.3787
G01 X98.8926 Y57.4463
G01 X98.8640 Y57.5153
G01 X98.8388 Y57.5857
G01 X98.8171 Y57.6572
G01 X98.7989 Y57.7297
G01 X98.7844 Y57.8030
G01 X98.7734 Y57.8770
G01 X98.7661 Y57.9513
G01 X98.7624 Y58.0260
G01 X98.7624 Y58.1007
G01 X98.7661 Y58.1754
G01 X98.7734 Y58.2498
G01 X98.7844 Y58.3237
G01 X98.7989 Y58.3970
G01 X98.8171 Y58.4696
G01 X98.8388 Y58.5411
G01 X98.8640 Y58.6115
G01 X98.8926 Y58.6805
G01 X98.9246 Y58.7481
G01 X98.9598 Y58.8140
G01 X98.9982 Y58.8781
G01 X99.0232 Y58.9156
G01 X99.0232 Y59.7512
G01 X98.9982 Y59.7887
G01 X98.9598 Y59.8528
G01 X98.9246 Y59.9187
G01 X98.8926 Y59.9863
G01 X98.8640 Y60.0553
G01 X98.8388 Y60.1257
G01 X98.8171 Y60.1972
G01 X98.7989 Y60.2697
G01 X98.7844 Y60.3430
G01 X98.7734 Y60.4170
G01 X98.7661 Y60.4913
G01 X98.7624 Y60.5660
G01 X98.7624 Y60.6407
G01 X98.7661 Y60.7154
G01 X98.7734 Y60.7898
G01 X98.7844 Y60.8637
G01 X98.7989 Y60.9370
G01 X98.8171 Y61.0096
G01 X98.8388 Y61.0811
G01 X98.8640 Y61.1515
G01 X98.8926 Y61.2205
G01 X98.9246 Y61.2881
G01 X98.9598 Y61.3540
G01 X98.9982 Y61.4181
G01 X99.0397 Y61.4802
G01 X99.0843 Y61.5403
G01 X99.1317 Y61.5980
G01 X99.1819 Y61.6535
G01 X99.2347 Y61.7063
G01 X99.2901 Y61.7565
G01 X99.3479 Y61.8039
G01 X99.4079 Y61.8484
G01 X99.4579 Y61.8818
G01 X96.5190 Y61.8818
G01 X96.5020 Y61.8728
G01 X96.4434 Y61.8450
G01 X96.3744 Y61.8165
G01 X96.3134 Y61.7946
G01 X96.2419 Y61.7729
G01 X96.1790 Y61.7572
G01 X96.1057 Y61.7426
G01 X96.0416 Y61.7331
G01 X95.9673 Y61.7258
G01 X95.9025 Y61.7226
G01 X95.8652 Y61.7217
G01 X94.5444 Y61.7217
G01 X94.5070 Y61.7226
G01 X94.4423 Y61.7258
G01 X94.3680 Y61.7331
G01 X94.3038 Y61.7426
G01 X94.2306 Y61.7572
G01 X94.1677 Y61.7729
G01 X94.0962 Y61.7946
G01 X94.0352 Y61.8165
G01 X93.9662 Y61.8450
G01 X93.9263 Y61.8639
G01 X93.9263 Y56.8029
G01 X93.9662 Y56.8217
G01 X94.0352 Y56.8503
G01 X94.0962 Y56.8721
G01 X94.1677 Y56.8938
G01 X94.2306 Y56.9096
G01 X94.3038 Y56.9242
G01 X94.3680 Y56.9337
G01 X94.4423 Y56.9410
G01 X94.5070 Y56.9442
G01 X94.5444 Y56.9451
G01 X95.8652 Y56.9451
G01 X95.9025 Y56.9442
G01 X95.9673 Y56.9410
G01 X96.0416 Y56.9337
G01 X96.1057 Y56.9242
G01 X96.1790 Y56.9096
G01 X96.2419 Y56.8938
G01 X96.3134 Y56.8721
G01 X96.3744 Y56.8503
G01 X96.4434 Y56.8217
G01 X96.5020 Y56.7940
G01 X96.5679 Y56.7588
G01 X96.6235 Y56.7255
G01 X96.6856 Y56.6840
G01 X96.7376 Y56.6454
G01 X96.7954 Y56.5980
G01 X96.8434 Y56.5544
G01 X96.8962 Y56.5016
G01 X96.9398 Y56.4536
G01 X96.9872 Y56.3958
G01 X97.0258 Y56.3438
G01 X97.0673 Y56.2817
G01 X97.1006 Y56.2261
G01 X97.1358 Y56.1602
G01 X97.1635 Y56.1016
G01 X97.1921 Y56.0326
G01 X97.2139 Y55.9716
G01 X97.2356 Y55.9001
G01 X97.2514 Y55.8372
G01 X97.2660 Y55.7639
G01 X97.2755 Y55.6998
G01 X97.2828 Y55.6255
G01 X97.2860 Y55.5607
G01 X97.2860 Y55.4860
G01 X97.2828 Y55.4213
G01 X97.2755 Y55.3469
G01 X97.2660 Y55.2828
G01 X97.2514 Y55.2096
G01 X97.2356 Y55.1467
G01 X97.2139 Y55.0752
G01 X97.1921 Y55.0142
G01 X97.1635 Y54.9452
G01 X97.1358 Y54.8866
G01 X97.1006 Y54.8207
G01 X97.0673 Y54.7651
G01 X97.0258 Y54.7030
G01 X96.9872 Y54.6509
G01 X96.9398 Y54.5932
G01 X96.8962 Y54.5452
G01 X96.8434 Y54.4923
G01 X96.7954 Y54.4488
G01 X96.7376 Y54.4014
G01 X96.6856 Y54.3628
G01 X96.6235 Y54.3213
G01 X96.5679 Y54.2880
G01 X96.5032 Y54.2534
G01 X96.5679 Y54.2188
G01 X96.6235 Y54.1855
G01 X96.6856 Y54.1440
G01 X96.7376 Y54.1054
G01 X96.7954 Y54.0580
G01 X96.8434 Y54.0144
G01 X96.8962 Y53.9616
G01 X96.9398 Y53.9136
G01 X96.9872 Y53.8558
G01 X97.0258 Y53.8038
G01 X97.0673 Y53.7417
G01 X97.1006 Y53.6861
G01 X97.1358 Y53.6202
G01 X97.1635 Y53.5616
G01 X97.1921 Y53.4926
G01 X97.2139 Y53.4316
G01 X97.2356 Y53.3601
G01 X97.2514 Y53.2972
G01 X97.2660 Y53.2239
G01 X97.2755 Y53.1598
G01 X97.2828 Y53.0855
G01 X97.2860 Y53.0207
G01 X97.2860 Y52.9460
G01 X97.2828 Y52.8813
G01 X97.2755 Y52.8069
G01 X97.2660 Y52.7428
G01 X97.2514 Y52.6696
G01 X97.2356 Y52.6067
G01 X97.2139 Y52.5352
G01 X97.1921 Y52.4742
G01 X97.1635 Y52.4052
G01 X97.1358 Y52.3466
G01 X97.1006 Y52.2807
G01 X97.0673 Y52.2251
G01 X97.0258 Y52.1630
G01 X96.9872 Y52.1109
G01 X96.9398 Y52.0532
G01 X96.8962 Y52.0052
G01 X96.8434 Y51.9523
G01 X96.7954 Y51.9088
G01 X96.7376 Y51.8614
G01 X96.6856 Y51.8228
G01 X96.6235 Y51.7813
G01 X96.5679 Y51.7480
G01 X96.5020 Y51.7128
G01 X96.4854 Y51.7049
G01 X101.5441 Y51.7049
G00 Z2.0000
G00 X104.1054 Y46.6249
G01 F60.00
G01 Z-0.2001
G01 F320.00
G01 X106.6241 Y46.6249
G01 X106.6076 Y46.6328
G01 X106.5417 Y46.6680
G01 X106.4861 Y46.7013
G01 X106.4240 Y46.7428
G01 X106.3719 Y46.7814
G01 X106.3142 Y46.8288
G01 X106.2662 Y46.8723
G01 X106.2133 Y46.9252
G01 X106.1698 Y46.9732
G01 X106.1224 Y47.0309
G01 X106.0838 Y47.0830
G01 X106.0423 Y47.1451
G01 X106.0090 Y47.2007
G01 X105.9738 Y47.2666
G01 X105.9461 Y47.3252
G01 X105.9175 Y47.3942
G01 X105.8956 Y47.4552
G01 X105.8739 Y47.5267
G01 X105.8582 Y47.5896
G01 X105.8436 Y47.6628
G01 X105.8341 Y47.7269
G01 X105.8268 Y47.8013
G01 X105.8236 Y47.8660
G01 X105.8236 Y47.9407
G01 X105.8268 Y48.0055
G01 X105.8341 Y48.0798
G01 X105.8436 Y48.1439
G01 X105.8582 Y48.2172
G01 X105.8739 Y48.2801
G01 X105.8956 Y48.3516
G01 X105.9175 Y48.4126
G01 X105.9461 Y48.4816
G01 X105.9738 Y48.5402
G01 X106.0090 Y48.6061
G01 X106.0423 Y48.6617
G01 X106.0838 Y48.7238
G01 X106.1224 Y48.7758
G01 X106.1698 Y48.8336
G01 X106.2133 Y48.8816
G01 X106.2662 Y48.9344
G01 X106.3142 Y48.9780
G01 X106.3719 Y49.0254
G01 X106.4240 Y49.0640
G01 X106.4861 Y49.1055
G01 X106.5417 Y49.1388
G01 X106.6076 Y49.1740
G01 X106.6662 Y49.2017
G01 X106.7352 Y49.2303
G01 X106.7962 Y49.2521
G01 X106.8677 Y49.2738
G01 X106.9306 Y49.2896
G01 X107.0038 Y49.3042
G01 X107.0680 Y49.3137
G01 X107.1423 Y49.3210
G01 X107.2070 Y49.3242
G01 X107.2444 Y49.3251
G01 X107.3227 Y49.3251
G01 X107.2776 Y49.3492
G01 X107.2355 Y49.3745
G01 X107.1734 Y49.4160
G01 X107.1339 Y49.4452
G01 X107.0762 Y49.4926
G01 X107.0398 Y49.5256
G01 X106.9870 Y49.5784
G01 X106.9540 Y49.6148
G01 X106.9066 Y49.6725
G01 X106.8774 Y49.7120
G01 X106.8359 Y49.7741
G01 X106.8106 Y49.8162
G01 X106.7754 Y49.8821
G01 X106.7544 Y49.9265
G01 X106.7258 Y49.9955
G01 X106.7093 Y50.0417
G01 X106.6876 Y50.1132
G01 X106.6757 Y50.1608
G01 X106.6611 Y50.2341
G01 X106.6539 Y50.2826
G01 X106.6466 Y50.3570
G01 X106.6442 Y50.4060
G01 X106.6432 Y50.4434
G01 X106.6432 Y51.6959
G01 X106.6076 Y51.7128
G01 X106.5417 Y51.7480
G01 X106.4861 Y51.7813
G01 X106.4240 Y51.8228
G01 X106.3719 Y51.8614
G01 X106.3142 Y51.9088
G01 X106.2662 Y51.9523
G01 X106.2133 Y52.0052
G01 X106.1698 Y52.0532
G01 X106.1224 Y52.1109
G01 X106.0838 Y52.1630
G01 X106.0423 Y52.2251
G01 X106.0090 Y52.2807
G01 X105.9738 Y52.3466
G01 X105.9461 Y52.4052
G01 X105.9175 Y52.4742
G01 X105.8956 Y52.5352
G01 X105.8739 Y52.6067
G01 X105.8582 Y52.6696
G01 X105.8436 Y52.7428
G01 X105.8341 Y52.8069
G01 X105.8268 Y52.8813
G01 X105.8236 Y52.9460
G01 X105.8236 Y53.0207
G01 X105.8268 Y53.0855
G01 X105.8341 Y53.1598
G01 X105.8436 Y53.2239
G01 X105.8582 Y53.2972
G01 X105.8739 Y53.3601
G01 X105.8956 Y53.4316
G01 X105.9175 Y53.4926
G01 X105.9461 Y53.5616
G01 X105.9738 Y53.6202
G01 X106.0090 Y53.6861
G01 X106.0423 Y53.7417
G01 X106.0838 Y53.8038
G01 X106.1224 Y53.8558
G01 X106.1698 Y53.9136
G01 X106.2133 Y53.9616
G01 X106.2662 Y54.0144
G01 X106.3142 Y54.0580
G01 X106.3719 Y54.1054
G01 X106.4240 Y54.1440
G01 X106.4861 Y54.1855
G01 X106.5417 Y54.2188
G01 X106.6064 Y54.2534
G01 X106.5906 Y54.2618
G01 X105.3648 Y54.2618
G01 X105.3274 Y54.2628
G01 X105.2784 Y54.2652
G01 X105.2040 Y54.2725
G01 X105.1555 Y54.2797
G01 X105.0822 Y54.2943
G01 X105.0346 Y54.3062
G01 X104.9631 Y54.3279
G01 X104.9169 Y54.3444
G01 X104.8479 Y54.3730
G01 X104.8035 Y54.3940
G01 X104.7376 Y54.4292
G01 X104.6955 Y54.4545
G01 X104.6334 Y54.4960
G01 X104.5939 Y54.5252
G01 X104.5390 Y54.5703
G01 X104.5162 Y54.5452
G01 X104.4634 Y54.4923
G01 X104.4154 Y54.4488
G01 X104.3576 Y54.4014
G01 X104.3056 Y54.3628
G01 X104.2435 Y54.3213
G01 X104.1879 Y54.2880
G01 X104.1232 Y54.2534
G01 X104.1879 Y54.2188
G01 X104.2435 Y54.1855
G01 X104.3056 Y54.1440
G01 X104.3576 Y54.1054
G01 X104.4154 Y54.0580
G01 X104.4634 Y54.0144
G01 X104.5162 Y53.9616
G01 X104.5598 Y53.9136
G01 X104.6072 Y53.8558
G01 X104.6458 Y53.8038
G01 X104.6873 Y53.7417
G01 X104.7206 Y53.6861
G01 X104.7558 Y53.6202
G01 X104.7835 Y53.5616
G01 X104.8121 Y53.4926
G01 X104.8339 Y53.4316
G01 X104.8556 Y53.3601
G01 X104.8714 Y53.2972
G01 X104.8860 Y53.2239
G01 X104.8955 Y53.1598
G01 X104.9028 Y53.0855
G01 X104.9060 Y53.0207
G01 X104.9060 Y52.9460
G01 X104.9028 Y52.8813
G01 X104.8955 Y52.8069
G01 X104.8860 Y52.7428
G01 X104.8714 Y52.6696
G01 X104.8556 Y52.6067
G01 X104.8339 Y52.5352
G01 X104.8121 Y52.4742
G01 X104.7835 Y52.4052
G01 X104.7558 Y52.3466
G01 X104.7206 Y52.2807
G01 X104.6873 Y52.2251
G01 X104.6458 Y52.1630
G01 X104.6072 Y52.1109
G01 X104.5598 Y52.0532
G01 X104.5162 Y52.0052
G01 X104.4634 Y51.9523
G01 X104.4154 Y51.9088
G01 X104.3576 Y51.8614
G01 X104.3056 Y51.8228
G01 X104.2435 Y51.7813
G01 X104.1879 Y51.7480
G01 X104.1220 Y51.7128
G01 X104.0634 Y51.6850
G01 X103.9944 Y51.6565
G01 X103.9334 Y51.6346
G01 X103.8619 Y51.6129
G01 X103.7990 Y51.5972
G01 X103.7257 Y51.5826
G01 X103.6616 Y51.5731
G01 X103.5873 Y51.5658
G01 X103.5225 Y51.5626
G01 X103.4852 Y51.5617
G01 X103.4068 Y51.5617
G01 X103.4520 Y51.5376
G01 X103.4941 Y51.5123
G01 X103.5562 Y51.4708
G01 X103.5956 Y51.4416
G01 X103.6534 Y51.3942
G01 X103.6898 Y51.3612
G01 X103.7426 Y51.3084
G01 X103.7756 Y51.2720
G01 X103.8230 Y51.2142
G01 X103.8522 Y51.1748
G01 X103.8937 Y51.1127
G01 X103.9190 Y51.0706
G01 X103.9542 Y51.0047
G01 X103.9752 Y50.9603
G01 X104.0038 Y50.8913
G01 X104.0203 Y50.8451
G01 X104.0420 Y50.7736
G01 X104.0539 Y50.7260
G01 X104.0685 Y50.6527
G01 X104.0757 Y50.6041
G01 X104.0830 Y50.5298
G01 X104.0854 Y50.4807
G01 X104.0863 Y50.4434
G01 X104.0863 Y49.1909
G01 X104.1220 Y49.1740
G01 X104.1879 Y49.1388
G01 X104.2435 Y49.1055
G01 X104.3056 Y49.0640
G01 X104.3576 Y49.0254
G01 X104.4154 Y48.9780
G01 X104.4634 Y48.9344
G01 X104.5162 Y48.8816
G01 X104.5598 Y48.8336
G01 X104.6072 Y48.7758
G01 X104.6458 Y48.7238
G01 X104.6873 Y48.6617
G01 X104.7206 Y48.6061
G01 X104.7558 Y48.5402
G01 X104.7835 Y48.4816
G01 X104.8121 Y48.4126
G01 X104.8339 Y48.3516
G01 X104.8556 Y48.2801
G01 X104.8714 Y48.2172
G01 X104.8860 Y48.1439
G01 X104.8955 Y48.0798
G01 X104.9028 Y48.0055
G01 X104.9060 Y47.9407
G01 X104.9060 Y47.8660
G01 X104.9028 Y47.8013
G01 X104.8955 Y47.7269
G01 X104.8860 Y47.6628
G01 X104.8714 Y47.5896
G01 X104.8556 Y47.5267
G01 X104.8339 Y47.4552
G01 X104.8121 Y47.3942
G01 X104.7835 Y47.3252
G01 X104.7558 Y47.2666
G01 X104.7206 Y47.2007
G01 X104.6873 Y47.1451
G01 X104.6458 Y47.0830
G01 X104.6072 Y47.0309
G01 X104.5598 Y46.9732
G01 X104.5162 Y46.9252
G01 X104.4634 Y46.8723
G01 X104.4154 Y46.8288
G01 X104.3576 Y46.7814
G01 X104.3056 Y46.7428
G01 X104.2435 Y46.7013
G01 X104.1879 Y46.6680
G01 X104.1220 Y46.6328
G01 X104.1054 Y46.6249
G00 Z2.0000
G00 X101.5632 Y43.6503
G01 F60.00
G01 Z-0.2001
G01 F320.00
G01 X101.5632 Y44.1018
G01 X101.5463 Y44.1018
G01 X101.5463 Y43.6756
G01 X101.5632 Y43.6503
G00 Z2.0000
G00 X99.0148 Y43.6629
G01 F60.00
G01 Z-0.2001
G01 F320.00
G01 X99.0232 Y43.6756
G01 X99.0232 Y44.1018
G01 X98.5717 Y44.1018
G01 X98.6216 Y44.0684
G01 X98.6817 Y44.0239
G01 X98.7395 Y43.9765
G01 X98.7949 Y43.9263
G01 X98.8477 Y43.8735
G01 X98.8979 Y43.8180
G01 X98.9453 Y43.7603
G01 X98.9898 Y43.7002
G01 X99.0148 Y43.6629
G00 Z2.0000
G00 X109.1854 Y49.1818
G01 F60.00
G01 Z-0.2001
G01 F320.00
G01 X109.2020 Y49.1740
G01 X109.2679 Y49.1388
G01 X109.3235 Y49.1055
G01 X109.3856 Y49.0640
G01 X109.4376 Y49.0254
G01 X109.4954 Y48.9780
G01 X109.5434 Y48.9344
G01 X109.5962 Y48.8816
G01 X109.6398 Y48.8336
G01 X109.6872 Y48.7758
G01 X109.7258 Y48.7238
G01 X109.7673 Y48.6617
G01 X109.8006 Y48.6061
G01 X109.8358 Y48.5402
G01 X109.8635 Y48.4816
G01 X109.8921 Y48.4126
G01 X109.9139 Y48.3516
G01 X109.9356 Y48.2801
G01 X109.9514 Y48.2172
G01 X109.9660 Y48.1439
G01 X109.9755 Y48.0798
G01 X109.9828 Y48.0055
G01 X109.9860 Y47.9407
G01 X109.9860 Y47.8660
G01 X109.9828 Y47.8013
G01 X109.9755 Y47.7269
G01 X109.9660 Y47.6628
G01 X109.9514 Y47.5896
G01 X109.9356 Y47.5267
G01 X109.9139 Y47.4552
G01 X109.8921 Y47.3942
G01 X109.8635 Y47.3252
G01 X109.8358 Y47.2666
G01 X109.8006 Y47.2007
G01 X109.7673 Y47.1451
G01 X109.7258 Y47.0830
G01 X109.6872 Y47.0309
G01 X109.6398 Y46.9732
G01 X109.5962 Y46.9252
G01 X109.5434 Y46.8723
G01 X109.4954 Y46.8288
G01 X109.4376 Y46.7814
G01 X109.3856 Y46.7428
G01 X109.3235 Y46.7013
G01 X109.2679 Y46.6680
G01 X109.2020 Y46.6328
G01 X109.1854 Y46.6249
G01 X114.2441 Y46.6249
G01 X114.2276 Y46.6328
G01 X114.1617 Y46.6680
G01 X114.1061 Y46.7013
G01 X114.0440 Y46.7428
G01 X113.9919 Y46.7814
G01 X113.9342 Y46.8288
G01 X113.8862 Y46.8723
G01 X113.8333 Y46.9252
G01 X113.7898 Y46.9732
G01 X113.7424 Y47.0309
G01 X113.7038 Y47.0830
G01 X113.6623 Y47.1451
G01 X113.6290 Y47.2007
G01 X113.5938 Y47.2666
G01 X113.5661 Y47.3252
G01 X113.5375 Y47.3942
G01 X113.5156 Y47.4552
G01 X113.4939 Y47.5267
G01 X113.4782 Y47.5896
G01 X113.4636 Y47.6628
G01 X113.4541 Y47.7269
G01 X113.4468 Y47.8013
G01 X113.4436 Y47.8660
G01 X113.4436 Y47.9407
G01 X113.4468 Y48.0055
G01 X113.4541 Y48.0798
G01 X113.4636 Y48.1439
G01 X113.4782 Y48.2172
G01 X113.4939 Y48.2801
G01 X113.5156 Y48.3516
G01 X113.5375 Y48.4126
G01 X113.5661 Y48.4816
G01 X113.5938 Y48.5402
G01 X113.6290 Y48.6061
G01 X113.6623 Y48.6617
G01 X113.7038 Y48.7238
G01 X113.7424 Y48.7758
G01 X113.7898 Y48.8336
G01 X113.8333 Y48.8816
G01 X113.8862 Y48.9344
G01 X113.9342 Y48.9780
G01 X113.9919 Y49.0254
G01 X114.0440 Y49.0640
G01 X114.1061 Y49.1055
G01 X114.1617 Y49.1388
G01 X114.2276 Y49.1740
G01 X114.2441 Y49.1818
G01 X109.1854 Y49.1818
G00 Z2.0000
G00 X114.2441 Y51.7049
G01 F60.00
G01 Z-0.2001
G01 F320.00
G01 X114.2276 Y51.7128
G01 X114.1617 Y51.7480
G01 X114.1061 Y51.7813
G01 X114.0440 Y51.8228
G01 X113.9919 Y51.8614
G01 X113.9342 Y51.9088
G01 X113.8862 Y51.9523
G01 X113.8333 Y52.0052
G01 X113.7898 Y52.0532
G01 X113.7424 Y52.1109
G01 X113.7038 Y52.1630
G01 X113.6623 Y52.2251
G01 X113.6290 Y52.2807
G01 X113.5938 Y52.3466
G01 X113.5661 Y52.4052
G01 X113.5375 Y52.4742
G01 X113.5156 Y52.5352
G01 X113.4939 Y52.6067
G01 X113.4782 Y52.6696
G01 X113.4636 Y52.7428
G01 X113.4541 Y52.8069
G01 X113.4468 Y52.8813
G01 X113.4436 Y52.9460
G01 X113.4436 Y53.0207
G01 X113.4468 Y53.0855
G01 X113.4541 Y53.1598
G01 X113.4636 Y53.2239
G01 X113.4782 Y53.2972
G01 X113.4939 Y53.3601
G01 X113.5156 Y53.4316
G01 X113.5375 Y53.4926
G01 X113.5661 Y53.5616
G01 X113.5938 Y53.6202
G01 X113.6290 Y53.6861
G01 X113.6623 Y53.7417
G01 X113.7038 Y53.8038
G01 X113.7424 Y53.8558
G01 X113.7898 Y53.9136
G01 X113.8333 Y53.9616
G01 X113.8862 Y54.0144
G01 X113.9342 Y54.0580
G01 X113.9919 Y54.1054
G01 X114.0440 Y54.1440
G01 X114.1061 Y54.1855
G01 X114.1617 Y54.2188
G01 X114.2264 Y54.2534
G01 X114.2106 Y54.2618
G01 X112.9848 Y54.2618
G01 X112.9474 Y54.2628
G01 X112.8984 Y54.2652
G01 X112.8240 Y54.2725
G01 X112.7755 Y54.2797
G01 X112.7022 Y54.2943
G01 X112.6546 Y54.3062
G01 X112.5831 Y54.3279
G01 X112.5369 Y54.3444
G01 X112.4679 Y54.3730
G01 X112.4235 Y54.3940
G01 X112.3576 Y54.4292
G01 X112.3155 Y54.4545
G01 X112.2534 Y54.4960
G01 X112.2139 Y54.5252
G01 X112.1562 Y54.5726
G01 X112.1198 Y54.6056
G01 X112.0670 Y54.6584
G01 X112.0340 Y54.6948
G01 X111.9866 Y54.7525
G01 X111.9574 Y54.7920
G01 X111.9159 Y54.8541
G01 X111.8906 Y54.8962
G01 X111.8554 Y54.9621
G01 X111.8344 Y55.0065
G01 X111.8058 Y55.0755
G01 X111.7893 Y55.1217
G01 X111.7676 Y55.1932
G01 X111.7557 Y55.2408
G01 X111.7411 Y55.3141
G01 X111.7339 Y55.3626
G01 X111.7266 Y55.4370
G01 X111.7242 Y55.4860
G01 X111.7232 Y55.5234
G01 X111.7232 Y57.2112
G01 X111.6982 Y57.2487
G01 X111.6598 Y57.3128
G01 X111.6246 Y57.3787
G01 X111.5926 Y57.4463
G01 X111.5640 Y57.5153
G01 X111.5388 Y57.5857
G01 X111.5171 Y57.6572
G01 X111.4989 Y57.7297
G01 X111.4844 Y57.8030
G01 X111.4734 Y57.8770
G01 X111.4661 Y57.9513
G01 X111.4624 Y58.0260
G01 X111.4624 Y58.1007
G01 X111.4661 Y58.1754
G01 X111.4734 Y58.2498
G01 X111.4844 Y58.3237
G01 X111.4989 Y58.3970
G01 X111.5171 Y58.4696
G01 X111.5388 Y58.5411
G01 X111.5640 Y58.6115
G01 X111.5926 Y58.6805
G01 X111.6246 Y58.7481
G01 X111.6598 Y58.8140
G01 X111.6982 Y58.8781
G01 X111.7232 Y58.9156
G01 X111.7232 Y59.7512
G01 X111.6982 Y59.7887
G01 X111.6598 Y59.8528
G01 X111.6246 Y59.9187
G01 X111.5926 Y59.9863
G01 X111.5640 Y60.0553
G01 X111.5388 Y60.1257
G01 X111.5171 Y60.1972
G01 X111.4989 Y60.2697
G01 X111.4844 Y60.3430
G01 X111.4734 Y60.4170
G01 X111.4661 Y60.4913
G01 X111.4624 Y60.5660
G01 X111.4624 Y60.6407
G01 X111.4661 Y60.7154
G01 X111.4734 Y60.7898
G01 X111.4844 Y60.8637
G01 X111.4989 Y60.9370
G01 X111.5171 Y61.0096
G01 X111.5388 Y61.0811
G01 X111.5640 Y61.1515
G01 X111.5926 Y61.2205
G01 X111.6246 Y61.2881
G01 X111.6598 Y61.3540
G01 X111.6982 Y61.4181
G01 X111.7397 Y61.4802
G01 X111.7843 Y61.5403
G01 X111.8317 Y61.5980
G01 X111.8819 Y61.6535
G01 X111.9347 Y61.7063
G01 X111.9901 Y61.7565
G01 X112.0479 Y61.8039
G01 X112.1079 Y61.8484
G01 X112.1579 Y61.8818
G01 X109.2190 Y61.8818
G01 X109.2020 Y61.8728
G01 X109.1434 Y61.8450
G01 X109.0744 Y61.8165
G01 X109.0134 Y61.7946
G01 X108.9419 Y61.7729
G01 X108.8790 Y61.7572
G01 X108.8057 Y61.7426
G01 X108.7416 Y61.7331
G01 X108.6673 Y61.7258
G01 X108.6025 Y61.7226
G01 X108.5652 Y61.7217
G01 X107.2444 Y61.7217
G01 X107.2070 Y61.7226
G01 X107.1423 Y61.7258
G01 X107.0680 Y61.7331
G01 X107.0038 Y61.7426
G01 X106.9306 Y61.7572
G01 X106.8677 Y61.7729
G01 X106.7962 Y61.7946
G01 X106.7352 Y61.8165
G01 X106.6662 Y61.8450
G01 X106.6263 Y61.8639
G01 X106.6263 Y56.8029
G01 X106.6662 Y56.8217
G01 X106.7352 Y56.8503
G01 X106.7962 Y56.8721
G01 X106.8677 Y56.8938
G01 X106.9306 Y56.9096
G01 X107.0038 Y56.9242
G01 X107.0680 Y56.9337
G01 X107.1423 Y56.9410
G01 X107.2070 Y56.9442
G01 X107.2444 Y56.9451
G01 X108.5652 Y56.9451
G01 X108.6025 Y56.9442
G01 X108.6673 Y56.9410
G01 X108.7416 Y56.9337
G01 X108.8057 Y56.9242
G01 X108.8790 Y56.9096
G01 X108.9419 Y56.8938
G01 X109.0134 Y56.8721
G01 X109.0744 Y56.8503
G01 X109.1434 Y56.8217
G01 X109.2020 Y56.7940
G01 X109.2679 Y56.7588
G01 X109.3235 Y56.7255
G01 X109.3856 Y56.6840
G01 X109.4376 Y56.6454
G01 X109.4954 Y56.5980
G01 X109.5434 Y56.5544
G01 X109.5962 Y56.5016
G01 X109.6398 Y56.4536
G01 X109.6872 Y56.3958
G01 X109.7258 Y56.3438
G01 X109.7673 Y56.2817
G01 X109.8006 Y56.2261
G01 X109.8358 Y56.1602
G01 X109.8635 Y56.1016
G01 X109.8921 Y56.0326
G01 X109.9139 Y55.9716
G01 X109.9356 Y55.9001
G01 X109.9514 Y55.8372
G01 X109.9660 Y55.7639
G01 X109.9755 Y55.6998
G01 X109.9828 Y55.6255
G01 X109.9860 Y55.5607
G01 X109.9860 Y55.4860
G01 X109.9828 Y55.4213
G01 X109.9755 Y55.3469
G01 X109.9660 Y55.2828
G01 X109.9514 Y55.2096
G01 X109.9356 Y55.1467
G01 X109.9139 Y55.0752
G01 X109.8921 Y55.0142
G01 X109.8635 Y54.9452
G01 X109.8358 Y54.8866
G01 X109.8006 Y54.8207
G01 X109.7673 Y54.7651
G01 X109.7258 Y54.7030
G01 X109.6872 Y54.6509
G01 X109.6398 Y54.5932
G01 X109.5962 Y54.5452
G01 X109.5434 Y54.4923
G01 X109.4954 Y54.4488
G01 X109.4376 Y54.4014
G01 X109.3856 Y54.3628
G01 X109.3235 Y54.3213
G01 X109.2679 Y54.2880
G01 X109.2032 Y54.2534
G01 X109.2679 Y54.2188
G01 X109.3235 Y54.1855
G01 X109.3856 Y54.1440
G01 X109.4376 Y54.1054
G01 X109.4954 Y54.0580
G01 X109.5434 Y54.0144
G01 X109.5962 Y53.9616
G01 X109.6398 Y53.9136
G01 X109.6872 Y53.8558
G01 X109.7258 Y53.8038
G01 X109.7673 Y53.7417
G01 X109.8006 Y53.6861
G01 X109.8358 Y53.6202
G01 X109.8635 Y53.5616
G01 X109.8921 Y53.4926
G01 X109.9139 Y53.4316
G01 X109.9356 Y53.3601
G01 X109.9514 Y53.2972
G01 X109.9660 Y53.2239
G01 X109.9755 Y53.1598
G01 X109.9828 Y53.0855
G01 X109.9860 Y53.0207
G01 X109.9860 Y52.9460
G01 X109.9828 Y52.8813
G01 X109.9755 Y52.8069
G01 X109.9660 Y52.7428
G01 X109.9514 Y52.6696
G01 X109.9356 Y52.6067
G01 X109.9139 Y52.5352
G01 X109.8921 Y52.4742
G01 X109.8635 Y52.4052
G01 X109.8358 Y52.3466
G01 X109.8006 Y52.2807
G01 X109.7673 Y52.2251
G01 X109.7258 Y52.1630
G01 X109.6872 Y52.1109
G01 X109.6398 Y52.0532
G01 X109.5962 Y52.0052
G01 X109.5434 Y51.9523
G01 X109.4954 Y51.9088
G01 X109.4376 Y51.8614
G01 X109.3856 Y51.8228
G01 X109.3235 Y51.7813
G01 X109.2679 Y51.7480
G01 X109.2020 Y51.7128
G01 X109.1854 Y51.7049
G01 X114.2441 Y51.7049
G00 Z2.0000
G00 X116.8054 Y46.6249
G01 F60.00
G01 Z-0.2001
G01 F320.00
G01 X119.3241 Y46.6249
G01 X119.3076 Y46.6328
G01 X119.2417 Y46.6680
G01 X119.1861 Y46.7013
G01 X119.1240 Y46.7428
G01 X119.0719 Y46.7814
G01 X119.0142 Y46.8288
G01 X118.9662 Y46.8723
G01 X118.9133 Y46.9252
G01 X118.8698 Y46.9732
G01 X118.8224 Y47.0309
G01 X118.7838 Y47.0830
G01 X118.7423 Y47.1451
G01 X118.7090 Y47.2007
G01 X118.6738 Y47.2666
G01 X118.6461 Y47.3252
G01 X118.6175 Y47.3942
G01 X118.5956 Y47.4552
G01 X118.5739 Y47.5267
G01 X118.5582 Y47.5896
G01 X118.5436 Y47.6628
G01 X118.5341 Y47.7269
G01 X118.5268 Y47.8013
G01 X118.5236 Y47.8660
G01 X118.5236 Y47.9407
G01 X118.5268 Y48.0055
G01 X118.5341 Y48.0798
G01 X118.5436 Y48.1439
G01 X118.5582 Y48.2172
G01 X118.5739 Y48.2801
G01 X118.5956 Y48.3516
G01 X118.6175 Y48.4126
G01 X118.6461 Y48.4816
G01 X118.6738 Y48.5402
G01 X118.7090 Y48.6061
G01 X118.7423 Y48.6617
G01 X118.7838 Y48.7238
G01 X118.8224 Y48.7758
G01 X118.8698 Y48.8336
G01 X118.9133 Y48.8816
G01 X118.9662 Y48.9344
G01 X119.0142 Y48.9780
G01 X119.0719 Y49.0254
G01 X119.1240 Y49.0640
G01 X119.1861 Y49.1055
G01 X119.2417 Y49.1388
G01 X119.3076 Y49.1740
G01 X119.3662 Y49.2017
G01 X119.4352 Y49.2303
G01 X119.4962 Y49.2521
G01 X119.5677 Y49.2738
G01 X119.6306 Y49.2896
G01 X119.7038 Y49.3042
G01 X119.7680 Y49.3137
G01 X119.8423 Y49.3210
G01 X119.9070 Y49.3242
G01 X119.9444 Y49.3251
G01 X120.0227 Y49.3251
G01 X119.9776 Y49.3492
G01 X119.9355 Y49.3745
G01 X119.8734 Y49.4160
G01 X119.8339 Y49.4452
G01 X119.7762 Y49.4926
G01 X119.7398 Y49.5256
G01 X119.6870 Y49.5784
G01 X119.6540 Y49.6148
G01 X119.6066 Y49.6725
G01 X119.5774 Y49.7120
G01 X119.5359 Y49.7741
G01 X119.5106 Y49.8162
G01 X119.4754 Y49.8821
G01 X119.4544 Y49.9265
G01 X119.4258 Y49.9955
G01 X119.4093 Y50.0417
G01 X119.3876 Y50.1132
G01 X119.3757 Y50.1608
G01 X119.3611 Y50.2341
G01 X119.3539 Y50.2826
G01 X119.3466 Y50.3570
G01 X119.3442 Y50.4060
G01 X119.3432 Y50.4434
G01 X119.3432 Y51.6959
G01 X119.3076 Y51.7128
G01 X119.2417 Y51.7480
G01 X119.1861 Y51.7813
G01 X119.1240 Y51.8228
G01 X119.0719 Y51.8614
G01 X119.0142 Y51.9088
G01 X118.9662 Y51.9523
G01 X118.9133 Y52.0052
G01 X118.8698 Y52.0532
G01 X118.8224 Y52.1109
G01 X118.7838 Y52.1630
G01 X118.7423 Y52.2251
G01 X118.7090 Y52.2807
G01 X118.6738 Y52.3466
G01 X118.6461 Y52.4052
G01 X118.6175 Y52.4742
G01 X118.5956 Y52.5352
G01 X118.5739 Y52.6067
G01 X118.5582 Y52.6696
G01 X118.5436 Y52.7428
G01 X118.5341 Y52.8069
G01 X118.5268 Y52.8813
G01 X118.5236 Y52.9460
G01 X118.5236 Y53.0207
G01 X118.5268 Y53.0855
G01 X118.5341 Y53.1598
G01 X118.5436 Y53.2239
G01 X118.5582 Y53.2972
G01 X118.5739 Y53.3601
G01 X118.5956 Y53.4316
G01 X118.6175 Y53.4926
G01 X118.6461 Y53.5616
G01 X118.6738 Y53.6202
G01 X118.7090 Y53.6861
G01 X118.7423 Y53.7417
G01 X118.7838 Y53.8038
G01 X118.8224 Y53.8558
G01 X118.8698 Y53.9136
G01 X118.9133 Y53.9616
G01 X118.9662 Y54.0144
G01 X119.0142 Y54.0580
G01 X119.0719 Y54.1054
G01 X119.1240 Y54.1440
G01 X119.1861 Y54.1855
G01 X119.2417 Y54.2188
G01 X119.3064 Y54.2534
G01 X119.2906 Y54.2618
G01 X118.0648 Y54.2618
G01 X118.0274 Y54.2628
G01 X117.9784 Y54.2652
G01 X117.9040 Y54.2725
G01 X117.8555 Y54.2797
G01 X117.7822 Y54.2943
G01 X117.7346 Y54.3062
G01 X117.6631 Y54.3279
G01 X117.6169 Y54.3444
G01 X117.5479 Y54.3730
G01 X117.5035 Y54.3940
G01 X117.4376 Y54.4292
G01 X117.3955 Y54.4545
G01 X117.3334 Y54.4960
G01 X117.2939 Y54.5252
G01 X117.2390 Y54.5703
G01 X117.2162 Y54.5452
G01 X117.1634 Y54.4923
G01 X117.1154 Y54.4488
G01 X117.0576 Y54.4014
G01 X117.0056 Y54.3628
G01 X116.9435 Y54.3213
G01 X116.8879 Y54.2880
G01 X116.8232 Y54.2534
G01 X116.8879 Y54.2188
G01 X116.9435 Y54.1855
G01 X117.0056 Y54.1440
G01 X117.0576 Y54.1054
G01 X117.1154 Y54.0580
G01 X117.1634 Y54.0144
G01 X117.2162 Y53.9616
G01 X117.2598 Y53.9136
G01 X117.3072 Y53.8558
G01 X117.3458 Y53.8038
G01 X117.3873 Y53.7417
G01 X117.4206 Y53.6861
G01 X117.4558 Y53.6202
G01 X117.4835 Y53.5616
G01 X117.5121 Y53.4926
G01 X117.5339 Y53.4316
G01 X117.5556 Y53.3601
G01 X117.5714 Y53.2972
G01 X117.5860 Y53.2239
G01 X117.5955 Y53.1598
G01 X117.6028 Y53.0855
G01 X117.6060 Y53.0207
G01 X117.6060 Y52.9460
G01 X117.6028 Y52.8813
G01 X117.5955 Y52.8069
G01 X117.5860 Y52.7428
G01 X117.5714 Y52.6696
G01 X117.5556 Y52.6067
G01 X117.5339 Y52.5352
G01 X117.5121 Y52.4742
G01 X117.4835 Y52.4052
G01 X117.4558 Y52.3466
G01 X117.4206 Y52.2807
G01 X117.3873 Y52.2251
G01 X117.3458 Y52.1630
G01 X117.3072 Y52.1109
G01 X117.2598 Y52.0532
G01 X117.2162 Y52.0052
G01 X117.1634 Y51.9523
G01 X117.1154 Y51.9088
G01 X117.0576 Y51.8614
G01 X117.0056 Y51.8228
G01 X116.9435 Y51.7813
G01 X116.8879 Y51.7480
G01 X116.8220 Y51.7128
G01 X116.7634 Y51.6850
G01 X116.6944 Y51.6565
G01 X116.6334 Y51.6346
G01 X116.5619 Y51.6129
G01 X116.4990 Y51.5972
G01 X116.4257 Y51.5826
G01 X116.3616 Y51.5731
G01 X116.2873 Y51.5658
G01 X116.2225 Y51.5626
G01 X116.1852 Y51.5617
G01 X116.1068 Y51.5617
G01 X116.1520 Y51.5376
G01 X116.1941 Y51.5123
G01 X116.2562 Y51.4708
G01 X116.2956 Y51.4416
G01 X116.3534 Y51.3942
G01 X116.3898 Y51.3612
G01 X116.4426 Y51.3084
G01 X116.4756 Y51.2720
G01 X116.5230 Y51.2142
G01 X116.5522 Y51.1748
G01 X116.5937 Y51.1127
G01 X116.6190 Y51.0706
G01 X116.6542 Y51.0047
G01 X116.6752 Y50.9603
G01 X116.7038 Y50.8913
G01 X116.7203 Y50.8451
G01 X116.7420 Y50.7736
G01 X116.7539 Y50.7260
G01 X116.7685 Y50.6527
G01 X116.7757 Y50.6041
G01 X116.7830 Y50.5298
G01 X116.7854 Y50.4807
G01 X116.7863 Y50.4434
G01 X116.7863 Y49.1909
G01 X116.8220 Y49.1740
G01 X116.8879 Y49.1388
G01 X116.9435 Y49.1055
G01 X117.0056 Y49.0640
G01 X117.0576 Y49.0254
G01 X117.1154 Y48.9780
G01 X117.1634 Y48.9344
G01 X117.2162 Y48.8816
G01 X117.2598 Y48.8336
G01 X117.3072 Y48.7758
G01 X117.3458 Y48.7238
G01 X117.3873 Y48.6617
G01 X117.4206 Y48.6061
G01 X117.4558 Y48.5402
G01 X117.4835 Y48.4816
G01 X117.5121 Y48.4126
G01 X117.5339 Y48.3516
G01 X117.5556 Y48.2801
G01 X117.5714 Y48.2172
G01 X117.5860 Y48.1439
G01 X117.5955 Y48.0798
G01 X117.6028 Y48.0055
G01 X117.6060 Y47.9407
G01 X117.6060 Y47.8660
G01 X117.6028 Y47.8013
G01 X117.5955 Y47.7269
G01 X117.5860 Y47.6628
G01 X117.5714 Y47.5896
G01 X117.5556 Y47.5267
G01 X117.5339 Y47.4552
G01 X117.5121 Y47.3942
G01 X117.4835 Y47.3252
G01 X117.4558 Y47.2666
G01 X117.4206 Y47.2007
G01 X117.3873 Y47.1451
G01 X117.3458 Y47.0830
G01 X117.3072 Y47.0309
G01 X117.2598 Y46.9732
G01 X117.2162 Y46.9252
G01 X117.1634 Y46.8723
G01 X117.1154 Y46.8288
G01 X117.0576 Y46.7814
G01 X117.0056 Y46.7428
G01 X116.9435 Y46.7013
G01 X116.8879 Y46.6680
G01 X116.8220 Y46.6328
G01 X116.8054 Y46.6249
G00 Z2.0000
G00 X114.2632 Y43.6503
G01 F60.00
G01 Z-0.2001
G01 F320.00
G01 X114.2632 Y44.1018
G01 X114.2463 Y44.1018
G01 X114.2463 Y43.6756
G01 X114.2632 Y43.6503
G00 Z2.0000
G00 X111.7148 Y43.6629
G01 F60.00
G01 Z-0.2001
G01 F320.00
G01 X111.7232 Y43.6756
G01 X111.7232 Y44.1018
G01 X111.2717 Y44.1018
G01 X111.3216 Y44.0684
G01 X111.3817 Y44.0239
G01 X111.4395 Y43.9765
G01 X111.4949 Y43.9263
G01 X111.5477 Y43.8735
G01 X111.5979 Y43.8180
G01 X111.6453 Y43.7603
G01 X111.6898 Y43.7002
G01 X111.7148 Y43.6629
G00 Z2.0000
G00 X121.8854 Y46.6249
G01 F60.00
G01 Z-0.2001
G01 F320.00
G01 X126.9441 Y46.6249
G01 X126.9276 Y46.6328
G01 X126.8617 Y46.6680
G01 X126.8061 Y46.7013
G01 X126.7440 Y46.7428
G01 X126.6919 Y46.7814
G01 X126.6342 Y46.8288
G01 X126.5862 Y46.8723
G01 X126.5333 Y46.9252
G01 X126.4898 Y46.9732
G01 X126.4424 Y47.0309
G01 X126.4038 Y47.0830
G01 X126.3623 Y47.1451
G01 X126.3290 Y47.2007
G01 X126.2938 Y47.2666
G01 X126.2661 Y47.3252
G01 X126.2375 Y47.3942
G01 X126.2156 Y47.4552
G01 X126.1939 Y47.5267
G01 X126.1782 Y47.5896
G01 X126.1636 Y47.6628
G01 X126.1541 Y47.7269
G01 X126.1468 Y47.8013
G01 X126.1436 Y47.8660
G01 X126.1436 Y47.9407
G01 X126.1468 Y48.0055
G01 X126.1541 Y48.0798
G01 X126.1636 Y48.1439
G01 X126.1782 Y48.2172
G01 X126.1939 Y48.2801
G01 X126.2156 Y48.3516
G01 X126.2375 Y48.4126
G01 X126.2661 Y48.4816
G01 X126.2938 Y48.5402
G01 X126.3290 Y48.6061
G01 X126.3623 Y48.6617
G01 X126.4038 Y48.7238
G01 X126.4424 Y48.7758
G01 X126.4898 Y48.8336
G01 X126.5333 Y48.8816
G01 X126.5862 Y48.9344
G01 X126.6342 Y48.9780
G01 X126.6919 Y49.0254
G01 X126.7440 Y49.0640
G01 X126.8061 Y49.1055
G01 X126.8617 Y49.1388
G01 X126.9276 Y49.1740
G01 X126.9441 Y49.1818
G01 X121.8854 Y49.1818
G01 X121.9020 Y49.1740
G01 X121.9679 Y49.1388
G01 X122.0235 Y49.1055
G01 X122.0856 Y49.0640
G01 X122.1376 Y49.0254
G01 X122.1954 Y48.9780
G01 X122.2434 Y48.9344
G01 X122.2962 Y48.8816
G01 X122.3398 Y48.8336
G01 X122.3872 Y48.7758
G01 X122.4258 Y48.7238
G01 X122.4673 Y48.6617
G01 X122.5006 Y48.6061
G01 X122.5358 Y48.5402
G01 X122.5635 Y48.4816
G01 X122.5921 Y48.4126
G01 X122.6139 Y48.3516
G01 X122.6356 Y48.2801
G01 X122.6514 Y48.2172
G01 X122.6660 Y48.1439
G01 X122.6755 Y48.0798
G01 X122.6828 Y48.0055
G01 X122.6860 Y47.9407
G01 X122.6860 Y47.8660
G01 X122.6828 Y47.8013
G01 X122.6755 Y47.7269
G01 X122.6660 Y47.6628
G01 X122.6514 Y47.5896
G01 X122.6356 Y47.5267
G01 X122.6139 Y47.4552
G01 X122.5921 Y47.3942
G01 X122.5635 Y47.3252
G01 X122.5358 Y47.2666
G01 X122.5006 Y47.2007
G01 X122.4673 Y47.1451
G01 X122.4258 Y47.0830
G01 X122.3872 Y47.0309
G01 X122.3398 Y46.9732
G01 X122.2962 Y46.9252
G01 X122.2434 Y46.8723
G01 X122.1954 Y46.8288
G01 X122.1376 Y46.7814
G01 X122.0856 Y46.7428
G01 X122.0235 Y46.7013
G01 X121.9679 Y46.6680
G01 X121.9020 Y46.6328
G01 X121.8854 Y46.6249
G00 Z2.0000
G00 X124.4148 Y43.6629
G01 F60.00
G01 Z-0.2001
G01 F320.00
G01 X124.4232 Y43.6756
G01 X124.4232 Y44.1018
G01 X123.9717 Y44.1018
G01 X124.0216 Y44.0684
G01 X124.0817 Y44.0239
G01 X124.1395 Y43.9765
G01 X124.1949 Y43.9263
G01 X124.2477 Y43.8735
G01 X124.2979 Y43.8180
G01 X124.3453 Y43.7603
G01 X124.3898 Y43.7002
G01 X124.4148 Y43.6629
G00 Z2.0000
G00 X126.9632 Y43.6503
G01 F60.00
G01 Z-0.2001
G01 F320.00
G01 X126.9632 Y44.1018
G01 X126.9463 Y44.1018
G01 X126.9463 Y43.6756
G01 X126.9632 Y43.6503
G00 Z2.0000
G00 X129.5054 Y46.6249
G01 F60.00
G01 Z-0.2001
G01 F320.00
G01 X132.0241 Y46.6249
G01 X132.0076 Y46.6328
G01 X131.9417 Y46.6680
G01 X131.8861 Y46.7013
G01 X131.8240 Y46.7428
G01 X131.7719 Y46.7814
G01 X131.7142 Y46.8288
G01 X131.6662 Y46.8723
G01 X131.6133 Y46.9252
G01 X131.5698 Y46.9732
G01 X131.5224 Y47.0309
G01 X131.4838 Y47.0830
G01 X131.4423 Y47.1451
G01 X131.4090 Y47.2007
G01 X131.3738 Y47.2666
G01 X131.3461 Y47.3252
G01 X131.3175 Y47.3942
G01 X131.2956 Y47.4552
G01 X131.2739 Y47.5267
G01 X131.2582 Y47.5896
G01 X131.2436 Y47.6628
G01 X131.2341 Y47.7269
G01 X131.2268 Y47.8013
G01 X131.2236 Y47.8660
G01 X131.2236 Y47.9407
G01 X131.2268 Y48.0055
G01 X131.2341 Y48.0798
G01 X131.2436 Y48.1439
G01 X131.2582 Y48.2172
G01 X131.2739 Y48.2801
G01 X131.2956 Y48.3516
G01 X131.3175 Y48.4126
G01 X131.3461 Y48.4816
G01 X131.3738 Y48.5402
G01 X131.4090 Y48.6061
G01 X131.4423 Y48.6617
G01 X131.4838 Y48.7238
