(G-CODE GENERATED BY FLATCAM v8.991 - www.flatcam.org - Version Date: 2019/12/27)

(Name: 004_Carry_Drill)
(Type: G-code from Excellon)
(Units: MM)

(Created on Wednesday, 26 February 2020 at 10:29)

(Feedrate: 300.0 mm/min)
(Feedrate rapids 1500.0 mm/min)

(Z_Cut: -1.9 mm)
(Z_Move: 2.0 mm)
(Z Toolchange: 15.0 mm)
(X,Y Toolchange: 0.0000, 0.0000 mm)
(Z Start: None mm)
(Z End: 0.5 mm)
(Steps per circle: 64)
(Preprocessor Excellon: default)

(X range:    5.8603 ...  146.4493  mm)
(Y range:    4.2789 ...   96.6079  mm)

(Spindle Speed: None RPM)
G21
G90
G94

M03 S3000


G01 F300.00
G00 Z2.0000

M03
G00 X146.0048 Y27.5834
G01 Z-1.9000
G01 Z0
G00 Z2.0000
G00 X146.0048 Y35.2034
G01 Z-1.9000
G01 Z0
G00 Z2.0000
G00 X146.0048 Y37.7434
G01 Z-1.9000
G01 Z0
G00 Z2.0000
G00 X146.0048 Y40.2834
G01 Z-1.9000
G01 Z0
G00 Z2.0000
G00 X146.0048 Y47.9034
G01 Z-1.9000
G01 Z0
G00 Z2.0000
G00 X140.9248 Y47.9034
G01 Z-1.9000
G01 Z0
G00 Z2.0000
G00 X133.3048 Y47.9034
G01 Z-1.9000
G01 Z0
G00 Z2.0000
G00 X133.3048 Y52.9834
G01 Z-1.9000
G01 Z0
G00 Z2.0000
G00 X133.3048 Y55.5234
G01 Z-1.9000
G01 Z0
G00 Z2.0000
G00 X133.3048 Y63.1434
G01 Z-1.9000
G01 Z0
G00 Z2.0000
G00 X128.2248 Y63.1434
G01 Z-1.9000
G01 Z0
G00 Z2.0000
G00 X128.2248 Y68.2234
G01 Z-1.9000
G01 Z0
G00 Z2.0000
G00 X128.2248 Y70.7634
G01 Z-1.9000
G01 Z0
G00 Z2.0000
G00 X133.3048 Y68.2234
G01 Z-1.9000
G01 Z0
G00 Z2.0000
G00 X133.3048 Y70.7634
G01 Z-1.9000
G01 Z0
G00 Z2.0000
G00 X133.3048 Y78.3834
G01 Z-1.9000
G01 Z0
G00 Z2.0000
G00 X128.2248 Y78.3834
G01 Z-1.9000
G01 Z0
G00 Z2.0000
G00 X120.6048 Y78.3834
G01 Z-1.9000
G01 Z0
G00 Z2.0000
G00 X115.5248 Y78.3834
G01 Z-1.9000
G01 Z0
G00 Z2.0000
G00 X107.9048 Y78.3834
G01 Z-1.9000
G01 Z0
G00 Z2.0000
G00 X102.8248 Y78.3834
G01 Z-1.9000
G01 Z0
G00 Z2.0000
G00 X95.2048 Y78.3834
G01 Z-1.9000
G01 Z0
G00 Z2.0000
G00 X90.1248 Y78.3834
G01 Z-1.9000
G01 Z0
G00 Z2.0000
G00 X82.5048 Y78.3834
G01 Z-1.9000
G01 Z0
G00 Z2.0000
G00 X77.4248 Y78.3834
G01 Z-1.9000
G01 Z0
G00 Z2.0000
G00 X69.8048 Y78.3834
G01 Z-1.9000
G01 Z0
G00 Z2.0000
G00 X64.7248 Y78.3834
G01 Z-1.9000
G01 Z0
G00 Z2.0000
G00 X57.1048 Y78.3834
G01 Z-1.9000
G01 Z0
G00 Z2.0000
G00 X52.0248 Y78.3834
G01 Z-1.9000
G01 Z0
G00 Z2.0000
G00 X44.4048 Y78.3834
G01 Z-1.9000
G01 Z0
G00 Z2.0000
G00 X39.3248 Y78.3834
G01 Z-1.9000
G01 Z0
G00 Z2.0000
G00 X31.7048 Y78.3834
G01 Z-1.9000
G01 Z0
G00 Z2.0000
G00 X26.6248 Y78.3834
G01 Z-1.9000
G01 Z0
G00 Z2.0000
G00 X26.6248 Y70.7634
G01 Z-1.9000
G01 Z0
G00 Z2.0000
G00 X26.6248 Y68.2234
G01 Z-1.9000
G01 Z0
G00 Z2.0000
G00 X26.6248 Y63.1434
G01 Z-1.9000
G01 Z0
G00 Z2.0000
G00 X31.7048 Y63.1434
G01 Z-1.9000
G01 Z0
G00 Z2.0000
G00 X31.7048 Y68.2234
G01 Z-1.9000
G01 Z0
G00 Z2.0000
G00 X31.7048 Y70.7634
G01 Z-1.9000
G01 Z0
G00 Z2.0000
G00 X39.3248 Y70.7634
G01 Z-1.9000
G01 Z0
G00 Z2.0000
G00 X39.3248 Y68.2234
G01 Z-1.9000
G01 Z0
G00 Z2.0000
G00 X39.3248 Y63.1434
G01 Z-1.9000
G01 Z0
G00 Z2.0000
G00 X44.4048 Y63.1434
G01 Z-1.9000
G01 Z0
G00 Z2.0000
G00 X44.4048 Y68.2234
G01 Z-1.9000
G01 Z0
G00 Z2.0000
G00 X44.4048 Y70.7634
G01 Z-1.9000
G01 Z0
G00 Z2.0000
G00 X52.0248 Y70.7634
G01 Z-1.9000
G01 Z0
G00 Z2.0000
G00 X52.0248 Y68.2234
G01 Z-1.9000
G01 Z0
G00 Z2.0000
G00 X52.0248 Y63.1434
G01 Z-1.9000
G01 Z0
G00 Z2.0000
G00 X57.1048 Y63.1434
G01 Z-1.9000
G01 Z0
G00 Z2.0000
G00 X57.1048 Y68.2234
G01 Z-1.9000
G01 Z0
G00 Z2.0000
G00 X57.1048 Y70.7634
G01 Z-1.9000
G01 Z0
G00 Z2.0000
G00 X64.7248 Y70.7634
G01 Z-1.9000
G01 Z0
G00 Z2.0000
G00 X64.7248 Y68.2234
G01 Z-1.9000
G01 Z0
G00 Z2.0000
G00 X64.7248 Y63.1434
G01 Z-1.9000
G01 Z0
G00 Z2.0000
G00 X69.8048 Y63.1434
G01 Z-1.9000
G01 Z0
G00 Z2.0000
G00 X69.8048 Y68.2234
G01 Z-1.9000
G01 Z0
G00 Z2.0000
G00 X69.8048 Y70.7634
G01 Z-1.9000
G01 Z0
G00 Z2.0000
G00 X77.4248 Y70.7634
G01 Z-1.9000
G01 Z0
G00 Z2.0000
G00 X77.4248 Y68.2234
G01 Z-1.9000
G01 Z0
G00 Z2.0000
G00 X77.4248 Y63.1434
G01 Z-1.9000
G01 Z0
G00 Z2.0000
G00 X82.5048 Y63.1434
G01 Z-1.9000
G01 Z0
G00 Z2.0000
G00 X82.5048 Y68.2234
G01 Z-1.9000
G01 Z0
G00 Z2.0000
G00 X82.5048 Y70.7634
G01 Z-1.9000
G01 Z0
G00 Z2.0000
G00 X90.1248 Y70.7634
G01 Z-1.9000
G01 Z0
G00 Z2.0000
G00 X90.1248 Y68.2234
G01 Z-1.9000
G01 Z0
G00 Z2.0000
G00 X90.1248 Y63.1434
G01 Z-1.9000
G01 Z0
G00 Z2.0000
G00 X95.2048 Y63.1434
G01 Z-1.9000
G01 Z0
G00 Z2.0000
G00 X95.2048 Y68.2234
G01 Z-1.9000
G01 Z0
G00 Z2.0000
G00 X95.2048 Y70.7634
G01 Z-1.9000
G01 Z0
G00 Z2.0000
G00 X102.8248 Y70.7634
G01 Z-1.9000
G01 Z0
G00 Z2.0000
G00 X102.8248 Y68.2234
G01 Z-1.9000
G01 Z0
G00 Z2.0000
G00 X102.8248 Y63.1434
G01 Z-1.9000
G01 Z0
G00 Z2.0000
G00 X107.9048 Y63.1434
G01 Z-1.9000
G01 Z0
G00 Z2.0000
G00 X107.9048 Y68.2234
G01 Z-1.9000
G01 Z0
G00 Z2.0000
G00 X107.9048 Y70.7634
G01 Z-1.9000
G01 Z0
G00 Z2.0000
G00 X115.5248 Y63.1434
G01 Z-1.9000
G01 Z0
G00 Z2.0000
G00 X115.5248 Y68.2234
G01 Z-1.9000
G01 Z0
G00 Z2.0000
G00 X115.5248 Y70.7634
G01 Z-1.9000
G01 Z0
G00 Z2.0000
G00 X120.6048 Y70.7634
G01 Z-1.9000
G01 Z0
G00 Z2.0000
G00 X120.6048 Y68.2234
G01 Z-1.9000
G01 Z0
G00 Z2.0000
G00 X120.6048 Y63.1434
G01 Z-1.9000
G01 Z0
G00 Z2.0000
G00 X128.2248 Y55.5234
G01 Z-1.9000
G01 Z0
G00 Z2.0000
G00 X128.2248 Y52.9834
G01 Z-1.9000
G01 Z0
G00 Z2.0000
G00 X128.2248 Y47.9034
G01 Z-1.9000
G01 Z0
G00 Z2.0000
G00 X120.6048 Y47.9034
G01 Z-1.9000
G01 Z0
G00 Z2.0000
G00 X120.6048 Y52.9834
G01 Z-1.9000
G01 Z0
G00 Z2.0000
G00 X120.6048 Y55.5234
G01 Z-1.9000
G01 Z0
G00 Z2.0000
G00 X115.5248 Y55.5234
G01 Z-1.9000
G01 Z0
G00 Z2.0000
G00 X115.5248 Y52.9834
G01 Z-1.9000
G01 Z0
G00 Z2.0000
G00 X115.5248 Y47.9034
G01 Z-1.9000
G01 Z0
G00 Z2.0000
G00 X107.9048 Y47.9034
G01 Z-1.9000
G01 Z0
G00 Z2.0000
G00 X107.9048 Y52.9834
G01 Z-1.9000
G01 Z0
G00 Z2.0000
G00 X107.9048 Y55.5234
G01 Z-1.9000
G01 Z0
G00 Z2.0000
G00 X102.8248 Y55.5234
G01 Z-1.9000
G01 Z0
G00 Z2.0000
G00 X102.8248 Y52.9834
G01 Z-1.9000
G01 Z0
G00 Z2.0000
G00 X102.8248 Y47.9034
G01 Z-1.9000
G01 Z0
G00 Z2.0000
G00 X95.2048 Y47.9034
G01 Z-1.9000
G01 Z0
G00 Z2.0000
G00 X95.2048 Y52.9834
G01 Z-1.9000
G01 Z0
G00 Z2.0000
G00 X95.2048 Y55.5234
G01 Z-1.9000
G01 Z0
G00 Z2.0000
G00 X90.1248 Y55.5234
G01 Z-1.9000
G01 Z0
G00 Z2.0000
G00 X90.1248 Y52.9834
G01 Z-1.9000
G01 Z0
G00 Z2.0000
G00 X90.1248 Y47.9034
G01 Z-1.9000
G01 Z0
G00 Z2.0000
G00 X82.5048 Y47.9034
G01 Z-1.9000
G01 Z0
G00 Z2.0000
G00 X82.5048 Y52.9834
G01 Z-1.9000
G01 Z0
G00 Z2.0000
G00 X82.5048 Y55.5234
G01 Z-1.9000
G01 Z0
G00 Z2.0000
G00 X77.4248 Y55.5234
G01 Z-1.9000
G01 Z0
G00 Z2.0000
G00 X77.4248 Y52.9834
G01 Z-1.9000
G01 Z0
G00 Z2.0000
G00 X77.4248 Y47.9034
G01 Z-1.9000
G01 Z0
G00 Z2.0000
G00 X69.8048 Y47.9034
G01 Z-1.9000
G01 Z0
G00 Z2.0000
G00 X69.8048 Y52.9834
G01 Z-1.9000
G01 Z0
G00 Z2.0000
G00 X69.8048 Y55.5234
G01 Z-1.9000
G01 Z0
G00 Z2.0000
G00 X64.7248 Y55.5234
G01 Z-1.9000
G01 Z0
G00 Z2.0000
G00 X64.7248 Y52.9834
G01 Z-1.9000
G01 Z0
G00 Z2.0000
G00 X64.7248 Y47.9034
G01 Z-1.9000
G01 Z0
G00 Z2.0000
G00 X57.1048 Y47.9034
G01 Z-1.9000
G01 Z0
G00 Z2.0000
G00 X57.1048 Y52.9834
G01 Z-1.9000
G01 Z0
G00 Z2.0000
G00 X57.1048 Y55.5234
G01 Z-1.9000
G01 Z0
G00 Z2.0000
G00 X52.0248 Y55.5234
G01 Z-1.9000
G01 Z0
G00 Z2.0000
G00 X52.0248 Y52.9834
G01 Z-1.9000
G01 Z0
G00 Z2.0000
G00 X52.0248 Y47.9034
G01 Z-1.9000
G01 Z0
G00 Z2.0000
G00 X44.4048 Y47.9034
G01 Z-1.9000
G01 Z0
G00 Z2.0000
G00 X44.4048 Y52.9834
G01 Z-1.9000
G01 Z0
G00 Z2.0000
G00 X44.4048 Y55.5234
G01 Z-1.9000
G01 Z0
G00 Z2.0000
G00 X39.3248 Y55.5234
G01 Z-1.9000
G01 Z0
G00 Z2.0000
G00 X39.3248 Y52.9834
G01 Z-1.9000
G01 Z0
G00 Z2.0000
G00 X39.3248 Y47.9034
G01 Z-1.9000
G01 Z0
G00 Z2.0000
G00 X31.7048 Y45.3634
G01 Z-1.9000
G01 Z0
G00 Z2.0000
G00 X31.7048 Y47.9034
G01 Z-1.9000
G01 Z0
G00 Z2.0000
G00 X31.7048 Y52.9834
G01 Z-1.9000
G01 Z0
G00 Z2.0000
G00 X31.7048 Y55.5234
G01 Z-1.9000
G01 Z0
G00 Z2.0000
G00 X26.6248 Y55.5234
G01 Z-1.9000
G01 Z0
G00 Z2.0000
G00 X26.6248 Y52.9834
G01 Z-1.9000
G01 Z0
G00 Z2.0000
G00 X26.6248 Y47.9034
G01 Z-1.9000
G01 Z0
G00 Z2.0000
G00 X26.6248 Y45.3634
G01 Z-1.9000
G01 Z0
G00 Z2.0000
G00 X26.6248 Y37.7434
G01 Z-1.9000
G01 Z0
G00 Z2.0000
G00 X31.7048 Y37.7434
G01 Z-1.9000
G01 Z0
G00 Z2.0000
G00 X39.3248 Y37.7434
G01 Z-1.9000
G01 Z0
G00 Z2.0000
G00 X39.3248 Y40.2834
G01 Z-1.9000
G01 Z0
G00 Z2.0000
G00 X44.4048 Y40.2834
G01 Z-1.9000
G01 Z0
G00 Z2.0000
G00 X44.4048 Y37.7434
G01 Z-1.9000
G01 Z0
G00 Z2.0000
G00 X44.4048 Y35.2034
G01 Z-1.9000
G01 Z0
G00 Z2.0000
G00 X44.4048 Y27.5834
G01 Z-1.9000
G01 Z0
G00 Z2.0000
G00 X57.1048 Y27.5834
G01 Z-1.9000
G01 Z0
G00 Z2.0000
G00 X57.1048 Y35.2034
G01 Z-1.9000
G01 Z0
G00 Z2.0000
G00 X52.0248 Y37.7434
G01 Z-1.9000
G01 Z0
G00 Z2.0000
G00 X52.0248 Y40.2834
G01 Z-1.9000
G01 Z0
G00 Z2.0000
G00 X57.1048 Y40.2834
G01 Z-1.9000
G01 Z0
G00 Z2.0000
G00 X57.1048 Y37.7434
G01 Z-1.9000
G01 Z0
G00 Z2.0000
G00 X64.7248 Y37.7434
G01 Z-1.9000
G01 Z0
G00 Z2.0000
G00 X64.7248 Y40.2834
G01 Z-1.9000
G01 Z0
G00 Z2.0000
G00 X69.8048 Y40.2834
G01 Z-1.9000
G01 Z0
G00 Z2.0000
G00 X69.8048 Y37.7434
G01 Z-1.9000
G01 Z0
G00 Z2.0000
G00 X69.8048 Y35.2034
G01 Z-1.9000
G01 Z0
G00 Z2.0000
G00 X69.8048 Y27.5834
G01 Z-1.9000
G01 Z0
G00 Z2.0000
G00 X82.5048 Y27.5834
G01 Z-1.9000
G01 Z0
G00 Z2.0000
G00 X82.5048 Y35.2034
G01 Z-1.9000
G01 Z0
G00 Z2.0000
G00 X77.4248 Y37.7434
G01 Z-1.9000
G01 Z0
G00 Z2.0000
G00 X77.4248 Y40.2834
G01 Z-1.9000
G01 Z0
G00 Z2.0000
G00 X82.5048 Y40.2834
G01 Z-1.9000
G01 Z0
G00 Z2.0000
G00 X82.5048 Y37.7434
G01 Z-1.9000
G01 Z0
G00 Z2.0000
G00 X90.1248 Y37.7434
G01 Z-1.9000
G01 Z0
G00 Z2.0000
G00 X90.1248 Y40.2834
G01 Z-1.9000
G01 Z0
G00 Z2.0000
G00 X95.2048 Y40.2834
G01 Z-1.9000
G01 Z0
G00 Z2.0000
G00 X95.2048 Y37.7434
G01 Z-1.9000
G01 Z0
G00 Z2.0000
G00 X95.2048 Y35.2034
G01 Z-1.9000
G01 Z0
G00 Z2.0000
G00 X95.2048 Y27.5834
G01 Z-1.9000
G01 Z0
G00 Z2.0000
G00 X107.9048 Y27.5834
G01 Z-1.9000
G01 Z0
G00 Z2.0000
G00 X107.9048 Y35.2034
G01 Z-1.9000
G01 Z0
G00 Z2.0000
G00 X102.8248 Y37.7434
G01 Z-1.9000
G01 Z0
G00 Z2.0000
G00 X102.8248 Y40.2834
G01 Z-1.9000
G01 Z0
G00 Z2.0000
G00 X107.9048 Y40.2834
G01 Z-1.9000
G01 Z0
G00 Z2.0000
G00 X107.9048 Y37.7434
G01 Z-1.9000
G01 Z0
G00 Z2.0000
G00 X115.5248 Y37.7434
G01 Z-1.9000
G01 Z0
G00 Z2.0000
G00 X115.5248 Y40.2834
G01 Z-1.9000
G01 Z0
G00 Z2.0000
G00 X120.6048 Y40.2834
G01 Z-1.9000
G01 Z0
G00 Z2.0000
G00 X120.6048 Y37.7434
G01 Z-1.9000
G01 Z0
G00 Z2.0000
G00 X120.6048 Y35.2034
G01 Z-1.9000
G01 Z0
G00 Z2.0000
G00 X120.6048 Y27.5834
G01 Z-1.9000
G01 Z0
G00 Z2.0000
G00 X133.3048 Y27.5834
G01 Z-1.9000
G01 Z0
G00 Z2.0000
G00 X133.3048 Y35.2034
G01 Z-1.9000
G01 Z0
G00 Z2.0000
G00 X128.2248 Y37.7434
G01 Z-1.9000
G01 Z0
G00 Z2.0000
G00 X128.2248 Y40.2834
G01 Z-1.9000
G01 Z0
G00 Z2.0000
G00 X133.3048 Y37.7434
G01 Z-1.9000
G01 Z0
G00 Z2.0000
G00 X133.3048 Y40.2834
G01 Z-1.9000
G01 Z0
G00 Z2.0000
G00 X140.9248 Y40.2834
G01 Z-1.9000
G01 Z0
G00 Z2.0000
G00 X140.9248 Y37.7434
G01 Z-1.9000
G01 Z0
G00 Z2.0000
M03
G00 X146.0048 Y7.2634
G01 Z-1.9000
G01 Z0
G00 Z2.0000
G00 X143.4648 Y12.3434
G01 Z-1.9000
G01 Z0
G00 Z2.0000
G00 X143.4648 Y14.8834
G01 Z-1.9000
G01 Z0
G00 Z2.0000
G00 X146.0048 Y19.9634
G01 Z-1.9000
G01 Z0
G00 Z2.0000
G00 X135.8448 Y42.8234
G01 Z-1.9000
G01 Z0
G00 Z2.0000
G00 X125.6848 Y58.0634
G01 Z-1.9000
G01 Z0
G00 Z2.0000
G00 X125.6848 Y60.6034
G01 Z-1.9000
G01 Z0
G00 Z2.0000
G00 X135.8448 Y65.6834
G01 Z-1.9000
G01 Z0
G00 Z2.0000
G00 X125.6848 Y65.6834
G01 Z-1.9000
G01 Z0
G00 Z2.0000
G00 X123.1448 Y65.6834
G01 Z-1.9000
G01 Z0
G00 Z2.0000
G00 X112.9848 Y58.0634
G01 Z-1.9000
G01 Z0
G00 Z2.0000
G00 X112.9848 Y60.6034
G01 Z-1.9000
G01 Z0
G00 Z2.0000
G00 X112.9848 Y65.6834
G01 Z-1.9000
G01 Z0
G00 Z2.0000
G00 X110.4448 Y65.6834
G01 Z-1.9000
G01 Z0
G00 Z2.0000
G00 X107.9048 Y96.1634
G01 Z-1.9000
G01 Z0
G00 Z2.0000
G00 X105.3648 Y96.1634
G01 Z-1.9000
G01 Z0
G00 Z2.0000
G00 X102.8248 Y96.1634
G01 Z-1.9000
G01 Z0
G00 Z2.0000
G00 X100.2848 Y96.1634
G01 Z-1.9000
G01 Z0
G00 Z2.0000
G00 X97.7448 Y96.1634
G01 Z-1.9000
G01 Z0
G00 Z2.0000
G00 X95.2048 Y96.1634
G01 Z-1.9000
G01 Z0
G00 Z2.0000
G00 X92.6648 Y96.1634
G01 Z-1.9000
G01 Z0
G00 Z2.0000
G00 X90.1248 Y96.1634
G01 Z-1.9000
G01 Z0
G00 Z2.0000
G00 X87.5848 Y96.1634
G01 Z-1.9000
G01 Z0
G00 Z2.0000
G00 X85.0448 Y96.1634
G01 Z-1.9000
G01 Z0
G00 Z2.0000
G00 X74.8848 Y65.6834
G01 Z-1.9000
G01 Z0
G00 Z2.0000
G00 X72.3448 Y65.6834
G01 Z-1.9000
G01 Z0
G00 Z2.0000
G00 X62.1848 Y65.6834
G01 Z-1.9000
G01 Z0
G00 Z2.0000
G00 X59.6448 Y65.6834
G01 Z-1.9000
G01 Z0
G00 Z2.0000
G00 X49.4848 Y65.6834
G01 Z-1.9000
G01 Z0
G00 Z2.0000
G00 X46.9448 Y65.6834
G01 Z-1.9000
G01 Z0
G00 Z2.0000
G00 X36.7848 Y65.6834
G01 Z-1.9000
G01 Z0
G00 Z2.0000
G00 X19.0048 Y96.1634
G01 Z-1.9000
G01 Z0
G00 Z2.0000
G00 X16.4648 Y96.1634
G01 Z-1.9000
G01 Z0
G00 Z2.0000
G00 X13.9248 Y96.1634
G01 Z-1.9000
G01 Z0
G00 Z2.0000
G00 X8.8448 Y96.1634
G01 Z-1.9000
G01 Z0
G00 Z2.0000
G00 X6.3048 Y96.1634
G01 Z-1.9000
G01 Z0
G00 Z2.0000
G00 X34.2448 Y58.0634
G01 Z-1.9000
G01 Z0
G00 Z2.0000
G00 X36.7848 Y58.0634
G01 Z-1.9000
G01 Z0
G00 Z2.0000
G00 X36.7848 Y60.6034
G01 Z-1.9000
G01 Z0
G00 Z2.0000
G00 X49.4848 Y60.6034
G01 Z-1.9000
G01 Z0
G00 Z2.0000
G00 X49.4848 Y58.0634
G01 Z-1.9000
G01 Z0
G00 Z2.0000
G00 X62.1848 Y60.6034
G01 Z-1.9000
G01 Z0
G00 Z2.0000
G00 X62.1848 Y58.0634
G01 Z-1.9000
G01 Z0
G00 Z2.0000
G00 X74.8848 Y60.6034
G01 Z-1.9000
G01 Z0
G00 Z2.0000
G00 X74.8848 Y58.0634
G01 Z-1.9000
G01 Z0
G00 Z2.0000
G00 X87.5848 Y58.0634
G01 Z-1.9000
G01 Z0
G00 Z2.0000
G00 X87.5848 Y60.6034
G01 Z-1.9000
G01 Z0
G00 Z2.0000
G00 X85.0448 Y65.6834
G01 Z-1.9000
G01 Z0
G00 Z2.0000
G00 X87.5848 Y65.6834
G01 Z-1.9000
G01 Z0
G00 Z2.0000
G00 X97.7448 Y65.6834
G01 Z-1.9000
G01 Z0
G00 Z2.0000
G00 X100.2848 Y65.6834
G01 Z-1.9000
G01 Z0
G00 Z2.0000
G00 X100.2848 Y60.6034
G01 Z-1.9000
G01 Z0
G00 Z2.0000
G00 X100.2848 Y58.0634
G01 Z-1.9000
G01 Z0
G00 Z2.0000
G00 X100.2848 Y42.8234
G01 Z-1.9000
G01 Z0
G00 Z2.0000
G00 X97.7448 Y42.8234
G01 Z-1.9000
G01 Z0
G00 Z2.0000
G00 X87.5848 Y42.8234
G01 Z-1.9000
G01 Z0
G00 Z2.0000
G00 X85.0448 Y42.8234
G01 Z-1.9000
G01 Z0
G00 Z2.0000
G00 X74.8848 Y42.8234
G01 Z-1.9000
G01 Z0
G00 Z2.0000
G00 X72.3448 Y42.8234
G01 Z-1.9000
G01 Z0
G00 Z2.0000
G00 X62.1848 Y42.8234
G01 Z-1.9000
G01 Z0
G00 Z2.0000
G00 X59.6448 Y42.8234
G01 Z-1.9000
G01 Z0
G00 Z2.0000
G00 X49.4848 Y42.8234
G01 Z-1.9000
G01 Z0
G00 Z2.0000
G00 X46.9448 Y42.8234
G01 Z-1.9000
G01 Z0
G00 Z2.0000
G00 X36.7848 Y42.8234
G01 Z-1.9000
G01 Z0
G00 Z2.0000
G00 X34.2448 Y42.8234
G01 Z-1.9000
G01 Z0
G00 Z2.0000
G00 X24.0848 Y35.2034
G01 Z-1.9000
G01 Z0
G00 Z2.0000
G00 X24.0848 Y32.6634
G01 Z-1.9000
G01 Z0
G00 Z2.0000
G00 X24.0848 Y30.1234
G01 Z-1.9000
G01 Z0
G00 Z2.0000
G00 X19.0048 Y22.5034
G01 Z-1.9000
G01 Z0
G00 Z2.0000
G00 X19.0048 Y19.9634
G01 Z-1.9000
G01 Z0
G00 Z2.0000
G00 X16.4648 Y32.6634
G01 Z-1.9000
G01 Z0
G00 Z2.0000
G00 X8.8448 Y35.2034
G01 Z-1.9000
G01 Z0
G00 Z2.0000
G00 X6.3048 Y30.1234
G01 Z-1.9000
G01 Z0
G00 Z2.0000
G00 X8.8448 Y22.5034
G01 Z-1.9000
G01 Z0
G00 Z2.0000
G00 X6.3048 Y19.9634
G01 Z-1.9000
G01 Z0
G00 Z2.0000
G00 X6.3048 Y4.7234
G01 Z-1.9000
G01 Z0
G00 Z2.0000
G00 X8.8448 Y4.7234
G01 Z-1.9000
G01 Z0
G00 Z2.0000
G00 X13.9248 Y4.7234
G01 Z-1.9000
G01 Z0
G00 Z2.0000
G00 X16.4648 Y4.7234
G01 Z-1.9000
G01 Z0
G00 Z2.0000
G00 X29.2049 Y9.7635
G01 Z-1.9000
G01 Z0
G00 Z2.0000
G00 X64.7248 Y12.3434
G01 Z-1.9000
G01 Z0
G00 Z2.0000
G00 X64.7248 Y9.8034
G01 Z-1.9000
G01 Z0
G00 Z2.0000
G00 X67.2648 Y4.7234
G01 Z-1.9000
G01 Z0
G00 Z2.0000
G00 X69.8048 Y4.7234
G01 Z-1.9000
G01 Z0
G00 Z2.0000
G00 X72.3448 Y4.7234
G01 Z-1.9000
G01 Z0
G00 Z2.0000
G00 X74.8848 Y9.8034
G01 Z-1.9000
G01 Z0
G00 Z2.0000
G00 X74.8848 Y12.3434
G01 Z-1.9000
G01 Z0
G00 Z2.0000
G00 X79.9648 Y4.7234
G01 Z-1.9000
G01 Z0
G00 Z2.0000
G00 X82.5048 Y4.7234
G01 Z-1.9000
G01 Z0
G00 Z2.0000
G00 X85.0448 Y4.7234
G01 Z-1.9000
G01 Z0
G00 Z2.0000
G00 X87.5848 Y4.7234
G01 Z-1.9000
G01 Z0
G00 Z2.0000
G00 X90.1248 Y4.7234
G01 Z-1.9000
G01 Z0
G00 Z2.0000
G00 X92.6648 Y4.7234
G01 Z-1.9000
G01 Z0
G00 Z2.0000
G00 X95.2048 Y4.7234
G01 Z-1.9000
G01 Z0
G00 Z2.0000
G00 X97.7448 Y4.7234
G01 Z-1.9000
G01 Z0
G00 Z2.0000
G00 X100.2848 Y4.7234
G01 Z-1.9000
G01 Z0
G00 Z2.0000
G00 X102.8248 Y4.7234
G01 Z-1.9000
G01 Z0
G00 Z2.0000
G00 X105.3648 Y4.7234
G01 Z-1.9000
G01 Z0
G00 Z2.0000
G00 X110.4448 Y42.8234
G01 Z-1.9000
G01 Z0
G00 Z2.0000
G00 X112.9848 Y42.8234
G01 Z-1.9000
G01 Z0
G00 Z2.0000
G00 X123.1448 Y42.8234
G01 Z-1.9000
G01 Z0
G00 Z2.0000
G00 X125.6848 Y42.8234
G01 Z-1.9000
G01 Z0
G00 Z2.0000
G00 X140.9248 Y14.8834
G01 Z-1.9000
G01 Z0
G00 Z2.0000
G00 X140.9248 Y12.3434
G01 Z-1.9000
G01 Z0
G00 Z2.0000
M05
G00 Z0.50
G00 X0.0 Y0.0

M05
M30