(G-CODE GENERATED BY FLATCAM v8.991 - www.flatcam.org - Version Date: 2019/12/27)

(Name: 006_DReg2_iso2)
(Type: G-code from Geometry)
(Units: MM)

(Created on Monday, 02 March 2020 at 18:55)

(TOOL DIAMETER: 0.331 mm)
(Feedrate: 320.0 mm/min)
(Feedrate_Z: 60.0 mm/min)
(Feedrate rapids 1500.0 mm/min)

(Z_Cut: -0.2001 mm)
(Z_Move: 2.0 mm)
(Z Toolchange: 15.0 mm)
(X,Y Toolchange: 0.0000, 0.0000 mm)
(Z Start: None mm)
(Z End: 15.0 mm)
(Steps per circle: 64)
(Preprocessor Geometry: default)

(X range:    5.6387 ...  147.7884  mm)
(Y range:    3.4985 ...   97.3882  mm)

(Spindle Speed: None RPM)
G21
G90
G94

M03 S3000


G01 F320.00
G00 Z2.0000

M03
G00 X13.2587 Y4.7461
G01 F60.00
G01 Z-0.2001
G01 F320.00
G01 X13.2587 Y4.7006
G01 X13.2624 Y4.6260
G01 X13.2669 Y4.5807
G01 X13.2778 Y4.5067
G01 X13.2867 Y4.4621
G01 X13.3049 Y4.3896
G01 X13.3181 Y4.3461
G01 X13.3433 Y4.2757
G01 X13.3607 Y4.2337
G01 X13.3927 Y4.1661
G01 X13.4141 Y4.1259
G01 X13.4525 Y4.0618
G01 X13.4778 Y4.0240
G01 X13.5223 Y3.9639
G01 X13.5512 Y3.9288
G01 X13.6014 Y3.8734
G01 X13.6336 Y3.8412
G01 X13.6890 Y3.7910
G01 X13.7241 Y3.7621
G01 X13.7842 Y3.7176
G01 X13.8220 Y3.6923
G01 X13.8861 Y3.6539
G01 X13.9263 Y3.6325
G01 X13.9939 Y3.6005
G01 X14.0359 Y3.5831
G01 X14.1063 Y3.5579
G01 X14.1498 Y3.5447
G01 X14.2223 Y3.5265
G01 X14.2669 Y3.5176
G01 X14.3409 Y3.5067
G01 X14.3862 Y3.5022
G01 X14.4609 Y3.4985
G01 X14.5063 Y3.4985
G01 X14.5810 Y3.5022
G01 X14.6263 Y3.5067
G01 X14.7002 Y3.5176
G01 X14.7448 Y3.5265
G01 X14.8174 Y3.5447
G01 X14.8609 Y3.5579
G01 X14.9313 Y3.5831
G01 X14.9733 Y3.6005
G01 X15.0409 Y3.6325
G01 X15.0810 Y3.6539
G01 X15.1452 Y3.6923
G01 X15.1830 Y3.7176
G01 X15.2430 Y3.7621
G01 X15.2782 Y3.7910
G01 X15.3336 Y3.8412
G01 X15.3658 Y3.8734
G01 X15.4160 Y3.9288
G01 X15.4448 Y3.9639
G01 X15.4894 Y4.0240
G01 X15.5146 Y4.0618
G01 X15.5531 Y4.1259
G01 X15.5745 Y4.1661
G01 X15.6065 Y4.2337
G01 X15.6239 Y4.2757
G01 X15.6491 Y4.3461
G01 X15.6623 Y4.3896
G01 X15.6805 Y4.4621
G01 X15.6893 Y4.5067
G01 X15.7003 Y4.5807
G01 X15.7048 Y4.6260
G01 X15.7084 Y4.7006
G01 X15.7084 Y4.7461
G01 X15.7048 Y4.8208
G01 X15.7003 Y4.8661
G01 X15.6893 Y4.9400
G01 X15.6805 Y4.9846
G01 X15.6623 Y5.0572
G01 X15.6491 Y5.1007
G01 X15.6239 Y5.1711
G01 X15.6065 Y5.2131
G01 X15.5745 Y5.2807
G01 X15.5531 Y5.3208
G01 X15.5146 Y5.3850
G01 X15.4894 Y5.4228
G01 X15.4448 Y5.4828
G01 X15.4160 Y5.5180
G01 X15.3658 Y5.5734
G01 X15.3336 Y5.6056
G01 X15.2782 Y5.6558
G01 X15.2430 Y5.6846
G01 X15.1830 Y5.7292
G01 X15.1452 Y5.7544
G01 X15.0810 Y5.7929
G01 X15.0409 Y5.8143
G01 X14.9733 Y5.8463
G01 X14.9313 Y5.8637
G01 X14.8609 Y5.8889
G01 X14.8174 Y5.9021
G01 X14.7448 Y5.9203
G01 X14.7002 Y5.9291
G01 X14.6263 Y5.9401
G01 X14.5810 Y5.9446
G01 X14.5063 Y5.9482
G01 X14.4609 Y5.9482
G01 X14.3862 Y5.9446
G01 X14.3409 Y5.9401
G01 X14.2669 Y5.9291
G01 X14.2223 Y5.9203
G01 X14.1498 Y5.9021
G01 X14.1063 Y5.8889
G01 X14.0359 Y5.8637
G01 X13.9939 Y5.8463
G01 X13.9263 Y5.8143
G01 X13.8861 Y5.7929
G01 X13.8220 Y5.7544
G01 X13.7842 Y5.7292
G01 X13.7241 Y5.6846
G01 X13.6890 Y5.6558
G01 X13.6336 Y5.6056
G01 X13.6014 Y5.5734
G01 X13.5512 Y5.5180
G01 X13.5223 Y5.4828
G01 X13.4778 Y5.4228
G01 X13.4525 Y5.3850
G01 X13.4141 Y5.3208
G01 X13.3927 Y5.2807
G01 X13.3607 Y5.2131
G01 X13.3433 Y5.1711
G01 X13.3181 Y5.1007
G01 X13.3049 Y5.0572
G01 X13.2867 Y4.9846
G01 X13.2778 Y4.9400
G01 X13.2669 Y4.8661
G01 X13.2624 Y4.8208
G01 X13.2587 Y4.7461
G00 Z2.0000
G00 X15.7987 Y4.7461
G01 F60.00
G01 Z-0.2001
G01 F320.00
G01 X15.7987 Y4.7006
G01 X15.8024 Y4.6260
G01 X15.8069 Y4.5807
G01 X15.8178 Y4.5067
G01 X15.8267 Y4.4621
G01 X15.8449 Y4.3896
G01 X15.8581 Y4.3461
G01 X15.8833 Y4.2757
G01 X15.9007 Y4.2337
G01 X15.9327 Y4.1661
G01 X15.9541 Y4.1259
G01 X15.9925 Y4.0618
G01 X16.0178 Y4.0240
G01 X16.0623 Y3.9639
G01 X16.0912 Y3.9288
G01 X16.1414 Y3.8734
G01 X16.1736 Y3.8412
G01 X16.2290 Y3.7910
G01 X16.2641 Y3.7621
G01 X16.3242 Y3.7176
G01 X16.3620 Y3.6923
G01 X16.4261 Y3.6539
G01 X16.4663 Y3.6325
G01 X16.5339 Y3.6005
G01 X16.5759 Y3.5831
G01 X16.6463 Y3.5579
G01 X16.6898 Y3.5447
G01 X16.7623 Y3.5265
G01 X16.8069 Y3.5176
G01 X16.8809 Y3.5067
G01 X16.9262 Y3.5022
G01 X17.0009 Y3.4985
G01 X17.0463 Y3.4985
G01 X17.1210 Y3.5022
G01 X17.1663 Y3.5067
G01 X17.2402 Y3.5176
G01 X17.2848 Y3.5265
G01 X17.3574 Y3.5447
G01 X17.4009 Y3.5579
G01 X17.4713 Y3.5831
G01 X17.5133 Y3.6005
G01 X17.5809 Y3.6325
G01 X17.6210 Y3.6539
G01 X17.6852 Y3.6923
G01 X17.7230 Y3.7176
G01 X17.7830 Y3.7621
G01 X17.8182 Y3.7910
G01 X17.8736 Y3.8412
G01 X17.9058 Y3.8734
G01 X17.9560 Y3.9288
G01 X17.9848 Y3.9639
G01 X18.0294 Y4.0240
G01 X18.0546 Y4.0618
G01 X18.0931 Y4.1259
G01 X18.1145 Y4.1661
G01 X18.1465 Y4.2337
G01 X18.1639 Y4.2757
G01 X18.1891 Y4.3461
G01 X18.2023 Y4.3896
G01 X18.2205 Y4.4621
G01 X18.2293 Y4.5067
G01 X18.2403 Y4.5807
G01 X18.2448 Y4.6260
G01 X18.2484 Y4.7006
G01 X18.2484 Y4.7461
G01 X18.2448 Y4.8208
G01 X18.2403 Y4.8661
G01 X18.2293 Y4.9400
G01 X18.2205 Y4.9846
G01 X18.2023 Y5.0572
G01 X18.1891 Y5.1007
G01 X18.1639 Y5.1711
G01 X18.1465 Y5.2131
G01 X18.1145 Y5.2807
G01 X18.0931 Y5.3208
G01 X18.0546 Y5.3850
G01 X18.0294 Y5.4228
G01 X17.9848 Y5.4828
G01 X17.9560 Y5.5180
G01 X17.9058 Y5.5734
G01 X17.8736 Y5.6056
G01 X17.8182 Y5.6558
G01 X17.7830 Y5.6846
G01 X17.7230 Y5.7292
G01 X17.6852 Y5.7544
G01 X17.6210 Y5.7929
G01 X17.5809 Y5.8143
G01 X17.5133 Y5.8463
G01 X17.4713 Y5.8637
G01 X17.4009 Y5.8889
G01 X17.3574 Y5.9021
G01 X17.2848 Y5.9203
G01 X17.2402 Y5.9291
G01 X17.1663 Y5.9401
G01 X17.1210 Y5.9446
G01 X17.0463 Y5.9482
G01 X17.0009 Y5.9482
G01 X16.9262 Y5.9446
G01 X16.8809 Y5.9401
G01 X16.8069 Y5.9291
G01 X16.7623 Y5.9203
G01 X16.6898 Y5.9021
G01 X16.6463 Y5.8889
G01 X16.5759 Y5.8637
G01 X16.5339 Y5.8463
G01 X16.4663 Y5.8143
G01 X16.4261 Y5.7929
G01 X16.3620 Y5.7544
G01 X16.3242 Y5.7292
G01 X16.2641 Y5.6846
G01 X16.2290 Y5.6558
G01 X16.1736 Y5.6056
G01 X16.1414 Y5.5734
G01 X16.0912 Y5.5180
G01 X16.0623 Y5.4828
G01 X16.0178 Y5.4228
G01 X15.9925 Y5.3850
G01 X15.9541 Y5.3208
G01 X15.9327 Y5.2807
G01 X15.9007 Y5.2131
G01 X15.8833 Y5.1711
G01 X15.8581 Y5.1007
G01 X15.8449 Y5.0572
G01 X15.8267 Y4.9846
G01 X15.8178 Y4.9400
G01 X15.8069 Y4.8661
G01 X15.8024 Y4.8208
G01 X15.7987 Y4.7461
G00 Z2.0000
G00 X27.2608 Y9.8261
G01 F60.00
G01 Z-0.2001
G01 F320.00
G01 X27.2608 Y9.7806
G01 X27.2704 Y9.5846
G01 X27.2748 Y9.5394
G01 X27.3036 Y9.3452
G01 X27.3125 Y9.3006
G01 X27.3602 Y9.1102
G01 X27.3734 Y9.0667
G01 X27.4395 Y8.8819
G01 X27.4569 Y8.8399
G01 X27.5408 Y8.6625
G01 X27.5623 Y8.6224
G01 X27.6632 Y8.4540
G01 X27.6884 Y8.4162
G01 X27.8054 Y8.2586
G01 X27.8342 Y8.2234
G01 X27.9660 Y8.0780
G01 X27.9982 Y8.0458
G01 X28.1436 Y7.9140
G01 X28.1788 Y7.8852
G01 X28.3364 Y7.7682
G01 X28.3742 Y7.7430
G01 X28.5426 Y7.6421
G01 X28.5827 Y7.6206
G01 X28.7601 Y7.5367
G01 X28.8021 Y7.5193
G01 X28.9869 Y7.4532
G01 X29.0304 Y7.4400
G01 X29.2208 Y7.3923
G01 X29.2654 Y7.3834
G01 X29.4596 Y7.3546
G01 X29.5048 Y7.3502
G01 X29.7009 Y7.3405
G01 X29.7463 Y7.3405
G01 X29.9424 Y7.3502
G01 X29.9876 Y7.3546
G01 X30.1818 Y7.3834
G01 X30.2264 Y7.3923
G01 X30.4168 Y7.4400
G01 X30.4603 Y7.4532
G01 X30.6451 Y7.5193
G01 X30.6871 Y7.5367
G01 X30.8645 Y7.6206
G01 X30.9046 Y7.6421
G01 X31.0730 Y7.7430
G01 X31.1108 Y7.7682
G01 X31.2684 Y7.8852
G01 X31.3036 Y7.9140
G01 X31.4490 Y8.0458
G01 X31.4812 Y8.0780
G01 X31.6130 Y8.2234
G01 X31.6418 Y8.2586
G01 X31.7587 Y8.4162
G01 X31.7840 Y8.4540
G01 X31.8849 Y8.6224
G01 X31.9063 Y8.6625
G01 X31.9902 Y8.8399
G01 X32.0077 Y8.8819
G01 X32.0738 Y9.0667
G01 X32.0870 Y9.1102
G01 X32.1347 Y9.3006
G01 X32.1435 Y9.3452
G01 X32.1723 Y9.5394
G01 X32.1768 Y9.5846
G01 X32.1864 Y9.7806
G01 X32.1864 Y9.8261
G01 X32.1768 Y10.0222
G01 X32.1723 Y10.0674
G01 X32.1435 Y10.2616
G01 X32.1347 Y10.3062
G01 X32.0870 Y10.4965
G01 X32.0738 Y10.5401
G01 X32.0077 Y10.7249
G01 X31.9902 Y10.7669
G01 X31.9063 Y10.9443
G01 X31.8849 Y10.9844
G01 X31.7840 Y11.1528
G01 X31.7587 Y11.1906
G01 X31.6418 Y11.3482
G01 X31.6130 Y11.3834
G01 X31.4812 Y11.5288
G01 X31.4490 Y11.5609
G01 X31.3036 Y11.6928
G01 X31.2684 Y11.7216
G01 X31.1108 Y11.8385
G01 X31.0730 Y11.8638
G01 X30.9046 Y11.9647
G01 X30.8645 Y11.9861
G01 X30.6871 Y12.0700
G01 X30.6451 Y12.0874
G01 X30.4603 Y12.1536
G01 X30.4168 Y12.1668
G01 X30.2264 Y12.2145
G01 X30.1818 Y12.2233
G01 X29.9876 Y12.2521
G01 X29.9424 Y12.2566
G01 X29.7463 Y12.2662
G01 X29.7009 Y12.2662
G01 X29.5048 Y12.2566
G01 X29.4596 Y12.2521
G01 X29.2654 Y12.2233
G01 X29.2208 Y12.2145
G01 X29.0304 Y12.1668
G01 X28.9869 Y12.1536
G01 X28.8021 Y12.0874
G01 X28.7601 Y12.0700
G01 X28.5827 Y11.9861
G01 X28.5426 Y11.9647
G01 X28.3742 Y11.8638
G01 X28.3364 Y11.8385
G01 X28.1788 Y11.7216
G01 X28.1436 Y11.6928
G01 X27.9982 Y11.5609
G01 X27.9660 Y11.5288
G01 X27.8342 Y11.3834
G01 X27.8054 Y11.3482
G01 X27.6884 Y11.1906
G01 X27.6632 Y11.1528
G01 X27.5623 Y10.9844
G01 X27.5408 Y10.9443
G01 X27.4569 Y10.7669
G01 X27.4395 Y10.7249
G01 X27.3734 Y10.5401
G01 X27.3602 Y10.4965
G01 X27.3125 Y10.3062
G01 X27.3036 Y10.2616
G01 X27.2748 Y10.0674
G01 X27.2704 Y10.0222
G01 X27.2608 Y9.8261
G00 Z2.0000
G00 X12.6998 Y21.5397
G01 F60.00
G01 Z-0.2001
G01 F320.00
G01 X41.6674 Y21.5397
G01 X41.7242 Y21.4976
G01 X41.7620 Y21.4723
G01 X41.8261 Y21.4339
G01 X41.8663 Y21.4125
G01 X41.9339 Y21.3805
G01 X41.9759 Y21.3631
G01 X42.0463 Y21.3379
G01 X42.0898 Y21.3247
G01 X42.1623 Y21.3065
G01 X42.2069 Y21.2976
G01 X42.2809 Y21.2867
G01 X42.3262 Y21.2822
G01 X42.4009 Y21.2785
G01 X42.4463 Y21.2785
G01 X42.5210 Y21.2822
G01 X42.5663 Y21.2867
G01 X42.6402 Y21.2976
G01 X42.6848 Y21.3065
G01 X42.7574 Y21.3247
G01 X42.8009 Y21.3379
G01 X42.8713 Y21.3631
G01 X42.9133 Y21.3805
G01 X42.9809 Y21.4125
G01 X43.0210 Y21.4339
G01 X43.0852 Y21.4723
G01 X43.1230 Y21.4976
G01 X43.1830 Y21.5421
G01 X43.2182 Y21.5710
G01 X43.2736 Y21.6212
G01 X43.3058 Y21.6534
G01 X43.3560 Y21.7088
G01 X43.3848 Y21.7439
G01 X43.4294 Y21.8040
G01 X43.4546 Y21.8418
G01 X43.4931 Y21.9059
G01 X43.5145 Y21.9461
G01 X43.5465 Y22.0137
G01 X43.5639 Y22.0557
G01 X43.5891 Y22.1261
G01 X43.6023 Y22.1696
G01 X43.6205 Y22.2421
G01 X43.6293 Y22.2867
G01 X43.6403 Y22.3607
G01 X43.6448 Y22.4060
G01 X43.6484 Y22.4806
G01 X43.6484 Y22.5261
G01 X43.6448 Y22.6008
G01 X43.6403 Y22.6461
G01 X43.6293 Y22.7200
G01 X43.6205 Y22.7646
G01 X43.6023 Y22.8372
G01 X43.5891 Y22.8807
G01 X43.5639 Y22.9511
G01 X43.5465 Y22.9931
G01 X43.5145 Y23.0607
G01 X43.4931 Y23.1008
G01 X43.4546 Y23.1650
G01 X43.4294 Y23.2028
G01 X43.3848 Y23.2628
G01 X43.3560 Y23.2980
G01 X43.3058 Y23.3534
G01 X43.2736 Y23.3856
G01 X43.2182 Y23.4358
G01 X43.1830 Y23.4646
G01 X43.1230 Y23.5092
G01 X43.0852 Y23.5344
G01 X43.0210 Y23.5729
G01 X42.9809 Y23.5943
G01 X42.9133 Y23.6263
G01 X42.8713 Y23.6437
G01 X42.8009 Y23.6689
G01 X42.7574 Y23.6821
G01 X42.6848 Y23.7003
G01 X42.6402 Y23.7091
G01 X42.5663 Y23.7201
G01 X42.5210 Y23.7246
G01 X42.4463 Y23.7282
G01 X42.4009 Y23.7282
G01 X42.3262 Y23.7246
G01 X42.2809 Y23.7201
G01 X42.2069 Y23.7091
G01 X42.1623 Y23.7003
G01 X42.0898 Y23.6821
G01 X42.0463 Y23.6689
G01 X41.9759 Y23.6437
G01 X41.9339 Y23.6263
G01 X41.8663 Y23.5943
G01 X41.8261 Y23.5729
G01 X41.7620 Y23.5344
G01 X41.7242 Y23.5092
G01 X41.6674 Y23.4670
G01 X12.6998 Y23.4670
G01 X12.6430 Y23.5092
G01 X12.6052 Y23.5344
G01 X12.5410 Y23.5729
G01 X12.5009 Y23.5943
G01 X12.4333 Y23.6263
G01 X12.3913 Y23.6437
G01 X12.3209 Y23.6689
G01 X12.2774 Y23.6821
G01 X12.2048 Y23.7003
G01 X12.1602 Y23.7091
G01 X12.0863 Y23.7201
G01 X12.0410 Y23.7246
G01 X11.9663 Y23.7282
G01 X11.9209 Y23.7282
G01 X11.8462 Y23.7246
G01 X11.8009 Y23.7201
G01 X11.7269 Y23.7091
G01 X11.6823 Y23.7003
G01 X11.6098 Y23.6821
G01 X11.5663 Y23.6689
G01 X11.4959 Y23.6437
G01 X11.4539 Y23.6263
G01 X11.3863 Y23.5943
G01 X11.3461 Y23.5729
G01 X11.2820 Y23.5344
G01 X11.2442 Y23.5092
G01 X11.1841 Y23.4646
G01 X11.1490 Y23.4358
G01 X11.0936 Y23.3856
G01 X11.0614 Y23.3534
G01 X11.0112 Y23.2980
G01 X10.9823 Y23.2628
G01 X10.9378 Y23.2028
G01 X10.9125 Y23.1650
G01 X10.8741 Y23.1008
G01 X10.8527 Y23.0607
G01 X10.8207 Y22.9931
G01 X10.8033 Y22.9511
G01 X10.7781 Y22.8807
G01 X10.7649 Y22.8372
G01 X10.7467 Y22.7646
G01 X10.7378 Y22.7200
G01 X10.7269 Y22.6461
G01 X10.7224 Y22.6008
G01 X10.7187 Y22.5261
G01 X10.7187 Y22.4806
G01 X10.7224 Y22.4060
G01 X10.7269 Y22.3607
G01 X10.7378 Y22.2867
G01 X10.7467 Y22.2421
G01 X10.7649 Y22.1696
G01 X10.7781 Y22.1261
G01 X10.8033 Y22.0557
G01 X10.8207 Y22.0137
G01 X10.8527 Y21.9461
G01 X10.8741 Y21.9059
G01 X10.9125 Y21.8418
G01 X10.9378 Y21.8040
G01 X10.9823 Y21.7439
G01 X11.0112 Y21.7088
G01 X11.0614 Y21.6534
G01 X11.0936 Y21.6212
G01 X11.1490 Y21.5710
G01 X11.1841 Y21.5421
G01 X11.2442 Y21.4976
G01 X11.2820 Y21.4723
G01 X11.3461 Y21.4339
G01 X11.3863 Y21.4125
G01 X11.4539 Y21.3805
G01 X11.4959 Y21.3631
G01 X11.5663 Y21.3379
G01 X11.6098 Y21.3247
G01 X11.6823 Y21.3065
G01 X11.7269 Y21.2976
G01 X11.8009 Y21.2867
G01 X11.8462 Y21.2822
G01 X11.9209 Y21.2785
G01 X11.9663 Y21.2785
G01 X12.0410 Y21.2822
G01 X12.0863 Y21.2867
G01 X12.1602 Y21.2976
G01 X12.2048 Y21.3065
G01 X12.2774 Y21.3247
G01 X12.3209 Y21.3379
G01 X12.3913 Y21.3631
G01 X12.4333 Y21.3805
G01 X12.5009 Y21.4125
G01 X12.5410 Y21.4339
G01 X12.6052 Y21.4723
G01 X12.6430 Y21.4976
G01 X12.6998 Y21.5397
G00 Z2.0000
G00 X49.0799 Y29.3672
G01 F60.00
G01 Z-0.2001
G01 F320.00
G01 X49.0799 Y23.2596
G01 X49.0378 Y23.2028
G01 X49.0125 Y23.1650
G01 X48.9741 Y23.1008
G01 X48.9527 Y23.0607
G01 X48.9207 Y22.9931
G01 X48.9033 Y22.9511
G01 X48.8781 Y22.8807
G01 X48.8649 Y22.8372
G01 X48.8467 Y22.7646
G01 X48.8378 Y22.7200
G01 X48.8269 Y22.6461
G01 X48.8224 Y22.6008
G01 X48.8187 Y22.5261
G01 X48.8187 Y22.4806
G01 X48.8224 Y22.4060
G01 X48.8269 Y22.3607
G01 X48.8378 Y22.2867
G01 X48.8467 Y22.2421
G01 X48.8649 Y22.1696
G01 X48.8781 Y22.1261
G01 X48.9033 Y22.0557
G01 X48.9207 Y22.0137
G01 X48.9527 Y21.9461
G01 X48.9741 Y21.9059
G01 X49.0125 Y21.8418
G01 X49.0378 Y21.8040
G01 X49.0823 Y21.7439
G01 X49.1112 Y21.7088
G01 X49.1614 Y21.6534
G01 X49.1936 Y21.6212
G01 X49.2490 Y21.5710
G01 X49.2841 Y21.5421
G01 X49.3442 Y21.4976
G01 X49.3820 Y21.4723
G01 X49.4461 Y21.4339
G01 X49.4863 Y21.4125
G01 X49.5539 Y21.3805
G01 X49.5959 Y21.3631
G01 X49.6663 Y21.3379
G01 X49.7098 Y21.3247
G01 X49.7823 Y21.3065
G01 X49.8269 Y21.2976
G01 X49.9009 Y21.2867
G01 X49.9462 Y21.2822
G01 X50.0209 Y21.2785
G01 X50.0663 Y21.2785
G01 X50.1410 Y21.2822
G01 X50.1863 Y21.2867
G01 X50.2602 Y21.2976
G01 X50.3048 Y21.3065
G01 X50.3774 Y21.3247
G01 X50.4209 Y21.3379
G01 X50.4913 Y21.3631
G01 X50.5333 Y21.3805
G01 X50.6009 Y21.4125
G01 X50.6410 Y21.4339
G01 X50.7052 Y21.4723
G01 X50.7430 Y21.4976
G01 X50.7998 Y21.5397
G01 X51.8274 Y21.5397
G01 X51.8842 Y21.4976
G01 X51.9220 Y21.4723
G01 X51.9861 Y21.4339
G01 X52.0263 Y21.4125
G01 X52.0939 Y21.3805
G01 X52.1359 Y21.3631
G01 X52.2063 Y21.3379
G01 X52.2498 Y21.3247
G01 X52.3223 Y21.3065
G01 X52.3669 Y21.2976
G01 X52.4409 Y21.2867
G01 X52.4862 Y21.2822
G01 X52.5609 Y21.2785
G01 X52.6063 Y21.2785
G01 X52.6810 Y21.2822
G01 X52.7263 Y21.2867
G01 X52.8002 Y21.2976
G01 X52.8448 Y21.3065
G01 X52.9174 Y21.3247
G01 X52.9609 Y21.3379
G01 X53.0313 Y21.3631
G01 X53.0733 Y21.3805
G01 X53.1409 Y21.4125
G01 X53.1810 Y21.4339
G01 X53.2452 Y21.4723
G01 X53.2830 Y21.4976
G01 X53.3430 Y21.5421
G01 X53.3782 Y21.5710
G01 X53.4336 Y21.6212
G01 X53.4658 Y21.6534
G01 X53.5160 Y21.7088
G01 X53.5448 Y21.7439
G01 X53.5894 Y21.8040
G01 X53.6146 Y21.8418
G01 X53.6531 Y21.9059
G01 X53.6745 Y21.9461
G01 X53.7065 Y22.0137
G01 X53.7239 Y22.0557
G01 X53.7491 Y22.1261
G01 X53.7623 Y22.1696
G01 X53.7805 Y22.2421
G01 X53.7893 Y22.2867
G01 X53.8003 Y22.3607
G01 X53.8048 Y22.4060
G01 X53.8084 Y22.4806
G01 X53.8084 Y22.5261
G01 X53.8048 Y22.6008
G01 X53.8003 Y22.6461
G01 X53.7893 Y22.7200
G01 X53.7805 Y22.7646
G01 X53.7623 Y22.8372
G01 X53.7491 Y22.8807
G01 X53.7239 Y22.9511
G01 X53.7065 Y22.9931
G01 X53.6745 Y23.0607
G01 X53.6531 Y23.1008
G01 X53.6146 Y23.1650
G01 X53.5894 Y23.2028
G01 X53.5448 Y23.2628
G01 X53.5160 Y23.2980
G01 X53.4658 Y23.3534
G01 X53.4336 Y23.3856
G01 X53.3782 Y23.4358
G01 X53.3430 Y23.4646
G01 X53.2830 Y23.5092
G01 X53.2452 Y23.5344
G01 X53.1810 Y23.5729
G01 X53.1409 Y23.5943
G01 X53.0733 Y23.6263
G01 X53.0313 Y23.6437
G01 X52.9609 Y23.6689
G01 X52.9174 Y23.6821
G01 X52.8448 Y23.7003
G01 X52.8002 Y23.7091
G01 X52.7263 Y23.7201
G01 X52.6810 Y23.7246
G01 X52.6063 Y23.7282
G01 X52.5609 Y23.7282
G01 X52.4862 Y23.7246
G01 X52.4409 Y23.7201
G01 X52.3669 Y23.7091
G01 X52.3223 Y23.7003
G01 X52.2498 Y23.6821
G01 X52.2063 Y23.6689
G01 X52.1359 Y23.6437
G01 X52.0939 Y23.6263
G01 X52.0263 Y23.5943
G01 X51.9861 Y23.5729
G01 X51.9220 Y23.5344
G01 X51.8842 Y23.5092
G01 X51.8274 Y23.4670
G01 X51.0072 Y23.4670
G01 X51.0072 Y24.0797
G01 X56.9074 Y24.0797
G01 X56.9642 Y24.0376
G01 X57.0020 Y24.0123
G01 X57.0661 Y23.9739
G01 X57.1063 Y23.9525
G01 X57.1739 Y23.9205
G01 X57.2159 Y23.9031
G01 X57.2863 Y23.8779
G01 X57.3298 Y23.8647
G01 X57.4023 Y23.8465
G01 X57.4469 Y23.8376
G01 X57.5209 Y23.8267
G01 X57.5662 Y23.8222
G01 X57.6409 Y23.8185
G01 X57.6863 Y23.8185
G01 X57.7610 Y23.8222
G01 X57.8063 Y23.8267
G01 X57.8802 Y23.8376
G01 X57.9248 Y23.8465
G01 X57.9974 Y23.8647
G01 X58.0409 Y23.8779
G01 X58.1113 Y23.9031
G01 X58.1533 Y23.9205
G01 X58.2209 Y23.9525
G01 X58.2610 Y23.9739
G01 X58.3252 Y24.0123
G01 X58.3630 Y24.0376
G01 X58.4230 Y24.0821
G01 X58.4582 Y24.1110
G01 X58.5136 Y24.1612
G01 X58.5458 Y24.1934
G01 X58.5960 Y24.2488
G01 X58.6248 Y24.2839
G01 X58.6694 Y24.3440
G01 X58.6946 Y24.3818
G01 X58.7331 Y24.4459
G01 X58.7545 Y24.4861
G01 X58.7865 Y24.5537
G01 X58.8039 Y24.5957
G01 X58.8291 Y24.6661
G01 X58.8423 Y24.7096
G01 X58.8605 Y24.7821
G01 X58.8693 Y24.8267
G01 X58.8803 Y24.9007
G01 X58.8848 Y24.9460
G01 X58.8884 Y25.0206
G01 X58.8884 Y25.0661
G01 X58.8848 Y25.1408
G01 X58.8803 Y25.1861
G01 X58.8693 Y25.2600
G01 X58.8605 Y25.3046
G01 X58.8423 Y25.3772
G01 X58.8291 Y25.4207
G01 X58.8039 Y25.4911
G01 X58.7865 Y25.5331
G01 X58.7545 Y25.6007
G01 X58.7331 Y25.6408
G01 X58.6946 Y25.7050
G01 X58.6694 Y25.7428
G01 X58.6248 Y25.8028
G01 X58.5960 Y25.8380
G01 X58.5458 Y25.8934
G01 X58.5136 Y25.9256
G01 X58.4582 Y25.9758
G01 X58.4230 Y26.0046
G01 X58.3630 Y26.0492
G01 X58.3252 Y26.0744
G01 X58.2610 Y26.1129
G01 X58.2209 Y26.1343
G01 X58.1533 Y26.1663
G01 X58.1113 Y26.1837
G01 X58.0409 Y26.2089
G01 X57.9974 Y26.2221
G01 X57.9248 Y26.2403
G01 X57.8802 Y26.2491
G01 X57.8063 Y26.2601
G01 X57.7610 Y26.2646
G01 X57.6863 Y26.2682
G01 X57.6409 Y26.2682
G01 X57.5662 Y26.2646
G01 X57.5209 Y26.2601
G01 X57.4469 Y26.2491
G01 X57.4023 Y26.2403
G01 X57.3298 Y26.2221
G01 X57.2863 Y26.2089
G01 X57.2159 Y26.1837
G01 X57.1739 Y26.1663
G01 X57.1063 Y26.1343
G01 X57.0661 Y26.1129
G01 X57.0020 Y26.0744
G01 X56.9642 Y26.0492
G01 X56.9074 Y26.0070
G01 X51.0072 Y26.0070
G01 X51.0072 Y29.3672
G01 X51.0494 Y29.4240
G01 X51.0746 Y29.4618
G01 X51.1131 Y29.5259
G01 X51.1345 Y29.5661
G01 X51.1665 Y29.6337
G01 X51.1839 Y29.6757
G01 X51.2091 Y29.7461
G01 X51.2223 Y29.7896
G01 X51.2405 Y29.8621
G01 X51.2493 Y29.9067
G01 X51.2603 Y29.9807
G01 X51.2648 Y30.0260
G01 X51.2684 Y30.1006
G01 X51.2684 Y30.1461
G01 X51.2648 Y30.2208
G01 X51.2603 Y30.2661
G01 X51.2493 Y30.3400
G01 X51.2405 Y30.3846
G01 X51.2223 Y30.4572
G01 X51.2091 Y30.5007
G01 X51.1839 Y30.5711
G01 X51.1665 Y30.6131
G01 X51.1345 Y30.6807
G01 X51.1131 Y30.7208
G01 X51.0746 Y30.7850
G01 X51.0494 Y30.8228
G01 X51.0048 Y30.8828
G01 X50.9760 Y30.9180
G01 X50.9258 Y30.9734
G01 X50.8936 Y31.0056
G01 X50.8382 Y31.0558
G01 X50.8030 Y31.0846
G01 X50.7430 Y31.1292
G01 X50.7052 Y31.1544
G01 X50.6410 Y31.1929
G01 X50.6009 Y31.2143
G01 X50.5333 Y31.2463
G01 X50.4913 Y31.2637
G01 X50.4209 Y31.2889
G01 X50.3774 Y31.3021
G01 X50.3048 Y31.3203
G01 X50.2602 Y31.3291
G01 X50.1863 Y31.3401
G01 X50.1410 Y31.3446
G01 X50.0663 Y31.3482
G01 X50.0209 Y31.3482
G01 X49.9462 Y31.3446
G01 X49.9009 Y31.3401
G01 X49.8269 Y31.3291
G01 X49.7823 Y31.3203
G01 X49.7098 Y31.3021
G01 X49.6663 Y31.2889
G01 X49.5959 Y31.2637
G01 X49.5539 Y31.2463
G01 X49.4863 Y31.2143
G01 X49.4461 Y31.1929
G01 X49.3820 Y31.1544
G01 X49.3442 Y31.1292
G01 X49.2841 Y31.0846
G01 X49.2490 Y31.0558
G01 X49.1936 Y31.0056
G01 X49.1614 Y30.9734
G01 X49.1112 Y30.9180
G01 X49.0823 Y30.8828
G01 X49.0378 Y30.8228
G01 X49.0125 Y30.7850
G01 X48.9741 Y30.7208
G01 X48.9527 Y30.6807
G01 X48.9207 Y30.6131
G01 X48.9033 Y30.5711
G01 X48.8781 Y30.5007
G01 X48.8649 Y30.4572
G01 X48.8467 Y30.3846
G01 X48.8378 Y30.3400
G01 X48.8269 Y30.2661
G01 X48.8224 Y30.2208
G01 X48.8187 Y30.1461
G01 X48.8187 Y30.1006
G01 X48.8224 Y30.0260
G01 X48.8269 Y29.9807
G01 X48.8378 Y29.9067
G01 X48.8467 Y29.8621
G01 X48.8649 Y29.7896
G01 X48.8781 Y29.7461
G01 X48.9033 Y29.6757
G01 X48.9207 Y29.6337
G01 X48.9527 Y29.5661
G01 X48.9741 Y29.5259
G01 X49.0125 Y29.4618
G01 X49.0378 Y29.4240
G01 X49.0799 Y29.3672
G00 Z2.0000
G00 X54.1599 Y35.8535
G01 F60.00
G01 Z-0.2001
G01 F320.00
G01 X54.1599 Y36.7797
G01 X52.5836 Y36.7797
G01 X52.5609 Y36.7803
G01 X52.5118 Y36.7827
G01 X52.4666 Y36.7872
G01 X52.4180 Y36.7944
G01 X52.3734 Y36.8032
G01 X52.3258 Y36.8152
G01 X52.2823 Y36.8284
G01 X52.2360 Y36.8449
G01 X52.1940 Y36.8623
G01 X52.1496 Y36.8833
G01 X52.1095 Y36.9047
G01 X52.0674 Y36.9300
G01 X52.0296 Y36.9552
G01 X51.9902 Y36.9845
G01 X51.9550 Y37.0133
G01 X51.9187 Y37.0463
G01 X51.8865 Y37.0785
G01 X51.8535 Y37.1148
G01 X51.8247 Y37.1500
G01 X51.7954 Y37.1894
G01 X51.7702 Y37.2272
G01 X51.7449 Y37.2693
G01 X51.7235 Y37.3094
G01 X51.7025 Y37.3538
G01 X51.6851 Y37.3958
G01 X51.6686 Y37.4421
G01 X51.6554 Y37.4856
G01 X51.6434 Y37.5332
G01 X51.6346 Y37.5778
G01 X51.6274 Y37.6264
G01 X51.6229 Y37.6716
G01 X51.6205 Y37.7206
G01 X51.6199 Y37.7434
G01 X51.6199 Y41.7416
G01 X51.5754 Y41.7551
G01 X51.5144 Y41.7769
G01 X51.4723 Y41.7943
G01 X51.4137 Y41.8221
G01 X51.3736 Y41.8435
G01 X51.3181 Y41.8768
G01 X51.2802 Y41.9021
G01 X51.2282 Y41.9407
G01 X51.1930 Y41.9695
G01 X51.1450 Y42.0131
G01 X51.1129 Y42.0452
G01 X51.0693 Y42.0932
G01 X51.0405 Y42.1284
G01 X51.0072 Y42.1732
G01 X51.0072 Y38.4996
G01 X51.0494 Y38.4428
G01 X51.0746 Y38.4050
G01 X51.1131 Y38.3408
G01 X51.1345 Y38.3007
G01 X51.1665 Y38.2331
G01 X51.1839 Y38.1911
G01 X51.2091 Y38.1207
G01 X51.2223 Y38.0772
G01 X51.2405 Y38.0046
G01 X51.2493 Y37.9600
G01 X51.2603 Y37.8861
G01 X51.2648 Y37.8408
G01 X51.2684 Y37.7661
G01 X51.2684 Y37.7206
G01 X51.2648 Y37.6460
G01 X51.2603 Y37.6007
G01 X51.2493 Y37.5267
G01 X51.2405 Y37.4821
G01 X51.2223 Y37.4096
G01 X51.2091 Y37.3661
G01 X51.1839 Y37.2957
G01 X51.1665 Y37.2537
G01 X51.1345 Y37.1861
G01 X51.1131 Y37.1459
G01 X51.0746 Y37.0818
G01 X51.0494 Y37.0440
G01 X51.0072 Y36.9872
G01 X51.0072 Y36.1670
G01 X51.3465 Y36.1670
G01 X51.3736 Y36.1833
G01 X51.4137 Y36.2047
G01 X51.4723 Y36.2324
G01 X51.5144 Y36.2498
G01 X51.5754 Y36.2717
G01 X51.6189 Y36.2849
G01 X51.6818 Y36.3006
G01 X51.7264 Y36.3095
G01 X51.7905 Y36.3190
G01 X51.8357 Y36.3234
G01 X51.9005 Y36.3266
G01 X51.9232 Y36.3272
G01 X53.2440 Y36.3272
G01 X53.2667 Y36.3266
G01 X53.3315 Y36.3234
G01 X53.3767 Y36.3190
G01 X53.4408 Y36.3095
G01 X53.4854 Y36.3006
G01 X53.5483 Y36.2849
G01 X53.5918 Y36.2717
G01 X53.6528 Y36.2498
G01 X53.6948 Y36.2324
G01 X53.7534 Y36.2047
G01 X53.7935 Y36.1833
G01 X53.8491 Y36.1500
G01 X53.8869 Y36.1247
G01 X53.9390 Y36.0861
G01 X53.9741 Y36.0572
G01 X54.0222 Y36.0137
G01 X54.0543 Y35.9816
G01 X54.0978 Y35.9335
G01 X54.1267 Y35.8984
G01 X54.1599 Y35.8535
G00 Z2.0000
G00 X56.0872 Y34.5532
G01 F60.00
G01 Z-0.2001
G01 F320.00
G01 X56.0872 Y33.3135
G01 X56.1205 Y33.3584
G01 X56.1493 Y33.3935
G01 X56.1929 Y33.4416
G01 X56.2250 Y33.4737
G01 X56.2730 Y33.5172
G01 X56.3082 Y33.5461
G01 X56.3602 Y33.5847
G01 X56.3981 Y33.6100
G01 X56.4536 Y33.6433
G01 X56.4937 Y33.6647
G01 X56.5523 Y33.6924
G01 X56.5944 Y33.7098
G01 X56.6554 Y33.7317
G01 X56.6989 Y33.7449
G01 X56.7618 Y33.7606
G01 X56.8064 Y33.7695
G01 X56.8705 Y33.7790
G01 X56.9157 Y33.7834
G01 X56.9805 Y33.7866
G01 X57.0032 Y33.7872
G01 X58.3240 Y33.7872
G01 X58.3467 Y33.7866
G01 X58.4115 Y33.7834
G01 X58.4567 Y33.7790
G01 X58.5208 Y33.7695
G01 X58.5654 Y33.7606
G01 X58.6283 Y33.7449
G01 X58.6718 Y33.7317
G01 X58.7328 Y33.7098
G01 X58.7748 Y33.6924
G01 X58.8334 Y33.6647
G01 X58.8735 Y33.6433
G01 X58.9291 Y33.6100
G01 X58.9669 Y33.5847
G01 X59.0190 Y33.5461
G01 X59.0541 Y33.5172
G01 X59.1022 Y33.4737
G01 X59.1343 Y33.4416
G01 X59.1778 Y33.3935
G01 X59.2067 Y33.3584
G01 X59.2399 Y33.3135
G01 X59.2399 Y34.5532
G01 X59.2067 Y34.5084
G01 X59.1778 Y34.4732
G01 X59.1343 Y34.4252
G01 X59.1022 Y34.3931
G01 X59.0541 Y34.3495
G01 X59.0190 Y34.3207
G01 X58.9669 Y34.2821
G01 X58.9291 Y34.2568
G01 X58.8735 Y34.2235
G01 X58.8334 Y34.2021
G01 X58.7748 Y34.1743
G01 X58.7328 Y34.1569
G01 X58.6718 Y34.1351
G01 X58.6283 Y34.1219
G01 X58.5654 Y34.1062
G01 X58.5208 Y34.0973
G01 X58.4567 Y34.0878
G01 X58.4115 Y34.0833
G01 X58.3467 Y34.0801
G01 X58.3240 Y34.0796
G01 X57.0032 Y34.0796
G01 X56.9805 Y34.0801
G01 X56.9157 Y34.0833
G01 X56.8705 Y34.0878
G01 X56.8064 Y34.0973
G01 X56.7618 Y34.1062
G01 X56.6989 Y34.1219
G01 X56.6554 Y34.1351
G01 X56.5944 Y34.1569
G01 X56.5523 Y34.1743
G01 X56.4937 Y34.2021
G01 X56.4536 Y34.2235
G01 X56.3981 Y34.2568
G01 X56.3602 Y34.2821
G01 X56.3082 Y34.3207
G01 X56.2730 Y34.3495
G01 X56.2250 Y34.3931
G01 X56.1929 Y34.4252
G01 X56.1493 Y34.4732
G01 X56.1205 Y34.5084
G01 X56.0872 Y34.5532
G00 Z2.0000
G00 X59.2399 Y35.8535
G01 F60.00
G01 Z-0.2001
G01 F320.00
G01 X59.2399 Y42.1732
G01 X59.2067 Y42.1284
G01 X59.1778 Y42.0932
G01 X59.1343 Y42.0452
G01 X59.1022 Y42.0131
G01 X59.0541 Y41.9695
G01 X59.0190 Y41.9407
G01 X58.9669 Y41.9021
G01 X58.9291 Y41.8768
G01 X58.8735 Y41.8435
G01 X58.8334 Y41.8221
G01 X58.7748 Y41.7943
G01 X58.7328 Y41.7769
G01 X58.6718 Y41.7551
G01 X58.6283 Y41.7419
G01 X58.5654 Y41.7262
G01 X58.5208 Y41.7173
G01 X58.4567 Y41.7078
G01 X58.4115 Y41.7033
G01 X58.3467 Y41.7001
G01 X58.3240 Y41.6996
G01 X57.0032 Y41.6996
G01 X56.9805 Y41.7001
G01 X56.9157 Y41.7033
G01 X56.8705 Y41.7078
G01 X56.8064 Y41.7173
G01 X56.7618 Y41.7262
G01 X56.6989 Y41.7419
G01 X56.6554 Y41.7551
G01 X56.5944 Y41.7769
G01 X56.5523 Y41.7943
G01 X56.4937 Y41.8221
G01 X56.4536 Y41.8435
G01 X56.3981 Y41.8768
G01 X56.3602 Y41.9021
G01 X56.3082 Y41.9407
G01 X56.2730 Y41.9695
G01 X56.2250 Y42.0131
G01 X56.1929 Y42.0452
G01 X56.1493 Y42.0932
G01 X56.1205 Y42.1284
G01 X56.0872 Y42.1732
G01 X56.0872 Y41.2470
G01 X57.6636 Y41.2470
G01 X57.6863 Y41.2465
G01 X57.7354 Y41.2441
G01 X57.7806 Y41.2396
G01 X57.8292 Y41.2324
G01 X57.8738 Y41.2235
G01 X57.9214 Y41.2116
G01 X57.9649 Y41.1984
G01 X58.0111 Y41.1819
G01 X58.0532 Y41.1645
G01 X58.0975 Y41.1435
G01 X58.1376 Y41.1220
G01 X58.1797 Y41.0968
G01 X58.2176 Y41.0715
G01 X58.2570 Y41.0423
G01 X58.2921 Y41.0134
G01 X58.3285 Y40.9805
G01 X58.3607 Y40.9483
G01 X58.3936 Y40.9119
G01 X58.4225 Y40.8768
G01 X58.4517 Y40.8374
G01 X58.4770 Y40.7995
G01 X58.5022 Y40.7574
G01 X58.5237 Y40.7173
G01 X58.5447 Y40.6729
G01 X58.5621 Y40.6309
G01 X58.5786 Y40.5847
G01 X58.5918 Y40.5412
G01 X58.6037 Y40.4936
G01 X58.6126 Y40.4490
G01 X58.6198 Y40.4004
G01 X58.6243 Y40.3552
G01 X58.6267 Y40.3061
G01 X58.6272 Y40.2834
G01 X58.6272 Y36.2851
G01 X58.6718 Y36.2717
G01 X58.7328 Y36.2498
G01 X58.7748 Y36.2324
G01 X58.8334 Y36.2047
G01 X58.8735 Y36.1833
G01 X58.9291 Y36.1500
G01 X58.9669 Y36.1247
G01 X59.0190 Y36.0861
G01 X59.0541 Y36.0572
G01 X59.1022 Y36.0137
G01 X59.1343 Y35.9816
G01 X59.1778 Y35.9335
G01 X59.2067 Y35.8984
G01 X59.2399 Y35.8535
G00 Z2.0000
G00 X61.7799 Y29.3672
G01 F60.00
G01 Z-0.2001
G01 F320.00
G01 X61.7799 Y23.2596
G01 X61.7378 Y23.2028
G01 X61.7125 Y23.1650
G01 X61.6741 Y23.1008
G01 X61.6527 Y23.0607
G01 X61.6207 Y22.9931
G01 X61.6033 Y22.9511
G01 X61.5781 Y22.8807
G01 X61.5649 Y22.8372
G01 X61.5467 Y22.7646
G01 X61.5378 Y22.7200
G01 X61.5269 Y22.6461
G01 X61.5224 Y22.6008
G01 X61.5187 Y22.5261
G01 X61.5187 Y22.4806
G01 X61.5224 Y22.4060
G01 X61.5269 Y22.3607
G01 X61.5378 Y22.2867
G01 X61.5467 Y22.2421
G01 X61.5649 Y22.1696
G01 X61.5781 Y22.1261
G01 X61.6033 Y22.0557
G01 X61.6207 Y22.0137
G01 X61.6527 Y21.9461
G01 X61.6741 Y21.9059
G01 X61.7125 Y21.8418
G01 X61.7378 Y21.8040
G01 X61.7823 Y21.7439
G01 X61.8112 Y21.7088
G01 X61.8614 Y21.6534
G01 X61.8936 Y21.6212
G01 X61.9490 Y21.5710
G01 X61.9841 Y21.5421
G01 X62.0442 Y21.4976
G01 X62.0820 Y21.4723
G01 X62.1461 Y21.4339
G01 X62.1863 Y21.4125
G01 X62.2539 Y21.3805
G01 X62.2959 Y21.3631
G01 X62.3663 Y21.3379
G01 X62.4098 Y21.3247
G01 X62.4823 Y21.3065
G01 X62.5269 Y21.2976
G01 X62.6009 Y21.2867
G01 X62.6462 Y21.2822
G01 X62.7209 Y21.2785
G01 X62.7663 Y21.2785
G01 X62.8410 Y21.2822
G01 X62.8863 Y21.2867
G01 X62.9602 Y21.2976
G01 X63.0048 Y21.3065
G01 X63.0774 Y21.3247
G01 X63.1209 Y21.3379
G01 X63.1913 Y21.3631
G01 X63.2333 Y21.3805
G01 X63.3009 Y21.4125
G01 X63.3410 Y21.4339
G01 X63.4052 Y21.4723
G01 X63.4430 Y21.4976
G01 X63.4998 Y21.5397
G01 X64.5274 Y21.5397
G01 X64.5842 Y21.4976
G01 X64.6220 Y21.4723
G01 X64.6861 Y21.4339
G01 X64.7263 Y21.4125
G01 X64.7939 Y21.3805
G01 X64.8359 Y21.3631
G01 X64.9063 Y21.3379
G01 X64.9498 Y21.3247
G01 X65.0223 Y21.3065
G01 X65.0669 Y21.2976
G01 X65.1409 Y21.2867
G01 X65.1862 Y21.2822
G01 X65.2609 Y21.2785
G01 X65.3063 Y21.2785
G01 X65.3810 Y21.2822
G01 X65.4263 Y21.2867
G01 X65.5002 Y21.2976
G01 X65.5448 Y21.3065
G01 X65.6174 Y21.3247
G01 X65.6609 Y21.3379
G01 X65.7313 Y21.3631
G01 X65.7733 Y21.3805
G01 X65.8409 Y21.4125
G01 X65.8810 Y21.4339
G01 X65.9452 Y21.4723
G01 X65.9830 Y21.4976
G01 X66.0430 Y21.5421
G01 X66.0782 Y21.5710
G01 X66.1336 Y21.6212
G01 X66.1658 Y21.6534
G01 X66.2160 Y21.7088
G01 X66.2448 Y21.7439
G01 X66.2894 Y21.8040
G01 X66.3146 Y21.8418
G01 X66.3531 Y21.9059
G01 X66.3745 Y21.9461
G01 X66.4065 Y22.0137
G01 X66.4239 Y22.0557
G01 X66.4491 Y22.1261
G01 X66.4623 Y22.1696
G01 X66.4805 Y22.2421
G01 X66.4893 Y22.2867
G01 X66.5003 Y22.3607
G01 X66.5048 Y22.4060
G01 X66.5084 Y22.4806
G01 X66.5084 Y22.5261
G01 X66.5048 Y22.6008
G01 X66.5003 Y22.6461
G01 X66.4893 Y22.7200
G01 X66.4805 Y22.7646
G01 X66.4623 Y22.8372
G01 X66.4491 Y22.8807
G01 X66.4239 Y22.9511
G01 X66.4065 Y22.9931
G01 X66.3745 Y23.0607
G01 X66.3531 Y23.1008
G01 X66.3146 Y23.1650
G01 X66.2894 Y23.2028
G01 X66.2448 Y23.2628
G01 X66.2160 Y23.2980
G01 X66.1658 Y23.3534
G01 X66.1336 Y23.3856
G01 X66.0782 Y23.4358
G01 X66.0430 Y23.4646
G01 X65.9830 Y23.5092
G01 X65.9452 Y23.5344
G01 X65.8810 Y23.5729
G01 X65.8409 Y23.5943
G01 X65.7733 Y23.6263
G01 X65.7313 Y23.6437
G01 X65.6609 Y23.6689
G01 X65.6174 Y23.6821
G01 X65.5448 Y23.7003
G01 X65.5002 Y23.7091
G01 X65.4263 Y23.7201
G01 X65.3810 Y23.7246
G01 X65.3063 Y23.7282
G01 X65.2609 Y23.7282
G01 X65.1862 Y23.7246
G01 X65.1409 Y23.7201
G01 X65.0669 Y23.7091
G01 X65.0223 Y23.7003
G01 X64.9498 Y23.6821
G01 X64.9063 Y23.6689
G01 X64.8359 Y23.6437
G01 X64.7939 Y23.6263
G01 X64.7263 Y23.5943
G01 X64.6861 Y23.5729
G01 X64.6220 Y23.5344
G01 X64.5842 Y23.5092
G01 X64.5274 Y23.4670
G01 X63.7072 Y23.4670
G01 X63.7072 Y24.0797
G01 X69.6074 Y24.0797
G01 X69.6642 Y24.0376
G01 X69.7020 Y24.0123
G01 X69.7661 Y23.9739
G01 X69.8063 Y23.9525
G01 X69.8739 Y23.9205
G01 X69.9159 Y23.9031
G01 X69.9863 Y23.8779
G01 X70.0298 Y23.8647
G01 X70.1023 Y23.8465
G01 X70.1469 Y23.8376
G01 X70.2209 Y23.8267
G01 X70.2662 Y23.8222
G01 X70.3409 Y23.8185
G01 X70.3863 Y23.8185
G01 X70.4610 Y23.8222
G01 X70.5063 Y23.8267
G01 X70.5802 Y23.8376
G01 X70.6248 Y23.8465
G01 X70.6974 Y23.8647
G01 X70.7409 Y23.8779
G01 X70.8113 Y23.9031
G01 X70.8533 Y23.9205
G01 X70.9209 Y23.9525
G01 X70.9610 Y23.9739
G01 X71.0252 Y24.0123
G01 X71.0630 Y24.0376
G01 X71.1230 Y24.0821
G01 X71.1582 Y24.1110
G01 X71.2136 Y24.1612
G01 X71.2458 Y24.1934
G01 X71.2960 Y24.2488
G01 X71.3248 Y24.2839
G01 X71.3694 Y24.3440
G01 X71.3946 Y24.3818
G01 X71.4331 Y24.4459
G01 X71.4545 Y24.4861
G01 X71.4865 Y24.5537
G01 X71.5039 Y24.5957
G01 X71.5291 Y24.6661
G01 X71.5423 Y24.7096
G01 X71.5605 Y24.7821
G01 X71.5693 Y24.8267
G01 X71.5803 Y24.9007
G01 X71.5848 Y24.9460
G01 X71.5884 Y25.0206
G01 X71.5884 Y25.0661
G01 X71.5848 Y25.1408
G01 X71.5803 Y25.1861
G01 X71.5693 Y25.2600
G01 X71.5605 Y25.3046
G01 X71.5423 Y25.3772
G01 X71.5291 Y25.4207
G01 X71.5039 Y25.4911
G01 X71.4865 Y25.5331
G01 X71.4545 Y25.6007
G01 X71.4331 Y25.6408
G01 X71.3946 Y25.7050
G01 X71.3694 Y25.7428
G01 X71.3248 Y25.8028
G01 X71.2960 Y25.8380
G01 X71.2458 Y25.8934
G01 X71.2136 Y25.9256
G01 X71.1582 Y25.9758
G01 X71.1230 Y26.0046
G01 X71.0630 Y26.0492
G01 X71.0252 Y26.0744
G01 X70.9610 Y26.1129
G01 X70.9209 Y26.1343
G01 X70.8533 Y26.1663
G01 X70.8113 Y26.1837
G01 X70.7409 Y26.2089
G01 X70.6974 Y26.2221
G01 X70.6248 Y26.2403
G01 X70.5802 Y26.2491
G01 X70.5063 Y26.2601
G01 X70.4610 Y26.2646
G01 X70.3863 Y26.2682
G01 X70.3409 Y26.2682
G01 X70.2662 Y26.2646
G01 X70.2209 Y26.2601
G01 X70.1469 Y26.2491
G01 X70.1023 Y26.2403
G01 X70.0298 Y26.2221
G01 X69.9863 Y26.2089
G01 X69.9159 Y26.1837
G01 X69.8739 Y26.1663
G01 X69.8063 Y26.1343
G01 X69.7661 Y26.1129
G01 X69.7020 Y26.0744
G01 X69.6642 Y26.0492
G01 X69.6074 Y26.0070
G01 X63.7072 Y26.0070
G01 X63.7072 Y29.3672
G01 X63.7494 Y29.4240
G01 X63.7746 Y29.4618
G01 X63.8131 Y29.5259
G01 X63.8345 Y29.5661
G01 X63.8665 Y29.6337
G01 X63.8839 Y29.6757
G01 X63.9091 Y29.7461
G01 X63.9223 Y29.7896
G01 X63.9405 Y29.8621
G01 X63.9493 Y29.9067
G01 X63.9603 Y29.9807
G01 X63.9648 Y30.0260
G01 X63.9684 Y30.1006
G01 X63.9684 Y30.1461
G01 X63.9648 Y30.2208
G01 X63.9603 Y30.2661
G01 X63.9493 Y30.3400
G01 X63.9405 Y30.3846
G01 X63.9223 Y30.4572
G01 X63.9091 Y30.5007
G01 X63.8839 Y30.5711
G01 X63.8665 Y30.6131
G01 X63.8345 Y30.6807
G01 X63.8131 Y30.7208
G01 X63.7746 Y30.7850
G01 X63.7494 Y30.8228
G01 X63.7048 Y30.8828
G01 X63.6760 Y30.9180
G01 X63.6258 Y30.9734
G01 X63.5936 Y31.0056
G01 X63.5382 Y31.0558
G01 X63.5030 Y31.0846
G01 X63.4430 Y31.1292
G01 X63.4052 Y31.1544
G01 X63.3410 Y31.1929
G01 X63.3009 Y31.2143
G01 X63.2333 Y31.2463
G01 X63.1913 Y31.2637
G01 X63.1209 Y31.2889
G01 X63.0774 Y31.3021
G01 X63.0048 Y31.3203
G01 X62.9602 Y31.3291
G01 X62.8863 Y31.3401
G01 X62.8410 Y31.3446
G01 X62.7663 Y31.3482
G01 X62.7209 Y31.3482
G01 X62.6462 Y31.3446
G01 X62.6009 Y31.3401
G01 X62.5269 Y31.3291
G01 X62.4823 Y31.3203
G01 X62.4098 Y31.3021
G01 X62.3663 Y31.2889
G01 X62.2959 Y31.2637
G01 X62.2539 Y31.2463
G01 X62.1863 Y31.2143
G01 X62.1461 Y31.1929
G01 X62.0820 Y31.1544
G01 X62.0442 Y31.1292
G01 X61.9841 Y31.0846
G01 X61.9490 Y31.0558
G01 X61.8936 Y31.0056
G01 X61.8614 Y30.9734
G01 X61.8112 Y30.9180
G01 X61.7823 Y30.8828
G01 X61.7378 Y30.8228
G01 X61.7125 Y30.7850
G01 X61.6741 Y30.7208
G01 X61.6527 Y30.6807
G01 X61.6207 Y30.6131
G01 X61.6033 Y30.5711
G01 X61.5781 Y30.5007
G01 X61.5649 Y30.4572
G01 X61.5467 Y30.3846
G01 X61.5378 Y30.3400
G01 X61.5269 Y30.2661
G01 X61.5224 Y30.2208
G01 X61.5187 Y30.1461
G01 X61.5187 Y30.1006
G01 X61.5224 Y30.0260
G01 X61.5269 Y29.9807
G01 X61.5378 Y29.9067
G01 X61.5467 Y29.8621
G01 X61.5649 Y29.7896
G01 X61.5781 Y29.7461
G01 X61.6033 Y29.6757
G01 X61.6207 Y29.6337
G01 X61.6527 Y29.5661
G01 X61.6741 Y29.5259
G01 X61.7125 Y29.4618
G01 X61.7378 Y29.4240
G01 X61.7799 Y29.3672
G00 Z2.0000
G00 X59.2399 Y24.2872
G01 F60.00
G01 Z-0.2001
G01 F320.00
G01 X59.2399 Y12.3434
G01 X59.2405 Y12.3206
G01 X59.2429 Y12.2716
G01 X59.2474 Y12.2264
G01 X59.2546 Y12.1778
G01 X59.2634 Y12.1332
G01 X59.2754 Y12.0856
G01 X59.2886 Y12.0421
G01 X59.3051 Y11.9958
G01 X59.3225 Y11.9538
G01 X59.3435 Y11.9094
G01 X59.3649 Y11.8693
G01 X59.3902 Y11.8272
G01 X59.4154 Y11.7894
G01 X59.4447 Y11.7500
G01 X59.4735 Y11.7148
G01 X59.5065 Y11.6785
G01 X59.5387 Y11.6463
G01 X59.5750 Y11.6133
G01 X59.6102 Y11.5845
G01 X59.6496 Y11.5552
G01 X59.6874 Y11.5300
G01 X59.7295 Y11.5047
G01 X59.7696 Y11.4833
G01 X59.8140 Y11.4623
G01 X59.8560 Y11.4449
G01 X59.9023 Y11.4284
G01 X59.9458 Y11.4152
G01 X59.9934 Y11.4032
G01 X60.0380 Y11.3944
G01 X60.0866 Y11.3872
G01 X60.1318 Y11.3827
G01 X60.1809 Y11.3803
G01 X60.2036 Y11.3797
G01 X92.2599 Y11.3797
G01 X92.2599 Y5.4796
G01 X92.2178 Y5.4228
G01 X92.1925 Y5.3850
G01 X92.1541 Y5.3208
G01 X92.1327 Y5.2807
G01 X92.1007 Y5.2131
G01 X92.0833 Y5.1711
G01 X92.0581 Y5.1007
G01 X92.0449 Y5.0572
G01 X92.0267 Y4.9846
G01 X92.0178 Y4.9400
G01 X92.0069 Y4.8661
G01 X92.0024 Y4.8208
G01 X91.9987 Y4.7461
G01 X91.9987 Y4.7006
G01 X92.0024 Y4.6260
G01 X92.0069 Y4.5807
G01 X92.0178 Y4.5067
G01 X92.0267 Y4.4621
G01 X92.0449 Y4.3896
G01 X92.0581 Y4.3461
G01 X92.0833 Y4.2757
G01 X92.1007 Y4.2337
G01 X92.1327 Y4.1661
G01 X92.1541 Y4.1259
G01 X92.1925 Y4.0618
G01 X92.2178 Y4.0240
G01 X92.2623 Y3.9639
G01 X92.2912 Y3.9288
G01 X92.3414 Y3.8734
G01 X92.3736 Y3.8412
G01 X92.4290 Y3.7910
G01 X92.4641 Y3.7621
G01 X92.5242 Y3.7176
G01 X92.5620 Y3.6923
G01 X92.6261 Y3.6539
G01 X92.6663 Y3.6325
G01 X92.7339 Y3.6005
G01 X92.7759 Y3.5831
G01 X92.8463 Y3.5579
G01 X92.8898 Y3.5447
G01 X92.9623 Y3.5265
G01 X93.0069 Y3.5176
G01 X93.0809 Y3.5067
G01 X93.1262 Y3.5022
G01 X93.2009 Y3.4985
G01 X93.2463 Y3.4985
G01 X93.3210 Y3.5022
G01 X93.3663 Y3.5067
G01 X93.4402 Y3.5176
G01 X93.4848 Y3.5265
G01 X93.5574 Y3.5447
G01 X93.6009 Y3.5579
G01 X93.6713 Y3.5831
G01 X93.7133 Y3.6005
G01 X93.7809 Y3.6325
G01 X93.8210 Y3.6539
G01 X93.8852 Y3.6923
G01 X93.9230 Y3.7176
G01 X93.9830 Y3.7621
G01 X94.0182 Y3.7910
G01 X94.0736 Y3.8412
G01 X94.1058 Y3.8734
G01 X94.1560 Y3.9288
G01 X94.1848 Y3.9639
G01 X94.2294 Y4.0240
G01 X94.2546 Y4.0618
G01 X94.2931 Y4.1259
G01 X94.3145 Y4.1661
G01 X94.3465 Y4.2337
G01 X94.3639 Y4.2757
G01 X94.3891 Y4.3461
G01 X94.4023 Y4.3896
G01 X94.4205 Y4.4621
G01 X94.4293 Y4.5067
G01 X94.4403 Y4.5807
G01 X94.4448 Y4.6260
G01 X94.4484 Y4.7006
G01 X94.4484 Y4.7461
G01 X94.4448 Y4.8208
G01 X94.4403 Y4.8661
G01 X94.4293 Y4.9400
G01 X94.4205 Y4.9846
G01 X94.4023 Y5.0572
G01 X94.3891 Y5.1007
G01 X94.3639 Y5.1711
G01 X94.3465 Y5.2131
G01 X94.3145 Y5.2807
G01 X94.2931 Y5.3208
G01 X94.2546 Y5.3850
G01 X94.2294 Y5.4228
G01 X94.1872 Y5.4796
G01 X94.1872 Y12.3434
G01 X94.1867 Y12.3661
G01 X94.1843 Y12.4152
G01 X94.1798 Y12.4604
G01 X94.1726 Y12.5090
G01 X94.1637 Y12.5536
G01 X94.1518 Y12.6012
G01 X94.1386 Y12.6447
G01 X94.1221 Y12.6909
G01 X94.1047 Y12.7329
G01 X94.0837 Y12.7773
G01 X94.0622 Y12.8174
G01 X94.0370 Y12.8595
G01 X94.0117 Y12.8974
G01 X93.9825 Y12.9368
G01 X93.9536 Y12.9719
G01 X93.9207 Y13.0083
G01 X93.8885 Y13.0405
G01 X93.8521 Y13.0734
G01 X93.8170 Y13.1023
G01 X93.7776 Y13.1315
G01 X93.7397 Y13.1568
G01 X93.6976 Y13.1820
G01 X93.6575 Y13.2035
G01 X93.6132 Y13.2245
G01 X93.5711 Y13.2419
G01 X93.5249 Y13.2584
G01 X93.4814 Y13.2716
G01 X93.4338 Y13.2835
G01 X93.3892 Y13.2924
G01 X93.3406 Y13.2996
G01 X93.2954 Y13.3041
G01 X93.2463 Y13.3065
G01 X93.2236 Y13.3070
G01 X61.1672 Y13.3070
G01 X61.1672 Y24.2872
G01 X61.2094 Y24.3440
G01 X61.2346 Y24.3818
G01 X61.2731 Y24.4459
G01 X61.2945 Y24.4861
G01 X61.3265 Y24.5537
G01 X61.3439 Y24.5957
G01 X61.3691 Y24.6661
G01 X61.3823 Y24.7096
G01 X61.4005 Y24.7821
G01 X61.4093 Y24.8267
G01 X61.4203 Y24.9007
G01 X61.4248 Y24.9460
G01 X61.4284 Y25.0206
G01 X61.4284 Y25.0661
G01 X61.4248 Y25.1408
G01 X61.4203 Y25.1861
G01 X61.4093 Y25.2600
G01 X61.4005 Y25.3046
G01 X61.3823 Y25.3772
G01 X61.3691 Y25.4207
G01 X61.3439 Y25.4911
G01 X61.3265 Y25.5331
G01 X61.2945 Y25.6007
G01 X61.2731 Y25.6408
G01 X61.2346 Y25.7050
G01 X61.2094 Y25.7428
G01 X61.1672 Y25.7996
G01 X61.1672 Y29.3672
G01 X61.2094 Y29.4240
G01 X61.2346 Y29.4618
G01 X61.2731 Y29.5259
G01 X61.2945 Y29.5661
G01 X61.3265 Y29.6337
G01 X61.3439 Y29.6757
G01 X61.3691 Y29.7461
G01 X61.3823 Y29.7896
G01 X61.4005 Y29.8621
G01 X61.4093 Y29.9067
G01 X61.4203 Y29.9807
G01 X61.4248 Y30.0260
G01 X61.4284 Y30.1006
G01 X61.4284 Y30.1461
G01 X61.4248 Y30.2208
G01 X61.4203 Y30.2661
G01 X61.4093 Y30.3400
G01 X61.4005 Y30.3846
G01 X61.3823 Y30.4572
G01 X61.3691 Y30.5007
G01 X61.3439 Y30.5711
G01 X61.3265 Y30.6131
G01 X61.2945 Y30.6807
G01 X61.2731 Y30.7208
G01 X61.2346 Y30.7850
G01 X61.2094 Y30.8228
G01 X61.1648 Y30.8828
G01 X61.1360 Y30.9180
G01 X61.0858 Y30.9734
G01 X61.0536 Y31.0056
G01 X60.9982 Y31.0558
G01 X60.9630 Y31.0846
G01 X60.9030 Y31.1292
G01 X60.8652 Y31.1544
G01 X60.8010 Y31.1929
G01 X60.7609 Y31.2143
G01 X60.6933 Y31.2463
G01 X60.6513 Y31.2637
G01 X60.5809 Y31.2889
G01 X60.5374 Y31.3021
G01 X60.4648 Y31.3203
G01 X60.4202 Y31.3291
G01 X60.3463 Y31.3401
G01 X60.3010 Y31.3446
G01 X60.2263 Y31.3482
G01 X60.1809 Y31.3482
G01 X60.1062 Y31.3446
G01 X60.0609 Y31.3401
G01 X59.9869 Y31.3291
G01 X59.9423 Y31.3203
G01 X59.8698 Y31.3021
G01 X59.8263 Y31.2889
G01 X59.7559 Y31.2637
G01 X59.7139 Y31.2463
G01 X59.6463 Y31.2143
G01 X59.6061 Y31.1929
G01 X59.5420 Y31.1544
G01 X59.5042 Y31.1292
G01 X59.4441 Y31.0846
G01 X59.4090 Y31.0558
G01 X59.3536 Y31.0056
G01 X59.3214 Y30.9734
G01 X59.2712 Y30.9180
G01 X59.2423 Y30.8828
G01 X59.1978 Y30.8228
G01 X59.1725 Y30.7850
G01 X59.1341 Y30.7208
G01 X59.1127 Y30.6807
G01 X59.0807 Y30.6131
G01 X59.0633 Y30.5711
G01 X59.0381 Y30.5007
G01 X59.0249 Y30.4572
G01 X59.0067 Y30.3846
G01 X58.9978 Y30.3400
G01 X58.9869 Y30.2661
G01 X58.9824 Y30.2208
G01 X58.9787 Y30.1461
G01 X58.9787 Y30.1006
G01 X58.9824 Y30.0260
G01 X58.9869 Y29.9807
G01 X58.9978 Y29.9067
G01 X59.0067 Y29.8621
G01 X59.0249 Y29.7896
G01 X59.0381 Y29.7461
G01 X59.0633 Y29.6757
G01 X59.0807 Y29.6337
G01 X59.1127 Y29.5661
G01 X59.1341 Y29.5259
G01 X59.1725 Y29.4618
G01 X59.1978 Y29.4240
G01 X59.2399 Y29.3672
G01 X59.2399 Y25.7996
G01 X59.1978 Y25.7428
G01 X59.1725 Y25.7050
G01 X59.1341 Y25.6408
G01 X59.1127 Y25.6007
G01 X59.0807 Y25.5331
G01 X59.0633 Y25.4911
G01 X59.0381 Y25.4207
G01 X59.0249 Y25.3772
G01 X59.0067 Y25.3046
G01 X58.9978 Y25.2600
G01 X58.9869 Y25.1861
G01 X58.9824 Y25.1408
G01 X58.9787 Y25.0661
G01 X58.9787 Y25.0206
G01 X58.9824 Y24.9460
G01 X58.9869 Y24.9007
G01 X58.9978 Y24.8267
G01 X59.0067 Y24.7821
G01 X59.0249 Y24.7096
G01 X59.0381 Y24.6661
G01 X59.0633 Y24.5957
G01 X59.0807 Y24.5537
G01 X59.1127 Y24.4861
G01 X59.1341 Y24.4459
G01 X59.1725 Y24.3818
G01 X59.1978 Y24.3440
G01 X59.2399 Y24.2872
G00 Z2.0000
G00 X71.9399 Y24.2872
G01 F60.00
G01 Z-0.2001
G01 F320.00
G01 X71.9399 Y14.8834
G01 X71.9405 Y14.8606
G01 X71.9429 Y14.8116
G01 X71.9474 Y14.7664
G01 X71.9546 Y14.7178
G01 X71.9634 Y14.6732
G01 X71.9754 Y14.6256
G01 X71.9886 Y14.5821
G01 X72.0051 Y14.5358
G01 X72.0225 Y14.4938
G01 X72.0435 Y14.4494
G01 X72.0649 Y14.4093
G01 X72.0902 Y14.3672
G01 X72.1154 Y14.3294
G01 X72.1447 Y14.2900
G01 X72.1735 Y14.2548
G01 X72.2065 Y14.2185
G01 X72.2387 Y14.1863
G01 X72.2750 Y14.1533
G01 X72.3102 Y14.1245
G01 X72.3496 Y14.0952
G01 X72.3874 Y14.0700
G01 X72.4295 Y14.0447
G01 X72.4696 Y14.0233
G01 X72.5140 Y14.0023
G01 X72.5560 Y13.9849
G01 X72.6023 Y13.9684
G01 X72.6458 Y13.9552
G01 X72.6934 Y13.9432
G01 X72.7380 Y13.9344
G01 X72.7866 Y13.9272
G01 X72.8318 Y13.9227
G01 X72.8809 Y13.9203
G01 X72.9036 Y13.9197
G01 X94.7999 Y13.9197
G01 X94.7999 Y5.4796
G01 X94.7578 Y5.4228
G01 X94.7325 Y5.3850
G01 X94.6941 Y5.3208
G01 X94.6727 Y5.2807
G01 X94.6407 Y5.2131
G01 X94.6233 Y5.1711
G01 X94.5981 Y5.1007
G01 X94.5849 Y5.0572
G01 X94.5667 Y4.9846
G01 X94.5578 Y4.9400
G01 X94.5469 Y4.8661
G01 X94.5424 Y4.8208
G01 X94.5387 Y4.7461
G01 X94.5387 Y4.7006
G01 X94.5424 Y4.6260
G01 X94.5469 Y4.5807
G01 X94.5578 Y4.5067
G01 X94.5667 Y4.4621
G01 X94.5849 Y4.3896
G01 X94.5981 Y4.3461
G01 X94.6233 Y4.2757
G01 X94.6407 Y4.2337
G01 X94.6727 Y4.1661
G01 X94.6941 Y4.1259
G01 X94.7325 Y4.0618
G01 X94.7578 Y4.0240
G01 X94.8023 Y3.9639
G01 X94.8312 Y3.9288
G01 X94.8814 Y3.8734
G01 X94.9136 Y3.8412
G01 X94.9690 Y3.7910
G01 X95.0041 Y3.7621
G01 X95.0642 Y3.7176
G01 X95.1020 Y3.6923
G01 X95.1661 Y3.6539
G01 X95.2063 Y3.6325
G01 X95.2739 Y3.6005
G01 X95.3159 Y3.5831
G01 X95.3863 Y3.5579
G01 X95.4298 Y3.5447
G01 X95.5023 Y3.5265
G01 X95.5469 Y3.5176
G01 X95.6209 Y3.5067
G01 X95.6662 Y3.5022
G01 X95.7409 Y3.4985
G01 X95.7863 Y3.4985
G01 X95.8610 Y3.5022
G01 X95.9063 Y3.5067
G01 X95.9802 Y3.5176
G01 X96.0248 Y3.5265
G01 X96.0974 Y3.5447
G01 X96.1409 Y3.5579
G01 X96.2113 Y3.5831
G01 X96.2533 Y3.6005
G01 X96.3209 Y3.6325
G01 X96.3610 Y3.6539
G01 X96.4252 Y3.6923
G01 X96.4630 Y3.7176
G01 X96.5230 Y3.7621
G01 X96.5582 Y3.7910
G01 X96.6136 Y3.8412
G01 X96.6458 Y3.8734
G01 X96.6960 Y3.9288
G01 X96.7248 Y3.9639
G01 X96.7694 Y4.0240
G01 X96.7946 Y4.0618
G01 X96.8331 Y4.1259
G01 X96.8545 Y4.1661
G01 X96.8865 Y4.2337
G01 X96.9039 Y4.2757
G01 X96.9291 Y4.3461
G01 X96.9423 Y4.3896
G01 X96.9605 Y4.4621
G01 X96.9693 Y4.5067
G01 X96.9803 Y4.5807
G01 X96.9848 Y4.6260
G01 X96.9884 Y4.7006
G01 X96.9884 Y4.7461
G01 X96.9848 Y4.8208
G01 X96.9803 Y4.8661
G01 X96.9693 Y4.9400
G01 X96.9605 Y4.9846
G01 X96.9423 Y5.0572
G01 X96.9291 Y5.1007
G01 X96.9039 Y5.1711
G01 X96.8865 Y5.2131
G01 X96.8545 Y5.2807
G01 X96.8331 Y5.3208
G01 X96.7946 Y5.3850
G01 X96.7694 Y5.4228
G01 X96.7272 Y5.4796
G01 X96.7272 Y14.8834
G01 X96.7267 Y14.9061
G01 X96.7243 Y14.9552
G01 X96.7198 Y15.0004
G01 X96.7126 Y15.0490
G01 X96.7037 Y15.0936
G01 X96.6918 Y15.1412
G01 X96.6786 Y15.1847
G01 X96.6621 Y15.2309
G01 X96.6447 Y15.2729
G01 X96.6237 Y15.3173
G01 X96.6022 Y15.3574
G01 X96.5770 Y15.3995
G01 X96.5517 Y15.4374
G01 X96.5225 Y15.4768
G01 X96.4936 Y15.5119
G01 X96.4607 Y15.5483
G01 X96.4285 Y15.5805
G01 X96.3921 Y15.6134
G01 X96.3570 Y15.6423
G01 X96.3176 Y15.6715
G01 X96.2797 Y15.6968
G01 X96.2376 Y15.7220
G01 X96.1975 Y15.7435
G01 X96.1532 Y15.7645
G01 X96.1111 Y15.7819
G01 X96.0649 Y15.7984
G01 X96.0214 Y15.8116
G01 X95.9738 Y15.8235
G01 X95.9292 Y15.8324
G01 X95.8806 Y15.8396
G01 X95.8354 Y15.8441
G01 X95.7863 Y15.8465
G01 X95.7636 Y15.8470
G01 X73.8672 Y15.8470
G01 X73.8672 Y24.2872
G01 X73.9094 Y24.3440
G01 X73.9346 Y24.3818
G01 X73.9731 Y24.4459
G01 X73.9945 Y24.4861
G01 X74.0265 Y24.5537
G01 X74.0439 Y24.5957
G01 X74.0691 Y24.6661
G01 X74.0823 Y24.7096
G01 X74.1005 Y24.7821
G01 X74.1093 Y24.8267
G01 X74.1203 Y24.9007
G01 X74.1248 Y24.9460
G01 X74.1284 Y25.0206
G01 X74.1284 Y25.0661
G01 X74.1248 Y25.1408
G01 X74.1203 Y25.1861
G01 X74.1093 Y25.2600
G01 X74.1005 Y25.3046
G01 X74.0823 Y25.3772
G01 X74.0691 Y25.4207
G01 X74.0439 Y25.4911
G01 X74.0265 Y25.5331
G01 X73.9945 Y25.6007
G01 X73.9731 Y25.6408
G01 X73.9346 Y25.7050
G01 X73.9094 Y25.7428
G01 X73.8672 Y25.7996
G01 X73.8672 Y29.3672
G01 X73.9094 Y29.4240
G01 X73.9346 Y29.4618
G01 X73.9731 Y29.5259
G01 X73.9945 Y29.5661
G01 X74.0265 Y29.6337
G01 X74.0439 Y29.6757
G01 X74.0691 Y29.7461
G01 X74.0823 Y29.7896
G01 X74.1005 Y29.8621
G01 X74.1093 Y29.9067
G01 X74.1203 Y29.9807
G01 X74.1248 Y30.0260
G01 X74.1284 Y30.1006
G01 X74.1284 Y30.1461
G01 X74.1248 Y30.2208
G01 X74.1203 Y30.2661
G01 X74.1093 Y30.3400
G01 X74.1005 Y30.3846
G01 X74.0823 Y30.4572
G01 X74.0691 Y30.5007
G01 X74.0439 Y30.5711
G01 X74.0265 Y30.6131
G01 X73.9945 Y30.6807
G01 X73.9731 Y30.7208
G01 X73.9346 Y30.7850
G01 X73.9094 Y30.8228
G01 X73.8648 Y30.8828
G01 X73.8360 Y30.9180
G01 X73.7858 Y30.9734
G01 X73.7536 Y31.0056
G01 X73.6982 Y31.0558
G01 X73.6630 Y31.0846
G01 X73.6030 Y31.1292
G01 X73.5652 Y31.1544
G01 X73.5010 Y31.1929
G01 X73.4609 Y31.2143
G01 X73.3933 Y31.2463
G01 X73.3513 Y31.2637
G01 X73.2809 Y31.2889
G01 X73.2374 Y31.3021
G01 X73.1648 Y31.3203
G01 X73.1202 Y31.3291
G01 X73.0463 Y31.3401
G01 X73.0010 Y31.3446
G01 X72.9263 Y31.3482
G01 X72.8809 Y31.3482
G01 X72.8062 Y31.3446
G01 X72.7609 Y31.3401
G01 X72.6869 Y31.3291
G01 X72.6423 Y31.3203
G01 X72.5698 Y31.3021
G01 X72.5263 Y31.2889
G01 X72.4559 Y31.2637
G01 X72.4139 Y31.2463
G01 X72.3463 Y31.2143
G01 X72.3061 Y31.1929
G01 X72.2420 Y31.1544
G01 X72.2042 Y31.1292
G01 X72.1441 Y31.0846
G01 X72.1090 Y31.0558
G01 X72.0536 Y31.0056
G01 X72.0214 Y30.9734
G01 X71.9712 Y30.9180
G01 X71.9423 Y30.8828
G01 X71.8978 Y30.8228
G01 X71.8725 Y30.7850
G01 X71.8341 Y30.7208
G01 X71.8127 Y30.6807
G01 X71.7807 Y30.6131
G01 X71.7633 Y30.5711
G01 X71.7381 Y30.5007
G01 X71.7249 Y30.4572
G01 X71.7067 Y30.3846
G01 X71.6978 Y30.3400
G01 X71.6869 Y30.2661
G01 X71.6824 Y30.2208
G01 X71.6787 Y30.1461
G01 X71.6787 Y30.1006
G01 X71.6824 Y30.0260
G01 X71.6869 Y29.9807
G01 X71.6978 Y29.9067
G01 X71.7067 Y29.8621
G01 X71.7249 Y29.7896
G01 X71.7381 Y29.7461
G01 X71.7633 Y29.6757
G01 X71.7807 Y29.6337
G01 X71.8127 Y29.5661
G01 X71.8341 Y29.5259
G01 X71.8725 Y29.4618
G01 X71.8978 Y29.4240
G01 X71.9399 Y29.3672
G01 X71.9399 Y25.7996
G01 X71.8978 Y25.7428
G01 X71.8725 Y25.7050
G01 X71.8341 Y25.6408
G01 X71.8127 Y25.6007
G01 X71.7807 Y25.5331
G01 X71.7633 Y25.4911
G01 X71.7381 Y25.4207
G01 X71.7249 Y25.3772
G01 X71.7067 Y25.3046
G01 X71.6978 Y25.2600
G01 X71.6869 Y25.1861
G01 X71.6824 Y25.1408
G01 X71.6787 Y25.0661
G01 X71.6787 Y25.0206
G01 X71.6824 Y24.9460
G01 X71.6869 Y24.9007
G01 X71.6978 Y24.8267
G01 X71.7067 Y24.7821
G01 X71.7249 Y24.7096
G01 X71.7381 Y24.6661
G01 X71.7633 Y24.5957
G01 X71.7807 Y24.5537
G01 X71.8127 Y24.4861
G01 X71.8341 Y24.4459
G01 X71.8725 Y24.3818
G01 X71.8978 Y24.3440
G01 X71.9399 Y24.2872
G00 Z2.0000
G00 X74.4799 Y29.3672
G01 F60.00
G01 Z-0.2001
G01 F320.00
G01 X74.4799 Y23.2596
G01 X74.4378 Y23.2028
G01 X74.4125 Y23.1650
G01 X74.3741 Y23.1008
G01 X74.3527 Y23.0607
G01 X74.3207 Y22.9931
G01 X74.3033 Y22.9511
G01 X74.2781 Y22.8807
G01 X74.2649 Y22.8372
G01 X74.2467 Y22.7646
G01 X74.2378 Y22.7200
G01 X74.2269 Y22.6461
G01 X74.2224 Y22.6008
G01 X74.2187 Y22.5261
G01 X74.2187 Y22.4806
G01 X74.2224 Y22.4060
G01 X74.2269 Y22.3607
G01 X74.2378 Y22.2867
G01 X74.2467 Y22.2421
G01 X74.2649 Y22.1696
G01 X74.2781 Y22.1261
G01 X74.3033 Y22.0557
G01 X74.3207 Y22.0137
G01 X74.3527 Y21.9461
G01 X74.3741 Y21.9059
G01 X74.4125 Y21.8418
G01 X74.4378 Y21.8040
G01 X74.4823 Y21.7439
G01 X74.5112 Y21.7088
G01 X74.5614 Y21.6534
G01 X74.5936 Y21.6212
G01 X74.6490 Y21.5710
G01 X74.6841 Y21.5421
G01 X74.7442 Y21.4976
G01 X74.7820 Y21.4723
G01 X74.8461 Y21.4339
G01 X74.8863 Y21.4125
G01 X74.9539 Y21.3805
G01 X74.9959 Y21.3631
G01 X75.0663 Y21.3379
G01 X75.1098 Y21.3247
G01 X75.1823 Y21.3065
G01 X75.2269 Y21.2976
G01 X75.3009 Y21.2867
G01 X75.3462 Y21.2822
G01 X75.4209 Y21.2785
G01 X75.4663 Y21.2785
G01 X75.5410 Y21.2822
G01 X75.5863 Y21.2867
G01 X75.6602 Y21.2976
G01 X75.7048 Y21.3065
G01 X75.7774 Y21.3247
G01 X75.8209 Y21.3379
G01 X75.8913 Y21.3631
G01 X75.9333 Y21.3805
G01 X76.0009 Y21.4125
G01 X76.0410 Y21.4339
G01 X76.1052 Y21.4723
G01 X76.1430 Y21.4976
G01 X76.1998 Y21.5397
G01 X77.2274 Y21.5397
G01 X77.2842 Y21.4976
G01 X77.3220 Y21.4723
G01 X77.3861 Y21.4339
G01 X77.4263 Y21.4125
G01 X77.4939 Y21.3805
G01 X77.5359 Y21.3631
G01 X77.6063 Y21.3379
G01 X77.6498 Y21.3247
G01 X77.7223 Y21.3065
G01 X77.7669 Y21.2976
G01 X77.8409 Y21.2867
G01 X77.8862 Y21.2822
G01 X77.9609 Y21.2785
G01 X78.0063 Y21.2785
G01 X78.0810 Y21.2822
G01 X78.1263 Y21.2867
G01 X78.2002 Y21.2976
G01 X78.2448 Y21.3065
G01 X78.3174 Y21.3247
G01 X78.3609 Y21.3379
G01 X78.4313 Y21.3631
G01 X78.4733 Y21.3805
G01 X78.5409 Y21.4125
G01 X78.5810 Y21.4339
G01 X78.6452 Y21.4723
G01 X78.6830 Y21.4976
G01 X78.7430 Y21.5421
G01 X78.7782 Y21.5710
G01 X78.8336 Y21.6212
G01 X78.8658 Y21.6534
G01 X78.9160 Y21.7088
G01 X78.9448 Y21.7439
G01 X78.9894 Y21.8040
G01 X79.0146 Y21.8418
G01 X79.0531 Y21.9059
G01 X79.0745 Y21.9461
G01 X79.1065 Y22.0137
G01 X79.1239 Y22.0557
G01 X79.1491 Y22.1261
G01 X79.1623 Y22.1696
G01 X79.1805 Y22.2421
G01 X79.1893 Y22.2867
G01 X79.2003 Y22.3607
G01 X79.2048 Y22.4060
G01 X79.2084 Y22.4806
G01 X79.2084 Y22.5261
G01 X79.2048 Y22.6008
G01 X79.2003 Y22.6461
G01 X79.1893 Y22.7200
G01 X79.1805 Y22.7646
G01 X79.1623 Y22.8372
G01 X79.1491 Y22.8807
G01 X79.1239 Y22.9511
G01 X79.1065 Y22.9931
G01 X79.0745 Y23.0607
G01 X79.0531 Y23.1008
G01 X79.0146 Y23.1650
G01 X78.9894 Y23.2028
G01 X78.9448 Y23.2628
G01 X78.9160 Y23.2980
G01 X78.8658 Y23.3534
G01 X78.8336 Y23.3856
G01 X78.7782 Y23.4358
G01 X78.7430 Y23.4646
G01 X78.6830 Y23.5092
G01 X78.6452 Y23.5344
G01 X78.5810 Y23.5729
G01 X78.5409 Y23.5943
G01 X78.4733 Y23.6263
G01 X78.4313 Y23.6437
G01 X78.3609 Y23.6689
G01 X78.3174 Y23.6821
G01 X78.2448 Y23.7003
G01 X78.2002 Y23.7091
G01 X78.1263 Y23.7201
G01 X78.0810 Y23.7246
G01 X78.0063 Y23.7282
G01 X77.9609 Y23.7282
G01 X77.8862 Y23.7246
G01 X77.8409 Y23.7201
G01 X77.7669 Y23.7091
G01 X77.7223 Y23.7003
G01 X77.6498 Y23.6821
G01 X77.6063 Y23.6689
G01 X77.5359 Y23.6437
G01 X77.4939 Y23.6263
G01 X77.4263 Y23.5943
G01 X77.3861 Y23.5729
G01 X77.3220 Y23.5344
G01 X77.2842 Y23.5092
G01 X77.2274 Y23.4670
G01 X76.4072 Y23.4670
G01 X76.4072 Y24.0797
G01 X82.3074 Y24.0797
G01 X82.3642 Y24.0376
G01 X82.4020 Y24.0123
G01 X82.4661 Y23.9739
G01 X82.5063 Y23.9525
G01 X82.5739 Y23.9205
G01 X82.6159 Y23.9031
G01 X82.6863 Y23.8779
G01 X82.7298 Y23.8647
G01 X82.8023 Y23.8465
G01 X82.8469 Y23.8376
G01 X82.9209 Y23.8267
G01 X82.9662 Y23.8222
G01 X83.0409 Y23.8185
G01 X83.0863 Y23.8185
G01 X83.1610 Y23.8222
G01 X83.2063 Y23.8267
G01 X83.2802 Y23.8376
G01 X83.3248 Y23.8465
G01 X83.3974 Y23.8647
G01 X83.4409 Y23.8779
G01 X83.5113 Y23.9031
G01 X83.5533 Y23.9205
G01 X83.6209 Y23.9525
G01 X83.6610 Y23.9739
G01 X83.7252 Y24.0123
G01 X83.7630 Y24.0376
G01 X83.8230 Y24.0821
G01 X83.8582 Y24.1110
G01 X83.9136 Y24.1612
G01 X83.9458 Y24.1934
G01 X83.9960 Y24.2488
G01 X84.0248 Y24.2839
G01 X84.0694 Y24.3440
G01 X84.0946 Y24.3818
G01 X84.1331 Y24.4459
G01 X84.1545 Y24.4861
G01 X84.1865 Y24.5537
G01 X84.2039 Y24.5957
G01 X84.2291 Y24.6661
G01 X84.2423 Y24.7096
G01 X84.2605 Y24.7821
G01 X84.2693 Y24.8267
G01 X84.2803 Y24.9007
G01 X84.2848 Y24.9460
G01 X84.2884 Y25.0206
G01 X84.2884 Y25.0661
G01 X84.2848 Y25.1408
G01 X84.2803 Y25.1861
G01 X84.2693 Y25.2600
G01 X84.2605 Y25.3046
G01 X84.2423 Y25.3772
G01 X84.2291 Y25.4207
G01 X84.2039 Y25.4911
G01 X84.1865 Y25.5331
G01 X84.1545 Y25.6007
G01 X84.1331 Y25.6408
G01 X84.0946 Y25.7050
G01 X84.0694 Y25.7428
G01 X84.0248 Y25.8028
G01 X83.9960 Y25.8380
G01 X83.9458 Y25.8934
G01 X83.9136 Y25.9256
G01 X83.8582 Y25.9758
G01 X83.8230 Y26.0046
G01 X83.7630 Y26.0492
G01 X83.7252 Y26.0744
G01 X83.6610 Y26.1129
G01 X83.6209 Y26.1343
G01 X83.5533 Y26.1663
G01 X83.5113 Y26.1837
G01 X83.4409 Y26.2089
G01 X83.3974 Y26.2221
G01 X83.3248 Y26.2403
G01 X83.2802 Y26.2491
G01 X83.2063 Y26.2601
G01 X83.1610 Y26.2646
G01 X83.0863 Y26.2682
G01 X83.0409 Y26.2682
G01 X82.9662 Y26.2646
G01 X82.9209 Y26.2601
G01 X82.8469 Y26.2491
G01 X82.8023 Y26.2403
G01 X82.7298 Y26.2221
G01 X82.6863 Y26.2089
G01 X82.6159 Y26.1837
G01 X82.5739 Y26.1663
G01 X82.5063 Y26.1343
G01 X82.4661 Y26.1129
G01 X82.4020 Y26.0744
G01 X82.3642 Y26.0492
G01 X82.3074 Y26.0070
G01 X76.4072 Y26.0070
G01 X76.4072 Y29.3672
G01 X76.4494 Y29.4240
G01 X76.4746 Y29.4618
G01 X76.5131 Y29.5259
G01 X76.5345 Y29.5661
G01 X76.5665 Y29.6337
G01 X76.5839 Y29.6757
G01 X76.6091 Y29.7461
G01 X76.6223 Y29.7896
G01 X76.6405 Y29.8621
G01 X76.6493 Y29.9067
G01 X76.6603 Y29.9807
G01 X76.6648 Y30.0260
G01 X76.6684 Y30.1006
G01 X76.6684 Y30.1461
G01 X76.6648 Y30.2208
G01 X76.6603 Y30.2661
G01 X76.6493 Y30.3400
G01 X76.6405 Y30.3846
G01 X76.6223 Y30.4572
G01 X76.6091 Y30.5007
G01 X76.5839 Y30.5711
G01 X76.5665 Y30.6131
G01 X76.5345 Y30.6807
G01 X76.5131 Y30.7208
G01 X76.4746 Y30.7850
G01 X76.4494 Y30.8228
G01 X76.4048 Y30.8828
G01 X76.3760 Y30.9180
G01 X76.3258 Y30.9734
G01 X76.2936 Y31.0056
G01 X76.2382 Y31.0558
G01 X76.2030 Y31.0846
G01 X76.1430 Y31.1292
G01 X76.1052 Y31.1544
G01 X76.0410 Y31.1929
G01 X76.0009 Y31.2143
G01 X75.9333 Y31.2463
G01 X75.8913 Y31.2637
G01 X75.8209 Y31.2889
G01 X75.7774 Y31.3021
G01 X75.7048 Y31.3203
G01 X75.6602 Y31.3291
G01 X75.5863 Y31.3401
G01 X75.5410 Y31.3446
G01 X75.4663 Y31.3482
G01 X75.4209 Y31.3482
G01 X75.3462 Y31.3446
G01 X75.3009 Y31.3401
G01 X75.2269 Y31.3291
G01 X75.1823 Y31.3203
G01 X75.1098 Y31.3021
G01 X75.0663 Y31.2889
G01 X74.9959 Y31.2637
G01 X74.9539 Y31.2463
G01 X74.8863 Y31.2143
G01 X74.8461 Y31.1929
G01 X74.7820 Y31.1544
G01 X74.7442 Y31.1292
G01 X74.6841 Y31.0846
G01 X74.6490 Y31.0558
G01 X74.5936 Y31.0056
G01 X74.5614 Y30.9734
G01 X74.5112 Y30.9180
G01 X74.4823 Y30.8828
G01 X74.4378 Y30.8228
G01 X74.4125 Y30.7850
G01 X74.3741 Y30.7208
G01 X74.3527 Y30.6807
G01 X74.3207 Y30.6131
G01 X74.3033 Y30.5711
G01 X74.2781 Y30.5007
G01 X74.2649 Y30.4572
G01 X74.2467 Y30.3846
G01 X74.2378 Y30.3400
G01 X74.2269 Y30.2661
G01 X74.2224 Y30.2208
G01 X74.2187 Y30.1461
G01 X74.2187 Y30.1006
G01 X74.2224 Y30.0260
G01 X74.2269 Y29.9807
G01 X74.2378 Y29.9067
G01 X74.2467 Y29.8621
G01 X74.2649 Y29.7896
G01 X74.2781 Y29.7461
G01 X74.3033 Y29.6757
G01 X74.3207 Y29.6337
G01 X74.3527 Y29.5661
G01 X74.3741 Y29.5259
G01 X74.4125 Y29.4618
G01 X74.4378 Y29.4240
G01 X74.4799 Y29.3672
G00 Z2.0000
G00 X71.9399 Y35.8535
G01 F60.00
G01 Z-0.2001
G01 F320.00
G01 X71.9399 Y42.1732
G01 X71.9067 Y42.1284
G01 X71.8778 Y42.0932
G01 X71.8343 Y42.0452
G01 X71.8022 Y42.0131
G01 X71.7541 Y41.9695
G01 X71.7190 Y41.9407
G01 X71.6669 Y41.9021
G01 X71.6291 Y41.8768
G01 X71.5735 Y41.8435
G01 X71.5334 Y41.8221
G01 X71.4748 Y41.7943
G01 X71.4328 Y41.7769
G01 X71.3718 Y41.7551
G01 X71.3283 Y41.7419
G01 X71.2654 Y41.7262
G01 X71.2208 Y41.7173
G01 X71.1567 Y41.7078
G01 X71.1115 Y41.7033
G01 X71.0467 Y41.7001
G01 X71.0240 Y41.6996
G01 X69.7032 Y41.6996
G01 X69.6805 Y41.7001
G01 X69.6157 Y41.7033
G01 X69.5705 Y41.7078
G01 X69.5064 Y41.7173
G01 X69.4618 Y41.7262
G01 X69.3989 Y41.7419
G01 X69.3554 Y41.7551
G01 X69.2944 Y41.7769
G01 X69.2523 Y41.7943
G01 X69.1937 Y41.8221
G01 X69.1536 Y41.8435
G01 X69.0981 Y41.8768
G01 X69.0602 Y41.9021
G01 X69.0082 Y41.9407
G01 X68.9730 Y41.9695
G01 X68.9250 Y42.0131
G01 X68.8929 Y42.0452
G01 X68.8493 Y42.0932
G01 X68.8205 Y42.1284
G01 X68.7872 Y42.1732
G01 X68.7872 Y41.2470
G01 X70.3636 Y41.2470
G01 X70.3863 Y41.2465
G01 X70.4354 Y41.2441
G01 X70.4806 Y41.2396
G01 X70.5292 Y41.2324
G01 X70.5738 Y41.2235
G01 X70.6214 Y41.2116
G01 X70.6649 Y41.1984
G01 X70.7111 Y41.1819
G01 X70.7532 Y41.1645
G01 X70.7975 Y41.1435
G01 X70.8376 Y41.1220
G01 X70.8797 Y41.0968
G01 X70.9176 Y41.0715
G01 X70.9570 Y41.0423
G01 X70.9921 Y41.0134
G01 X71.0285 Y40.9805
G01 X71.0607 Y40.9483
G01 X71.0936 Y40.9119
G01 X71.1225 Y40.8768
G01 X71.1517 Y40.8374
G01 X71.1770 Y40.7995
G01 X71.2022 Y40.7574
G01 X71.2237 Y40.7173
G01 X71.2447 Y40.6729
G01 X71.2621 Y40.6309
G01 X71.2786 Y40.5847
G01 X71.2918 Y40.5412
G01 X71.3037 Y40.4936
G01 X71.3126 Y40.4490
G01 X71.3198 Y40.4004
G01 X71.3243 Y40.3552
G01 X71.3267 Y40.3061
G01 X71.3272 Y40.2834
G01 X71.3272 Y36.2851
G01 X71.3718 Y36.2717
G01 X71.4328 Y36.2498
G01 X71.4748 Y36.2324
G01 X71.5334 Y36.2047
G01 X71.5735 Y36.1833
G01 X71.6291 Y36.1500
G01 X71.6669 Y36.1247
G01 X71.7190 Y36.0861
G01 X71.7541 Y36.0572
G01 X71.8022 Y36.0137
G01 X71.8343 Y35.9816
G01 X71.8778 Y35.9335
G01 X71.9067 Y35.8984
G01 X71.9399 Y35.8535
G00 Z2.0000
G00 X68.7872 Y34.5532
G01 F60.00
G01 Z-0.2001
G01 F320.00
G01 X68.7872 Y33.3135
G01 X68.8205 Y33.3584
G01 X68.8493 Y33.3935
G01 X68.8929 Y33.4416
G01 X68.9250 Y33.4737
G01 X68.9730 Y33.5172
G01 X69.0082 Y33.5461
G01 X69.0602 Y33.5847
G01 X69.0981 Y33.6100
G01 X69.1536 Y33.6433
G01 X69.1937 Y33.6647
G01 X69.2523 Y33.6924
G01 X69.2944 Y33.7098
G01 X69.3554 Y33.7317
G01 X69.3989 Y33.7449
G01 X69.4618 Y33.7606
G01 X69.5064 Y33.7695
G01 X69.5705 Y33.7790
G01 X69.6157 Y33.7834
G01 X69.6805 Y33.7866
G01 X69.7032 Y33.7872
G01 X71.0240 Y33.7872
G01 X71.0467 Y33.7866
G01 X71.1115 Y33.7834
G01 X71.1567 Y33.7790
G01 X71.2208 Y33.7695
G01 X71.2654 Y33.7606
G01 X71.3283 Y33.7449
G01 X71.3718 Y33.7317
G01 X71.4328 Y33.7098
G01 X71.4748 Y33.6924
G01 X71.5334 Y33.6647
G01 X71.5735 Y33.6433
G01 X71.6291 Y33.6100
G01 X71.6669 Y33.5847
G01 X71.7190 Y33.5461
G01 X71.7541 Y33.5172
G01 X71.8022 Y33.4737
G01 X71.8343 Y33.4416
G01 X71.8778 Y33.3935
G01 X71.9067 Y33.3584
G01 X71.9399 Y33.3135
G01 X71.9399 Y34.5532
G01 X71.9067 Y34.5084
G01 X71.8778 Y34.4732
G01 X71.8343 Y34.4252
G01 X71.8022 Y34.3931
G01 X71.7541 Y34.3495
G01 X71.7190 Y34.3207
G01 X71.6669 Y34.2821
G01 X71.6291 Y34.2568
G01 X71.5735 Y34.2235
G01 X71.5334 Y34.2021
G01 X71.4748 Y34.1743
G01 X71.4328 Y34.1569
G01 X71.3718 Y34.1351
G01 X71.3283 Y34.1219
G01 X71.2654 Y34.1062
G01 X71.2208 Y34.0973
G01 X71.1567 Y34.0878
G01 X71.1115 Y34.0833
G01 X71.0467 Y34.0801
G01 X71.0240 Y34.0796
G01 X69.7032 Y34.0796
G01 X69.6805 Y34.0801
G01 X69.6157 Y34.0833
G01 X69.5705 Y34.0878
G01 X69.5064 Y34.0973
G01 X69.4618 Y34.1062
G01 X69.3989 Y34.1219
G01 X69.3554 Y34.1351
G01 X69.2944 Y34.1569
G01 X69.2523 Y34.1743
G01 X69.1937 Y34.2021
G01 X69.1536 Y34.2235
G01 X69.0981 Y34.2568
G01 X69.0602 Y34.2821
G01 X69.0082 Y34.3207
G01 X68.9730 Y34.3495
G01 X68.9250 Y34.3931
G01 X68.8929 Y34.4252
G01 X68.8493 Y34.4732
G01 X68.8205 Y34.5084
G01 X68.7872 Y34.5532
G00 Z2.0000
G00 X66.8599 Y42.1732
G01 F60.00
G01 Z-0.2001
G01 F320.00
G01 X66.8267 Y42.1284
G01 X66.7978 Y42.0932
G01 X66.7543 Y42.0452
G01 X66.7222 Y42.0131
G01 X66.6741 Y41.9695
G01 X66.6390 Y41.9407
G01 X66.5869 Y41.9021
G01 X66.5491 Y41.8768
G01 X66.4935 Y41.8435
G01 X66.4534 Y41.8221
G01 X66.3948 Y41.7943
G01 X66.3528 Y41.7769
G01 X66.2918 Y41.7551
G01 X66.2472 Y41.7416
G01 X66.2472 Y38.7070
G01 X67.8236 Y38.7070
G01 X67.8463 Y38.7065
G01 X67.8954 Y38.7041
G01 X67.9406 Y38.6996
G01 X67.9892 Y38.6924
G01 X68.0338 Y38.6835
G01 X68.0814 Y38.6716
G01 X68.1249 Y38.6584
G01 X68.1711 Y38.6419
G01 X68.2132 Y38.6245
G01 X68.2575 Y38.6035
G01 X68.2976 Y38.5820
G01 X68.3397 Y38.5568
G01 X68.3776 Y38.5315
G01 X68.4170 Y38.5023
G01 X68.4521 Y38.4734
G01 X68.4885 Y38.4405
G01 X68.5207 Y38.4083
G01 X68.5536 Y38.3719
G01 X68.5825 Y38.3368
G01 X68.6117 Y38.2974
G01 X68.6370 Y38.2595
G01 X68.6622 Y38.2174
G01 X68.6837 Y38.1773
G01 X68.7047 Y38.1329
G01 X68.7221 Y38.0909
G01 X68.7386 Y38.0447
G01 X68.7518 Y38.0012
G01 X68.7637 Y37.9536
G01 X68.7726 Y37.9090
G01 X68.7798 Y37.8604
G01 X68.7843 Y37.8152
G01 X68.7867 Y37.7661
G01 X68.7872 Y37.7434
G01 X68.7872 Y35.8535
G01 X68.8205 Y35.8984
G01 X68.8493 Y35.9335
G01 X68.8929 Y35.9816
G01 X68.9250 Y36.0137
G01 X68.9730 Y36.0572
G01 X69.0082 Y36.0861
G01 X69.0602 Y36.1247
G01 X69.0981 Y36.1500
G01 X69.1536 Y36.1833
G01 X69.1937 Y36.2047
G01 X69.2523 Y36.2324
G01 X69.2944 Y36.2498
G01 X69.3554 Y36.2717
G01 X69.3999 Y36.2851
G01 X69.3999 Y39.3197
G01 X67.8236 Y39.3197
G01 X67.8009 Y39.3203
G01 X67.7518 Y39.3227
G01 X67.7066 Y39.3272
G01 X67.6580 Y39.3344
G01 X67.6134 Y39.3432
G01 X67.5658 Y39.3552
G01 X67.5223 Y39.3684
G01 X67.4760 Y39.3849
G01 X67.4340 Y39.4023
G01 X67.3896 Y39.4233
G01 X67.3495 Y39.4447
G01 X67.3074 Y39.4700
G01 X67.2696 Y39.4952
G01 X67.2302 Y39.5245
G01 X67.1950 Y39.5533
G01 X67.1587 Y39.5863
G01 X67.1265 Y39.6185
G01 X67.0935 Y39.6548
G01 X67.0647 Y39.6900
G01 X67.0354 Y39.7294
G01 X67.0102 Y39.7672
G01 X66.9849 Y39.8093
G01 X66.9635 Y39.8494
G01 X66.9425 Y39.8938
G01 X66.9251 Y39.9358
G01 X66.9086 Y39.9821
G01 X66.8954 Y40.0256
G01 X66.8834 Y40.0732
G01 X66.8746 Y40.1178
G01 X66.8674 Y40.1664
G01 X66.8629 Y40.2116
G01 X66.8605 Y40.2606
G01 X66.8599 Y40.2834
G01 X66.8599 Y42.1732
G00 Z2.0000
G00 X68.7872 Y43.4735
G01 F60.00
G01 Z-0.2001
G01 F320.00
G01 X68.8205 Y43.5184
G01 X68.8493 Y43.5535
G01 X68.8929 Y43.6016
G01 X68.9250 Y43.6337
G01 X68.9730 Y43.6772
G01 X69.0082 Y43.7061
G01 X69.0602 Y43.7447
G01 X69.0981 Y43.7700
G01 X69.1536 Y43.8033
G01 X69.1937 Y43.8247
G01 X69.2523 Y43.8524
G01 X69.2944 Y43.8698
G01 X69.3554 Y43.8917
G01 X69.3989 Y43.9049
G01 X69.4618 Y43.9206
G01 X69.5064 Y43.9295
G01 X69.5705 Y43.9390
G01 X69.6157 Y43.9434
G01 X69.6805 Y43.9466
G01 X69.7032 Y43.9472
G01 X71.0240 Y43.9472
G01 X71.0467 Y43.9466
G01 X71.1115 Y43.9434
G01 X71.1567 Y43.9390
G01 X71.2208 Y43.9295
G01 X71.2654 Y43.9206
G01 X71.3283 Y43.9049
G01 X71.3718 Y43.8917
G01 X71.4328 Y43.8698
G01 X71.4748 Y43.8524
G01 X71.5334 Y43.8247
G01 X71.5735 Y43.8033
G01 X71.6291 Y43.7700
G01 X71.6669 Y43.7447
G01 X71.7190 Y43.7061
G01 X71.7541 Y43.6772
G01 X71.8022 Y43.6337
G01 X71.8343 Y43.6016
G01 X71.8778 Y43.5535
G01 X71.9067 Y43.5184
G01 X71.9399 Y43.4735
G01 X71.9399 Y47.2532
G01 X71.9067 Y47.2084
G01 X71.8778 Y47.1732
G01 X71.8343 Y47.1252
G01 X71.8022 Y47.0931
G01 X71.7541 Y47.0495
G01 X71.7190 Y47.0207
G01 X71.6669 Y46.9821
G01 X71.6291 Y46.9568
G01 X71.5735 Y46.9235
G01 X71.5334 Y46.9021
G01 X71.4748 Y46.8743
G01 X71.4328 Y46.8569
G01 X71.3718 Y46.8351
G01 X71.3283 Y46.8219
G01 X71.2654 Y46.8062
G01 X71.2208 Y46.7973
G01 X71.1567 Y46.7878
G01 X71.1115 Y46.7833
G01 X71.0467 Y46.7801
G01 X71.0240 Y46.7796
G01 X69.7032 Y46.7796
G01 X69.6805 Y46.7801
G01 X69.6157 Y46.7833
G01 X69.5705 Y46.7878
G01 X69.5064 Y46.7973
G01 X69.4618 Y46.8062
G01 X69.3989 Y46.8219
G01 X69.3554 Y46.8351
G01 X69.2944 Y46.8569
G01 X69.2523 Y46.8743
G01 X69.1937 Y46.9021
G01 X69.1536 Y46.9235
G01 X69.0981 Y46.9568
G01 X69.0602 Y46.9821
G01 X69.0082 Y47.0207
G01 X68.9730 Y47.0495
G01 X68.9250 Y47.0931
G01 X68.8929 Y47.1252
G01 X68.8493 Y47.1732
G01 X68.8205 Y47.2084
G01 X68.7872 Y47.2532
G01 X68.7872 Y43.4735
G00 Z2.0000
G00 X64.3199 Y41.7416
G01 F60.00
G01 Z-0.2001
G01 F320.00
G01 X64.2754 Y41.7551
G01 X64.2144 Y41.7769
G01 X64.1723 Y41.7943
G01 X64.1137 Y41.8221
G01 X64.0736 Y41.8435
G01 X64.0181 Y41.8768
G01 X63.9802 Y41.9021
G01 X63.9282 Y41.9407
G01 X63.8930 Y41.9695
G01 X63.8450 Y42.0131
G01 X63.8129 Y42.0452
G01 X63.7693 Y42.0932
G01 X63.7405 Y42.1284
G01 X63.7072 Y42.1732
G01 X63.7072 Y38.4996
G01 X63.7494 Y38.4428
G01 X63.7746 Y38.4050
G01 X63.8131 Y38.3408
G01 X63.8345 Y38.3007
G01 X63.8665 Y38.2331
G01 X63.8839 Y38.1911
G01 X63.9091 Y38.1207
G01 X63.9223 Y38.0772
G01 X63.9405 Y38.0046
G01 X63.9493 Y37.9600
G01 X63.9603 Y37.8861
G01 X63.9648 Y37.8408
G01 X63.9684 Y37.7661
G01 X63.9684 Y37.7206
G01 X63.9648 Y37.6460
G01 X63.9603 Y37.6007
G01 X63.9493 Y37.5267
G01 X63.9405 Y37.4821
G01 X63.9223 Y37.4096
G01 X63.9091 Y37.3661
G01 X63.8839 Y37.2957
G01 X63.8665 Y37.2537
G01 X63.8345 Y37.1861
G01 X63.8131 Y37.1459
G01 X63.7746 Y37.0818
G01 X63.7494 Y37.0440
G01 X63.7072 Y36.9872
G01 X63.7072 Y36.1670
G01 X64.0465 Y36.1670
G01 X64.0736 Y36.1833
G01 X64.1137 Y36.2047
G01 X64.1723 Y36.2324
G01 X64.2144 Y36.2498
G01 X64.2754 Y36.2717
G01 X64.3189 Y36.2849
G01 X64.3818 Y36.3006
G01 X64.4264 Y36.3095
G01 X64.4905 Y36.3190
G01 X64.5357 Y36.3234
G01 X64.6005 Y36.3266
G01 X64.6232 Y36.3272
G01 X65.9440 Y36.3272
G01 X65.9667 Y36.3266
G01 X66.0315 Y36.3234
G01 X66.0767 Y36.3190
G01 X66.1408 Y36.3095
G01 X66.1854 Y36.3006
G01 X66.2483 Y36.2849
G01 X66.2918 Y36.2717
G01 X66.3528 Y36.2498
G01 X66.3948 Y36.2324
G01 X66.4534 Y36.2047
G01 X66.4935 Y36.1833
G01 X66.5491 Y36.1500
G01 X66.5869 Y36.1247
G01 X66.6390 Y36.0861
G01 X66.6741 Y36.0572
G01 X66.7222 Y36.0137
G01 X66.7543 Y35.9816
G01 X66.7978 Y35.9335
G01 X66.8267 Y35.8984
G01 X66.8599 Y35.8535
G01 X66.8599 Y36.7797
G01 X65.2836 Y36.7797
G01 X65.2609 Y36.7803
G01 X65.2118 Y36.7827
G01 X65.1666 Y36.7872
G01 X65.1180 Y36.7944
G01 X65.0734 Y36.8032
G01 X65.0258 Y36.8152
G01 X64.9823 Y36.8284
G01 X64.9360 Y36.8449
G01 X64.8940 Y36.8623
G01 X64.8496 Y36.8833
G01 X64.8095 Y36.9047
G01 X64.7674 Y36.9300
G01 X64.7296 Y36.9552
G01 X64.6902 Y36.9845
G01 X64.6550 Y37.0133
G01 X64.6187 Y37.0463
G01 X64.5865 Y37.0785
G01 X64.5535 Y37.1148
G01 X64.5247 Y37.1500
G01 X64.4954 Y37.1894
G01 X64.4702 Y37.2272
G01 X64.4449 Y37.2693
G01 X64.4235 Y37.3094
G01 X64.4025 Y37.3538
G01 X64.3851 Y37.3958
G01 X64.3686 Y37.4421
G01 X64.3554 Y37.4856
G01 X64.3434 Y37.5332
G01 X64.3346 Y37.5778
G01 X64.3274 Y37.6264
G01 X64.3229 Y37.6716
G01 X64.3205 Y37.7206
G01 X64.3199 Y37.7434
G01 X64.3199 Y41.7416
G00 Z2.0000
G00 X63.7072 Y47.2532
G01 F60.00
G01 Z-0.2001
G01 F320.00
G01 X63.7072 Y46.1196
G01 X63.7494 Y46.0628
G01 X63.7746 Y46.0250
G01 X63.8131 Y45.9608
G01 X63.8345 Y45.9207
G01 X63.8665 Y45.8531
G01 X63.8839 Y45.8111
G01 X63.9091 Y45.7407
G01 X63.9223 Y45.6972
G01 X63.9405 Y45.6246
G01 X63.9493 Y45.5800
G01 X63.9603 Y45.5061
G01 X63.9648 Y45.4608
G01 X63.9684 Y45.3861
G01 X63.9684 Y45.3406
G01 X63.9648 Y45.2660
G01 X63.9603 Y45.2207
G01 X63.9493 Y45.1467
G01 X63.9405 Y45.1021
G01 X63.9223 Y45.0296
G01 X63.9091 Y44.9861
G01 X63.8839 Y44.9157
G01 X63.8665 Y44.8737
G01 X63.8345 Y44.8061
G01 X63.8131 Y44.7659
G01 X63.7746 Y44.7018
G01 X63.7494 Y44.6640
G01 X63.7072 Y44.6072
G01 X63.7072 Y43.4735
G01 X63.7405 Y43.5184
G01 X63.7693 Y43.5535
G01 X63.8129 Y43.6016
G01 X63.8450 Y43.6337
G01 X63.8930 Y43.6772
G01 X63.9282 Y43.7061
G01 X63.9802 Y43.7447
G01 X64.0181 Y43.7700
G01 X64.0736 Y43.8033
G01 X64.1137 Y43.8247
G01 X64.1723 Y43.8524
G01 X64.2144 Y43.8698
G01 X64.2754 Y43.8917
G01 X64.3189 Y43.9049
G01 X64.3818 Y43.9206
G01 X64.4264 Y43.9295
G01 X64.4905 Y43.9390
G01 X64.5357 Y43.9434
G01 X64.6005 Y43.9466
G01 X64.6232 Y43.9472
G01 X65.9440 Y43.9472
G01 X65.9667 Y43.9466
G01 X66.0315 Y43.9434
G01 X66.0767 Y43.9390
G01 X66.1408 Y43.9295
G01 X66.1854 Y43.9206
G01 X66.2483 Y43.9049
G01 X66.2918 Y43.8917
G01 X66.3528 Y43.8698
G01 X66.3948 Y43.8524
G01 X66.4534 Y43.8247
G01 X66.4935 Y43.8033
G01 X66.5491 Y43.7700
G01 X66.5869 Y43.7447
G01 X66.6390 Y43.7061
G01 X66.6741 Y43.6772
G01 X66.7222 Y43.6337
G01 X66.7543 Y43.6016
G01 X66.7978 Y43.5535
G01 X66.8267 Y43.5184
G01 X66.8599 Y43.4735
G01 X66.8599 Y47.2532
G01 X66.8267 Y47.2084
G01 X66.7978 Y47.1732
G01 X66.7543 Y47.1252
G01 X66.7222 Y47.0931
G01 X66.6741 Y47.0495
G01 X66.6390 Y47.0207
G01 X66.5869 Y46.9821
G01 X66.5491 Y46.9568
G01 X66.4935 Y46.9235
G01 X66.4534 Y46.9021
G01 X66.3948 Y46.8743
G01 X66.3528 Y46.8569
G01 X66.2918 Y46.8351
G01 X66.2483 Y46.8219
G01 X66.1854 Y46.8062
G01 X66.1408 Y46.7973
G01 X66.0767 Y46.7878
G01 X66.0315 Y46.7833
G01 X65.9667 Y46.7801
G01 X65.9440 Y46.7796
G01 X64.6232 Y46.7796
G01 X64.6005 Y46.7801
G01 X64.5357 Y46.7833
G01 X64.4905 Y46.7878
G01 X64.4264 Y46.7973
G01 X64.3818 Y46.8062
G01 X64.3189 Y46.8219
G01 X64.2754 Y46.8351
G01 X64.2144 Y46.8569
G01 X64.1723 Y46.8743
G01 X64.1137 Y46.9021
G01 X64.0736 Y46.9235
G01 X64.0181 Y46.9568
G01 X63.9802 Y46.9821
G01 X63.9282 Y47.0207
G01 X63.8930 Y47.0495
G01 X63.8450 Y47.0931
G01 X63.8129 Y47.1252
G01 X63.7693 Y47.1732
G01 X63.7405 Y47.2084
G01 X63.7072 Y47.2532
G00 Z2.0000
G00 X66.8599 Y49.7932
G01 F60.00
G01 Z-0.2001
G01 F320.00
G01 X66.8267 Y49.7484
G01 X66.7978 Y49.7132
G01 X66.7543 Y49.6652
G01 X66.7222 Y49.6331
G01 X66.6741 Y49.5895
G01 X66.6390 Y49.5607
G01 X66.5869 Y49.5221
G01 X66.5491 Y49.4968
G01 X66.4935 Y49.4635
G01 X66.4534 Y49.4421
G01 X66.3948 Y49.4143
G01 X66.3528 Y49.3969
G01 X66.2918 Y49.3751
G01 X66.2483 Y49.3619
G01 X66.1854 Y49.3462
G01 X66.1408 Y49.3373
G01 X66.0767 Y49.3278
G01 X66.0315 Y49.3233
G01 X65.9667 Y49.3201
G01 X65.9440 Y49.3196
G01 X64.6232 Y49.3196
G01 X64.6005 Y49.3201
G01 X64.5357 Y49.3233
G01 X64.4905 Y49.3278
G01 X64.4264 Y49.3373
G01 X64.3818 Y49.3462
G01 X64.3189 Y49.3619
G01 X64.2754 Y49.3751
G01 X64.2144 Y49.3969
G01 X64.1723 Y49.4143
G01 X64.1137 Y49.4421
G01 X64.0736 Y49.4635
G01 X64.0465 Y49.4797
G01 X63.7072 Y49.4797
G01 X63.7072 Y48.5535
G01 X63.7405 Y48.5984
G01 X63.7693 Y48.6335
G01 X63.8129 Y48.6816
G01 X63.8450 Y48.7137
G01 X63.8930 Y48.7572
G01 X63.9282 Y48.7861
G01 X63.9802 Y48.8247
G01 X64.0181 Y48.8500
G01 X64.0736 Y48.8833
G01 X64.1137 Y48.9047
G01 X64.1723 Y48.9324
G01 X64.2144 Y48.9498
G01 X64.2754 Y48.9717
G01 X64.3189 Y48.9849
G01 X64.3818 Y49.0006
G01 X64.4264 Y49.0095
G01 X64.4905 Y49.0190
G01 X64.5357 Y49.0234
G01 X64.6005 Y49.0266
G01 X64.6232 Y49.0272
G01 X65.9440 Y49.0272
G01 X65.9667 Y49.0266
G01 X66.0315 Y49.0234
G01 X66.0767 Y49.0190
G01 X66.1408 Y49.0095
G01 X66.1854 Y49.0006
G01 X66.2483 Y48.9849
G01 X66.2918 Y48.9717
G01 X66.3528 Y48.9498
G01 X66.3948 Y48.9324
G01 X66.4534 Y48.9047
G01 X66.4935 Y48.8833
G01 X66.5491 Y48.8500
G01 X66.5869 Y48.8247
G01 X66.6390 Y48.7861
G01 X66.6741 Y48.7572
G01 X66.7222 Y48.7137
G01 X66.7543 Y48.6816
G01 X66.7978 Y48.6335
G01 X66.8267 Y48.5984
G01 X66.8599 Y48.5535
G01 X66.8599 Y49.7932
G00 Z2.0000
G00 X69.3999 Y49.3616
G01 F60.00
G01 Z-0.2001
G01 F320.00
G01 X69.3554 Y49.3751
G01 X69.2944 Y49.3969
G01 X69.2523 Y49.4143
G01 X69.1937 Y49.4421
G01 X69.1536 Y49.4635
G01 X69.0981 Y49.4968
G01 X69.0602 Y49.5221
G01 X69.0082 Y49.5607
G01 X68.9730 Y49.5895
G01 X68.9250 Y49.6331
G01 X68.8929 Y49.6652
G01 X68.8493 Y49.7132
G01 X68.8205 Y49.7484
G01 X68.7872 Y49.7932
G01 X68.7872 Y48.5535
G01 X68.8205 Y48.5984
G01 X68.8493 Y48.6335
G01 X68.8929 Y48.6816
G01 X68.9250 Y48.7137
G01 X68.9730 Y48.7572
G01 X69.0082 Y48.7861
G01 X69.0602 Y48.8247
G01 X69.0981 Y48.8500
G01 X69.1536 Y48.8833
G01 X69.1937 Y48.9047
G01 X69.2523 Y48.9324
G01 X69.2944 Y48.9498
G01 X69.3554 Y48.9717
G01 X69.3999 Y48.9851
G01 X69.3999 Y49.3616
G00 Z2.0000
G00 X71.9399 Y48.5535
G01 F60.00
G01 Z-0.2001
G01 F320.00
G01 X71.9399 Y49.7932
G01 X71.9067 Y49.7484
G01 X71.8778 Y49.7132
G01 X71.8343 Y49.6652
G01 X71.8022 Y49.6331
G01 X71.7541 Y49.5895
G01 X71.7190 Y49.5607
G01 X71.6669 Y49.5221
G01 X71.6291 Y49.4968
G01 X71.5735 Y49.4635
G01 X71.5334 Y49.4421
G01 X71.4748 Y49.4143
G01 X71.4328 Y49.3969
G01 X71.3718 Y49.3751
G01 X71.3272 Y49.3616
G01 X71.3272 Y48.9851
G01 X71.3718 Y48.9717
G01 X71.4328 Y48.9498
G01 X71.4748 Y48.9324
G01 X71.5334 Y48.9047
G01 X71.5735 Y48.8833
G01 X71.6291 Y48.8500
G01 X71.6669 Y48.8247
G01 X71.7190 Y48.7861
G01 X71.7541 Y48.7572
G01 X71.8022 Y48.7137
G01 X71.8343 Y48.6816
G01 X71.8778 Y48.6335
G01 X71.9067 Y48.5984
G01 X71.9399 Y48.5535
G00 Z2.0000
G00 X76.4072 Y47.2532
G01 F60.00
G01 Z-0.2001
G01 F320.00
G01 X76.4072 Y46.1196
G01 X76.4494 Y46.0628
G01 X76.4746 Y46.0250
G01 X76.5131 Y45.9608
G01 X76.5345 Y45.9207
G01 X76.5665 Y45.8531
G01 X76.5839 Y45.8111
G01 X76.6091 Y45.7407
G01 X76.6223 Y45.6972
G01 X76.6405 Y45.6246
G01 X76.6493 Y45.5800
G01 X76.6603 Y45.5061
G01 X76.6648 Y45.4608
G01 X76.6684 Y45.3861
G01 X76.6684 Y45.3406
G01 X76.6648 Y45.2660
G01 X76.6603 Y45.2207
G01 X76.6493 Y45.1467
G01 X76.6405 Y45.1021
G01 X76.6223 Y45.0296
G01 X76.6091 Y44.9861
G01 X76.5839 Y44.9157
G01 X76.5665 Y44.8737
G01 X76.5345 Y44.8061
G01 X76.5131 Y44.7659
G01 X76.4746 Y44.7018
G01 X76.4494 Y44.6640
G01 X76.4072 Y44.6072
G01 X76.4072 Y43.4735
G01 X76.4405 Y43.5184
G01 X76.4693 Y43.5535
G01 X76.5129 Y43.6016
G01 X76.5450 Y43.6337
G01 X76.5930 Y43.6772
G01 X76.6282 Y43.7061
G01 X76.6802 Y43.7447
G01 X76.7181 Y43.7700
G01 X76.7736 Y43.8033
G01 X76.8137 Y43.8247
G01 X76.8723 Y43.8524
G01 X76.9144 Y43.8698
G01 X76.9754 Y43.8917
G01 X77.0189 Y43.9049
G01 X77.0818 Y43.9206
G01 X77.1264 Y43.9295
G01 X77.1905 Y43.9390
G01 X77.2357 Y43.9434
G01 X77.3005 Y43.9466
G01 X77.3232 Y43.9472
G01 X78.6440 Y43.9472
G01 X78.6667 Y43.9466
G01 X78.7315 Y43.9434
G01 X78.7767 Y43.9390
G01 X78.8408 Y43.9295
G01 X78.8854 Y43.9206
G01 X78.9483 Y43.9049
G01 X78.9918 Y43.8917
G01 X79.0528 Y43.8698
G01 X79.0948 Y43.8524
G01 X79.1534 Y43.8247
G01 X79.1935 Y43.8033
G01 X79.2491 Y43.7700
G01 X79.2869 Y43.7447
G01 X79.3390 Y43.7061
G01 X79.3741 Y43.6772
G01 X79.4222 Y43.6337
G01 X79.4543 Y43.6016
G01 X79.4978 Y43.5535
G01 X79.5267 Y43.5184
G01 X79.5599 Y43.4735
G01 X79.5599 Y47.2532
G01 X79.5267 Y47.2084
G01 X79.4978 Y47.1732
G01 X79.4543 Y47.1252
G01 X79.4222 Y47.0931
G01 X79.3741 Y47.0495
G01 X79.3390 Y47.0207
G01 X79.2869 Y46.9821
G01 X79.2491 Y46.9568
G01 X79.1935 Y46.9235
G01 X79.1534 Y46.9021
G01 X79.0948 Y46.8743
G01 X79.0528 Y46.8569
G01 X78.9918 Y46.8351
G01 X78.9483 Y46.8219
G01 X78.8854 Y46.8062
G01 X78.8408 Y46.7973
G01 X78.7767 Y46.7878
G01 X78.7315 Y46.7833
G01 X78.6667 Y46.7801
G01 X78.6440 Y46.7796
G01 X77.3232 Y46.7796
G01 X77.3005 Y46.7801
G01 X77.2357 Y46.7833
G01 X77.1905 Y46.7878
G01 X77.1264 Y46.7973
G01 X77.0818 Y46.8062
G01 X77.0189 Y46.8219
G01 X76.9754 Y46.8351
G01 X76.9144 Y46.8569
G01 X76.8723 Y46.8743
G01 X76.8137 Y46.9021
G01 X76.7736 Y46.9235
G01 X76.7181 Y46.9568
G01 X76.6802 Y46.9821
G01 X76.6282 Y47.0207
G01 X76.5930 Y47.0495
G01 X76.5450 Y47.0931
G01 X76.5129 Y47.1252
G01 X76.4693 Y47.1732
G01 X76.4405 Y47.2084
G01 X76.4072 Y47.2532
G00 Z2.0000
G00 X79.5599 Y49.7932
G01 F60.00
G01 Z-0.2001
G01 F320.00
G01 X79.5267 Y49.7484
G01 X79.4978 Y49.7132
G01 X79.4543 Y49.6652
G01 X79.4222 Y49.6331
G01 X79.3741 Y49.5895
G01 X79.3390 Y49.5607
G01 X79.2869 Y49.5221
G01 X79.2491 Y49.4968
G01 X79.1935 Y49.4635
G01 X79.1534 Y49.4421
G01 X79.0948 Y49.4143
G01 X79.0528 Y49.3969
G01 X78.9918 Y49.3751
G01 X78.9483 Y49.3619
G01 X78.8854 Y49.3462
G01 X78.8408 Y49.3373
G01 X78.7767 Y49.3278
G01 X78.7315 Y49.3233
G01 X78.6667 Y49.3201
G01 X78.6440 Y49.3196
G01 X77.3232 Y49.3196
G01 X77.3005 Y49.3201
G01 X77.2357 Y49.3233
G01 X77.1905 Y49.3278
G01 X77.1264 Y49.3373
G01 X77.0818 Y49.3462
G01 X77.0189 Y49.3619
G01 X76.9754 Y49.3751
G01 X76.9144 Y49.3969
G01 X76.8723 Y49.4143
G01 X76.8137 Y49.4421
G01 X76.7736 Y49.4635
G01 X76.7465 Y49.4797
G01 X76.4072 Y49.4797
G01 X76.4072 Y48.5535
G01 X76.4405 Y48.5984
G01 X76.4693 Y48.6335
G01 X76.5129 Y48.6816
G01 X76.5450 Y48.7137
G01 X76.5930 Y48.7572
G01 X76.6282 Y48.7861
G01 X76.6802 Y48.8247
G01 X76.7181 Y48.8500
G01 X76.7736 Y48.8833
G01 X76.8137 Y48.9047
G01 X76.8723 Y48.9324
G01 X76.9144 Y48.9498
G01 X76.9754 Y48.9717
G01 X77.0189 Y48.9849
G01 X77.0818 Y49.0006
G01 X77.1264 Y49.0095
G01 X77.1905 Y49.0190
G01 X77.2357 Y49.0234
G01 X77.3005 Y49.0266
G01 X77.3232 Y49.0272
G01 X78.6440 Y49.0272
G01 X78.6667 Y49.0266
G01 X78.7315 Y49.0234
G01 X78.7767 Y49.0190
G01 X78.8408 Y49.0095
G01 X78.8854 Y49.0006
G01 X78.9483 Y48.9849
G01 X78.9918 Y48.9717
G01 X79.0528 Y48.9498
G01 X79.0948 Y48.9324
G01 X79.1534 Y48.9047
G01 X79.1935 Y48.8833
G01 X79.2491 Y48.8500
G01 X79.2869 Y48.8247
G01 X79.3390 Y48.7861
G01 X79.3741 Y48.7572
G01 X79.4222 Y48.7137
G01 X79.4543 Y48.6816
G01 X79.4978 Y48.6335
G01 X79.5267 Y48.5984
G01 X79.5599 Y48.5535
G01 X79.5599 Y49.7932
G00 Z2.0000
G00 X81.4872 Y49.7932
G01 F60.00
G01 Z-0.2001
G01 F320.00
G01 X81.4872 Y48.5535
G01 X81.5205 Y48.5984
G01 X81.5493 Y48.6335
G01 X81.5929 Y48.6816
G01 X81.6250 Y48.7137
G01 X81.6730 Y48.7572
G01 X81.7082 Y48.7861
G01 X81.7602 Y48.8247
G01 X81.7981 Y48.8500
G01 X81.8536 Y48.8833
G01 X81.8937 Y48.9047
G01 X81.9523 Y48.9324
G01 X81.9944 Y48.9498
G01 X82.0554 Y48.9717
G01 X82.0999 Y48.9851
G01 X82.0999 Y49.3616
G01 X82.0554 Y49.3751
G01 X81.9944 Y49.3969
G01 X81.9523 Y49.4143
G01 X81.8937 Y49.4421
G01 X81.8536 Y49.4635
G01 X81.7981 Y49.4968
G01 X81.7602 Y49.5221
G01 X81.7082 Y49.5607
G01 X81.6730 Y49.5895
G01 X81.6250 Y49.6331
G01 X81.5929 Y49.6652
G01 X81.5493 Y49.7132
G01 X81.5205 Y49.7484
G01 X81.4872 Y49.7932
G00 Z2.0000
G00 X84.6399 Y48.5535
G01 F60.00
G01 Z-0.2001
G01 F320.00
G01 X84.6399 Y49.7932
G01 X84.6067 Y49.7484
G01 X84.5778 Y49.7132
G01 X84.5343 Y49.6652
G01 X84.5022 Y49.6331
G01 X84.4541 Y49.5895
G01 X84.4190 Y49.5607
G01 X84.3669 Y49.5221
G01 X84.3291 Y49.4968
G01 X84.2735 Y49.4635
G01 X84.2334 Y49.4421
G01 X84.1748 Y49.4143
G01 X84.1328 Y49.3969
G01 X84.0718 Y49.3751
G01 X84.0272 Y49.3616
G01 X84.0272 Y48.9851
G01 X84.0718 Y48.9717
G01 X84.1328 Y48.9498
G01 X84.1748 Y48.9324
G01 X84.2334 Y48.9047
G01 X84.2735 Y48.8833
G01 X84.3291 Y48.8500
G01 X84.3669 Y48.8247
G01 X84.4190 Y48.7861
G01 X84.4541 Y48.7572
G01 X84.5022 Y48.7137
G01 X84.5343 Y48.6816
G01 X84.5778 Y48.6335
G01 X84.6067 Y48.5984
G01 X84.6399 Y48.5535
G00 Z2.0000
G00 X81.4872 Y43.4735
G01 F60.00
G01 Z-0.2001
G01 F320.00
G01 X81.5205 Y43.5184
G01 X81.5493 Y43.5535
G01 X81.5929 Y43.6016
G01 X81.6250 Y43.6337
G01 X81.6730 Y43.6772
G01 X81.7082 Y43.7061
G01 X81.7602 Y43.7447
G01 X81.7981 Y43.7700
G01 X81.8536 Y43.8033
G01 X81.8937 Y43.8247
G01 X81.9523 Y43.8524
G01 X81.9944 Y43.8698
G01 X82.0554 Y43.8917
G01 X82.0989 Y43.9049
G01 X82.1618 Y43.9206
G01 X82.2064 Y43.9295
G01 X82.2705 Y43.9390
G01 X82.3157 Y43.9434
G01 X82.3805 Y43.9466
G01 X82.4032 Y43.9472
G01 X83.7240 Y43.9472
G01 X83.7467 Y43.9466
G01 X83.8115 Y43.9434
G01 X83.8567 Y43.9390
G01 X83.9208 Y43.9295
G01 X83.9654 Y43.9206
G01 X84.0283 Y43.9049
G01 X84.0718 Y43.8917
G01 X84.1328 Y43.8698
G01 X84.1748 Y43.8524
G01 X84.2334 Y43.8247
G01 X84.2735 Y43.8033
G01 X84.3291 Y43.7700
G01 X84.3669 Y43.7447
G01 X84.4190 Y43.7061
G01 X84.4541 Y43.6772
G01 X84.5022 Y43.6337
G01 X84.5343 Y43.6016
G01 X84.5778 Y43.5535
G01 X84.6067 Y43.5184
G01 X84.6399 Y43.4735
G01 X84.6399 Y47.2532
G01 X84.6067 Y47.2084
G01 X84.5778 Y47.1732
G01 X84.5343 Y47.1252
G01 X84.5022 Y47.0931
G01 X84.4541 Y47.0495
G01 X84.4190 Y47.0207
G01 X84.3669 Y46.9821
G01 X84.3291 Y46.9568
G01 X84.2735 Y46.9235
G01 X84.2334 Y46.9021
G01 X84.1748 Y46.8743
G01 X84.1328 Y46.8569
G01 X84.0718 Y46.8351
G01 X84.0283 Y46.8219
G01 X83.9654 Y46.8062
G01 X83.9208 Y46.7973
G01 X83.8567 Y46.7878
G01 X83.8115 Y46.7833
G01 X83.7467 Y46.7801
G01 X83.7240 Y46.7796
G01 X82.4032 Y46.7796
G01 X82.3805 Y46.7801
G01 X82.3157 Y46.7833
G01 X82.2705 Y46.7878
G01 X82.2064 Y46.7973
G01 X82.1618 Y46.8062
G01 X82.0989 Y46.8219
G01 X82.0554 Y46.8351
G01 X81.9944 Y46.8569
G01 X81.9523 Y46.8743
G01 X81.8937 Y46.9021
G01 X81.8536 Y46.9235
G01 X81.7981 Y46.9568
G01 X81.7602 Y46.9821
G01 X81.7082 Y47.0207
G01 X81.6730 Y47.0495
G01 X81.6250 Y47.0931
G01 X81.5929 Y47.1252
G01 X81.5493 Y47.1732
G01 X81.5205 Y47.2084
G01 X81.4872 Y47.2532
G01 X81.4872 Y43.4735
G00 Z2.0000
G00 X79.5599 Y42.1732
G01 F60.00
G01 Z-0.2001
G01 F320.00
G01 X79.5267 Y42.1284
G01 X79.4978 Y42.0932
G01 X79.4543 Y42.0452
G01 X79.4222 Y42.0131
G01 X79.3741 Y41.9695
G01 X79.3390 Y41.9407
G01 X79.2869 Y41.9021
G01 X79.2491 Y41.8768
G01 X79.1935 Y41.8435
G01 X79.1534 Y41.8221
G01 X79.0948 Y41.7943
G01 X79.0528 Y41.7769
G01 X78.9918 Y41.7551
G01 X78.9472 Y41.7416
G01 X78.9472 Y38.7070
G01 X80.5236 Y38.7070
G01 X80.5463 Y38.7065
G01 X80.5954 Y38.7041
G01 X80.6406 Y38.6996
G01 X80.6892 Y38.6924
G01 X80.7338 Y38.6835
G01 X80.7814 Y38.6716
G01 X80.8249 Y38.6584
G01 X80.8711 Y38.6419
G01 X80.9132 Y38.6245
G01 X80.9575 Y38.6035
G01 X80.9976 Y38.5820
G01 X81.0397 Y38.5568
G01 X81.0776 Y38.5315
G01 X81.1170 Y38.5023
G01 X81.1521 Y38.4734
G01 X81.1885 Y38.4405
G01 X81.2207 Y38.4083
G01 X81.2536 Y38.3719
G01 X81.2825 Y38.3368
G01 X81.3117 Y38.2974
G01 X81.3370 Y38.2595
G01 X81.3622 Y38.2174
G01 X81.3837 Y38.1773
G01 X81.4047 Y38.1329
G01 X81.4221 Y38.0909
G01 X81.4386 Y38.0447
G01 X81.4518 Y38.0012
G01 X81.4637 Y37.9536
G01 X81.4726 Y37.9090
G01 X81.4798 Y37.8604
G01 X81.4843 Y37.8152
G01 X81.4867 Y37.7661
G01 X81.4872 Y37.7434
G01 X81.4872 Y35.8535
G01 X81.5205 Y35.8984
G01 X81.5493 Y35.9335
G01 X81.5929 Y35.9816
G01 X81.6250 Y36.0137
G01 X81.6730 Y36.0572
G01 X81.7082 Y36.0861
G01 X81.7602 Y36.1247
G01 X81.7981 Y36.1500
G01 X81.8536 Y36.1833
G01 X81.8937 Y36.2047
G01 X81.9523 Y36.2324
G01 X81.9944 Y36.2498
G01 X82.0554 Y36.2717
G01 X82.0999 Y36.2851
G01 X82.0999 Y39.3197
G01 X80.5236 Y39.3197
G01 X80.5009 Y39.3203
G01 X80.4518 Y39.3227
G01 X80.4066 Y39.3272
G01 X80.3580 Y39.3344
G01 X80.3134 Y39.3432
G01 X80.2658 Y39.3552
G01 X80.2223 Y39.3684
G01 X80.1760 Y39.3849
G01 X80.1340 Y39.4023
G01 X80.0896 Y39.4233
G01 X80.0495 Y39.4447
G01 X80.0074 Y39.4700
G01 X79.9696 Y39.4952
G01 X79.9302 Y39.5245
G01 X79.8950 Y39.5533
G01 X79.8587 Y39.5863
G01 X79.8265 Y39.6185
G01 X79.7935 Y39.6548
G01 X79.7647 Y39.6900
G01 X79.7354 Y39.7294
G01 X79.7102 Y39.7672
G01 X79.6849 Y39.8093
G01 X79.6635 Y39.8494
G01 X79.6425 Y39.8938
G01 X79.6251 Y39.9358
G01 X79.6086 Y39.9821
G01 X79.5954 Y40.0256
G01 X79.5834 Y40.0732
G01 X79.5746 Y40.1178
G01 X79.5674 Y40.1664
G01 X79.5629 Y40.2116
G01 X79.5605 Y40.2606
G01 X79.5599 Y40.2834
G01 X79.5599 Y42.1732
G00 Z2.0000
G00 X77.0199 Y41.7416
G01 F60.00
G01 Z-0.2001
G01 F320.00
G01 X76.9754 Y41.7551
G01 X76.9144 Y41.7769
G01 X76.8723 Y41.7943
G01 X76.8137 Y41.8221
G01 X76.7736 Y41.8435
G01 X76.7181 Y41.8768
G01 X76.6802 Y41.9021
G01 X76.6282 Y41.9407
G01 X76.5930 Y41.9695
G01 X76.5450 Y42.0131
G01 X76.5129 Y42.0452
G01 X76.4693 Y42.0932
G01 X76.4405 Y42.1284
G01 X76.4072 Y42.1732
G01 X76.4072 Y38.4996
G01 X76.4494 Y38.4428
G01 X76.4746 Y38.4050
G01 X76.5131 Y38.3408
G01 X76.5345 Y38.3007
G01 X76.5665 Y38.2331
G01 X76.5839 Y38.1911
G01 X76.6091 Y38.1207
G01 X76.6223 Y38.0772
G01 X76.6405 Y38.0046
G01 X76.6493 Y37.9600
G01 X76.6603 Y37.8861
G01 X76.6648 Y37.8408
G01 X76.6684 Y37.7661
G01 X76.6684 Y37.7206
G01 X76.6648 Y37.6460
G01 X76.6603 Y37.6007
G01 X76.6493 Y37.5267
G01 X76.6405 Y37.4821
G01 X76.6223 Y37.4096
G01 X76.6091 Y37.3661
G01 X76.5839 Y37.2957
G01 X76.5665 Y37.2537
G01 X76.5345 Y37.1861
G01 X76.5131 Y37.1459
G01 X76.4746 Y37.0818
G01 X76.4494 Y37.0440
G01 X76.4072 Y36.9872
G01 X76.4072 Y36.1670
G01 X76.7465 Y36.1670
G01 X76.7736 Y36.1833
G01 X76.8137 Y36.2047
G01 X76.8723 Y36.2324
G01 X76.9144 Y36.2498
G01 X76.9754 Y36.2717
G01 X77.0189 Y36.2849
G01 X77.0818 Y36.3006
G01 X77.1264 Y36.3095
G01 X77.1905 Y36.3190
G01 X77.2357 Y36.3234
G01 X77.3005 Y36.3266
G01 X77.3232 Y36.3272
G01 X78.6440 Y36.3272
G01 X78.6667 Y36.3266
G01 X78.7315 Y36.3234
G01 X78.7767 Y36.3190
G01 X78.8408 Y36.3095
G01 X78.8854 Y36.3006
G01 X78.9483 Y36.2849
G01 X78.9918 Y36.2717
G01 X79.0528 Y36.2498
G01 X79.0948 Y36.2324
G01 X79.1534 Y36.2047
G01 X79.1935 Y36.1833
G01 X79.2491 Y36.1500
G01 X79.2869 Y36.1247
G01 X79.3390 Y36.0861
G01 X79.3741 Y36.0572
G01 X79.4222 Y36.0137
G01 X79.4543 Y35.9816
G01 X79.4978 Y35.9335
G01 X79.5267 Y35.8984
G01 X79.5599 Y35.8535
G01 X79.5599 Y36.7797
G01 X77.9836 Y36.7797
G01 X77.9609 Y36.7803
G01 X77.9118 Y36.7827
G01 X77.8666 Y36.7872
G01 X77.8180 Y36.7944
G01 X77.7734 Y36.8032
G01 X77.7258 Y36.8152
G01 X77.6823 Y36.8284
G01 X77.6360 Y36.8449
G01 X77.5940 Y36.8623
G01 X77.5496 Y36.8833
G01 X77.5095 Y36.9047
G01 X77.4674 Y36.9300
G01 X77.4296 Y36.9552
G01 X77.3902 Y36.9845
G01 X77.3550 Y37.0133
G01 X77.3187 Y37.0463
G01 X77.2865 Y37.0785
G01 X77.2535 Y37.1148
G01 X77.2247 Y37.1500
G01 X77.1954 Y37.1894
G01 X77.1702 Y37.2272
G01 X77.1449 Y37.2693
G01 X77.1235 Y37.3094
G01 X77.1025 Y37.3538
G01 X77.0851 Y37.3958
G01 X77.0686 Y37.4421
G01 X77.0554 Y37.4856
G01 X77.0434 Y37.5332
G01 X77.0346 Y37.5778
G01 X77.0274 Y37.6264
G01 X77.0229 Y37.6716
G01 X77.0205 Y37.7206
G01 X77.0199 Y37.7434
G01 X77.0199 Y41.7416
G00 Z2.0000
G00 X81.4872 Y34.5532
G01 F60.00
G01 Z-0.2001
G01 F320.00
G01 X81.4872 Y33.3135
G01 X81.5205 Y33.3584
G01 X81.5493 Y33.3935
G01 X81.5929 Y33.4416
G01 X81.6250 Y33.4737
G01 X81.6730 Y33.5172
G01 X81.7082 Y33.5461
G01 X81.7602 Y33.5847
G01 X81.7981 Y33.6100
G01 X81.8536 Y33.6433
G01 X81.8937 Y33.6647
G01 X81.9523 Y33.6924
G01 X81.9944 Y33.7098
G01 X82.0554 Y33.7317
G01 X82.0989 Y33.7449
G01 X82.1618 Y33.7606
G01 X82.2064 Y33.7695
G01 X82.2705 Y33.7790
G01 X82.3157 Y33.7834
G01 X82.3805 Y33.7866
G01 X82.4032 Y33.7872
G01 X83.7240 Y33.7872
G01 X83.7467 Y33.7866
G01 X83.8115 Y33.7834
G01 X83.8567 Y33.7790
G01 X83.9208 Y33.7695
G01 X83.9654 Y33.7606
G01 X84.0283 Y33.7449
G01 X84.0718 Y33.7317
G01 X84.1328 Y33.7098
G01 X84.1748 Y33.6924
G01 X84.2334 Y33.6647
G01 X84.2735 Y33.6433
G01 X84.3291 Y33.6100
G01 X84.3669 Y33.5847
G01 X84.4190 Y33.5461
G01 X84.4541 Y33.5172
G01 X84.5022 Y33.4737
G01 X84.5343 Y33.4416
G01 X84.5778 Y33.3935
G01 X84.6067 Y33.3584
G01 X84.6399 Y33.3135
G01 X84.6399 Y34.5532
G01 X84.6067 Y34.5084
G01 X84.5778 Y34.4732
G01 X84.5343 Y34.4252
G01 X84.5022 Y34.3931
G01 X84.4541 Y34.3495
G01 X84.4190 Y34.3207
G01 X84.3669 Y34.2821
G01 X84.3291 Y34.2568
G01 X84.2735 Y34.2235
G01 X84.2334 Y34.2021
G01 X84.1748 Y34.1743
G01 X84.1328 Y34.1569
G01 X84.0718 Y34.1351
G01 X84.0283 Y34.1219
G01 X83.9654 Y34.1062
G01 X83.9208 Y34.0973
G01 X83.8567 Y34.0878
G01 X83.8115 Y34.0833
G01 X83.7467 Y34.0801
G01 X83.7240 Y34.0796
G01 X82.4032 Y34.0796
G01 X82.3805 Y34.0801
G01 X82.3157 Y34.0833
G01 X82.2705 Y34.0878
G01 X82.2064 Y34.0973
G01 X82.1618 Y34.1062
G01 X82.0989 Y34.1219
G01 X82.0554 Y34.1351
G01 X81.9944 Y34.1569
G01 X81.9523 Y34.1743
G01 X81.8937 Y34.2021
G01 X81.8536 Y34.2235
G01 X81.7981 Y34.2568
G01 X81.7602 Y34.2821
G01 X81.7082 Y34.3207
G01 X81.6730 Y34.3495
G01 X81.6250 Y34.3931
G01 X81.5929 Y34.4252
G01 X81.5493 Y34.4732
G01 X81.5205 Y34.5084
G01 X81.4872 Y34.5532
G00 Z2.0000
G00 X84.6399 Y35.8535
G01 F60.00
G01 Z-0.2001
G01 F320.00
G01 X84.6399 Y42.1732
G01 X84.6067 Y42.1284
G01 X84.5778 Y42.0932
G01 X84.5343 Y42.0452
G01 X84.5022 Y42.0131
G01 X84.4541 Y41.9695
G01 X84.4190 Y41.9407
G01 X84.3669 Y41.9021
G01 X84.3291 Y41.8768
G01 X84.2735 Y41.8435
G01 X84.2334 Y41.8221
G01 X84.1748 Y41.7943
G01 X84.1328 Y41.7769
G01 X84.0718 Y41.7551
G01 X84.0283 Y41.7419
G01 X83.9654 Y41.7262
G01 X83.9208 Y41.7173
G01 X83.8567 Y41.7078
G01 X83.8115 Y41.7033
G01 X83.7467 Y41.7001
G01 X83.7240 Y41.6996
G01 X82.4032 Y41.6996
G01 X82.3805 Y41.7001
G01 X82.3157 Y41.7033
G01 X82.2705 Y41.7078
G01 X82.2064 Y41.7173
G01 X82.1618 Y41.7262
G01 X82.0989 Y41.7419
G01 X82.0554 Y41.7551
G01 X81.9944 Y41.7769
G01 X81.9523 Y41.7943
G01 X81.8937 Y41.8221
G01 X81.8536 Y41.8435
G01 X81.7981 Y41.8768
G01 X81.7602 Y41.9021
G01 X81.7082 Y41.9407
G01 X81.6730 Y41.9695
G01 X81.6250 Y42.0131
G01 X81.5929 Y42.0452
G01 X81.5493 Y42.0932
G01 X81.5205 Y42.1284
G01 X81.4872 Y42.1732
G01 X81.4872 Y41.2470
G01 X83.0636 Y41.2470
G01 X83.0863 Y41.2465
G01 X83.1354 Y41.2441
G01 X83.1806 Y41.2396
G01 X83.2292 Y41.2324
G01 X83.2738 Y41.2235
G01 X83.3214 Y41.2116
G01 X83.3649 Y41.1984
G01 X83.4111 Y41.1819
G01 X83.4532 Y41.1645
G01 X83.4975 Y41.1435
G01 X83.5376 Y41.1220
G01 X83.5797 Y41.0968
G01 X83.6176 Y41.0715
G01 X83.6570 Y41.0423
G01 X83.6921 Y41.0134
G01 X83.7285 Y40.9805
G01 X83.7607 Y40.9483
G01 X83.7936 Y40.9119
G01 X83.8225 Y40.8768
G01 X83.8517 Y40.8374
G01 X83.8770 Y40.7995
G01 X83.9022 Y40.7574
G01 X83.9237 Y40.7173
G01 X83.9447 Y40.6729
G01 X83.9621 Y40.6309
G01 X83.9786 Y40.5847
G01 X83.9918 Y40.5412
G01 X84.0037 Y40.4936
G01 X84.0126 Y40.4490
G01 X84.0198 Y40.4004
G01 X84.0243 Y40.3552
G01 X84.0267 Y40.3061
G01 X84.0272 Y40.2834
G01 X84.0272 Y36.2851
G01 X84.0718 Y36.2717
G01 X84.1328 Y36.2498
G01 X84.1748 Y36.2324
G01 X84.2334 Y36.2047
G01 X84.2735 Y36.1833
G01 X84.3291 Y36.1500
G01 X84.3669 Y36.1247
G01 X84.4190 Y36.0861
G01 X84.4541 Y36.0572
G01 X84.5022 Y36.0137
G01 X84.5343 Y35.9816
G01 X84.5778 Y35.9335
G01 X84.6067 Y35.8984
G01 X84.6399 Y35.8535
G00 Z2.0000
G00 X87.1799 Y29.3672
G01 F60.00
G01 Z-0.2001
G01 F320.00
G01 X87.1799 Y23.2596
G01 X87.1378 Y23.2028
G01 X87.1125 Y23.1650
G01 X87.0741 Y23.1008
G01 X87.0527 Y23.0607
G01 X87.0207 Y22.9931
G01 X87.0033 Y22.9511
G01 X86.9781 Y22.8807
G01 X86.9649 Y22.8372
G01 X86.9467 Y22.7646
G01 X86.9378 Y22.7200
G01 X86.9269 Y22.6461
G01 X86.9224 Y22.6008
G01 X86.9187 Y22.5261
G01 X86.9187 Y22.4806
G01 X86.9224 Y22.4060
G01 X86.9269 Y22.3607
G01 X86.9378 Y22.2867
G01 X86.9467 Y22.2421
G01 X86.9649 Y22.1696
G01 X86.9781 Y22.1261
G01 X87.0033 Y22.0557
G01 X87.0207 Y22.0137
G01 X87.0527 Y21.9461
G01 X87.0741 Y21.9059
G01 X87.1125 Y21.8418
G01 X87.1378 Y21.8040
G01 X87.1823 Y21.7439
G01 X87.2112 Y21.7088
G01 X87.2614 Y21.6534
G01 X87.2936 Y21.6212
G01 X87.3490 Y21.5710
G01 X87.3841 Y21.5421
G01 X87.4442 Y21.4976
G01 X87.4820 Y21.4723
G01 X87.5461 Y21.4339
G01 X87.5863 Y21.4125
G01 X87.6539 Y21.3805
G01 X87.6959 Y21.3631
G01 X87.7663 Y21.3379
G01 X87.8098 Y21.3247
G01 X87.8823 Y21.3065
G01 X87.9269 Y21.2976
G01 X88.0009 Y21.2867
G01 X88.0462 Y21.2822
G01 X88.1209 Y21.2785
G01 X88.1663 Y21.2785
G01 X88.2410 Y21.2822
G01 X88.2863 Y21.2867
G01 X88.3602 Y21.2976
G01 X88.4048 Y21.3065
G01 X88.4774 Y21.3247
G01 X88.5209 Y21.3379
G01 X88.5913 Y21.3631
G01 X88.6333 Y21.3805
G01 X88.7009 Y21.4125
G01 X88.7410 Y21.4339
G01 X88.8052 Y21.4723
G01 X88.8430 Y21.4976
G01 X88.8998 Y21.5397
G01 X89.9274 Y21.5397
G01 X89.9842 Y21.4976
G01 X90.0220 Y21.4723
G01 X90.0861 Y21.4339
G01 X90.1263 Y21.4125
G01 X90.1939 Y21.3805
G01 X90.2359 Y21.3631
G01 X90.3063 Y21.3379
G01 X90.3498 Y21.3247
G01 X90.4223 Y21.3065
G01 X90.4669 Y21.2976
G01 X90.5409 Y21.2867
G01 X90.5862 Y21.2822
G01 X90.6609 Y21.2785
G01 X90.7063 Y21.2785
G01 X90.7810 Y21.2822
G01 X90.8263 Y21.2867
G01 X90.9002 Y21.2976
G01 X90.9448 Y21.3065
G01 X91.0174 Y21.3247
G01 X91.0609 Y21.3379
G01 X91.1313 Y21.3631
G01 X91.1733 Y21.3805
G01 X91.2409 Y21.4125
G01 X91.2810 Y21.4339
G01 X91.3452 Y21.4723
G01 X91.3830 Y21.4976
G01 X91.4430 Y21.5421
G01 X91.4782 Y21.5710
G01 X91.5336 Y21.6212
G01 X91.5658 Y21.6534
G01 X91.6160 Y21.7088
G01 X91.6448 Y21.7439
G01 X91.6894 Y21.8040
G01 X91.7146 Y21.8418
G01 X91.7531 Y21.9059
G01 X91.7745 Y21.9461
G01 X91.8065 Y22.0137
G01 X91.8239 Y22.0557
G01 X91.8491 Y22.1261
G01 X91.8623 Y22.1696
G01 X91.8805 Y22.2421
G01 X91.8893 Y22.2867
G01 X91.9003 Y22.3607
G01 X91.9048 Y22.4060
G01 X91.9084 Y22.4806
G01 X91.9084 Y22.5261
G01 X91.9048 Y22.6008
G01 X91.9003 Y22.6461
G01 X91.8893 Y22.7200
G01 X91.8805 Y22.7646
G01 X91.8623 Y22.8372
G01 X91.8491 Y22.8807
G01 X91.8239 Y22.9511
G01 X91.8065 Y22.9931
G01 X91.7745 Y23.0607
G01 X91.7531 Y23.1008
G01 X91.7146 Y23.1650
G01 X91.6894 Y23.2028
G01 X91.6448 Y23.2628
G01 X91.6160 Y23.2980
G01 X91.5658 Y23.3534
G01 X91.5336 Y23.3856
G01 X91.4782 Y23.4358
G01 X91.4430 Y23.4646
G01 X91.3830 Y23.5092
G01 X91.3452 Y23.5344
G01 X91.2810 Y23.5729
G01 X91.2409 Y23.5943
G01 X91.1733 Y23.6263
G01 X91.1313 Y23.6437
G01 X91.0609 Y23.6689
G01 X91.0174 Y23.6821
G01 X90.9448 Y23.7003
G01 X90.9002 Y23.7091
G01 X90.8263 Y23.7201
G01 X90.7810 Y23.7246
G01 X90.7063 Y23.7282
G01 X90.6609 Y23.7282
G01 X90.5862 Y23.7246
G01 X90.5409 Y23.7201
G01 X90.4669 Y23.7091
G01 X90.4223 Y23.7003
G01 X90.3498 Y23.6821
G01 X90.3063 Y23.6689
G01 X90.2359 Y23.6437
G01 X90.1939 Y23.6263
G01 X90.1263 Y23.5943
G01 X90.0861 Y23.5729
G01 X90.0220 Y23.5344
G01 X89.9842 Y23.5092
G01 X89.9274 Y23.4670
G01 X89.1072 Y23.4670
G01 X89.1072 Y24.0797
G01 X95.0074 Y24.0797
G01 X95.0642 Y24.0376
G01 X95.1020 Y24.0123
G01 X95.1661 Y23.9739
G01 X95.2063 Y23.9525
G01 X95.2739 Y23.9205
G01 X95.3159 Y23.9031
G01 X95.3863 Y23.8779
G01 X95.4298 Y23.8647
G01 X95.5023 Y23.8465
G01 X95.5469 Y23.8376
G01 X95.6209 Y23.8267
G01 X95.6662 Y23.8222
G01 X95.7409 Y23.8185
G01 X95.7863 Y23.8185
G01 X95.8610 Y23.8222
G01 X95.9063 Y23.8267
G01 X95.9802 Y23.8376
G01 X96.0248 Y23.8465
G01 X96.0974 Y23.8647
G01 X96.1409 Y23.8779
G01 X96.2113 Y23.9031
G01 X96.2533 Y23.9205
G01 X96.3209 Y23.9525
G01 X96.3610 Y23.9739
G01 X96.4252 Y24.0123
G01 X96.4630 Y24.0376
G01 X96.5230 Y24.0821
G01 X96.5582 Y24.1110
G01 X96.6136 Y24.1612
G01 X96.6458 Y24.1934
G01 X96.6960 Y24.2488
G01 X96.7248 Y24.2839
G01 X96.7694 Y24.3440
G01 X96.7946 Y24.3818
G01 X96.8331 Y24.4459
G01 X96.8545 Y24.4861
G01 X96.8865 Y24.5537
G01 X96.9039 Y24.5957
G01 X96.9291 Y24.6661
G01 X96.9423 Y24.7096
G01 X96.9605 Y24.7821
G01 X96.9693 Y24.8267
G01 X96.9803 Y24.9007
G01 X96.9848 Y24.9460
G01 X96.9884 Y25.0206
G01 X96.9884 Y25.0661
G01 X96.9848 Y25.1408
G01 X96.9803 Y25.1861
G01 X96.9693 Y25.2600
G01 X96.9605 Y25.3046
G01 X96.9423 Y25.3772
G01 X96.9291 Y25.4207
G01 X96.9039 Y25.4911
G01 X96.8865 Y25.5331
G01 X96.8545 Y25.6007
G01 X96.8331 Y25.6408
G01 X96.7946 Y25.7050
G01 X96.7694 Y25.7428
G01 X96.7248 Y25.8028
G01 X96.6960 Y25.8380
G01 X96.6458 Y25.8934
G01 X96.6136 Y25.9256
G01 X96.5582 Y25.9758
G01 X96.5230 Y26.0046
G01 X96.4630 Y26.0492
G01 X96.4252 Y26.0744
G01 X96.3610 Y26.1129
G01 X96.3209 Y26.1343
G01 X96.2533 Y26.1663
G01 X96.2113 Y26.1837
G01 X96.1409 Y26.2089
G01 X96.0974 Y26.2221
G01 X96.0248 Y26.2403
G01 X95.9802 Y26.2491
G01 X95.9063 Y26.2601
G01 X95.8610 Y26.2646
G01 X95.7863 Y26.2682
G01 X95.7409 Y26.2682
G01 X95.6662 Y26.2646
G01 X95.6209 Y26.2601
G01 X95.5469 Y26.2491
G01 X95.5023 Y26.2403
G01 X95.4298 Y26.2221
G01 X95.3863 Y26.2089
G01 X95.3159 Y26.1837
G01 X95.2739 Y26.1663
G01 X95.2063 Y26.1343
G01 X95.1661 Y26.1129
G01 X95.1020 Y26.0744
G01 X95.0642 Y26.0492
G01 X95.0074 Y26.0070
G01 X89.1072 Y26.0070
G01 X89.1072 Y29.3672
G01 X89.1494 Y29.4240
G01 X89.1746 Y29.4618
G01 X89.2131 Y29.5259
G01 X89.2345 Y29.5661
G01 X89.2665 Y29.6337
G01 X89.2839 Y29.6757
G01 X89.3091 Y29.7461
G01 X89.3223 Y29.7896
G01 X89.3405 Y29.8621
G01 X89.3493 Y29.9067
G01 X89.3603 Y29.9807
G01 X89.3648 Y30.0260
G01 X89.3684 Y30.1006
G01 X89.3684 Y30.1461
G01 X89.3648 Y30.2208
G01 X89.3603 Y30.2661
G01 X89.3493 Y30.3400
G01 X89.3405 Y30.3846
G01 X89.3223 Y30.4572
G01 X89.3091 Y30.5007
G01 X89.2839 Y30.5711
G01 X89.2665 Y30.6131
G01 X89.2345 Y30.6807
G01 X89.2131 Y30.7208
G01 X89.1746 Y30.7850
G01 X89.1494 Y30.8228
G01 X89.1048 Y30.8828
G01 X89.0760 Y30.9180
G01 X89.0258 Y30.9734
G01 X88.9936 Y31.0056
G01 X88.9382 Y31.0558
G01 X88.9030 Y31.0846
G01 X88.8430 Y31.1292
G01 X88.8052 Y31.1544
G01 X88.7410 Y31.1929
G01 X88.7009 Y31.2143
G01 X88.6333 Y31.2463
G01 X88.5913 Y31.2637
G01 X88.5209 Y31.2889
G01 X88.4774 Y31.3021
G01 X88.4048 Y31.3203
G01 X88.3602 Y31.3291
G01 X88.2863 Y31.3401
G01 X88.2410 Y31.3446
G01 X88.1663 Y31.3482
G01 X88.1209 Y31.3482
G01 X88.0462 Y31.3446
G01 X88.0009 Y31.3401
G01 X87.9269 Y31.3291
G01 X87.8823 Y31.3203
G01 X87.8098 Y31.3021
G01 X87.7663 Y31.2889
G01 X87.6959 Y31.2637
