(G-CODE GENERATED BY FLATCAM v8.991 - www.flatcam.org - Version Date: 2019/12/27)

(Name: 007_DReg2_iso3)
(Type: G-code from Geometry)
(Units: MM)

(Created on Monday, 02 March 2020 at 18:56)

(TOOL DIAMETER: 0.331 mm)
(Feedrate: 320.0 mm/min)
(Feedrate_Z: 60.0 mm/min)
(Feedrate rapids 1500.0 mm/min)

(Z_Cut: -0.2001 mm)
(Z_Move: 2.0 mm)
(Z Toolchange: 15.0 mm)
(X,Y Toolchange: 0.0000, 0.0000 mm)
(Z Start: None mm)
(Z End: 15.0 mm)
(Steps per circle: 64)
(Preprocessor Geometry: default)

(X range:    5.3412 ...  148.0860  mm)
(Y range:    3.2010 ...   97.6858  mm)

(Spindle Speed: None RPM)
G21
G90
G94

M03 S3000


G01 F320.00
G00 Z2.0000

M03
G00 X8.1336 Y5.5629
G01 F60.00
G01 Z-0.2001
G01 F320.00
G01 X8.1420 Y5.5756
G01 X8.1420 Y21.6765
G01 X8.1251 Y21.6512
G01 X8.1251 Y5.5756
G01 X8.1336 Y5.5629
G00 Z2.0000
G00 X12.9612 Y4.7607
G01 F60.00
G01 Z-0.2001
G01 F320.00
G01 X12.9612 Y4.6860
G01 X12.9649 Y4.6113
G01 X12.9722 Y4.5370
G01 X12.9832 Y4.4630
G01 X12.9977 Y4.3897
G01 X13.0159 Y4.3172
G01 X13.0376 Y4.2457
G01 X13.0628 Y4.1753
G01 X13.0914 Y4.1063
G01 X13.1234 Y4.0387
G01 X13.1586 Y3.9728
G01 X13.1970 Y3.9087
G01 X13.2385 Y3.8465
G01 X13.2831 Y3.7865
G01 X13.3305 Y3.7287
G01 X13.3807 Y3.6733
G01 X13.4335 Y3.6205
G01 X13.4889 Y3.5703
G01 X13.5467 Y3.5229
G01 X13.6067 Y3.4783
G01 X13.6689 Y3.4368
G01 X13.7330 Y3.3984
G01 X13.7989 Y3.3632
G01 X13.8665 Y3.3312
G01 X13.9355 Y3.3026
G01 X14.0059 Y3.2774
G01 X14.0774 Y3.2557
G01 X14.1499 Y3.2375
G01 X14.2232 Y3.2230
G01 X14.2972 Y3.2120
G01 X14.3715 Y3.2047
G01 X14.4462 Y3.2010
G01 X14.5209 Y3.2010
G01 X14.5956 Y3.2047
G01 X14.6700 Y3.2120
G01 X14.7440 Y3.2230
G01 X14.8172 Y3.2375
G01 X14.8898 Y3.2557
G01 X14.9613 Y3.2774
G01 X15.0317 Y3.3026
G01 X15.1007 Y3.3312
G01 X15.1683 Y3.3632
G01 X15.2342 Y3.3984
G01 X15.2983 Y3.4368
G01 X15.3604 Y3.4783
G01 X15.4205 Y3.5229
G01 X15.4783 Y3.5703
G01 X15.5337 Y3.6205
G01 X15.5865 Y3.6733
G01 X15.6367 Y3.7287
G01 X15.6841 Y3.7865
G01 X15.7286 Y3.8465
G01 X15.7536 Y3.8839
G01 X15.7785 Y3.8465
G01 X15.8231 Y3.7865
G01 X15.8705 Y3.7287
G01 X15.9207 Y3.6733
G01 X15.9735 Y3.6205
G01 X16.0289 Y3.5703
G01 X16.0867 Y3.5229
G01 X16.1467 Y3.4783
G01 X16.2089 Y3.4368
G01 X16.2730 Y3.3984
G01 X16.3389 Y3.3632
G01 X16.4065 Y3.3312
G01 X16.4755 Y3.3026
G01 X16.5459 Y3.2774
G01 X16.6174 Y3.2557
G01 X16.6899 Y3.2375
G01 X16.7632 Y3.2230
G01 X16.8372 Y3.2120
G01 X16.9115 Y3.2047
G01 X16.9862 Y3.2010
G01 X17.0609 Y3.2010
G01 X17.1356 Y3.2047
G01 X17.2100 Y3.2120
G01 X17.2840 Y3.2230
G01 X17.3572 Y3.2375
G01 X17.4298 Y3.2557
G01 X17.5013 Y3.2774
G01 X17.5717 Y3.3026
G01 X17.6407 Y3.3312
G01 X17.7083 Y3.3632
G01 X17.7742 Y3.3984
G01 X17.8383 Y3.4368
G01 X17.9004 Y3.4783
G01 X17.9605 Y3.5229
G01 X18.0183 Y3.5703
G01 X18.0737 Y3.6205
G01 X18.1265 Y3.6733
G01 X18.1767 Y3.7287
G01 X18.2241 Y3.7865
G01 X18.2686 Y3.8465
G01 X18.3102 Y3.9087
G01 X18.3486 Y3.9728
G01 X18.3838 Y4.0387
G01 X18.4158 Y4.1063
G01 X18.4444 Y4.1753
G01 X18.4696 Y4.2457
G01 X18.4913 Y4.3172
G01 X18.5094 Y4.3897
G01 X18.5240 Y4.4630
G01 X18.5350 Y4.5370
G01 X18.5423 Y4.6113
G01 X18.5460 Y4.6860
G01 X18.5460 Y4.7607
G01 X18.5423 Y4.8354
G01 X18.5350 Y4.9098
G01 X18.5240 Y4.9837
G01 X18.5094 Y5.0570
G01 X18.4913 Y5.1296
G01 X18.4696 Y5.2011
G01 X18.4444 Y5.2715
G01 X18.4158 Y5.3405
G01 X18.3838 Y5.4081
G01 X18.3486 Y5.4740
G01 X18.3102 Y5.5381
G01 X18.2686 Y5.6002
G01 X18.2241 Y5.6603
G01 X18.1767 Y5.7180
G01 X18.1265 Y5.7735
G01 X18.0737 Y5.8263
G01 X18.0183 Y5.8765
G01 X17.9605 Y5.9239
G01 X17.9004 Y5.9684
G01 X17.8383 Y6.0100
G01 X17.7742 Y6.0484
G01 X17.7083 Y6.0836
G01 X17.6407 Y6.1156
G01 X17.5717 Y6.1442
G01 X17.5013 Y6.1694
G01 X17.4298 Y6.1911
G01 X17.3572 Y6.2092
G01 X17.2840 Y6.2238
G01 X17.2100 Y6.2348
G01 X17.1356 Y6.2421
G01 X17.0609 Y6.2458
G01 X16.9862 Y6.2458
G01 X16.9115 Y6.2421
G01 X16.8372 Y6.2348
G01 X16.7632 Y6.2238
G01 X16.6899 Y6.2092
G01 X16.6174 Y6.1911
G01 X16.5459 Y6.1694
G01 X16.4755 Y6.1442
G01 X16.4065 Y6.1156
G01 X16.3389 Y6.0836
G01 X16.2730 Y6.0484
G01 X16.2089 Y6.0100
G01 X16.1467 Y5.9684
G01 X16.0867 Y5.9239
G01 X16.0289 Y5.8765
G01 X15.9735 Y5.8263
G01 X15.9207 Y5.7735
G01 X15.8705 Y5.7180
G01 X15.8231 Y5.6603
G01 X15.7785 Y5.6002
G01 X15.7536 Y5.5629
G01 X15.7286 Y5.6002
G01 X15.6841 Y5.6603
G01 X15.6367 Y5.7180
G01 X15.5865 Y5.7735
G01 X15.5337 Y5.8263
G01 X15.4783 Y5.8765
G01 X15.4205 Y5.9239
G01 X15.3604 Y5.9684
G01 X15.2983 Y6.0100
G01 X15.2342 Y6.0484
G01 X15.1683 Y6.0836
G01 X15.1007 Y6.1156
G01 X15.0317 Y6.1442
G01 X14.9613 Y6.1694
G01 X14.8898 Y6.1911
G01 X14.8172 Y6.2092
G01 X14.7440 Y6.2238
G01 X14.6700 Y6.2348
G01 X14.5956 Y6.2421
G01 X14.5209 Y6.2458
G01 X14.4462 Y6.2458
G01 X14.3715 Y6.2421
G01 X14.2972 Y6.2348
G01 X14.2232 Y6.2238
G01 X14.1499 Y6.2092
G01 X14.0774 Y6.1911
G01 X14.0059 Y6.1694
G01 X13.9355 Y6.1442
G01 X13.8665 Y6.1156
G01 X13.7989 Y6.0836
G01 X13.7330 Y6.0484
G01 X13.6689 Y6.0100
G01 X13.6067 Y5.9684
G01 X13.5467 Y5.9239
G01 X13.4889 Y5.8765
G01 X13.4335 Y5.8263
G01 X13.3807 Y5.7735
G01 X13.3305 Y5.7180
G01 X13.2831 Y5.6603
G01 X13.2385 Y5.6002
G01 X13.1970 Y5.5381
G01 X13.1586 Y5.4740
G01 X13.1234 Y5.4081
G01 X13.0914 Y5.3405
G01 X13.0628 Y5.2715
G01 X13.0376 Y5.2011
G01 X13.0159 Y5.1296
G01 X12.9977 Y5.0570
G01 X12.9832 Y4.9837
G01 X12.9722 Y4.9098
G01 X12.9649 Y4.8354
G01 X12.9612 Y4.7607
G00 Z2.0000
G00 X26.9632 Y9.8407
G01 F60.00
G01 Z-0.2001
G01 F320.00
G01 X26.9632 Y9.7660
G01 X26.9728 Y9.5700
G01 X26.9802 Y9.4956
G01 X27.0090 Y9.3015
G01 X27.0235 Y9.2282
G01 X27.0712 Y9.0378
G01 X27.0929 Y8.9663
G01 X27.1590 Y8.7815
G01 X27.1876 Y8.7125
G01 X27.2715 Y8.5351
G01 X27.3068 Y8.4692
G01 X27.4077 Y8.3009
G01 X27.4492 Y8.2387
G01 X27.5661 Y8.0811
G01 X27.6135 Y8.0233
G01 X27.7453 Y7.8779
G01 X27.7981 Y7.8251
G01 X27.9435 Y7.6933
G01 X28.0013 Y7.6459
G01 X28.1589 Y7.5290
G01 X28.2211 Y7.4875
G01 X28.3894 Y7.3866
G01 X28.4553 Y7.3513
G01 X28.6327 Y7.2674
G01 X28.7017 Y7.2388
G01 X28.8865 Y7.1727
G01 X28.9580 Y7.1510
G01 X29.1484 Y7.1033
G01 X29.2217 Y7.0888
G01 X29.4158 Y7.0600
G01 X29.4902 Y7.0526
G01 X29.6862 Y7.0430
G01 X29.7609 Y7.0430
G01 X29.9570 Y7.0526
G01 X30.0313 Y7.0600
G01 X30.2255 Y7.0888
G01 X30.2987 Y7.1033
G01 X30.4891 Y7.1510
G01 X30.5606 Y7.1727
G01 X30.7454 Y7.2388
G01 X30.8145 Y7.2674
G01 X30.9919 Y7.3513
G01 X31.0578 Y7.3866
G01 X31.2261 Y7.4875
G01 X31.2882 Y7.5290
G01 X31.4459 Y7.6459
G01 X31.5036 Y7.6933
G01 X31.6491 Y7.8251
G01 X31.7019 Y7.8779
G01 X31.8337 Y8.0233
G01 X31.8811 Y8.0811
G01 X31.9980 Y8.2387
G01 X32.0395 Y8.3009
G01 X32.1404 Y8.4692
G01 X32.1756 Y8.5351
G01 X32.2595 Y8.7125
G01 X32.2881 Y8.7815
G01 X32.3543 Y8.9663
G01 X32.3759 Y9.0378
G01 X32.4236 Y9.2282
G01 X32.4382 Y9.3015
G01 X32.4670 Y9.4956
G01 X32.4743 Y9.5700
G01 X32.4840 Y9.7660
G01 X32.4840 Y9.8407
G01 X32.4743 Y10.0368
G01 X32.4670 Y10.1111
G01 X32.4382 Y10.3053
G01 X32.4236 Y10.3785
G01 X32.3759 Y10.5689
G01 X32.3543 Y10.6404
G01 X32.2881 Y10.8252
G01 X32.2595 Y10.8942
G01 X32.1756 Y11.0717
G01 X32.1404 Y11.1376
G01 X32.0395 Y11.3059
G01 X31.9980 Y11.3680
G01 X31.8811 Y11.5257
G01 X31.8337 Y11.5834
G01 X31.7019 Y11.7289
G01 X31.6491 Y11.7817
G01 X31.5036 Y11.9135
G01 X31.4459 Y11.9609
G01 X31.2882 Y12.0778
G01 X31.2261 Y12.1193
G01 X31.0578 Y12.2202
G01 X30.9919 Y12.2554
G01 X30.8145 Y12.3393
G01 X30.7454 Y12.3679
G01 X30.5606 Y12.4341
G01 X30.4891 Y12.4557
G01 X30.2987 Y12.5034
G01 X30.2255 Y12.5180
G01 X30.0313 Y12.5468
G01 X29.9570 Y12.5541
G01 X29.7609 Y12.5638
G01 X29.6862 Y12.5638
G01 X29.4902 Y12.5541
G01 X29.4158 Y12.5468
G01 X29.2217 Y12.5180
G01 X29.1484 Y12.5034
G01 X28.9580 Y12.4557
G01 X28.8865 Y12.4341
G01 X28.7017 Y12.3679
G01 X28.6327 Y12.3393
G01 X28.4553 Y12.2554
G01 X28.3894 Y12.2202
G01 X28.2211 Y12.1193
G01 X28.1589 Y12.0778
G01 X28.0013 Y11.9609
G01 X27.9435 Y11.9135
G01 X27.7981 Y11.7817
G01 X27.7453 Y11.7289
G01 X27.6135 Y11.5834
G01 X27.5661 Y11.5257
G01 X27.4492 Y11.3680
G01 X27.4077 Y11.3059
G01 X27.3068 Y11.1376
G01 X27.2715 Y11.0717
G01 X27.1876 Y10.8942
G01 X27.1590 Y10.8252
G01 X27.0929 Y10.6404
G01 X27.0712 Y10.5689
G01 X27.0235 Y10.3785
G01 X27.0090 Y10.3053
G01 X26.9802 Y10.1111
G01 X26.9728 Y10.0368
G01 X26.9632 Y9.8407
G00 Z2.0000
G00 X10.6651 Y23.3303
G01 F60.00
G01 Z-0.2001
G01 F320.00
G01 X10.6985 Y23.3802
G01 X10.7431 Y23.4403
G01 X10.7905 Y23.4980
G01 X10.8407 Y23.5535
G01 X10.8935 Y23.6063
G01 X10.9489 Y23.6565
G01 X11.0067 Y23.7039
G01 X11.0667 Y23.7484
G01 X11.1289 Y23.7900
G01 X11.1930 Y23.8284
G01 X11.2589 Y23.8636
G01 X11.3265 Y23.8956
G01 X11.3955 Y23.9242
G01 X11.4659 Y23.9494
G01 X11.5374 Y23.9711
G01 X11.6099 Y23.9892
G01 X11.6832 Y24.0038
G01 X11.7572 Y24.0148
G01 X11.8315 Y24.0221
G01 X11.9062 Y24.0258
G01 X11.9809 Y24.0258
G01 X12.0556 Y24.0221
G01 X12.1300 Y24.0148
G01 X12.2040 Y24.0038
G01 X12.2772 Y23.9892
G01 X12.3498 Y23.9711
G01 X12.4213 Y23.9494
G01 X12.4917 Y23.9242
G01 X12.5607 Y23.8956
G01 X12.6283 Y23.8636
G01 X12.6942 Y23.8284
G01 X12.7583 Y23.7900
G01 X12.7958 Y23.7649
G01 X41.5714 Y23.7649
G01 X41.6089 Y23.7900
G01 X41.6730 Y23.8284
G01 X41.7389 Y23.8636
G01 X41.8065 Y23.8956
G01 X41.8755 Y23.9242
G01 X41.9459 Y23.9494
G01 X42.0174 Y23.9711
G01 X42.0899 Y23.9892
G01 X42.1632 Y24.0038
G01 X42.2372 Y24.0148
G01 X42.3115 Y24.0221
G01 X42.3862 Y24.0258
G01 X42.4609 Y24.0258
G01 X42.5356 Y24.0221
G01 X42.6100 Y24.0148
G01 X42.6840 Y24.0038
G01 X42.7572 Y23.9892
G01 X42.8298 Y23.9711
G01 X42.9013 Y23.9494
G01 X42.9717 Y23.9242
G01 X43.0407 Y23.8956
G01 X43.1083 Y23.8636
G01 X43.1742 Y23.8284
G01 X43.2383 Y23.7900
G01 X43.3004 Y23.7484
G01 X43.3605 Y23.7039
G01 X43.4183 Y23.6565
G01 X43.4737 Y23.6063
G01 X43.5265 Y23.5535
G01 X43.5767 Y23.4980
G01 X43.6241 Y23.4403
G01 X43.6686 Y23.3802
G01 X43.7020 Y23.3303
G01 X43.7020 Y26.7565
G01 X43.6686 Y26.7065
G01 X43.6241 Y26.6465
G01 X43.5767 Y26.5887
G01 X43.5265 Y26.5333
G01 X43.4737 Y26.4805
G01 X43.4183 Y26.4303
G01 X43.3605 Y26.3829
G01 X43.3004 Y26.3383
G01 X43.2383 Y26.2968
G01 X43.1742 Y26.2584
G01 X43.1083 Y26.2232
G01 X43.0407 Y26.1912
G01 X42.9717 Y26.1626
G01 X42.9013 Y26.1374
G01 X42.8298 Y26.1157
G01 X42.7572 Y26.0975
G01 X42.6840 Y26.0830
G01 X42.6100 Y26.0720
G01 X42.5356 Y26.0647
G01 X42.4609 Y26.0610
G01 X42.3862 Y26.0610
G01 X42.3115 Y26.0647
G01 X42.2372 Y26.0720
G01 X42.1632 Y26.0830
G01 X42.0899 Y26.0975
G01 X42.0174 Y26.1157
G01 X41.9459 Y26.1374
G01 X41.8755 Y26.1626
G01 X41.8065 Y26.1912
G01 X41.7389 Y26.2232
G01 X41.6730 Y26.2584
G01 X41.6089 Y26.2968
G01 X41.5714 Y26.3218
G01 X10.6651 Y26.3218
G01 X10.6651 Y23.3303
G00 Z2.0000
G00 X51.3051 Y26.7565
G01 F60.00
G01 Z-0.2001
G01 F320.00
G01 X51.3051 Y26.3049
G01 X51.7567 Y26.3049
G01 X51.7067 Y26.3383
G01 X51.6467 Y26.3829
G01 X51.5889 Y26.4303
G01 X51.5335 Y26.4805
G01 X51.4807 Y26.5333
G01 X51.4305 Y26.5887
G01 X51.3831 Y26.6465
G01 X51.3385 Y26.7065
G01 X51.3051 Y26.7565
G00 Z2.0000
G00 X53.4105 Y26.3049
G01 F60.00
G01 Z-0.2001
G01 F320.00
G01 X54.2967 Y26.3049
G01 X54.2714 Y26.3218
G01 X53.4358 Y26.3218
G01 X53.4105 Y26.3049
G00 Z2.0000
G00 X55.9505 Y26.3049
G01 F60.00
G01 Z-0.2001
G01 F320.00
G01 X56.8114 Y26.3049
G01 X56.8489 Y26.3300
G01 X56.9130 Y26.3684
G01 X56.9789 Y26.4036
G01 X57.0465 Y26.4356
G01 X57.1155 Y26.4642
G01 X57.1859 Y26.4894
G01 X57.2574 Y26.5111
G01 X57.3299 Y26.5292
G01 X57.4032 Y26.5438
G01 X57.4772 Y26.5548
G01 X57.5515 Y26.5621
G01 X57.6262 Y26.5658
G01 X57.7009 Y26.5658
G01 X57.7756 Y26.5621
G01 X57.8500 Y26.5548
G01 X57.9240 Y26.5438
G01 X57.9972 Y26.5292
G01 X58.0698 Y26.5111
G01 X58.1413 Y26.4894
G01 X58.2117 Y26.4642
G01 X58.2807 Y26.4356
G01 X58.3483 Y26.4036
G01 X58.4142 Y26.3684
G01 X58.4783 Y26.3300
G01 X58.5404 Y26.2884
G01 X58.6005 Y26.2439
G01 X58.6583 Y26.1965
G01 X58.7137 Y26.1463
G01 X58.7665 Y26.0935
G01 X58.8167 Y26.0380
G01 X58.8641 Y25.9803
G01 X58.9086 Y25.9202
G01 X58.9336 Y25.8829
G01 X58.9420 Y25.8956
G01 X58.9420 Y29.2712
G01 X58.9170 Y29.3087
G01 X58.8786 Y29.3728
G01 X58.8434 Y29.4387
G01 X58.8114 Y29.5063
G01 X58.7828 Y29.5753
G01 X58.7576 Y29.6457
G01 X58.7359 Y29.7172
G01 X58.7177 Y29.7897
G01 X58.7032 Y29.8630
G01 X58.6922 Y29.9370
G01 X58.6849 Y30.0113
G01 X58.6812 Y30.0860
G01 X58.6812 Y30.1607
G01 X58.6849 Y30.2354
G01 X58.6922 Y30.3098
G01 X58.7032 Y30.3837
G01 X58.7177 Y30.4570
G01 X58.7359 Y30.5296
G01 X58.7576 Y30.6011
G01 X58.7828 Y30.6715
G01 X58.8114 Y30.7405
G01 X58.8434 Y30.8081
G01 X58.8786 Y30.8740
G01 X58.9170 Y30.9381
G01 X58.9585 Y31.0002
G01 X59.0031 Y31.0603
G01 X59.0505 Y31.1180
G01 X59.1007 Y31.1735
G01 X59.1535 Y31.2263
G01 X59.2089 Y31.2765
G01 X59.2667 Y31.3239
G01 X59.3267 Y31.3684
G01 X59.3889 Y31.4100
G01 X59.4530 Y31.4484
G01 X59.5189 Y31.4836
G01 X59.5865 Y31.5156
G01 X59.6373 Y31.5366
G01 X59.5764 Y31.5692
G01 X59.5343 Y31.5945
G01 X59.4722 Y31.6360
G01 X59.4327 Y31.6652
G01 X59.3778 Y31.7103
G01 X59.3550 Y31.6852
G01 X59.3022 Y31.6323
G01 X59.2542 Y31.5888
G01 X59.1964 Y31.5414
G01 X59.1444 Y31.5028
G01 X59.0823 Y31.4613
G01 X59.0267 Y31.4280
G01 X58.9608 Y31.3928
G01 X58.9022 Y31.3650
G01 X58.8332 Y31.3365
G01 X58.7722 Y31.3146
G01 X58.7007 Y31.2929
G01 X58.6378 Y31.2772
G01 X58.5645 Y31.2626
G01 X58.5004 Y31.2531
G01 X58.4261 Y31.2458
G01 X58.3613 Y31.2426
G01 X58.3240 Y31.2417
G01 X57.0032 Y31.2417
G01 X56.9658 Y31.2426
G01 X56.9011 Y31.2458
G01 X56.8268 Y31.2531
G01 X56.7626 Y31.2626
G01 X56.6894 Y31.2772
G01 X56.6265 Y31.2929
G01 X56.5550 Y31.3146
G01 X56.4940 Y31.3365
G01 X56.4250 Y31.3650
G01 X56.3851 Y31.3839
G01 X56.3851 Y28.4356
G01 X56.4102 Y28.3981
G01 X56.4486 Y28.3340
G01 X56.4838 Y28.2681
G01 X56.5158 Y28.2005
G01 X56.5444 Y28.1315
G01 X56.5696 Y28.0611
G01 X56.5913 Y27.9896
G01 X56.6094 Y27.9170
G01 X56.6240 Y27.8437
G01 X56.6350 Y27.7698
G01 X56.6423 Y27.6954
G01 X56.6460 Y27.6207
G01 X56.6460 Y27.5460
G01 X56.6423 Y27.4713
G01 X56.6350 Y27.3970
G01 X56.6240 Y27.3230
G01 X56.6094 Y27.2497
G01 X56.5913 Y27.1772
G01 X56.5696 Y27.1057
G01 X56.5444 Y27.0353
G01 X56.5158 Y26.9663
G01 X56.4838 Y26.8987
G01 X56.4486 Y26.8328
G01 X56.4102 Y26.7687
G01 X56.3686 Y26.7065
G01 X56.3241 Y26.6465
G01 X56.2767 Y26.5887
G01 X56.2265 Y26.5333
G01 X56.1737 Y26.4805
G01 X56.1183 Y26.4303
G01 X56.0605 Y26.3829
G01 X56.0004 Y26.3383
G01 X55.9505 Y26.3049
G00 Z2.0000
G00 X51.7567 Y23.7818
G01 F60.00
G01 Z-0.2001
G01 F320.00
G01 X51.3051 Y23.7818
G01 X51.3051 Y23.7649
G01 X51.7314 Y23.7649
G01 X51.7567 Y23.7818
G00 Z2.0000
G00 X50.8705 Y31.4018
G01 F60.00
G01 Z-0.2001
G01 F320.00
G01 X50.9204 Y31.3684
G01 X50.9805 Y31.3239
G01 X51.0383 Y31.2765
G01 X51.0937 Y31.2263
G01 X51.1465 Y31.1735
G01 X51.1967 Y31.1180
G01 X51.2441 Y31.0603
G01 X51.2886 Y31.0002
G01 X51.3302 Y30.9381
G01 X51.3686 Y30.8740
G01 X51.4038 Y30.8081
G01 X51.4358 Y30.7405
G01 X51.4644 Y30.6715
G01 X51.4896 Y30.6011
G01 X51.5113 Y30.5296
G01 X51.5294 Y30.4570
G01 X51.5440 Y30.3837
G01 X51.5550 Y30.3098
G01 X51.5623 Y30.2354
G01 X51.5660 Y30.1607
G01 X51.5660 Y30.0860
G01 X51.5623 Y30.0113
G01 X51.5550 Y29.9370
G01 X51.5440 Y29.8630
G01 X51.5294 Y29.7897
G01 X51.5113 Y29.7172
G01 X51.4896 Y29.6457
G01 X51.4644 Y29.5753
G01 X51.4358 Y29.5063
G01 X51.4038 Y29.4387
G01 X51.3686 Y29.3728
G01 X51.3302 Y29.3087
G01 X51.3051 Y29.2712
G01 X51.3051 Y28.4103
G01 X51.3385 Y28.4602
G01 X51.3831 Y28.5203
G01 X51.4305 Y28.5780
G01 X51.4807 Y28.6335
G01 X51.5335 Y28.6863
G01 X51.5889 Y28.7365
G01 X51.6467 Y28.7839
G01 X51.7067 Y28.8284
G01 X51.7689 Y28.8700
G01 X51.8330 Y28.9084
G01 X51.8989 Y28.9436
G01 X51.9665 Y28.9756
G01 X52.0355 Y29.0042
G01 X52.1059 Y29.0294
G01 X52.1774 Y29.0511
G01 X52.2499 Y29.0692
G01 X52.3232 Y29.0838
G01 X52.3972 Y29.0948
G01 X52.4715 Y29.1021
G01 X52.5462 Y29.1058
G01 X52.6209 Y29.1058
G01 X52.6956 Y29.1021
G01 X52.7700 Y29.0948
G01 X52.8440 Y29.0838
G01 X52.9172 Y29.0692
G01 X52.9898 Y29.0511
G01 X53.0613 Y29.0294
G01 X53.1317 Y29.0042
G01 X53.2007 Y28.9756
G01 X53.2683 Y28.9436
G01 X53.3342 Y28.9084
G01 X53.3983 Y28.8700
G01 X53.4358 Y28.8449
G01 X53.8620 Y28.8449
G01 X53.8620 Y31.3839
G01 X53.8222 Y31.3650
G01 X53.7532 Y31.3365
G01 X53.6922 Y31.3146
G01 X53.6207 Y31.2929
G01 X53.5578 Y31.2772
G01 X53.4845 Y31.2626
G01 X53.4204 Y31.2531
G01 X53.3461 Y31.2458
G01 X53.2813 Y31.2426
G01 X53.2440 Y31.2417
G01 X51.9232 Y31.2417
G01 X51.8858 Y31.2426
G01 X51.8211 Y31.2458
G01 X51.7468 Y31.2531
G01 X51.6826 Y31.2626
G01 X51.6094 Y31.2772
G01 X51.5465 Y31.2929
G01 X51.4750 Y31.3146
G01 X51.4140 Y31.3365
G01 X51.3450 Y31.3650
G01 X51.2864 Y31.3928
G01 X51.2694 Y31.4018
G01 X50.8705 Y31.4018
G00 Z2.0000
G00 X51.2852 Y33.9334
G01 F60.00
G01 Z-0.2001
G01 F320.00
G01 X51.2694 Y33.9418
G01 X50.0436 Y33.9418
G01 X50.0062 Y33.9428
G01 X49.9572 Y33.9452
G01 X49.8828 Y33.9525
G01 X49.8343 Y33.9597
G01 X49.7610 Y33.9743
G01 X49.7134 Y33.9862
G01 X49.6419 Y34.0079
G01 X49.5957 Y34.0244
G01 X49.5267 Y34.0530
G01 X49.4823 Y34.0740
G01 X49.4164 Y34.1092
G01 X49.3743 Y34.1345
G01 X49.3122 Y34.1760
G01 X49.2727 Y34.2052
G01 X49.2150 Y34.2526
G01 X49.1786 Y34.2856
G01 X49.1258 Y34.3384
G01 X49.0928 Y34.3748
G01 X49.0454 Y34.4325
G01 X49.0162 Y34.4720
G01 X48.9747 Y34.5341
G01 X48.9494 Y34.5762
G01 X48.9142 Y34.6421
G01 X48.8932 Y34.6865
G01 X48.8646 Y34.7555
G01 X48.8481 Y34.8017
G01 X48.8264 Y34.8732
G01 X48.8145 Y34.9208
G01 X48.7999 Y34.9941
G01 X48.7927 Y35.0426
G01 X48.7854 Y35.1170
G01 X48.7830 Y35.1660
G01 X48.7820 Y35.2034
G01 X48.7820 Y36.8912
G01 X48.7651 Y36.9165
G01 X48.7651 Y33.9249
G01 X51.2694 Y33.9249
G01 X51.2852 Y33.9334
G00 Z2.0000
G00 X52.0015 Y36.6251
G01 F60.00
G01 Z-0.2001
G01 F320.00
G01 X51.9564 Y36.6492
G01 X51.9143 Y36.6745
G01 X51.8522 Y36.7160
G01 X51.8127 Y36.7452
G01 X51.7550 Y36.7926
G01 X51.7186 Y36.8256
G01 X51.6658 Y36.8784
G01 X51.6328 Y36.9148
G01 X51.5854 Y36.9725
G01 X51.5562 Y37.0120
G01 X51.5147 Y37.0741
G01 X51.4894 Y37.1162
G01 X51.4568 Y37.1771
G01 X51.4358 Y37.1263
G01 X51.4038 Y37.0587
G01 X51.3686 Y36.9928
G01 X51.3302 Y36.9287
G01 X51.3051 Y36.8912
G01 X51.3051 Y36.4829
G01 X51.3450 Y36.5017
G01 X51.4140 Y36.5303
G01 X51.4750 Y36.5521
G01 X51.5465 Y36.5738
G01 X51.6094 Y36.5896
G01 X51.6826 Y36.6042
G01 X51.7468 Y36.6137
G01 X51.8211 Y36.6210
G01 X51.8858 Y36.6242
G01 X51.9232 Y36.6251
G01 X52.0015 Y36.6251
G00 Z2.0000
G00 X51.3220 Y38.5703
G01 F60.00
G01 Z-0.2001
G01 F320.00
G01 X51.3220 Y41.5359
G01 X51.3051 Y41.5439
G01 X51.3051 Y38.5956
G01 X51.3220 Y38.5703
G00 Z2.0000
G00 X53.8620 Y41.5439
G01 F60.00
G01 Z-0.2001
G01 F320.00
G01 X53.8451 Y41.5359
G01 X53.8451 Y39.0049
G01 X55.1236 Y39.0049
G01 X55.1609 Y39.0040
G01 X55.2100 Y39.0016
G01 X55.2843 Y38.9943
G01 X55.3329 Y38.9871
G01 X55.4062 Y38.9725
G01 X55.4538 Y38.9606
G01 X55.5253 Y38.9389
G01 X55.5715 Y38.9223
G01 X55.6405 Y38.8938
G01 X55.6849 Y38.8728
G01 X55.7508 Y38.8376
G01 X55.7929 Y38.8123
G01 X55.8550 Y38.7708
G01 X55.8944 Y38.7416
G01 X55.9522 Y38.6942
G01 X55.9886 Y38.6612
G01 X56.0414 Y38.6084
G01 X56.0744 Y38.5720
G01 X56.1218 Y38.5142
G01 X56.1510 Y38.4748
G01 X56.1925 Y38.4127
G01 X56.2178 Y38.3706
G01 X56.2530 Y38.3047
G01 X56.2740 Y38.2603
G01 X56.3026 Y38.1913
G01 X56.3191 Y38.1451
G01 X56.3408 Y38.0736
G01 X56.3527 Y38.0260
G01 X56.3673 Y37.9527
G01 X56.3745 Y37.9041
G01 X56.3818 Y37.8298
G01 X56.3842 Y37.7807
G01 X56.3851 Y37.7434
G01 X56.3851 Y36.4829
G01 X56.4020 Y36.4909
G01 X56.4020 Y39.0218
G01 X55.1236 Y39.0218
G01 X55.0862 Y39.0228
G01 X55.0372 Y39.0252
G01 X54.9628 Y39.0325
G01 X54.9143 Y39.0397
G01 X54.8410 Y39.0543
G01 X54.7934 Y39.0662
G01 X54.7219 Y39.0879
G01 X54.6757 Y39.1044
G01 X54.6067 Y39.1330
G01 X54.5623 Y39.1540
G01 X54.4964 Y39.1892
G01 X54.4543 Y39.2145
G01 X54.3922 Y39.2560
G01 X54.3527 Y39.2852
G01 X54.2950 Y39.3326
G01 X54.2586 Y39.3656
G01 X54.2058 Y39.4184
G01 X54.1728 Y39.4548
G01 X54.1254 Y39.5125
G01 X54.0962 Y39.5520
G01 X54.0547 Y39.6141
G01 X54.0294 Y39.6562
G01 X53.9942 Y39.7221
G01 X53.9732 Y39.7665
G01 X53.9446 Y39.8355
G01 X53.9281 Y39.8817
G01 X53.9064 Y39.9532
G01 X53.8945 Y40.0008
G01 X53.8799 Y40.0741
G01 X53.8727 Y40.1226
G01 X53.8654 Y40.1970
G01 X53.8630 Y40.2460
G01 X53.8620 Y40.2834
G01 X53.8620 Y41.5439
G00 Z2.0000
G00 X56.3851 Y44.1029
G01 F60.00
G01 Z-0.2001
G01 F320.00
G01 X56.4250 Y44.1217
G01 X56.4940 Y44.1503
G01 X56.5550 Y44.1721
G01 X56.6265 Y44.1938
G01 X56.6894 Y44.2096
G01 X56.7626 Y44.2242
G01 X56.8268 Y44.2337
G01 X56.9011 Y44.2410
G01 X56.9658 Y44.2442
G01 X57.0032 Y44.2451
G01 X58.3240 Y44.2451
G01 X58.3613 Y44.2442
G01 X58.4261 Y44.2410
G01 X58.5004 Y44.2337
G01 X58.5645 Y44.2242
G01 X58.6378 Y44.2096
G01 X58.7007 Y44.1938
G01 X58.7722 Y44.1721
G01 X58.8332 Y44.1503
G01 X58.9022 Y44.1217
G01 X58.9420 Y44.1029
G01 X58.9420 Y46.6239
G01 X58.9022 Y46.6050
G01 X58.8332 Y46.5765
G01 X58.7722 Y46.5546
G01 X58.7007 Y46.5329
G01 X58.6378 Y46.5172
G01 X58.5645 Y46.5026
G01 X58.5004 Y46.4931
G01 X58.4261 Y46.4858
G01 X58.3613 Y46.4826
G01 X58.3240 Y46.4817
G01 X57.0032 Y46.4817
G01 X56.9658 Y46.4826
G01 X56.9011 Y46.4858
G01 X56.8268 Y46.4931
G01 X56.7626 Y46.5026
G01 X56.6894 Y46.5172
G01 X56.6265 Y46.5329
G01 X56.5550 Y46.5546
G01 X56.4940 Y46.5765
G01 X56.4250 Y46.6050
G01 X56.3851 Y46.6239
G01 X56.3851 Y44.1029
G00 Z2.0000
G00 X61.4820 Y44.5112
G01 F60.00
G01 Z-0.2001
G01 F320.00
G01 X61.4651 Y44.5365
G01 X61.4651 Y38.5703
G01 X61.4820 Y38.5956
G01 X61.4820 Y44.5112
G00 Z2.0000
G00 X64.0051 Y46.6239
G01 F60.00
G01 Z-0.2001
G01 F320.00
G01 X64.0051 Y46.2156
G01 X64.0302 Y46.1781
G01 X64.0686 Y46.1140
G01 X64.1038 Y46.0481
G01 X64.1358 Y45.9805
G01 X64.1644 Y45.9115
G01 X64.1896 Y45.8411
G01 X64.2113 Y45.7696
G01 X64.2294 Y45.6970
G01 X64.2440 Y45.6237
G01 X64.2550 Y45.5498
G01 X64.2623 Y45.4754
G01 X64.2660 Y45.4007
G01 X64.2660 Y45.3260
G01 X64.2623 Y45.2513
G01 X64.2550 Y45.1770
G01 X64.2440 Y45.1030
G01 X64.2294 Y45.0297
G01 X64.2113 Y44.9572
G01 X64.1896 Y44.8857
G01 X64.1644 Y44.8153
G01 X64.1358 Y44.7463
G01 X64.1038 Y44.6787
G01 X64.0686 Y44.6128
G01 X64.0302 Y44.5487
G01 X64.0051 Y44.5112
G01 X64.0051 Y44.1029
G01 X64.0450 Y44.1217
G01 X64.1140 Y44.1503
G01 X64.1750 Y44.1721
G01 X64.2465 Y44.1938
G01 X64.3094 Y44.2096
G01 X64.3826 Y44.2242
G01 X64.4468 Y44.2337
G01 X64.5211 Y44.2410
G01 X64.5858 Y44.2442
G01 X64.6232 Y44.2451
G01 X65.9440 Y44.2451
G01 X65.9813 Y44.2442
G01 X66.0461 Y44.2410
G01 X66.1204 Y44.2337
G01 X66.1845 Y44.2242
G01 X66.2578 Y44.2096
G01 X66.3207 Y44.1938
G01 X66.3922 Y44.1721
G01 X66.4532 Y44.1503
G01 X66.5222 Y44.1217
G01 X66.5620 Y44.1029
G01 X66.5620 Y46.6239
G01 X66.5222 Y46.6050
G01 X66.4532 Y46.5765
G01 X66.3922 Y46.5546
G01 X66.3207 Y46.5329
G01 X66.2578 Y46.5172
G01 X66.1845 Y46.5026
G01 X66.1204 Y46.4931
G01 X66.0461 Y46.4858
G01 X65.9813 Y46.4826
G01 X65.9440 Y46.4817
G01 X64.6232 Y46.4817
G01 X64.5858 Y46.4826
G01 X64.5211 Y46.4858
G01 X64.4468 Y46.4931
G01 X64.3826 Y46.5026
G01 X64.3094 Y46.5172
G01 X64.2465 Y46.5329
G01 X64.1750 Y46.5546
G01 X64.1140 Y46.5765
G01 X64.0450 Y46.6050
G01 X64.0051 Y46.6239
G00 Z2.0000
G00 X64.0220 Y41.5359
G01 F60.00
G01 Z-0.2001
G01 F320.00
G01 X64.0051 Y41.5439
G01 X64.0051 Y38.5956
G01 X64.0220 Y38.5703
G01 X64.0220 Y41.5359
G00 Z2.0000
G00 X66.5620 Y41.5439
G01 F60.00
G01 Z-0.2001
G01 F320.00
G01 X66.5451 Y41.5359
G01 X66.5451 Y39.0049
G01 X67.8236 Y39.0049
G01 X67.8609 Y39.0040
G01 X67.9100 Y39.0016
G01 X67.9843 Y38.9943
G01 X68.0329 Y38.9871
G01 X68.1062 Y38.9725
G01 X68.1538 Y38.9606
G01 X68.2253 Y38.9389
G01 X68.2715 Y38.9223
G01 X68.3405 Y38.8938
G01 X68.3849 Y38.8728
G01 X68.4508 Y38.8376
G01 X68.4929 Y38.8123
G01 X68.5550 Y38.7708
G01 X68.5944 Y38.7416
G01 X68.6522 Y38.6942
G01 X68.6886 Y38.6612
G01 X68.7414 Y38.6084
G01 X68.7744 Y38.5720
G01 X68.8218 Y38.5142
G01 X68.8510 Y38.4748
G01 X68.8925 Y38.4127
G01 X68.9178 Y38.3706
G01 X68.9530 Y38.3047
G01 X68.9740 Y38.2603
G01 X69.0026 Y38.1913
G01 X69.0191 Y38.1451
G01 X69.0408 Y38.0736
G01 X69.0527 Y38.0260
G01 X69.0673 Y37.9527
G01 X69.0745 Y37.9041
G01 X69.0818 Y37.8298
G01 X69.0842 Y37.7807
G01 X69.0851 Y37.7434
G01 X69.0851 Y36.4829
G01 X69.1020 Y36.4909
G01 X69.1020 Y39.0218
G01 X67.8236 Y39.0218
G01 X67.7862 Y39.0228
G01 X67.7372 Y39.0252
G01 X67.6628 Y39.0325
G01 X67.6143 Y39.0397
G01 X67.5410 Y39.0543
G01 X67.4934 Y39.0662
G01 X67.4219 Y39.0879
G01 X67.3757 Y39.1044
G01 X67.3067 Y39.1330
G01 X67.2623 Y39.1540
G01 X67.1964 Y39.1892
G01 X67.1543 Y39.2145
G01 X67.0922 Y39.2560
G01 X67.0527 Y39.2852
G01 X66.9950 Y39.3326
G01 X66.9586 Y39.3656
G01 X66.9058 Y39.4184
G01 X66.8728 Y39.4548
G01 X66.8254 Y39.5125
G01 X66.7962 Y39.5520
G01 X66.7547 Y39.6141
G01 X66.7294 Y39.6562
G01 X66.6942 Y39.7221
G01 X66.6732 Y39.7665
G01 X66.6446 Y39.8355
G01 X66.6281 Y39.8817
G01 X66.6064 Y39.9532
G01 X66.5945 Y40.0008
G01 X66.5799 Y40.0741
G01 X66.5727 Y40.1226
G01 X66.5654 Y40.1970
G01 X66.5630 Y40.2460
G01 X66.5620 Y40.2834
G01 X66.5620 Y41.5439
G00 Z2.0000
G00 X69.0851 Y44.1029
G01 F60.00
G01 Z-0.2001
G01 F320.00
G01 X69.1250 Y44.1217
G01 X69.1940 Y44.1503
G01 X69.2550 Y44.1721
G01 X69.3265 Y44.1938
G01 X69.3894 Y44.2096
G01 X69.4626 Y44.2242
G01 X69.5268 Y44.2337
G01 X69.6011 Y44.2410
G01 X69.6658 Y44.2442
G01 X69.7032 Y44.2451
G01 X71.0240 Y44.2451
G01 X71.0613 Y44.2442
G01 X71.1261 Y44.2410
G01 X71.2004 Y44.2337
G01 X71.2645 Y44.2242
G01 X71.3378 Y44.2096
G01 X71.4007 Y44.1938
G01 X71.4722 Y44.1721
G01 X71.5332 Y44.1503
G01 X71.6022 Y44.1217
G01 X71.6420 Y44.1029
G01 X71.6420 Y46.6239
G01 X71.6022 Y46.6050
G01 X71.5332 Y46.5765
G01 X71.4722 Y46.5546
G01 X71.4007 Y46.5329
G01 X71.3378 Y46.5172
G01 X71.2645 Y46.5026
G01 X71.2004 Y46.4931
G01 X71.1261 Y46.4858
G01 X71.0613 Y46.4826
G01 X71.0240 Y46.4817
G01 X69.7032 Y46.4817
G01 X69.6658 Y46.4826
G01 X69.6011 Y46.4858
G01 X69.5268 Y46.4931
G01 X69.4626 Y46.5026
G01 X69.3894 Y46.5172
G01 X69.3265 Y46.5329
G01 X69.2550 Y46.5546
G01 X69.1940 Y46.5765
G01 X69.1250 Y46.6050
G01 X69.0851 Y46.6239
G01 X69.0851 Y44.1029
G00 Z2.0000
G00 X74.1820 Y44.5112
G01 F60.00
G01 Z-0.2001
G01 F320.00
G01 X74.1651 Y44.5365
G01 X74.1651 Y38.5703
G01 X74.1820 Y38.5956
G01 X74.1820 Y44.5112
G00 Z2.0000
G00 X76.7051 Y46.6239
G01 F60.00
G01 Z-0.2001
G01 F320.00
G01 X76.7051 Y46.2156
G01 X76.7302 Y46.1781
G01 X76.7686 Y46.1140
G01 X76.8038 Y46.0481
G01 X76.8358 Y45.9805
G01 X76.8644 Y45.9115
G01 X76.8896 Y45.8411
G01 X76.9113 Y45.7696
G01 X76.9294 Y45.6970
G01 X76.9440 Y45.6237
G01 X76.9550 Y45.5498
G01 X76.9623 Y45.4754
G01 X76.9660 Y45.4007
G01 X76.9660 Y45.3260
G01 X76.9623 Y45.2513
G01 X76.9550 Y45.1770
G01 X76.9440 Y45.1030
G01 X76.9294 Y45.0297
G01 X76.9113 Y44.9572
G01 X76.8896 Y44.8857
G01 X76.8644 Y44.8153
G01 X76.8358 Y44.7463
G01 X76.8038 Y44.6787
G01 X76.7686 Y44.6128
G01 X76.7302 Y44.5487
G01 X76.7051 Y44.5112
G01 X76.7051 Y44.1029
G01 X76.7450 Y44.1217
G01 X76.8140 Y44.1503
G01 X76.8750 Y44.1721
G01 X76.9465 Y44.1938
G01 X77.0094 Y44.2096
G01 X77.0826 Y44.2242
G01 X77.1468 Y44.2337
G01 X77.2211 Y44.2410
G01 X77.2858 Y44.2442
G01 X77.3232 Y44.2451
G01 X78.6440 Y44.2451
G01 X78.6813 Y44.2442
G01 X78.7461 Y44.2410
G01 X78.8204 Y44.2337
G01 X78.8845 Y44.2242
G01 X78.9578 Y44.2096
G01 X79.0207 Y44.1938
G01 X79.0922 Y44.1721
G01 X79.1532 Y44.1503
G01 X79.2222 Y44.1217
G01 X79.2620 Y44.1029
G01 X79.2620 Y46.6239
G01 X79.2222 Y46.6050
G01 X79.1532 Y46.5765
G01 X79.0922 Y46.5546
G01 X79.0207 Y46.5329
G01 X78.9578 Y46.5172
G01 X78.8845 Y46.5026
G01 X78.8204 Y46.4931
G01 X78.7461 Y46.4858
G01 X78.6813 Y46.4826
G01 X78.6440 Y46.4817
G01 X77.3232 Y46.4817
G01 X77.2858 Y46.4826
G01 X77.2211 Y46.4858
G01 X77.1468 Y46.4931
G01 X77.0826 Y46.5026
G01 X77.0094 Y46.5172
G01 X76.9465 Y46.5329
G01 X76.8750 Y46.5546
G01 X76.8140 Y46.5765
G01 X76.7450 Y46.6050
G01 X76.7051 Y46.6239
G00 Z2.0000
G00 X76.7220 Y41.5359
G01 F60.00
G01 Z-0.2001
G01 F320.00
G01 X76.7051 Y41.5439
G01 X76.7051 Y38.5956
G01 X76.7220 Y38.5703
G01 X76.7220 Y41.5359
G00 Z2.0000
G00 X79.2620 Y41.5439
G01 F60.00
G01 Z-0.2001
G01 F320.00
G01 X79.2451 Y41.5359
G01 X79.2451 Y39.0049
G01 X80.5236 Y39.0049
G01 X80.5609 Y39.0040
G01 X80.6100 Y39.0016
G01 X80.6843 Y38.9943
G01 X80.7329 Y38.9871
G01 X80.8062 Y38.9725
G01 X80.8538 Y38.9606
G01 X80.9253 Y38.9389
G01 X80.9715 Y38.9223
G01 X81.0405 Y38.8938
G01 X81.0849 Y38.8728
G01 X81.1508 Y38.8376
G01 X81.1929 Y38.8123
G01 X81.2550 Y38.7708
G01 X81.2944 Y38.7416
G01 X81.3522 Y38.6942
G01 X81.3886 Y38.6612
G01 X81.4414 Y38.6084
G01 X81.4744 Y38.5720
G01 X81.5218 Y38.5142
G01 X81.5510 Y38.4748
G01 X81.5925 Y38.4127
G01 X81.6178 Y38.3706
G01 X81.6530 Y38.3047
G01 X81.6740 Y38.2603
G01 X81.7026 Y38.1913
G01 X81.7191 Y38.1451
G01 X81.7408 Y38.0736
G01 X81.7527 Y38.0260
G01 X81.7673 Y37.9527
G01 X81.7745 Y37.9041
G01 X81.7818 Y37.8298
G01 X81.7842 Y37.7807
G01 X81.7851 Y37.7434
G01 X81.7851 Y36.4829
G01 X81.8020 Y36.4909
G01 X81.8020 Y39.0218
G01 X80.5236 Y39.0218
G01 X80.4862 Y39.0228
G01 X80.4372 Y39.0252
G01 X80.3628 Y39.0325
G01 X80.3143 Y39.0397
G01 X80.2410 Y39.0543
G01 X80.1934 Y39.0662
G01 X80.1219 Y39.0879
G01 X80.0757 Y39.1044
G01 X80.0067 Y39.1330
G01 X79.9623 Y39.1540
G01 X79.8964 Y39.1892
G01 X79.8543 Y39.2145
G01 X79.7922 Y39.2560
G01 X79.7527 Y39.2852
G01 X79.6950 Y39.3326
G01 X79.6586 Y39.3656
G01 X79.6058 Y39.4184
G01 X79.5728 Y39.4548
G01 X79.5254 Y39.5125
G01 X79.4962 Y39.5520
G01 X79.4547 Y39.6141
G01 X79.4294 Y39.6562
G01 X79.3942 Y39.7221
G01 X79.3732 Y39.7665
G01 X79.3446 Y39.8355
G01 X79.3281 Y39.8817
G01 X79.3064 Y39.9532
G01 X79.2945 Y40.0008
G01 X79.2799 Y40.0741
G01 X79.2727 Y40.1226
G01 X79.2654 Y40.1970
G01 X79.2630 Y40.2460
G01 X79.2620 Y40.2834
G01 X79.2620 Y41.5439
G00 Z2.0000
G00 X81.7851 Y44.1029
G01 F60.00
G01 Z-0.2001
G01 F320.00
G01 X81.8250 Y44.1217
G01 X81.8940 Y44.1503
G01 X81.9550 Y44.1721
G01 X82.0265 Y44.1938
G01 X82.0894 Y44.2096
G01 X82.1626 Y44.2242
G01 X82.2268 Y44.2337
G01 X82.3011 Y44.2410
G01 X82.3658 Y44.2442
G01 X82.4032 Y44.2451
G01 X83.7240 Y44.2451
G01 X83.7613 Y44.2442
G01 X83.8261 Y44.2410
G01 X83.9004 Y44.2337
G01 X83.9645 Y44.2242
G01 X84.0378 Y44.2096
G01 X84.1007 Y44.1938
G01 X84.1722 Y44.1721
G01 X84.2332 Y44.1503
G01 X84.3022 Y44.1217
G01 X84.3420 Y44.1029
G01 X84.3420 Y46.6239
G01 X84.3022 Y46.6050
G01 X84.2332 Y46.5765
G01 X84.1722 Y46.5546
G01 X84.1007 Y46.5329
G01 X84.0378 Y46.5172
G01 X83.9645 Y46.5026
G01 X83.9004 Y46.4931
G01 X83.8261 Y46.4858
G01 X83.7613 Y46.4826
G01 X83.7240 Y46.4817
G01 X82.4032 Y46.4817
G01 X82.3658 Y46.4826
G01 X82.3011 Y46.4858
G01 X82.2268 Y46.4931
G01 X82.1626 Y46.5026
G01 X82.0894 Y46.5172
G01 X82.0265 Y46.5329
G01 X81.9550 Y46.5546
G01 X81.8940 Y46.5765
G01 X81.8250 Y46.6050
G01 X81.7851 Y46.6239
G01 X81.7851 Y44.1029
G00 Z2.0000
G00 X86.8820 Y44.5112
G01 F60.00
G01 Z-0.2001
G01 F320.00
G01 X86.8651 Y44.5365
G01 X86.8651 Y38.5703
G01 X86.8820 Y38.5956
G01 X86.8820 Y44.5112
G00 Z2.0000
G00 X89.4220 Y41.5359
G01 F60.00
G01 Z-0.2001
G01 F320.00
G01 X89.4051 Y41.5439
G01 X89.4051 Y38.5956
G01 X89.4220 Y38.5703
G01 X89.4220 Y41.5359
G00 Z2.0000
G00 X91.9620 Y41.5439
G01 F60.00
G01 Z-0.2001
G01 F320.00
G01 X91.9451 Y41.5359
G01 X91.9451 Y39.0049
G01 X93.2236 Y39.0049
G01 X93.2609 Y39.0040
G01 X93.3100 Y39.0016
G01 X93.3843 Y38.9943
G01 X93.4329 Y38.9871
G01 X93.5062 Y38.9725
G01 X93.5538 Y38.9606
G01 X93.6253 Y38.9389
G01 X93.6715 Y38.9223
G01 X93.7405 Y38.8938
G01 X93.7849 Y38.8728
G01 X93.8508 Y38.8376
G01 X93.8929 Y38.8123
G01 X93.9550 Y38.7708
G01 X93.9944 Y38.7416
G01 X94.0522 Y38.6942
G01 X94.0886 Y38.6612
G01 X94.1414 Y38.6084
G01 X94.1744 Y38.5720
G01 X94.2218 Y38.5142
G01 X94.2510 Y38.4748
G01 X94.2925 Y38.4127
G01 X94.3178 Y38.3706
G01 X94.3530 Y38.3047
G01 X94.3740 Y38.2603
G01 X94.4026 Y38.1913
G01 X94.4191 Y38.1451
G01 X94.4408 Y38.0736
G01 X94.4527 Y38.0260
G01 X94.4673 Y37.9527
G01 X94.4745 Y37.9041
G01 X94.4818 Y37.8298
G01 X94.4842 Y37.7807
G01 X94.4851 Y37.7434
G01 X94.4851 Y36.4829
G01 X94.5020 Y36.4909
G01 X94.5020 Y39.0218
G01 X93.2236 Y39.0218
G01 X93.1862 Y39.0228
G01 X93.1372 Y39.0252
G01 X93.0628 Y39.0325
G01 X93.0143 Y39.0397
G01 X92.9410 Y39.0543
G01 X92.8934 Y39.0662
G01 X92.8219 Y39.0879
G01 X92.7757 Y39.1044
G01 X92.7067 Y39.1330
G01 X92.6623 Y39.1540
G01 X92.5964 Y39.1892
G01 X92.5543 Y39.2145
G01 X92.4922 Y39.2560
G01 X92.4527 Y39.2852
G01 X92.3950 Y39.3326
G01 X92.3586 Y39.3656
G01 X92.3058 Y39.4184
G01 X92.2728 Y39.4548
G01 X92.2254 Y39.5125
G01 X92.1962 Y39.5520
G01 X92.1547 Y39.6141
G01 X92.1294 Y39.6562
G01 X92.0942 Y39.7221
G01 X92.0732 Y39.7665
G01 X92.0446 Y39.8355
G01 X92.0281 Y39.8817
G01 X92.0064 Y39.9532
G01 X91.9945 Y40.0008
G01 X91.9799 Y40.0741
G01 X91.9727 Y40.1226
G01 X91.9654 Y40.1970
G01 X91.9630 Y40.2460
G01 X91.9620 Y40.2834
G01 X91.9620 Y41.5439
G00 Z2.0000
G00 X94.4851 Y44.1029
G01 F60.00
G01 Z-0.2001
G01 F320.00
G01 X94.5250 Y44.1217
G01 X94.5940 Y44.1503
G01 X94.6550 Y44.1721
G01 X94.7265 Y44.1938
G01 X94.7894 Y44.2096
G01 X94.8626 Y44.2242
G01 X94.9268 Y44.2337
G01 X95.0011 Y44.2410
G01 X95.0658 Y44.2442
G01 X95.1032 Y44.2451
G01 X96.4240 Y44.2451
G01 X96.4613 Y44.2442
G01 X96.5261 Y44.2410
G01 X96.6004 Y44.2337
G01 X96.6645 Y44.2242
G01 X96.7378 Y44.2096
G01 X96.8007 Y44.1938
G01 X96.8722 Y44.1721
G01 X96.9332 Y44.1503
G01 X97.0022 Y44.1217
G01 X97.0420 Y44.1029
G01 X97.0420 Y46.6239
G01 X97.0022 Y46.6050
G01 X96.9332 Y46.5765
G01 X96.8722 Y46.5546
G01 X96.8007 Y46.5329
G01 X96.7378 Y46.5172
G01 X96.6645 Y46.5026
G01 X96.6004 Y46.4931
G01 X96.5261 Y46.4858
G01 X96.4613 Y46.4826
G01 X96.4240 Y46.4817
G01 X95.1032 Y46.4817
G01 X95.0658 Y46.4826
G01 X95.0011 Y46.4858
G01 X94.9268 Y46.4931
G01 X94.8626 Y46.5026
G01 X94.7894 Y46.5172
G01 X94.7265 Y46.5329
G01 X94.6550 Y46.5546
G01 X94.5940 Y46.5765
G01 X94.5250 Y46.6050
G01 X94.4851 Y46.6239
G01 X94.4851 Y44.1029
G00 Z2.0000
G00 X91.9620 Y46.6239
G01 F60.00
G01 Z-0.2001
G01 F320.00
G01 X91.9222 Y46.6050
G01 X91.8532 Y46.5765
G01 X91.7922 Y46.5546
G01 X91.7207 Y46.5329
G01 X91.6578 Y46.5172
G01 X91.5845 Y46.5026
G01 X91.5204 Y46.4931
G01 X91.4461 Y46.4858
G01 X91.3813 Y46.4826
G01 X91.3440 Y46.4817
G01 X90.0232 Y46.4817
G01 X89.9858 Y46.4826
G01 X89.9211 Y46.4858
G01 X89.8468 Y46.4931
G01 X89.7826 Y46.5026
G01 X89.7094 Y46.5172
G01 X89.6465 Y46.5329
G01 X89.5750 Y46.5546
G01 X89.5140 Y46.5765
G01 X89.4450 Y46.6050
G01 X89.4051 Y46.6239
G01 X89.4051 Y46.2156
G01 X89.4302 Y46.1781
G01 X89.4686 Y46.1140
G01 X89.5038 Y46.0481
G01 X89.5358 Y45.9805
G01 X89.5644 Y45.9115
G01 X89.5896 Y45.8411
G01 X89.6113 Y45.7696
G01 X89.6294 Y45.6970
G01 X89.6440 Y45.6237
G01 X89.6550 Y45.5498
G01 X89.6623 Y45.4754
G01 X89.6660 Y45.4007
G01 X89.6660 Y45.3260
G01 X89.6623 Y45.2513
G01 X89.6550 Y45.1770
G01 X89.6440 Y45.1030
G01 X89.6294 Y45.0297
G01 X89.6113 Y44.9572
G01 X89.5896 Y44.8857
G01 X89.5644 Y44.8153
G01 X89.5358 Y44.7463
G01 X89.5038 Y44.6787
G01 X89.4686 Y44.6128
G01 X89.4302 Y44.5487
G01 X89.4051 Y44.5112
G01 X89.4051 Y44.1029
G01 X89.4450 Y44.1217
G01 X89.5140 Y44.1503
G01 X89.5750 Y44.1721
G01 X89.6465 Y44.1938
G01 X89.7094 Y44.2096
G01 X89.7826 Y44.2242
G01 X89.8468 Y44.2337
G01 X89.9211 Y44.2410
G01 X89.9858 Y44.2442
G01 X90.0232 Y44.2451
G01 X91.3440 Y44.2451
G01 X91.3813 Y44.2442
G01 X91.4461 Y44.2410
G01 X91.5204 Y44.2337
G01 X91.5845 Y44.2242
G01 X91.6578 Y44.2096
G01 X91.7207 Y44.1938
G01 X91.7922 Y44.1721
G01 X91.8532 Y44.1503
G01 X91.9222 Y44.1217
G01 X91.9620 Y44.1029
G01 X91.9620 Y46.6239
G00 Z2.0000
G00 X97.0420 Y51.7229
G01 F60.00
G01 Z-0.2001
G01 F320.00
G01 X97.0420 Y52.9834
G01 X97.0430 Y53.0207
G01 X97.0454 Y53.0698
G01 X97.0527 Y53.1441
G01 X97.0599 Y53.1927
G01 X97.0745 Y53.2660
G01 X97.0864 Y53.3136
G01 X97.1081 Y53.3851
G01 X97.1246 Y53.4313
G01 X97.1532 Y53.5003
G01 X97.1742 Y53.5447
G01 X97.2094 Y53.6106
G01 X97.2347 Y53.6527
G01 X97.2762 Y53.7148
G01 X97.3054 Y53.7542
G01 X97.3528 Y53.8120
G01 X97.3858 Y53.8484
G01 X97.4386 Y53.9012
G01 X97.4750 Y53.9342
G01 X97.5327 Y53.9816
G01 X97.5722 Y54.0108
G01 X97.6343 Y54.0523
G01 X97.6764 Y54.0776
G01 X97.7423 Y54.1128
G01 X97.7867 Y54.1338
G01 X97.8557 Y54.1623
G01 X97.9019 Y54.1789
G01 X97.9734 Y54.2006
G01 X98.0210 Y54.2125
G01 X98.0943 Y54.2271
G01 X98.1428 Y54.2343
G01 X98.2172 Y54.2416
G01 X98.2662 Y54.2440
G01 X98.3036 Y54.2449
G01 X99.5820 Y54.2449
G01 X99.5820 Y58.0634
G01 X99.5830 Y58.1007
G01 X99.5854 Y58.1498
G01 X99.5927 Y58.2241
G01 X99.5999 Y58.2727
G01 X99.6145 Y58.3460
G01 X99.6264 Y58.3936
G01 X99.6481 Y58.4651
G01 X99.6646 Y58.5113
G01 X99.6932 Y58.5803
G01 X99.7142 Y58.6247
G01 X99.7494 Y58.6906
G01 X99.7747 Y58.7327
G01 X99.8162 Y58.7948
G01 X99.8454 Y58.8342
G01 X99.8928 Y58.8920
G01 X99.9258 Y58.9284
G01 X99.9786 Y58.9812
G01 X100.0150 Y59.0142
G01 X100.0727 Y59.0616
G01 X100.1122 Y59.0908
G01 X100.1743 Y59.1323
G01 X100.2164 Y59.1576
G01 X100.2773 Y59.1901
G01 X100.2265 Y59.2112
G01 X100.1589 Y59.2432
G01 X100.0930 Y59.2784
G01 X100.0289 Y59.3168
G01 X99.9667 Y59.3583
G01 X99.9067 Y59.4029
G01 X99.8489 Y59.4503
G01 X99.7935 Y59.5005
G01 X99.7407 Y59.5533
G01 X99.6905 Y59.6087
G01 X99.6431 Y59.6665
G01 X99.5985 Y59.7265
G01 X99.5651 Y59.7765
G01 X99.5651 Y55.5234
G01 X99.5642 Y55.4860
G01 X99.5618 Y55.4370
G01 X99.5545 Y55.3626
G01 X99.5473 Y55.3141
G01 X99.5327 Y55.2408
G01 X99.5208 Y55.1932
G01 X99.4991 Y55.1217
G01 X99.4826 Y55.0755
G01 X99.4540 Y55.0065
G01 X99.4330 Y54.9621
G01 X99.3978 Y54.8962
G01 X99.3725 Y54.8541
G01 X99.3310 Y54.7920
G01 X99.3018 Y54.7525
G01 X99.2544 Y54.6948
G01 X99.2214 Y54.6584
G01 X99.1686 Y54.6056
G01 X99.1322 Y54.5726
G01 X99.0744 Y54.5252
G01 X99.0350 Y54.4960
G01 X98.9729 Y54.4545
G01 X98.9308 Y54.4292
G01 X98.8649 Y54.3940
G01 X98.8205 Y54.3730
G01 X98.7515 Y54.3444
G01 X98.7053 Y54.3279
G01 X98.6338 Y54.3062
G01 X98.5862 Y54.2943
G01 X98.5129 Y54.2797
G01 X98.4643 Y54.2725
G01 X98.3900 Y54.2652
G01 X98.3409 Y54.2628
G01 X98.3036 Y54.2618
G01 X97.0251 Y54.2618
G01 X97.0251 Y51.7309
G01 X97.0420 Y51.7229
G00 Z2.0000
G00 X95.1815 Y56.6417
G01 F60.00
G01 Z-0.2001
G01 F320.00
G01 X95.1032 Y56.6417
G01 X95.0658 Y56.6426
G01 X95.0011 Y56.6458
G01 X94.9268 Y56.6531
G01 X94.8626 Y56.6626
G01 X94.7894 Y56.6772
G01 X94.7265 Y56.6929
G01 X94.6550 Y56.7146
G01 X94.5940 Y56.7365
G01 X94.5250 Y56.7650
G01 X94.4851 Y56.7839
G01 X94.4851 Y51.7229
G01 X94.5020 Y51.7309
G01 X94.5020 Y55.5234
G01 X94.5030 Y55.5607
G01 X94.5054 Y55.6098
G01 X94.5127 Y55.6841
G01 X94.5199 Y55.7327
G01 X94.5345 Y55.8060
G01 X94.5464 Y55.8536
G01 X94.5681 Y55.9251
G01 X94.5846 Y55.9713
G01 X94.6132 Y56.0403
G01 X94.6342 Y56.0847
G01 X94.6694 Y56.1506
G01 X94.6947 Y56.1927
G01 X94.7362 Y56.2548
G01 X94.7654 Y56.2942
G01 X94.8128 Y56.3520
G01 X94.8458 Y56.3884
G01 X94.8986 Y56.4412
G01 X94.9350 Y56.4742
G01 X94.9927 Y56.5216
G01 X95.0322 Y56.5508
G01 X95.0943 Y56.5923
G01 X95.1364 Y56.6176
G01 X95.1815 Y56.6417
G00 Z2.0000
G00 X94.4851 Y59.3429
G01 F60.00
G01 Z-0.2001
G01 F320.00
G01 X94.5250 Y59.3617
G01 X94.5940 Y59.3903
G01 X94.6550 Y59.4121
G01 X94.7265 Y59.4338
G01 X94.7894 Y59.4496
G01 X94.8626 Y59.4642
G01 X94.9268 Y59.4737
G01 X95.0011 Y59.4810
G01 X95.0658 Y59.4842
G01 X95.1032 Y59.4851
G01 X96.4240 Y59.4851
G01 X96.4613 Y59.4842
G01 X96.5261 Y59.4810
G01 X96.6004 Y59.4737
G01 X96.6645 Y59.4642
G01 X96.7378 Y59.4496
G01 X96.8007 Y59.4338
G01 X96.8722 Y59.4121
G01 X96.9332 Y59.3903
G01 X97.0022 Y59.3617
G01 X97.0420 Y59.3429
G01 X97.0420 Y61.8639
G01 X97.0022 Y61.8450
G01 X96.9332 Y61.8165
G01 X96.8722 Y61.7946
G01 X96.8007 Y61.7729
G01 X96.7378 Y61.7572
G01 X96.6645 Y61.7426
G01 X96.6004 Y61.7331
G01 X96.5261 Y61.7258
G01 X96.4613 Y61.7226
G01 X96.4240 Y61.7217
G01 X95.1032 Y61.7217
G01 X95.0658 Y61.7226
G01 X95.0011 Y61.7258
G01 X94.9268 Y61.7331
G01 X94.8626 Y61.7426
G01 X94.7894 Y61.7572
G01 X94.7265 Y61.7729
G01 X94.6550 Y61.7946
G01 X94.5940 Y61.8165
G01 X94.5250 Y61.8450
G01 X94.4851 Y61.8639
G01 X94.4851 Y59.3429
G00 Z2.0000
G00 X91.9620 Y56.7839
G01 F60.00
G01 Z-0.2001
G01 F320.00
G01 X91.9222 Y56.7650
G01 X91.8532 Y56.7365
G01 X91.7922 Y56.7146
G01 X91.7207 Y56.6929
G01 X91.6578 Y56.6772
G01 X91.5845 Y56.6626
G01 X91.5204 Y56.6531
G01 X91.4461 Y56.6458
G01 X91.3813 Y56.6426
G01 X91.3440 Y56.6417
G01 X90.0232 Y56.6417
G01 X89.9858 Y56.6426
G01 X89.9211 Y56.6458
G01 X89.8468 Y56.6531
G01 X89.7826 Y56.6626
G01 X89.7094 Y56.6772
G01 X89.6465 Y56.6929
G01 X89.5750 Y56.7146
G01 X89.5140 Y56.7365
G01 X89.4450 Y56.7650
G01 X89.4051 Y56.7839
G01 X89.4051 Y52.9834
G01 X89.4042 Y52.9460
G01 X89.4018 Y52.8970
G01 X89.3945 Y52.8226
G01 X89.3873 Y52.7741
G01 X89.3727 Y52.7008
G01 X89.3608 Y52.6532
G01 X89.3391 Y52.5817
G01 X89.3226 Y52.5355
G01 X89.2940 Y52.4665
G01 X89.2730 Y52.4221
G01 X89.2378 Y52.3562
G01 X89.2125 Y52.3141
G01 X89.1710 Y52.2520
G01 X89.1418 Y52.2125
G01 X89.0944 Y52.1548
G01 X89.0614 Y52.1184
G01 X89.0086 Y52.0656
G01 X88.9722 Y52.0326
G01 X88.9144 Y51.9852
G01 X88.8750 Y51.9560
G01 X88.8129 Y51.9145
G01 X88.7708 Y51.8892
G01 X88.7049 Y51.8540
G01 X88.6605 Y51.8330
G01 X88.5915 Y51.8044
G01 X88.5453 Y51.7879
G01 X88.4738 Y51.7662
G01 X88.4262 Y51.7543
G01 X88.3529 Y51.7397
G01 X88.3043 Y51.7325
G01 X88.2300 Y51.7252
G01 X88.1809 Y51.7228
G01 X88.1436 Y51.7218
G01 X86.8651 Y51.7218
G01 X86.8651 Y46.1903
G01 X86.8820 Y46.2156
G01 X86.8820 Y50.4434
G01 X86.8830 Y50.4807
G01 X86.8854 Y50.5298
G01 X86.8927 Y50.6041
G01 X86.8999 Y50.6527
G01 X86.9145 Y50.7260
G01 X86.9264 Y50.7736
G01 X86.9481 Y50.8451
G01 X86.9646 Y50.8913
G01 X86.9932 Y50.9603
G01 X87.0142 Y51.0047
G01 X87.0494 Y51.0706
G01 X87.0747 Y51.1127
G01 X87.1162 Y51.1748
G01 X87.1454 Y51.2142
G01 X87.1928 Y51.2720
G01 X87.2258 Y51.3084
G01 X87.2786 Y51.3612
G01 X87.3150 Y51.3942
G01 X87.3727 Y51.4416
G01 X87.4122 Y51.4708
G01 X87.4743 Y51.5123
G01 X87.5164 Y51.5376
G01 X87.5823 Y51.5728
G01 X87.6267 Y51.5938
G01 X87.6957 Y51.6223
G01 X87.7419 Y51.6389
G01 X87.8134 Y51.6606
G01 X87.8610 Y51.6725
G01 X87.9343 Y51.6871
G01 X87.9828 Y51.6943
G01 X88.0572 Y51.7016
G01 X88.1062 Y51.7040
G01 X88.1436 Y51.7049
G01 X89.3694 Y51.7049
G01 X89.3864 Y51.7140
G01 X89.4450 Y51.7417
G01 X89.5140 Y51.7703
G01 X89.5750 Y51.7921
G01 X89.6465 Y51.8138
G01 X89.7094 Y51.8296
G01 X89.7826 Y51.8442
G01 X89.8468 Y51.8537
G01 X89.9211 Y51.8610
G01 X89.9858 Y51.8642
G01 X90.0232 Y51.8651
G01 X91.3440 Y51.8651
G01 X91.3813 Y51.8642
G01 X91.4461 Y51.8610
G01 X91.5204 Y51.8537
G01 X91.5845 Y51.8442
G01 X91.6578 Y51.8296
G01 X91.7207 Y51.8138
G01 X91.7922 Y51.7921
G01 X91.8532 Y51.7703
G01 X91.9222 Y51.7417
G01 X91.9620 Y51.7229
G01 X91.9620 Y56.7839
G00 Z2.0000
G00 X88.9705 Y59.3249
G01 F60.00
G01 Z-0.2001
G01 F320.00
G01 X89.3694 Y59.3249
G01 X89.3864 Y59.3340
G01 X89.4450 Y59.3617
G01 X89.5140 Y59.3903
G01 X89.5750 Y59.4121
G01 X89.6465 Y59.4338
G01 X89.7094 Y59.4496
G01 X89.7826 Y59.4642
G01 X89.8468 Y59.4737
G01 X89.9211 Y59.4810
G01 X89.9858 Y59.4842
G01 X90.0232 Y59.4851
G01 X91.3440 Y59.4851
G01 X91.3813 Y59.4842
G01 X91.4461 Y59.4810
G01 X91.5204 Y59.4737
G01 X91.5845 Y59.4642
G01 X91.6578 Y59.4496
G01 X91.7207 Y59.4338
G01 X91.7922 Y59.4121
G01 X91.8532 Y59.3903
G01 X91.9222 Y59.3617
G01 X91.9620 Y59.3429
G01 X91.9620 Y61.8639
G01 X91.9222 Y61.8450
G01 X91.8532 Y61.8165
G01 X91.7922 Y61.7946
G01 X91.7207 Y61.7729
G01 X91.6578 Y61.7572
G01 X91.5845 Y61.7426
G01 X91.5204 Y61.7331
G01 X91.4461 Y61.7258
G01 X91.3813 Y61.7226
G01 X91.3440 Y61.7217
G01 X90.0232 Y61.7217
G01 X89.9858 Y61.7226
G01 X89.9211 Y61.7258
G01 X89.8468 Y61.7331
G01 X89.7826 Y61.7426
G01 X89.7094 Y61.7572
G01 X89.6465 Y61.7729
G01 X89.5750 Y61.7946
G01 X89.5140 Y61.8165
G01 X89.4450 Y61.8450
G01 X89.4051 Y61.8639
G01 X89.4051 Y61.4556
G01 X89.4302 Y61.4181
G01 X89.4686 Y61.3540
G01 X89.5038 Y61.2881
G01 X89.5358 Y61.2205
G01 X89.5644 Y61.1515
G01 X89.5896 Y61.0811
G01 X89.6113 Y61.0096
G01 X89.6294 Y60.9370
G01 X89.6440 Y60.8637
G01 X89.6550 Y60.7898
G01 X89.6623 Y60.7154
G01 X89.6660 Y60.6407
G01 X89.6660 Y60.5660
G01 X89.6623 Y60.4913
G01 X89.6550 Y60.4170
G01 X89.6440 Y60.3430
G01 X89.6294 Y60.2697
G01 X89.6113 Y60.1972
G01 X89.5896 Y60.1257
G01 X89.5644 Y60.0553
G01 X89.5358 Y59.9863
G01 X89.5038 Y59.9187
G01 X89.4686 Y59.8528
G01 X89.4302 Y59.7887
G01 X89.3886 Y59.7265
G01 X89.3441 Y59.6665
G01 X89.2967 Y59.6087
G01 X89.2465 Y59.5533
G01 X89.1937 Y59.5005
G01 X89.1383 Y59.4503
G01 X89.0805 Y59.4029
G01 X89.0204 Y59.3583
G01 X88.9705 Y59.3249
G00 Z2.0000
G00 X82.4815 Y56.6417
G01 F60.00
G01 Z-0.2001
G01 F320.00
G01 X82.4032 Y56.6417
G01 X82.3658 Y56.6426
G01 X82.3011 Y56.6458
G01 X82.2268 Y56.6531
G01 X82.1626 Y56.6626
G01 X82.0894 Y56.6772
G01 X82.0265 Y56.6929
G01 X81.9550 Y56.7146
G01 X81.8940 Y56.7365
G01 X81.8250 Y56.7650
G01 X81.7851 Y56.7839
G01 X81.7851 Y51.7229
G01 X81.8020 Y51.7309
G01 X81.8020 Y55.5234
G01 X81.8030 Y55.5607
G01 X81.8054 Y55.6098
G01 X81.8127 Y55.6841
G01 X81.8199 Y55.7327
G01 X81.8345 Y55.8060
G01 X81.8464 Y55.8536
G01 X81.8681 Y55.9251
G01 X81.8846 Y55.9713
G01 X81.9132 Y56.0403
G01 X81.9342 Y56.0847
G01 X81.9694 Y56.1506
G01 X81.9947 Y56.1927
G01 X82.0362 Y56.2548
G01 X82.0654 Y56.2942
G01 X82.1128 Y56.3520
G01 X82.1458 Y56.3884
G01 X82.1986 Y56.4412
G01 X82.2350 Y56.4742
G01 X82.2927 Y56.5216
G01 X82.3322 Y56.5508
G01 X82.3943 Y56.5923
G01 X82.4364 Y56.6176
G01 X82.4815 Y56.6417
G00 Z2.0000
G00 X81.7851 Y59.3429
G01 F60.00
G01 Z-0.2001
G01 F320.00
G01 X81.8250 Y59.3617
G01 X81.8940 Y59.3903
G01 X81.9550 Y59.4121
G01 X82.0265 Y59.4338
G01 X82.0894 Y59.4496
G01 X82.1626 Y59.4642
G01 X82.2268 Y59.4737
G01 X82.3011 Y59.4810
G01 X82.3658 Y59.4842
G01 X82.4032 Y59.4851
G01 X83.7240 Y59.4851
G01 X83.7613 Y59.4842
G01 X83.8261 Y59.4810
G01 X83.9004 Y59.4737
G01 X83.9645 Y59.4642
G01 X84.0378 Y59.4496
G01 X84.1007 Y59.4338
G01 X84.1722 Y59.4121
G01 X84.2332 Y59.3903
G01 X84.3022 Y59.3617
G01 X84.3420 Y59.3429
G01 X84.3420 Y61.8639
G01 X84.3022 Y61.8450
G01 X84.2332 Y61.8165
G01 X84.1722 Y61.7946
G01 X84.1007 Y61.7729
G01 X84.0378 Y61.7572
G01 X83.9645 Y61.7426
G01 X83.9004 Y61.7331
G01 X83.8261 Y61.7258
G01 X83.7613 Y61.7226
G01 X83.7240 Y61.7217
G01 X82.4032 Y61.7217
G01 X82.3658 Y61.7226
G01 X82.3011 Y61.7258
G01 X82.2268 Y61.7331
G01 X82.1626 Y61.7426
G01 X82.0894 Y61.7572
G01 X82.0265 Y61.7729
G01 X81.9550 Y61.7946
G01 X81.8940 Y61.8165
G01 X81.8250 Y61.8450
G01 X81.7851 Y61.8639
G01 X81.7851 Y59.3429
G00 Z2.0000
G00 X79.2620 Y56.7839
G01 F60.00
G01 Z-0.2001
G01 F320.00
G01 X79.2222 Y56.7650
G01 X79.1532 Y56.7365
G01 X79.0922 Y56.7146
G01 X79.0207 Y56.6929
G01 X78.9578 Y56.6772
G01 X78.8845 Y56.6626
G01 X78.8204 Y56.6531
G01 X78.7461 Y56.6458
G01 X78.6813 Y56.6426
G01 X78.6440 Y56.6417
G01 X77.3232 Y56.6417
G01 X77.2858 Y56.6426
G01 X77.2211 Y56.6458
G01 X77.1468 Y56.6531
G01 X77.0826 Y56.6626
G01 X77.0094 Y56.6772
G01 X76.9465 Y56.6929
G01 X76.8750 Y56.7146
G01 X76.8140 Y56.7365
G01 X76.7450 Y56.7650
G01 X76.7051 Y56.7839
G01 X76.7051 Y52.9834
G01 X76.7042 Y52.9460
G01 X76.7018 Y52.8970
G01 X76.6945 Y52.8226
G01 X76.6873 Y52.7741
G01 X76.6727 Y52.7008
G01 X76.6608 Y52.6532
G01 X76.6391 Y52.5817
G01 X76.6226 Y52.5355
G01 X76.5940 Y52.4665
G01 X76.5730 Y52.4221
G01 X76.5378 Y52.3562
G01 X76.5125 Y52.3141
G01 X76.4710 Y52.2520
G01 X76.4418 Y52.2125
G01 X76.3944 Y52.1548
G01 X76.3614 Y52.1184
G01 X76.3086 Y52.0656
G01 X76.2722 Y52.0326
G01 X76.2144 Y51.9852
G01 X76.1750 Y51.9560
G01 X76.1129 Y51.9145
G01 X76.0708 Y51.8892
G01 X76.0049 Y51.8540
G01 X75.9605 Y51.8330
G01 X75.8915 Y51.8044
G01 X75.8453 Y51.7879
G01 X75.7738 Y51.7662
G01 X75.7262 Y51.7543
G01 X75.6529 Y51.7397
G01 X75.6043 Y51.7325
G01 X75.5300 Y51.7252
G01 X75.4809 Y51.7228
G01 X75.4436 Y51.7218
G01 X74.1651 Y51.7218
G01 X74.1651 Y46.1903
G01 X74.1820 Y46.2156
G01 X74.1820 Y50.4434
G01 X74.1830 Y50.4807
G01 X74.1854 Y50.5298
G01 X74.1927 Y50.6041
G01 X74.1999 Y50.6527
G01 X74.2145 Y50.7260
G01 X74.2264 Y50.7736
G01 X74.2481 Y50.8451
G01 X74.2646 Y50.8913
G01 X74.2932 Y50.9603
G01 X74.3142 Y51.0047
G01 X74.3494 Y51.0706
G01 X74.3747 Y51.1127
G01 X74.4162 Y51.1748
G01 X74.4454 Y51.2142
G01 X74.4928 Y51.2720
G01 X74.5258 Y51.3084
G01 X74.5786 Y51.3612
G01 X74.6150 Y51.3942
G01 X74.6727 Y51.4416
G01 X74.7122 Y51.4708
G01 X74.7743 Y51.5123
G01 X74.8164 Y51.5376
G01 X74.8823 Y51.5728
G01 X74.9267 Y51.5938
G01 X74.9957 Y51.6223
G01 X75.0419 Y51.6389
G01 X75.1134 Y51.6606
G01 X75.1610 Y51.6725
G01 X75.2343 Y51.6871
G01 X75.2828 Y51.6943
G01 X75.3572 Y51.7016
G01 X75.4062 Y51.7040
G01 X75.4436 Y51.7049
G01 X76.6694 Y51.7049
G01 X76.6864 Y51.7140
G01 X76.7450 Y51.7417
G01 X76.8140 Y51.7703
G01 X76.8750 Y51.7921
G01 X76.9465 Y51.8138
G01 X77.0094 Y51.8296
G01 X77.0826 Y51.8442
G01 X77.1468 Y51.8537
G01 X77.2211 Y51.8610
G01 X77.2858 Y51.8642
G01 X77.3232 Y51.8651
G01 X78.6440 Y51.8651
G01 X78.6813 Y51.8642
G01 X78.7461 Y51.8610
G01 X78.8204 Y51.8537
G01 X78.8845 Y51.8442
G01 X78.9578 Y51.8296
G01 X79.0207 Y51.8138
G01 X79.0922 Y51.7921
G01 X79.1532 Y51.7703
G01 X79.2222 Y51.7417
G01 X79.2620 Y51.7229
G01 X79.2620 Y56.7839
G00 Z2.0000
G00 X76.2705 Y59.3249
G01 F60.00
G01 Z-0.2001
G01 F320.00
G01 X76.6694 Y59.3249
G01 X76.6864 Y59.3340
G01 X76.7450 Y59.3617
G01 X76.8140 Y59.3903
G01 X76.8750 Y59.4121
G01 X76.9465 Y59.4338
G01 X77.0094 Y59.4496
G01 X77.0826 Y59.4642
G01 X77.1468 Y59.4737
G01 X77.2211 Y59.4810
G01 X77.2858 Y59.4842
G01 X77.3232 Y59.4851
G01 X78.6440 Y59.4851
G01 X78.6813 Y59.4842
G01 X78.7461 Y59.4810
G01 X78.8204 Y59.4737
G01 X78.8845 Y59.4642
G01 X78.9578 Y59.4496
G01 X79.0207 Y59.4338
G01 X79.0922 Y59.4121
G01 X79.1532 Y59.3903
G01 X79.2222 Y59.3617
G01 X79.2620 Y59.3429
G01 X79.2620 Y61.8639
G01 X79.2222 Y61.8450
G01 X79.1532 Y61.8165
G01 X79.0922 Y61.7946
G01 X79.0207 Y61.7729
G01 X78.9578 Y61.7572
G01 X78.8845 Y61.7426
G01 X78.8204 Y61.7331
G01 X78.7461 Y61.7258
G01 X78.6813 Y61.7226
G01 X78.6440 Y61.7217
G01 X77.3232 Y61.7217
G01 X77.2858 Y61.7226
G01 X77.2211 Y61.7258
G01 X77.1468 Y61.7331
G01 X77.0826 Y61.7426
G01 X77.0094 Y61.7572
G01 X76.9465 Y61.7729
G01 X76.8750 Y61.7946
G01 X76.8140 Y61.8165
G01 X76.7450 Y61.8450
G01 X76.7051 Y61.8639
G01 X76.7051 Y61.4556
G01 X76.7302 Y61.4181
G01 X76.7686 Y61.3540
G01 X76.8038 Y61.2881
G01 X76.8358 Y61.2205
G01 X76.8644 Y61.1515
G01 X76.8896 Y61.0811
G01 X76.9113 Y61.0096
G01 X76.9294 Y60.9370
G01 X76.9440 Y60.8637
G01 X76.9550 Y60.7898
G01 X76.9623 Y60.7154
G01 X76.9660 Y60.6407
G01 X76.9660 Y60.5660
G01 X76.9623 Y60.4913
G01 X76.9550 Y60.4170
G01 X76.9440 Y60.3430
G01 X76.9294 Y60.2697
G01 X76.9113 Y60.1972
G01 X76.8896 Y60.1257
G01 X76.8644 Y60.0553
G01 X76.8358 Y59.9863
G01 X76.8038 Y59.9187
G01 X76.7686 Y59.8528
G01 X76.7302 Y59.7887
G01 X76.6886 Y59.7265
G01 X76.6441 Y59.6665
G01 X76.5967 Y59.6087
G01 X76.5465 Y59.5533
G01 X76.4937 Y59.5005
G01 X76.4383 Y59.4503
G01 X76.3805 Y59.4029
G01 X76.3204 Y59.3583
G01 X76.2705 Y59.3249
G00 Z2.0000
G00 X69.7815 Y56.6417
G01 F60.00
G01 Z-0.2001
G01 F320.00
G01 X69.7032 Y56.6417
G01 X69.6658 Y56.6426
G01 X69.6011 Y56.6458
G01 X69.5268 Y56.6531
G01 X69.4626 Y56.6626
G01 X69.3894 Y56.6772
G01 X69.3265 Y56.6929
G01 X69.2550 Y56.7146
G01 X69.1940 Y56.7365
G01 X69.1250 Y56.7650
G01 X69.0851 Y56.7839
G01 X69.0851 Y51.7229
G01 X69.1020 Y51.7309
G01 X69.1020 Y55.5234
G01 X69.1030 Y55.5607
G01 X69.1054 Y55.6098
G01 X69.1127 Y55.6841
G01 X69.1199 Y55.7327
G01 X69.1345 Y55.8060
G01 X69.1464 Y55.8536
G01 X69.1681 Y55.9251
G01 X69.1846 Y55.9713
G01 X69.2132 Y56.0403
G01 X69.2342 Y56.0847
G01 X69.2694 Y56.1506
G01 X69.2947 Y56.1927
G01 X69.3362 Y56.2548
G01 X69.3654 Y56.2942
G01 X69.4128 Y56.3520
G01 X69.4458 Y56.3884
G01 X69.4986 Y56.4412
G01 X69.5350 Y56.4742
G01 X69.5927 Y56.5216
G01 X69.6322 Y56.5508
G01 X69.6943 Y56.5923
G01 X69.7364 Y56.6176
G01 X69.7815 Y56.6417
G00 Z2.0000
G00 X69.0851 Y59.3429
G01 F60.00
G01 Z-0.2001
G01 F320.00
G01 X69.1250 Y59.3617
G01 X69.1940 Y59.3903
G01 X69.2550 Y59.4121
G01 X69.3265 Y59.4338
G01 X69.3894 Y59.4496
G01 X69.4626 Y59.4642
G01 X69.5268 Y59.4737
G01 X69.6011 Y59.4810
G01 X69.6658 Y59.4842
G01 X69.7032 Y59.4851
G01 X71.0240 Y59.4851
G01 X71.0613 Y59.4842
G01 X71.1261 Y59.4810
G01 X71.2004 Y59.4737
G01 X71.2645 Y59.4642
G01 X71.3378 Y59.4496
G01 X71.4007 Y59.4338
G01 X71.4722 Y59.4121
G01 X71.5332 Y59.3903
G01 X71.6022 Y59.3617
G01 X71.6420 Y59.3429
G01 X71.6420 Y61.8639
G01 X71.6022 Y61.8450
G01 X71.5332 Y61.8165
G01 X71.4722 Y61.7946
G01 X71.4007 Y61.7729
G01 X71.3378 Y61.7572
G01 X71.2645 Y61.7426
G01 X71.2004 Y61.7331
G01 X71.1261 Y61.7258
G01 X71.0613 Y61.7226
G01 X71.0240 Y61.7217
G01 X69.7032 Y61.7217
G01 X69.6658 Y61.7226
G01 X69.6011 Y61.7258
G01 X69.5268 Y61.7331
G01 X69.4626 Y61.7426
G01 X69.3894 Y61.7572
G01 X69.3265 Y61.7729
G01 X69.2550 Y61.7946
G01 X69.1940 Y61.8165
G01 X69.1250 Y61.8450
G01 X69.0851 Y61.8639
G01 X69.0851 Y59.3429
G00 Z2.0000
G00 X66.5620 Y56.7839
G01 F60.00
G01 Z-0.2001
G01 F320.00
G01 X66.5222 Y56.7650
G01 X66.4532 Y56.7365
G01 X66.3922 Y56.7146
G01 X66.3207 Y56.6929
G01 X66.2578 Y56.6772
G01 X66.1845 Y56.6626
G01 X66.1204 Y56.6531
G01 X66.0461 Y56.6458
G01 X65.9813 Y56.6426
G01 X65.9440 Y56.6417
G01 X64.6232 Y56.6417
G01 X64.5858 Y56.6426
G01 X64.5211 Y56.6458
G01 X64.4468 Y56.6531
G01 X64.3826 Y56.6626
G01 X64.3094 Y56.6772
G01 X64.2465 Y56.6929
G01 X64.1750 Y56.7146
G01 X64.1140 Y56.7365
G01 X64.0450 Y56.7650
G01 X64.0051 Y56.7839
G01 X64.0051 Y52.9834
G01 X64.0042 Y52.9460
G01 X64.0018 Y52.8970
G01 X63.9945 Y52.8226
G01 X63.9873 Y52.7741
G01 X63.9727 Y52.7008
G01 X63.9608 Y52.6532
G01 X63.9391 Y52.5817
G01 X63.9226 Y52.5355
G01 X63.8940 Y52.4665
G01 X63.8730 Y52.4221
G01 X63.8378 Y52.3562
G01 X63.8125 Y52.3141
G01 X63.7710 Y52.2520
G01 X63.7418 Y52.2125
G01 X63.6944 Y52.1548
G01 X63.6614 Y52.1184
G01 X63.6086 Y52.0656
G01 X63.5722 Y52.0326
G01 X63.5144 Y51.9852
G01 X63.4750 Y51.9560
G01 X63.4129 Y51.9145
G01 X63.3708 Y51.8892
G01 X63.3049 Y51.8540
G01 X63.2605 Y51.8330
G01 X63.1915 Y51.8044
G01 X63.1453 Y51.7879
G01 X63.0738 Y51.7662
G01 X63.0262 Y51.7543
G01 X62.9529 Y51.7397
G01 X62.9043 Y51.7325
G01 X62.8300 Y51.7252
G01 X62.7809 Y51.7228
G01 X62.7436 Y51.7218
G01 X61.4651 Y51.7218
G01 X61.4651 Y46.1903
G01 X61.4820 Y46.2156
G01 X61.4820 Y50.4434
G01 X61.4830 Y50.4807
G01 X61.4854 Y50.5298
G01 X61.4927 Y50.6041
G01 X61.4999 Y50.6527
G01 X61.5145 Y50.7260
G01 X61.5264 Y50.7736
G01 X61.5481 Y50.8451
G01 X61.5646 Y50.8913
G01 X61.5932 Y50.9603
G01 X61.6142 Y51.0047
G01 X61.6494 Y51.0706
G01 X61.6747 Y51.1127
G01 X61.7162 Y51.1748
G01 X61.7454 Y51.2142
G01 X61.7928 Y51.2720
G01 X61.8258 Y51.3084
G01 X61.8786 Y51.3612
G01 X61.9150 Y51.3942
G01 X61.9727 Y51.4416
G01 X62.0122 Y51.4708
G01 X62.0743 Y51.5123
G01 X62.1164 Y51.5376
G01 X62.1823 Y51.5728
G01 X62.2267 Y51.5938
G01 X62.2957 Y51.6223
G01 X62.3419 Y51.6389
G01 X62.4134 Y51.6606
G01 X62.4610 Y51.6725
G01 X62.5343 Y51.6871
G01 X62.5828 Y51.6943
G01 X62.6572 Y51.7016
G01 X62.7062 Y51.7040
G01 X62.7436 Y51.7049
G01 X63.9694 Y51.7049
G01 X63.9864 Y51.7140
G01 X64.0450 Y51.7417
G01 X64.1140 Y51.7703
G01 X64.1750 Y51.7921
G01 X64.2465 Y51.8138
G01 X64.3094 Y51.8296
G01 X64.3826 Y51.8442
G01 X64.4468 Y51.8537
G01 X64.5211 Y51.8610
G01 X64.5858 Y51.8642
G01 X64.6232 Y51.8651
G01 X65.9440 Y51.8651
G01 X65.9813 Y51.8642
G01 X66.0461 Y51.8610
G01 X66.1204 Y51.8537
G01 X66.1845 Y51.8442
G01 X66.2578 Y51.8296
G01 X66.3207 Y51.8138
G01 X66.3922 Y51.7921
G01 X66.4532 Y51.7703
G01 X66.5222 Y51.7417
G01 X66.5620 Y51.7229
G01 X66.5620 Y56.7839
G00 Z2.0000
G00 X63.5705 Y59.3249
G01 F60.00
G01 Z-0.2001
G01 F320.00
G01 X63.9694 Y59.3249
G01 X63.9864 Y59.3340
G01 X64.0450 Y59.3617
G01 X64.1140 Y59.3903
G01 X64.1750 Y59.4121
G01 X64.2465 Y59.4338
G01 X64.3094 Y59.4496
G01 X64.3826 Y59.4642
G01 X64.4468 Y59.4737
G01 X64.5211 Y59.4810
G01 X64.5858 Y59.4842
G01 X64.6232 Y59.4851
G01 X65.9440 Y59.4851
G01 X65.9813 Y59.4842
G01 X66.0461 Y59.4810
G01 X66.1204 Y59.4737
G01 X66.1845 Y59.4642
G01 X66.2578 Y59.4496
G01 X66.3207 Y59.4338
G01 X66.3922 Y59.4121
G01 X66.4532 Y59.3903
G01 X66.5222 Y59.3617
G01 X66.5620 Y59.3429
G01 X66.5620 Y61.8639
G01 X66.5222 Y61.8450
G01 X66.4532 Y61.8165
G01 X66.3922 Y61.7946
G01 X66.3207 Y61.7729
G01 X66.2578 Y61.7572
G01 X66.1845 Y61.7426
G01 X66.1204 Y61.7331
G01 X66.0461 Y61.7258
G01 X65.9813 Y61.7226
G01 X65.9440 Y61.7217
G01 X64.6232 Y61.7217
G01 X64.5858 Y61.7226
G01 X64.5211 Y61.7258
G01 X64.4468 Y61.7331
G01 X64.3826 Y61.7426
G01 X64.3094 Y61.7572
G01 X64.2465 Y61.7729
G01 X64.1750 Y61.7946
G01 X64.1140 Y61.8165
G01 X64.0450 Y61.8450
G01 X64.0051 Y61.8639
G01 X64.0051 Y61.4556
G01 X64.0302 Y61.4181
G01 X64.0686 Y61.3540
G01 X64.1038 Y61.2881
G01 X64.1358 Y61.2205
G01 X64.1644 Y61.1515
G01 X64.1896 Y61.0811
G01 X64.2113 Y61.0096
G01 X64.2294 Y60.9370
G01 X64.2440 Y60.8637
G01 X64.2550 Y60.7898
G01 X64.2623 Y60.7154
G01 X64.2660 Y60.6407
G01 X64.2660 Y60.5660
G01 X64.2623 Y60.4913
G01 X64.2550 Y60.4170
G01 X64.2440 Y60.3430
G01 X64.2294 Y60.2697
G01 X64.2113 Y60.1972
G01 X64.1896 Y60.1257
G01 X64.1644 Y60.0553
G01 X64.1358 Y59.9863
G01 X64.1038 Y59.9187
G01 X64.0686 Y59.8528
G01 X64.0302 Y59.7887
G01 X63.9886 Y59.7265
G01 X63.9441 Y59.6665
G01 X63.8967 Y59.6087
G01 X63.8465 Y59.5533
G01 X63.7937 Y59.5005
G01 X63.7383 Y59.4503
G01 X63.6805 Y59.4029
G01 X63.6204 Y59.3583
G01 X63.5705 Y59.3249
G00 Z2.0000
G00 X57.0815 Y56.6417
G01 F60.00
G01 Z-0.2001
G01 F320.00
G01 X57.0032 Y56.6417
G01 X56.9658 Y56.6426
G01 X56.9011 Y56.6458
G01 X56.8268 Y56.6531
G01 X56.7626 Y56.6626
G01 X56.6894 Y56.6772
G01 X56.6265 Y56.6929
G01 X56.5550 Y56.7146
G01 X56.4940 Y56.7365
G01 X56.4250 Y56.7650
G01 X56.3851 Y56.7839
G01 X56.3851 Y51.7229
G01 X56.4020 Y51.7309
G01 X56.4020 Y55.5234
G01 X56.4030 Y55.5607
G01 X56.4054 Y55.6098
G01 X56.4127 Y55.6841
G01 X56.4199 Y55.7327
G01 X56.4345 Y55.8060
G01 X56.4464 Y55.8536
G01 X56.4681 Y55.9251
G01 X56.4846 Y55.9713
G01 X56.5132 Y56.0403
G01 X56.5342 Y56.0847
G01 X56.5694 Y56.1506
G01 X56.5947 Y56.1927
G01 X56.6362 Y56.2548
G01 X56.6654 Y56.2942
G01 X56.7128 Y56.3520
G01 X56.7458 Y56.3884
G01 X56.7986 Y56.4412
G01 X56.8350 Y56.4742
G01 X56.8927 Y56.5216
G01 X56.9322 Y56.5508
G01 X56.9943 Y56.5923
G01 X57.0364 Y56.6176
G01 X57.0815 Y56.6417
G00 Z2.0000
G00 X56.3851 Y59.3429
G01 F60.00
G01 Z-0.2001
G01 F320.00
G01 X56.4250 Y59.3617
G01 X56.4940 Y59.3903
G01 X56.5550 Y59.4121
G01 X56.6265 Y59.4338
G01 X56.6894 Y59.4496
G01 X56.7626 Y59.4642
G01 X56.8268 Y59.4737
G01 X56.9011 Y59.4810
G01 X56.9658 Y59.4842
G01 X57.0032 Y59.4851
G01 X58.3240 Y59.4851
G01 X58.3613 Y59.4842
G01 X58.4261 Y59.4810
G01 X58.5004 Y59.4737
G01 X58.5645 Y59.4642
G01 X58.6378 Y59.4496
G01 X58.7007 Y59.4338
G01 X58.7722 Y59.4121
G01 X58.8332 Y59.3903
G01 X58.9022 Y59.3617
G01 X58.9420 Y59.3429
G01 X58.9420 Y61.8639
G01 X58.9022 Y61.8450
G01 X58.8332 Y61.8165
G01 X58.7722 Y61.7946
G01 X58.7007 Y61.7729
G01 X58.6378 Y61.7572
G01 X58.5645 Y61.7426
G01 X58.5004 Y61.7331
G01 X58.4261 Y61.7258
G01 X58.3613 Y61.7226
G01 X58.3240 Y61.7217
G01 X57.0032 Y61.7217
G01 X56.9658 Y61.7226
G01 X56.9011 Y61.7258
G01 X56.8268 Y61.7331
G01 X56.7626 Y61.7426
G01 X56.6894 Y61.7572
G01 X56.6265 Y61.7729
G01 X56.5550 Y61.7946
G01 X56.4940 Y61.8165
G01 X56.4250 Y61.8450
G01 X56.3851 Y61.8639
G01 X56.3851 Y59.3429
G00 Z2.0000
G00 X53.8620 Y56.7839
G01 F60.00
G01 Z-0.2001
G01 F320.00
G01 X53.8222 Y56.7650
G01 X53.7532 Y56.7365
G01 X53.6922 Y56.7146
G01 X53.6207 Y56.6929
G01 X53.5578 Y56.6772
G01 X53.4845 Y56.6626
G01 X53.4204 Y56.6531
G01 X53.3461 Y56.6458
G01 X53.2813 Y56.6426
G01 X53.2440 Y56.6417
G01 X51.9232 Y56.6417
G01 X51.8858 Y56.6426
G01 X51.8211 Y56.6458
G01 X51.7468 Y56.6531
G01 X51.6826 Y56.6626
G01 X51.6094 Y56.6772
G01 X51.5465 Y56.6929
G01 X51.4750 Y56.7146
G01 X51.4140 Y56.7365
G01 X51.3450 Y56.7650
G01 X51.3051 Y56.7839
G01 X51.3051 Y52.9834
G01 X51.3042 Y52.9460
G01 X51.3018 Y52.8970
G01 X51.2945 Y52.8226
G01 X51.2873 Y52.7741
G01 X51.2727 Y52.7008
G01 X51.2608 Y52.6532
G01 X51.2391 Y52.5817
G01 X51.2226 Y52.5355
G01 X51.1940 Y52.4665
G01 X51.1730 Y52.4221
G01 X51.1378 Y52.3562
G01 X51.1125 Y52.3141
G01 X51.0710 Y52.2520
G01 X51.0418 Y52.2125
G01 X50.9944 Y52.1548
G01 X50.9614 Y52.1184
G01 X50.9086 Y52.0656
G01 X50.8722 Y52.0326
G01 X50.8144 Y51.9852
G01 X50.7750 Y51.9560
G01 X50.7129 Y51.9145
G01 X50.6708 Y51.8892
G01 X50.6049 Y51.8540
G01 X50.5605 Y51.8330
G01 X50.4915 Y51.8044
G01 X50.4453 Y51.7879
G01 X50.3738 Y51.7662
G01 X50.3262 Y51.7543
G01 X50.2529 Y51.7397
G01 X50.2043 Y51.7325
G01 X50.1300 Y51.7252
G01 X50.0809 Y51.7228
G01 X50.0436 Y51.7218
G01 X48.7651 Y51.7218
G01 X48.7651 Y46.1903
G01 X48.7820 Y46.2156
G01 X48.7820 Y50.4434
G01 X48.7830 Y50.4807
G01 X48.7854 Y50.5298
G01 X48.7927 Y50.6041
G01 X48.7999 Y50.6527
G01 X48.8145 Y50.7260
G01 X48.8264 Y50.7736
G01 X48.8481 Y50.8451
G01 X48.8646 Y50.8913
G01 X48.8932 Y50.9603
G01 X48.9142 Y51.0047
G01 X48.9494 Y51.0706
G01 X48.9747 Y51.1127
G01 X49.0162 Y51.1748
G01 X49.0454 Y51.2142
G01 X49.0928 Y51.2720
G01 X49.1258 Y51.3084
G01 X49.1786 Y51.3612
G01 X49.2150 Y51.3942
G01 X49.2727 Y51.4416
G01 X49.3122 Y51.4708
G01 X49.3743 Y51.5123
G01 X49.4164 Y51.5376
G01 X49.4823 Y51.5728
G01 X49.5267 Y51.5938
G01 X49.5957 Y51.6223
G01 X49.6419 Y51.6389
G01 X49.7134 Y51.6606
G01 X49.7610 Y51.6725
G01 X49.8343 Y51.6871
G01 X49.8828 Y51.6943
G01 X49.9572 Y51.7016
G01 X50.0062 Y51.7040
G01 X50.0436 Y51.7049
G01 X51.2694 Y51.7049
G01 X51.2864 Y51.7140
G01 X51.3450 Y51.7417
G01 X51.4140 Y51.7703
G01 X51.4750 Y51.7921
G01 X51.5465 Y51.8138
G01 X51.6094 Y51.8296
G01 X51.6826 Y51.8442
G01 X51.7468 Y51.8537
G01 X51.8211 Y51.8610
G01 X51.8858 Y51.8642
G01 X51.9232 Y51.8651
G01 X53.2440 Y51.8651
G01 X53.2813 Y51.8642
G01 X53.3461 Y51.8610
G01 X53.4204 Y51.8537
G01 X53.4845 Y51.8442
G01 X53.5578 Y51.8296
G01 X53.6207 Y51.8138
G01 X53.6922 Y51.7921
G01 X53.7532 Y51.7703
G01 X53.8222 Y51.7417
G01 X53.8620 Y51.7229
G01 X53.8620 Y56.7839
G00 Z2.0000
G00 X50.8705 Y59.3249
G01 F60.00
G01 Z-0.2001
G01 F320.00
G01 X51.2694 Y59.3249
G01 X51.2864 Y59.3340
G01 X51.3450 Y59.3617
G01 X51.4140 Y59.3903
G01 X51.4750 Y59.4121
G01 X51.5465 Y59.4338
G01 X51.6094 Y59.4496
G01 X51.6826 Y59.4642
G01 X51.7468 Y59.4737
G01 X51.8211 Y59.4810
G01 X51.8858 Y59.4842
G01 X51.9232 Y59.4851
G01 X53.2440 Y59.4851
G01 X53.2813 Y59.4842
G01 X53.3461 Y59.4810
G01 X53.4204 Y59.4737
G01 X53.4845 Y59.4642
G01 X53.5578 Y59.4496
G01 X53.6207 Y59.4338
G01 X53.6922 Y59.4121
G01 X53.7532 Y59.3903
G01 X53.8222 Y59.3617
G01 X53.8620 Y59.3429
G01 X53.8620 Y61.8639
G01 X53.8222 Y61.8450
G01 X53.7532 Y61.8165
G01 X53.6922 Y61.7946
G01 X53.6207 Y61.7729
G01 X53.5578 Y61.7572
G01 X53.4845 Y61.7426
G01 X53.4204 Y61.7331
G01 X53.3461 Y61.7258
G01 X53.2813 Y61.7226
G01 X53.2440 Y61.7217
G01 X51.9232 Y61.7217
G01 X51.8858 Y61.7226
G01 X51.8211 Y61.7258
G01 X51.7468 Y61.7331
G01 X51.6826 Y61.7426
G01 X51.6094 Y61.7572
G01 X51.5465 Y61.7729
G01 X51.4750 Y61.7946
G01 X51.4140 Y61.8165
G01 X51.3450 Y61.8450
G01 X51.3051 Y61.8639
G01 X51.3051 Y61.4556
G01 X51.3302 Y61.4181
G01 X51.3686 Y61.3540
G01 X51.4038 Y61.2881
G01 X51.4358 Y61.2205
G01 X51.4644 Y61.1515
G01 X51.4896 Y61.0811
G01 X51.5113 Y61.0096
G01 X51.5294 Y60.9370
G01 X51.5440 Y60.8637
G01 X51.5550 Y60.7898
G01 X51.5623 Y60.7154
G01 X51.5660 Y60.6407
G01 X51.5660 Y60.5660
G01 X51.5623 Y60.4913
G01 X51.5550 Y60.4170
G01 X51.5440 Y60.3430
G01 X51.5294 Y60.2697
G01 X51.5113 Y60.1972
G01 X51.4896 Y60.1257
G01 X51.4644 Y60.0553
G01 X51.4358 Y59.9863
G01 X51.4038 Y59.9187
G01 X51.3686 Y59.8528
G01 X51.3302 Y59.7887
G01 X51.2886 Y59.7265
G01 X51.2441 Y59.6665
G01 X51.1967 Y59.6087
G01 X51.1465 Y59.5533
G01 X51.0937 Y59.5005
G01 X51.0383 Y59.4503
G01 X50.9805 Y59.4029
G01 X50.9204 Y59.3583
G01 X50.8705 Y59.3249
G00 Z2.0000
G00 X58.9420 Y51.7229
G01 F60.00
G01 Z-0.2001
G01 F320.00
G01 X58.9420 Y52.9834
G01 X58.9430 Y53.0207
G01 X58.9454 Y53.0698
G01 X58.9527 Y53.1441
G01 X58.9599 Y53.1927
G01 X58.9745 Y53.2660
G01 X58.9864 Y53.3136
G01 X59.0081 Y53.3851
G01 X59.0246 Y53.4313
G01 X59.0532 Y53.5003
G01 X59.0742 Y53.5447
G01 X59.1094 Y53.6106
G01 X59.1347 Y53.6527
G01 X59.1762 Y53.7148
G01 X59.2054 Y53.7542
G01 X59.2528 Y53.8120
G01 X59.2858 Y53.8484
G01 X59.3386 Y53.9012
G01 X59.3750 Y53.9342
G01 X59.4327 Y53.9816
G01 X59.4722 Y54.0108
G01 X59.5343 Y54.0523
G01 X59.5764 Y54.0776
G01 X59.6423 Y54.1128
G01 X59.6867 Y54.1338
G01 X59.7557 Y54.1623
G01 X59.8019 Y54.1789
G01 X59.8734 Y54.2006
G01 X59.9210 Y54.2125
G01 X59.9943 Y54.2271
G01 X60.0428 Y54.2343
G01 X60.1172 Y54.2416
G01 X60.1662 Y54.2440
G01 X60.2036 Y54.2449
G01 X61.4820 Y54.2449
G01 X61.4820 Y58.0634
G01 X61.4830 Y58.1007
G01 X61.4854 Y58.1498
G01 X61.4927 Y58.2241
G01 X61.4999 Y58.2727
G01 X61.5145 Y58.3460
G01 X61.5264 Y58.3936
G01 X61.5481 Y58.4651
G01 X61.5646 Y58.5113
G01 X61.5932 Y58.5803
G01 X61.6142 Y58.6247
G01 X61.6494 Y58.6906
G01 X61.6747 Y58.7327
G01 X61.7162 Y58.7948
G01 X61.7454 Y58.8342
G01 X61.7928 Y58.8920
G01 X61.8258 Y58.9284
G01 X61.8786 Y58.9812
G01 X61.9150 Y59.0142
G01 X61.9727 Y59.0616
G01 X62.0122 Y59.0908
G01 X62.0743 Y59.1323
G01 X62.1164 Y59.1576
G01 X62.1773 Y59.1901
G01 X62.1265 Y59.2112
G01 X62.0589 Y59.2432
G01 X61.9930 Y59.2784
G01 X61.9289 Y59.3168
G01 X61.8667 Y59.3583
G01 X61.8067 Y59.4029
G01 X61.7489 Y59.4503
G01 X61.6935 Y59.5005
G01 X61.6407 Y59.5533
G01 X61.5905 Y59.6087
G01 X61.5431 Y59.6665
G01 X61.4985 Y59.7265
G01 X61.4651 Y59.7765
G01 X61.4651 Y55.5234
G01 X61.4642 Y55.4860
G01 X61.4618 Y55.4370
G01 X61.4545 Y55.3626
G01 X61.4473 Y55.3141
G01 X61.4327 Y55.2408
G01 X61.4208 Y55.1932
G01 X61.3991 Y55.1217
G01 X61.3826 Y55.0755
G01 X61.3540 Y55.0065
G01 X61.3330 Y54.9621
G01 X61.2978 Y54.8962
G01 X61.2725 Y54.8541
G01 X61.2310 Y54.7920
G01 X61.2018 Y54.7525
G01 X61.1544 Y54.6948
G01 X61.1214 Y54.6584
G01 X61.0686 Y54.6056
G01 X61.0322 Y54.5726
G01 X60.9744 Y54.5252
G01 X60.9350 Y54.4960
G01 X60.8729 Y54.4545
G01 X60.8308 Y54.4292
G01 X60.7649 Y54.3940
G01 X60.7205 Y54.3730
G01 X60.6515 Y54.3444
G01 X60.6053 Y54.3279
G01 X60.5338 Y54.3062
G01 X60.4862 Y54.2943
G01 X60.4129 Y54.2797
G01 X60.3643 Y54.2725
G01 X60.2900 Y54.2652
G01 X60.2409 Y54.2628
G01 X60.2036 Y54.2618
G01 X58.9251 Y54.2618
G01 X58.9251 Y51.7309
G01 X58.9420 Y51.7229
G00 Z2.0000
G00 X51.3051 Y46.6239
G01 F60.00
G01 Z-0.2001
G01 F320.00
G01 X51.3051 Y46.2156
G01 X51.3302 Y46.1781
G01 X51.3686 Y46.1140
G01 X51.4038 Y46.0481
G01 X51.4358 Y45.9805
G01 X51.4644 Y45.9115
G01 X51.4896 Y45.8411
G01 X51.5113 Y45.7696
G01 X51.5294 Y45.6970
G01 X51.5440 Y45.6237
G01 X51.5550 Y45.5498
G01 X51.5623 Y45.4754
G01 X51.5660 Y45.4007
G01 X51.5660 Y45.3260
G01 X51.5623 Y45.2513
G01 X51.5550 Y45.1770
G01 X51.5440 Y45.1030
G01 X51.5294 Y45.0297
G01 X51.5113 Y44.9572
G01 X51.4896 Y44.8857
G01 X51.4644 Y44.8153
G01 X51.4358 Y44.7463
G01 X51.4038 Y44.6787
G01 X51.3686 Y44.6128
G01 X51.3302 Y44.5487
G01 X51.3051 Y44.5112
G01 X51.3051 Y44.1029
G01 X51.3450 Y44.1217
G01 X51.4140 Y44.1503
G01 X51.4750 Y44.1721
G01 X51.5465 Y44.1938
G01 X51.6094 Y44.2096
G01 X51.6826 Y44.2242
G01 X51.7468 Y44.2337
G01 X51.8211 Y44.2410
G01 X51.8858 Y44.2442
G01 X51.9232 Y44.2451
G01 X53.2440 Y44.2451
G01 X53.2813 Y44.2442
G01 X53.3461 Y44.2410
G01 X53.4204 Y44.2337
G01 X53.4845 Y44.2242
G01 X53.5578 Y44.2096
G01 X53.6207 Y44.1938
G01 X53.6922 Y44.1721
G01 X53.7532 Y44.1503
G01 X53.8222 Y44.1217
G01 X53.8620 Y44.1029
G01 X53.8620 Y46.6239
G01 X53.8222 Y46.6050
G01 X53.7532 Y46.5765
G01 X53.6922 Y46.5546
G01 X53.6207 Y46.5329
G01 X53.5578 Y46.5172
G01 X53.4845 Y46.5026
G01 X53.4204 Y46.4931
G01 X53.3461 Y46.4858
G01 X53.2813 Y46.4826
G01 X53.2440 Y46.4817
G01 X51.9232 Y46.4817
G01 X51.8858 Y46.4826
G01 X51.8211 Y46.4858
G01 X51.7468 Y46.4931
G01 X51.6826 Y46.5026
G01 X51.6094 Y46.5172
G01 X51.5465 Y46.5329
G01 X51.4750 Y46.5546
G01 X51.4140 Y46.5765
G01 X51.3450 Y46.6050
G01 X51.3051 Y46.6239
G00 Z2.0000
G00 X48.7820 Y44.5112
G01 F60.00
G01 Z-0.2001
G01 F320.00
G01 X48.7651 Y44.5365
G01 X48.7651 Y38.5703
G01 X48.7820 Y38.5956
G01 X48.7820 Y44.5112
G00 Z2.0000
G00 X58.9420 Y36.4829
G01 F60.00
G01 Z-0.2001
G01 F320.00
G01 X58.9420 Y41.5439
G01 X58.9022 Y41.5250
G01 X58.8332 Y41.4965
G01 X58.7722 Y41.4746
G01 X58.7007 Y41.4529
G01 X58.6378 Y41.4372
G01 X58.5645 Y41.4226
G01 X58.5004 Y41.4131
G01 X58.4261 Y41.4058
G01 X58.3613 Y41.4026
G01 X58.3240 Y41.4017
G01 X58.2456 Y41.4017
G01 X58.2908 Y41.3776
G01 X58.3329 Y41.3523
G01 X58.3950 Y41.3108
G01 X58.4344 Y41.2816
G01 X58.4922 Y41.2342
G01 X58.5286 Y41.2012
G01 X58.5814 Y41.1484
G01 X58.6144 Y41.1120
G01 X58.6618 Y41.0542
G01 X58.6910 Y41.0148
G01 X58.7325 Y40.9527
G01 X58.7578 Y40.9106
G01 X58.7930 Y40.8447
G01 X58.8140 Y40.8003
G01 X58.8426 Y40.7313
G01 X58.8591 Y40.6851
G01 X58.8808 Y40.6136
G01 X58.8927 Y40.5660
G01 X58.9073 Y40.4927
G01 X58.9145 Y40.4441
G01 X58.9218 Y40.3698
G01 X58.9242 Y40.3207
G01 X58.9251 Y40.2834
G01 X58.9251 Y36.4909
G01 X58.9420 Y36.4829
G00 Z2.0000
G00 X61.0305 Y31.4018
G01 F60.00
G01 Z-0.2001
G01 F320.00
G01 X61.0804 Y31.3684
G01 X61.1405 Y31.3239
G01 X61.1983 Y31.2765
G01 X61.2537 Y31.2263
G01 X61.3065 Y31.1735
G01 X61.3567 Y31.1180
G01 X61.4041 Y31.0603
G01 X61.4486 Y31.0002
G01 X61.4736 Y30.9629
G01 X61.4985 Y31.0002
G01 X61.5431 Y31.0603
G01 X61.5905 Y31.1180
G01 X61.6407 Y31.1735
G01 X61.6935 Y31.2263
G01 X61.7489 Y31.2765
G01 X61.8067 Y31.3239
G01 X61.8667 Y31.3684
G01 X61.9167 Y31.4018
G01 X61.0305 Y31.4018
G00 Z2.0000
G00 X61.4736 Y29.2839
G01 F60.00
G01 Z-0.2001
G01 F320.00
G01 X61.4651 Y29.2712
G01 X61.4651 Y25.8956
G01 X61.4820 Y25.8703
G01 X61.4820 Y29.2712
G01 X61.4736 Y29.2839
G00 Z2.0000
G00 X63.5705 Y31.4018
G01 F60.00
G01 Z-0.2001
G01 F320.00
G01 X63.6204 Y31.3684
G01 X63.6805 Y31.3239
G01 X63.7383 Y31.2765
G01 X63.7937 Y31.2263
G01 X63.8465 Y31.1735
G01 X63.8967 Y31.1180
G01 X63.9441 Y31.0603
G01 X63.9886 Y31.0002
G01 X64.0302 Y30.9381
G01 X64.0686 Y30.8740
G01 X64.1038 Y30.8081
G01 X64.1358 Y30.7405
G01 X64.1644 Y30.6715
G01 X64.1896 Y30.6011
G01 X64.2113 Y30.5296
G01 X64.2294 Y30.4570
G01 X64.2440 Y30.3837
G01 X64.2550 Y30.3098
G01 X64.2623 Y30.2354
G01 X64.2660 Y30.1607
G01 X64.2660 Y30.0860
G01 X64.2623 Y30.0113
G01 X64.2550 Y29.9370
G01 X64.2440 Y29.8630
G01 X64.2294 Y29.7897
G01 X64.2113 Y29.7172
G01 X64.1896 Y29.6457
G01 X64.1644 Y29.5753
G01 X64.1358 Y29.5063
G01 X64.1038 Y29.4387
G01 X64.0686 Y29.3728
G01 X64.0302 Y29.3087
G01 X64.0051 Y29.2712
G01 X64.0051 Y28.4103
G01 X64.0385 Y28.4602
G01 X64.0831 Y28.5203
G01 X64.1305 Y28.5780
G01 X64.1807 Y28.6335
G01 X64.2335 Y28.6863
G01 X64.2889 Y28.7365
G01 X64.3467 Y28.7839
G01 X64.4067 Y28.8284
G01 X64.4689 Y28.8700
G01 X64.5330 Y28.9084
G01 X64.5989 Y28.9436
G01 X64.6665 Y28.9756
G01 X64.7355 Y29.0042
G01 X64.8059 Y29.0294
G01 X64.8774 Y29.0511
G01 X64.9499 Y29.0692
G01 X65.0232 Y29.0838
G01 X65.0972 Y29.0948
G01 X65.1715 Y29.1021
G01 X65.2462 Y29.1058
G01 X65.3209 Y29.1058
G01 X65.3956 Y29.1021
G01 X65.4700 Y29.0948
G01 X65.5440 Y29.0838
G01 X65.6172 Y29.0692
G01 X65.6898 Y29.0511
G01 X65.7613 Y29.0294
G01 X65.8317 Y29.0042
G01 X65.9007 Y28.9756
G01 X65.9683 Y28.9436
G01 X66.0342 Y28.9084
G01 X66.0983 Y28.8700
G01 X66.1358 Y28.8449
G01 X66.5620 Y28.8449
G01 X66.5620 Y31.3839
G01 X66.5222 Y31.3650
G01 X66.4532 Y31.3365
G01 X66.3922 Y31.3146
G01 X66.3207 Y31.2929
G01 X66.2578 Y31.2772
G01 X66.1845 Y31.2626
G01 X66.1204 Y31.2531
G01 X66.0461 Y31.2458
G01 X65.9813 Y31.2426
G01 X65.9440 Y31.2417
G01 X64.6232 Y31.2417
G01 X64.5858 Y31.2426
G01 X64.5211 Y31.2458
G01 X64.4468 Y31.2531
G01 X64.3826 Y31.2626
G01 X64.3094 Y31.2772
G01 X64.2465 Y31.2929
G01 X64.1750 Y31.3146
G01 X64.1140 Y31.3365
G01 X64.0450 Y31.3650
G01 X63.9864 Y31.3928
G01 X63.9694 Y31.4018
G01 X63.5705 Y31.4018
G00 Z2.0000
G00 X63.9852 Y33.9334
G01 F60.00
G01 Z-0.2001
G01 F320.00
G01 X63.9694 Y33.9418
G01 X62.7436 Y33.9418
G01 X62.7062 Y33.9428
G01 X62.6572 Y33.9452
G01 X62.5828 Y33.9525
G01 X62.5343 Y33.9597
G01 X62.4610 Y33.9743
G01 X62.4134 Y33.9862
G01 X62.3419 Y34.0079
G01 X62.2957 Y34.0244
G01 X62.2267 Y34.0530
G01 X62.1823 Y34.0740
G01 X62.1164 Y34.1092
G01 X62.0743 Y34.1345
G01 X62.0122 Y34.1760
G01 X61.9727 Y34.2052
G01 X61.9150 Y34.2526
G01 X61.8786 Y34.2856
G01 X61.8258 Y34.3384
G01 X61.7928 Y34.3748
G01 X61.7454 Y34.4325
G01 X61.7162 Y34.4720
G01 X61.6747 Y34.5341
G01 X61.6494 Y34.5762
G01 X61.6142 Y34.6421
G01 X61.5932 Y34.6865
G01 X61.5646 Y34.7555
G01 X61.5481 Y34.8017
G01 X61.5264 Y34.8732
G01 X61.5145 Y34.9208
G01 X61.4999 Y34.9941
G01 X61.4927 Y35.0426
G01 X61.4854 Y35.1170
G01 X61.4830 Y35.1660
G01 X61.4820 Y35.2034
G01 X61.4820 Y36.8912
G01 X61.4651 Y36.9165
G01 X61.4651 Y33.9249
G01 X63.9694 Y33.9249
G01 X63.9852 Y33.9334
G00 Z2.0000
G00 X64.7015 Y36.6251
G01 F60.00
G01 Z-0.2001
G01 F320.00
G01 X64.6564 Y36.6492
G01 X64.6143 Y36.6745
G01 X64.5522 Y36.7160
G01 X64.5127 Y36.7452
G01 X64.4550 Y36.7926
G01 X64.4186 Y36.8256
G01 X64.3658 Y36.8784
G01 X64.3328 Y36.9148
G01 X64.2854 Y36.9725
G01 X64.2562 Y37.0120
G01 X64.2147 Y37.0741
G01 X64.1894 Y37.1162
G01 X64.1568 Y37.1771
G01 X64.1358 Y37.1263
G01 X64.1038 Y37.0587
G01 X64.0686 Y36.9928
G01 X64.0302 Y36.9287
G01 X64.0051 Y36.8912
G01 X64.0051 Y36.4829
G01 X64.0450 Y36.5017
G01 X64.1140 Y36.5303
G01 X64.1750 Y36.5521
G01 X64.2465 Y36.5738
G01 X64.3094 Y36.5896
G01 X64.3826 Y36.6042
G01 X64.4468 Y36.6137
G01 X64.5211 Y36.6210
G01 X64.5858 Y36.6242
G01 X64.6232 Y36.6251
G01 X64.7015 Y36.6251
G00 Z2.0000
G00 X71.6420 Y36.4829
G01 F60.00
G01 Z-0.2001
G01 F320.00
G01 X71.6420 Y41.5439
G01 X71.6022 Y41.5250
G01 X71.5332 Y41.4965
G01 X71.4722 Y41.4746
G01 X71.4007 Y41.4529
G01 X71.3378 Y41.4372
G01 X71.2645 Y41.4226
G01 X71.2004 Y41.4131
G01 X71.1261 Y41.4058
G01 X71.0613 Y41.4026
G01 X71.0240 Y41.4017
G01 X70.9456 Y41.4017
G01 X70.9908 Y41.3776
G01 X71.0329 Y41.3523
G01 X71.0950 Y41.3108
G01 X71.1344 Y41.2816
G01 X71.1922 Y41.2342
G01 X71.2286 Y41.2012
G01 X71.2814 Y41.1484
G01 X71.3144 Y41.1120
G01 X71.3618 Y41.0542
G01 X71.3910 Y41.0148
G01 X71.4325 Y40.9527
G01 X71.4578 Y40.9106
G01 X71.4930 Y40.8447
G01 X71.5140 Y40.8003
G01 X71.5426 Y40.7313
G01 X71.5591 Y40.6851
G01 X71.5808 Y40.6136
G01 X71.5927 Y40.5660
G01 X71.6073 Y40.4927
G01 X71.6145 Y40.4441
G01 X71.6218 Y40.3698
G01 X71.6242 Y40.3207
G01 X71.6251 Y40.2834
G01 X71.6251 Y36.4909
G01 X71.6420 Y36.4829
G00 Z2.0000
G00 X73.7305 Y31.4018
G01 F60.00
G01 Z-0.2001
G01 F320.00
G01 X73.7804 Y31.3684
G01 X73.8405 Y31.3239
G01 X73.8983 Y31.2765
G01 X73.9537 Y31.2263
G01 X74.0065 Y31.1735
G01 X74.0567 Y31.1180
G01 X74.1041 Y31.0603
G01 X74.1486 Y31.0002
G01 X74.1736 Y30.9629
G01 X74.1985 Y31.0002
G01 X74.2431 Y31.0603
G01 X74.2905 Y31.1180
G01 X74.3407 Y31.1735
G01 X74.3935 Y31.2263
G01 X74.4489 Y31.2765
G01 X74.5067 Y31.3239
G01 X74.5667 Y31.3684
G01 X74.6167 Y31.4018
G01 X73.7305 Y31.4018
G00 Z2.0000
G00 X74.1736 Y29.2839
G01 F60.00
G01 Z-0.2001
G01 F320.00
G01 X74.1651 Y29.2712
G01 X74.1651 Y25.8956
G01 X74.1820 Y25.8703
G01 X74.1820 Y29.2712
G01 X74.1736 Y29.2839
G00 Z2.0000
G00 X76.2705 Y31.4018
G01 F60.00
G01 Z-0.2001
G01 F320.00
G01 X76.3204 Y31.3684
G01 X76.3805 Y31.3239
G01 X76.4383 Y31.2765
G01 X76.4937 Y31.2263
G01 X76.5465 Y31.1735
G01 X76.5967 Y31.1180
G01 X76.6441 Y31.0603
G01 X76.6886 Y31.0002
G01 X76.7302 Y30.9381
G01 X76.7686 Y30.8740
G01 X76.8038 Y30.8081
G01 X76.8358 Y30.7405
G01 X76.8644 Y30.6715
G01 X76.8896 Y30.6011
G01 X76.9113 Y30.5296
G01 X76.9294 Y30.4570
G01 X76.9440 Y30.3837
G01 X76.9550 Y30.3098
G01 X76.9623 Y30.2354
G01 X76.9660 Y30.1607
G01 X76.9660 Y30.0860
G01 X76.9623 Y30.0113
G01 X76.9550 Y29.9370
G01 X76.9440 Y29.8630
G01 X76.9294 Y29.7897
G01 X76.9113 Y29.7172
G01 X76.8896 Y29.6457
G01 X76.8644 Y29.5753
G01 X76.8358 Y29.5063
G01 X76.8038 Y29.4387
G01 X76.7686 Y29.3728
G01 X76.7302 Y29.3087
G01 X76.7051 Y29.2712
G01 X76.7051 Y28.4103
G01 X76.7385 Y28.4602
G01 X76.7831 Y28.5203
G01 X76.8305 Y28.5780
G01 X76.8807 Y28.6335
G01 X76.9335 Y28.6863
G01 X76.9889 Y28.7365
G01 X77.0467 Y28.7839
G01 X77.1067 Y28.8284
G01 X77.1689 Y28.8700
G01 X77.2330 Y28.9084
G01 X77.2989 Y28.9436
G01 X77.3665 Y28.9756
G01 X77.4355 Y29.0042
G01 X77.5059 Y29.0294
G01 X77.5774 Y29.0511
G01 X77.6499 Y29.0692
G01 X77.7232 Y29.0838
G01 X77.7972 Y29.0948
G01 X77.8715 Y29.1021
G01 X77.9462 Y29.1058
G01 X78.0209 Y29.1058
G01 X78.0956 Y29.1021
G01 X78.1700 Y29.0948
G01 X78.2440 Y29.0838
G01 X78.3172 Y29.0692
G01 X78.3898 Y29.0511
G01 X78.4613 Y29.0294
G01 X78.5317 Y29.0042
G01 X78.6007 Y28.9756
G01 X78.6683 Y28.9436
G01 X78.7342 Y28.9084
G01 X78.7983 Y28.8700
G01 X78.8358 Y28.8449
G01 X79.2620 Y28.8449
G01 X79.2620 Y31.3839
G01 X79.2222 Y31.3650
G01 X79.1532 Y31.3365
G01 X79.0922 Y31.3146
G01 X79.0207 Y31.2929
G01 X78.9578 Y31.2772
G01 X78.8845 Y31.2626
G01 X78.8204 Y31.2531
G01 X78.7461 Y31.2458
G01 X78.6813 Y31.2426
G01 X78.6440 Y31.2417
G01 X77.3232 Y31.2417
G01 X77.2858 Y31.2426
G01 X77.2211 Y31.2458
G01 X77.1468 Y31.2531
G01 X77.0826 Y31.2626
G01 X77.0094 Y31.2772
G01 X76.9465 Y31.2929
G01 X76.8750 Y31.3146
G01 X76.8140 Y31.3365
G01 X76.7450 Y31.3650
G01 X76.6864 Y31.3928
G01 X76.6694 Y31.4018
G01 X76.2705 Y31.4018
G00 Z2.0000
G00 X76.6852 Y33.9334
G01 F60.00
G01 Z-0.2001
G01 F320.00
G01 X76.6694 Y33.9418
G01 X75.4436 Y33.9418
G01 X75.4062 Y33.9428
G01 X75.3572 Y33.9452
G01 X75.2828 Y33.9525
G01 X75.2343 Y33.9597
G01 X75.1610 Y33.9743
G01 X75.1134 Y33.9862
G01 X75.0419 Y34.0079
G01 X74.9957 Y34.0244
G01 X74.9267 Y34.0530
G01 X74.8823 Y34.0740
G01 X74.8164 Y34.1092
G01 X74.7743 Y34.1345
G01 X74.7122 Y34.1760
G01 X74.6727 Y34.2052
G01 X74.6150 Y34.2526
G01 X74.5786 Y34.2856
G01 X74.5258 Y34.3384
G01 X74.4928 Y34.3748
G01 X74.4454 Y34.4325
G01 X74.4162 Y34.4720
G01 X74.3747 Y34.5341
G01 X74.3494 Y34.5762
G01 X74.3142 Y34.6421
G01 X74.2932 Y34.6865
G01 X74.2646 Y34.7555
G01 X74.2481 Y34.8017
G01 X74.2264 Y34.8732
G01 X74.2145 Y34.9208
G01 X74.1999 Y34.9941
G01 X74.1927 Y35.0426
G01 X74.1854 Y35.1170
G01 X74.1830 Y35.1660
G01 X74.1820 Y35.2034
G01 X74.1820 Y36.8912
G01 X74.1651 Y36.9165
G01 X74.1651 Y33.9249
G01 X76.6694 Y33.9249
G01 X76.6852 Y33.9334
G00 Z2.0000
G00 X77.4015 Y36.6251
G01 F60.00
G01 Z-0.2001
G01 F320.00
G01 X77.3564 Y36.6492
G01 X77.3143 Y36.6745
G01 X77.2522 Y36.7160
G01 X77.2127 Y36.7452
G01 X77.1550 Y36.7926
G01 X77.1186 Y36.8256
G01 X77.0658 Y36.8784
G01 X77.0328 Y36.9148
G01 X76.9854 Y36.9725
G01 X76.9562 Y37.0120
G01 X76.9147 Y37.0741
G01 X76.8894 Y37.1162
G01 X76.8568 Y37.1771
G01 X76.8358 Y37.1263
G01 X76.8038 Y37.0587
G01 X76.7686 Y36.9928
G01 X76.7302 Y36.9287
G01 X76.7051 Y36.8912
G01 X76.7051 Y36.4829
G01 X76.7450 Y36.5017
G01 X76.8140 Y36.5303
G01 X76.8750 Y36.5521
G01 X76.9465 Y36.5738
G01 X77.0094 Y36.5896
G01 X77.0826 Y36.6042
G01 X77.1468 Y36.6137
G01 X77.2211 Y36.6210
G01 X77.2858 Y36.6242
G01 X77.3232 Y36.6251
G01 X77.4015 Y36.6251
G00 Z2.0000
G00 X84.3420 Y36.4829
G01 F60.00
G01 Z-0.2001
G01 F320.00
G01 X84.3420 Y41.5439
G01 X84.3022 Y41.5250
G01 X84.2332 Y41.4965
G01 X84.1722 Y41.4746
G01 X84.1007 Y41.4529
G01 X84.0378 Y41.4372
G01 X83.9645 Y41.4226
G01 X83.9004 Y41.4131
G01 X83.8261 Y41.4058
G01 X83.7613 Y41.4026
G01 X83.7240 Y41.4017
G01 X83.6456 Y41.4017
G01 X83.6908 Y41.3776
G01 X83.7329 Y41.3523
G01 X83.7950 Y41.3108
G01 X83.8344 Y41.2816
G01 X83.8922 Y41.2342
G01 X83.9286 Y41.2012
G01 X83.9814 Y41.1484
G01 X84.0144 Y41.1120
G01 X84.0618 Y41.0542
G01 X84.0910 Y41.0148
G01 X84.1325 Y40.9527
G01 X84.1578 Y40.9106
G01 X84.1930 Y40.8447
G01 X84.2140 Y40.8003
G01 X84.2426 Y40.7313
G01 X84.2591 Y40.6851
G01 X84.2808 Y40.6136
G01 X84.2927 Y40.5660
G01 X84.3073 Y40.4927
G01 X84.3145 Y40.4441
G01 X84.3218 Y40.3698
G01 X84.3242 Y40.3207
G01 X84.3251 Y40.2834
G01 X84.3251 Y36.4909
G01 X84.3420 Y36.4829
G00 Z2.0000
G00 X86.4305 Y31.4018
G01 F60.00
G01 Z-0.2001
G01 F320.00
G01 X86.4804 Y31.3684
G01 X86.5405 Y31.3239
G01 X86.5983 Y31.2765
G01 X86.6537 Y31.2263
G01 X86.7065 Y31.1735
G01 X86.7567 Y31.1180
G01 X86.8041 Y31.0603
G01 X86.8486 Y31.0002
G01 X86.8736 Y30.9629
G01 X86.8985 Y31.0002
G01 X86.9431 Y31.0603
G01 X86.9905 Y31.1180
G01 X87.0407 Y31.1735
G01 X87.0935 Y31.2263
G01 X87.1489 Y31.2765
G01 X87.2067 Y31.3239
G01 X87.2667 Y31.3684
G01 X87.3167 Y31.4018
G01 X86.4305 Y31.4018
G00 Z2.0000
G00 X86.8736 Y29.2839
G01 F60.00
G01 Z-0.2001
G01 F320.00
G01 X86.8651 Y29.2712
G01 X86.8651 Y25.8956
G01 X86.8820 Y25.8703
G01 X86.8820 Y29.2712
G01 X86.8736 Y29.2839
G00 Z2.0000
G00 X88.9705 Y31.4018
G01 F60.00
G01 Z-0.2001
G01 F320.00
G01 X89.0204 Y31.3684
G01 X89.0805 Y31.3239
G01 X89.1383 Y31.2765
G01 X89.1937 Y31.2263
G01 X89.2465 Y31.1735
G01 X89.2967 Y31.1180
G01 X89.3441 Y31.0603
G01 X89.3886 Y31.0002
G01 X89.4302 Y30.9381
G01 X89.4686 Y30.8740
G01 X89.5038 Y30.8081
G01 X89.5358 Y30.7405
G01 X89.5644 Y30.6715
G01 X89.5896 Y30.6011
G01 X89.6113 Y30.5296
G01 X89.6294 Y30.4570
G01 X89.6440 Y30.3837
G01 X89.6550 Y30.3098
G01 X89.6623 Y30.2354
G01 X89.6660 Y30.1607
G01 X89.6660 Y30.0860
G01 X89.6623 Y30.0113
G01 X89.6550 Y29.9370
G01 X89.6440 Y29.8630
G01 X89.6294 Y29.7897
G01 X89.6113 Y29.7172
G01 X89.5896 Y29.6457
G01 X89.5644 Y29.5753
G01 X89.5358 Y29.5063
G01 X89.5038 Y29.4387
G01 X89.4686 Y29.3728
G01 X89.4302 Y29.3087
G01 X89.4051 Y29.2712
G01 X89.4051 Y28.4103
G01 X89.4385 Y28.4602
G01 X89.4831 Y28.5203
G01 X89.5305 Y28.5780
G01 X89.5807 Y28.6335
G01 X89.6335 Y28.6863
G01 X89.6889 Y28.7365
G01 X89.7467 Y28.7839
G01 X89.8067 Y28.8284
G01 X89.8689 Y28.8700
G01 X89.9330 Y28.9084
G01 X89.9989 Y28.9436
G01 X90.0665 Y28.9756
G01 X90.1355 Y29.0042
G01 X90.2059 Y29.0294
G01 X90.2774 Y29.0511
G01 X90.3499 Y29.0692
G01 X90.4232 Y29.0838
G01 X90.4972 Y29.0948
G01 X90.5715 Y29.1021
G01 X90.6462 Y29.1058
G01 X90.7209 Y29.1058
G01 X90.7956 Y29.1021
G01 X90.8700 Y29.0948
G01 X90.9440 Y29.0838
G01 X91.0172 Y29.0692
G01 X91.0898 Y29.0511
G01 X91.1613 Y29.0294
G01 X91.2317 Y29.0042
G01 X91.3007 Y28.9756
G01 X91.3683 Y28.9436
G01 X91.4342 Y28.9084
G01 X91.4983 Y28.8700
G01 X91.5358 Y28.8449
G01 X91.9620 Y28.8449
G01 X91.9620 Y31.3839
G01 X91.9222 Y31.3650
G01 X91.8532 Y31.3365
G01 X91.7922 Y31.3146
G01 X91.7207 Y31.2929
G01 X91.6578 Y31.2772
G01 X91.5845 Y31.2626
G01 X91.5204 Y31.2531
G01 X91.4461 Y31.2458
G01 X91.3813 Y31.2426
G01 X91.3440 Y31.2417
G01 X90.0232 Y31.2417
G01 X89.9858 Y31.2426
G01 X89.9211 Y31.2458
G01 X89.8468 Y31.2531
G01 X89.7826 Y31.2626
G01 X89.7094 Y31.2772
G01 X89.6465 Y31.2929
G01 X89.5750 Y31.3146
G01 X89.5140 Y31.3365
G01 X89.4450 Y31.3650
G01 X89.3864 Y31.3928
G01 X89.3694 Y31.4018
G01 X88.9705 Y31.4018
G00 Z2.0000
G00 X89.3852 Y33.9334
G01 F60.00
G01 Z-0.2001
G01 F320.00
G01 X89.3694 Y33.9418
G01 X88.1436 Y33.9418
G01 X88.1062 Y33.9428
G01 X88.0572 Y33.9452
G01 X87.9828 Y33.9525
G01 X87.9343 Y33.9597
G01 X87.8610 Y33.9743
G01 X87.8134 Y33.9862
G01 X87.7419 Y34.0079
G01 X87.6957 Y34.0244
G01 X87.6267 Y34.0530
G01 X87.5823 Y34.0740
G01 X87.5164 Y34.1092
G01 X87.4743 Y34.1345
G01 X87.4122 Y34.1760
G01 X87.3727 Y34.2052
G01 X87.3150 Y34.2526
G01 X87.2786 Y34.2856
G01 X87.2258 Y34.3384
G01 X87.1928 Y34.3748
G01 X87.1454 Y34.4325
G01 X87.1162 Y34.4720
G01 X87.0747 Y34.5341
G01 X87.0494 Y34.5762
G01 X87.0142 Y34.6421
G01 X86.9932 Y34.6865
G01 X86.9646 Y34.7555
G01 X86.9481 Y34.8017
G01 X86.9264 Y34.8732
G01 X86.9145 Y34.9208
G01 X86.8999 Y34.9941
G01 X86.8927 Y35.0426
G01 X86.8854 Y35.1170
G01 X86.8830 Y35.1660
G01 X86.8820 Y35.2034
G01 X86.8820 Y36.8912
G01 X86.8651 Y36.9165
G01 X86.8651 Y33.9249
G01 X89.3694 Y33.9249
G01 X89.3852 Y33.9334
G00 Z2.0000
G00 X90.1015 Y36.6251
G01 F60.00
G01 Z-0.2001
G01 F320.00
G01 X90.0564 Y36.6492
G01 X90.0143 Y36.6745
G01 X89.9522 Y36.7160
G01 X89.9127 Y36.7452
G01 X89.8550 Y36.7926
G01 X89.8186 Y36.8256
G01 X89.7658 Y36.8784
G01 X89.7328 Y36.9148
G01 X89.6854 Y36.9725
G01 X89.6562 Y37.0120
G01 X89.6147 Y37.0741
G01 X89.5894 Y37.1162
G01 X89.5568 Y37.1771
G01 X89.5358 Y37.1263
G01 X89.5038 Y37.0587
G01 X89.4686 Y36.9928
G01 X89.4302 Y36.9287
G01 X89.4051 Y36.8912
G01 X89.4051 Y36.4829
G01 X89.4450 Y36.5017
G01 X89.5140 Y36.5303
G01 X89.5750 Y36.5521
G01 X89.6465 Y36.5738
G01 X89.7094 Y36.5896
G01 X89.7826 Y36.6042
G01 X89.8468 Y36.6137
G01 X89.9211 Y36.6210
G01 X89.9858 Y36.6242
G01 X90.0232 Y36.6251
G01 X90.1015 Y36.6251
G00 Z2.0000
G00 X97.0420 Y36.4829
G01 F60.00
G01 Z-0.2001
G01 F320.00
G01 X97.0420 Y41.5439
G01 X97.0022 Y41.5250
G01 X96.9332 Y41.4965
G01 X96.8722 Y41.4746
G01 X96.8007 Y41.4529
G01 X96.7378 Y41.4372
G01 X96.6645 Y41.4226
G01 X96.6004 Y41.4131
G01 X96.5261 Y41.4058
G01 X96.4613 Y41.4026
G01 X96.4240 Y41.4017
G01 X96.3456 Y41.4017
G01 X96.3908 Y41.3776
G01 X96.4329 Y41.3523
G01 X96.4950 Y41.3108
G01 X96.5344 Y41.2816
G01 X96.5922 Y41.2342
G01 X96.6286 Y41.2012
G01 X96.6814 Y41.1484
G01 X96.7144 Y41.1120
G01 X96.7618 Y41.0542
G01 X96.7910 Y41.0148
G01 X96.8325 Y40.9527
G01 X96.8578 Y40.9106
G01 X96.8930 Y40.8447
G01 X96.9140 Y40.8003
G01 X96.9426 Y40.7313
G01 X96.9591 Y40.6851
G01 X96.9808 Y40.6136
G01 X96.9927 Y40.5660
G01 X97.0073 Y40.4927
G01 X97.0145 Y40.4441
G01 X97.0218 Y40.3698
G01 X97.0242 Y40.3207
G01 X97.0251 Y40.2834
G01 X97.0251 Y36.4909
G01 X97.0420 Y36.4829
G00 Z2.0000
G00 X102.1220 Y38.5703
G01 F60.00
G01 Z-0.2001
G01 F320.00
G01 X102.1220 Y41.5359
G01 X102.1051 Y41.5439
G01 X102.1051 Y38.5956
G01 X102.1220 Y38.5703
G00 Z2.0000
G00 X102.8015 Y36.6251
G01 F60.00
G01 Z-0.2001
G01 F320.00
G01 X102.7564 Y36.6492
G01 X102.7143 Y36.6745
G01 X102.6522 Y36.7160
G01 X102.6127 Y36.7452
G01 X102.5550 Y36.7926
G01 X102.5186 Y36.8256
G01 X102.4658 Y36.8784
G01 X102.4328 Y36.9148
G01 X102.3854 Y36.9725
G01 X102.3562 Y37.0120
G01 X102.3147 Y37.0741
G01 X102.2894 Y37.1162
G01 X102.2568 Y37.1771
G01 X102.2358 Y37.1263
G01 X102.2038 Y37.0587
G01 X102.1686 Y36.9928
G01 X102.1302 Y36.9287
G01 X102.1051 Y36.8912
G01 X102.1051 Y36.4829
G01 X102.1450 Y36.5017
G01 X102.2140 Y36.5303
G01 X102.2750 Y36.5521
G01 X102.3465 Y36.5738
G01 X102.4094 Y36.5896
G01 X102.4826 Y36.6042
G01 X102.5468 Y36.6137
G01 X102.6211 Y36.6210
G01 X102.6858 Y36.6242
G01 X102.7232 Y36.6251
G01 X102.8015 Y36.6251
G00 Z2.0000
G00 X102.0852 Y33.9334
G01 F60.00
G01 Z-0.2001
G01 F320.00
G01 X102.0694 Y33.9418
G01 X100.8436 Y33.9418
G01 X100.8062 Y33.9428
G01 X100.7572 Y33.9452
G01 X100.6828 Y33.9525
G01 X100.6343 Y33.9597
G01 X100.5610 Y33.9743
G01 X100.5134 Y33.9862
G01 X100.4419 Y34.0079
G01 X100.3957 Y34.0244
G01 X100.3267 Y34.0530
G01 X100.2823 Y34.0740
G01 X100.2164 Y34.1092
G01 X100.1743 Y34.1345
G01 X100.1122 Y34.1760
G01 X100.0727 Y34.2052
G01 X100.0150 Y34.2526
G01 X99.9786 Y34.2856
G01 X99.9258 Y34.3384
G01 X99.8928 Y34.3748
G01 X99.8454 Y34.4325
G01 X99.8162 Y34.4720
G01 X99.7747 Y34.5341
G01 X99.7494 Y34.5762
G01 X99.7142 Y34.6421
G01 X99.6932 Y34.6865
G01 X99.6646 Y34.7555
G01 X99.6481 Y34.8017
G01 X99.6264 Y34.8732
G01 X99.6145 Y34.9208
G01 X99.5999 Y34.9941
G01 X99.5927 Y35.0426
G01 X99.5854 Y35.1170
G01 X99.5830 Y35.1660
G01 X99.5820 Y35.2034
G01 X99.5820 Y36.8912
G01 X99.5651 Y36.9165
G01 X99.5651 Y33.9249
G01 X102.0694 Y33.9249
G01 X102.0852 Y33.9334
G00 Z2.0000
G00 X101.6705 Y31.4018
G01 F60.00
G01 Z-0.2001
G01 F320.00
G01 X101.7204 Y31.3684
G01 X101.7805 Y31.3239
G01 X101.8383 Y31.2765
G01 X101.8937 Y31.2263
G01 X101.9465 Y31.1735
G01 X101.9967 Y31.1180
G01 X102.0441 Y31.0603
G01 X102.0886 Y31.0002
G01 X102.1302 Y30.9381
G01 X102.1686 Y30.8740
G01 X102.2038 Y30.8081
G01 X102.2358 Y30.7405
G01 X102.2644 Y30.6715
G01 X102.2896 Y30.6011
G01 X102.3113 Y30.5296
G01 X102.3294 Y30.4570
G01 X102.3440 Y30.3837
G01 X102.3550 Y30.3098
G01 X102.3623 Y30.2354
G01 X102.3660 Y30.1607
G01 X102.3660 Y30.0860
G01 X102.3623 Y30.0113
G01 X102.3550 Y29.9370
G01 X102.3440 Y29.8630
G01 X102.3294 Y29.7897
G01 X102.3113 Y29.7172
G01 X102.2896 Y29.6457
G01 X102.2644 Y29.5753
G01 X102.2358 Y29.5063
G01 X102.2038 Y29.4387
G01 X102.1686 Y29.3728
G01 X102.1302 Y29.3087
G01 X102.1051 Y29.2712
G01 X102.1051 Y28.4103
G01 X102.1385 Y28.4602
G01 X102.1831 Y28.5203
G01 X102.2305 Y28.5780
G01 X102.2807 Y28.6335
G01 X102.3335 Y28.6863
G01 X102.3889 Y28.7365
G01 X102.4467 Y28.7839
G01 X102.5067 Y28.8284
G01 X102.5689 Y28.8700
G01 X102.6330 Y28.9084
G01 X102.6989 Y28.9436
G01 X102.7665 Y28.9756
G01 X102.8355 Y29.0042
G01 X102.9059 Y29.0294
G01 X102.9774 Y29.0511
G01 X103.0499 Y29.0692
G01 X103.1232 Y29.0838
G01 X103.1972 Y29.0948
G01 X103.2715 Y29.1021
G01 X103.3462 Y29.1058
G01 X103.4209 Y29.1058
G01 X103.4956 Y29.1021
G01 X103.5700 Y29.0948
G01 X103.6440 Y29.0838
G01 X103.7172 Y29.0692
G01 X103.7898 Y29.0511
G01 X103.8613 Y29.0294
G01 X103.9317 Y29.0042
G01 X104.0007 Y28.9756
G01 X104.0683 Y28.9436
G01 X104.1342 Y28.9084
G01 X104.1983 Y28.8700
G01 X104.2358 Y28.8449
G01 X104.6620 Y28.8449
G01 X104.6620 Y31.3839
G01 X104.6222 Y31.3650
G01 X104.5532 Y31.3365
G01 X104.4922 Y31.3146
G01 X104.4207 Y31.2929
G01 X104.3578 Y31.2772
G01 X104.2845 Y31.2626
G01 X104.2204 Y31.2531
G01 X104.1461 Y31.2458
G01 X104.0813 Y31.2426
G01 X104.0440 Y31.2417
G01 X102.7232 Y31.2417
G01 X102.6858 Y31.2426
G01 X102.6211 Y31.2458
G01 X102.5468 Y31.2531
G01 X102.4826 Y31.2626
G01 X102.4094 Y31.2772
G01 X102.3465 Y31.2929
G01 X102.2750 Y31.3146
G01 X102.2140 Y31.3365
G01 X102.1450 Y31.3650
G01 X102.0864 Y31.3928
G01 X102.0694 Y31.4018
G01 X101.6705 Y31.4018
G00 Z2.0000
G00 X99.1305 Y31.4018
G01 F60.00
G01 Z-0.2001
G01 F320.00
G01 X99.1804 Y31.3684
G01 X99.2405 Y31.3239
G01 X99.2983 Y31.2765
G01 X99.3537 Y31.2263
G01 X99.4065 Y31.1735
G01 X99.4567 Y31.1180
G01 X99.5041 Y31.0603
G01 X99.5486 Y31.0002
G01 X99.5736 Y30.9629
G01 X99.5985 Y31.0002
G01 X99.6431 Y31.0603
G01 X99.6905 Y31.1180
G01 X99.7407 Y31.1735
G01 X99.7935 Y31.2263
G01 X99.8489 Y31.2765
G01 X99.9067 Y31.3239
G01 X99.9667 Y31.3684
G01 X100.0167 Y31.4018
G01 X99.1305 Y31.4018
G00 Z2.0000
G00 X99.5736 Y29.2839
G01 F60.00
G01 Z-0.2001
G01 F320.00
G01 X99.5651 Y29.2712
G01 X99.5651 Y25.8956
G01 X99.5820 Y25.8703
G01 X99.5820 Y29.2712
G01 X99.5736 Y29.2839
G00 Z2.0000
G00 X102.1051 Y26.7565
G01 F60.00
G01 Z-0.2001
G01 F320.00
G01 X102.1051 Y26.3049
G01 X102.5567 Y26.3049
G01 X102.5067 Y26.3383
G01 X102.4467 Y26.3829
G01 X102.3889 Y26.4303
G01 X102.3335 Y26.4805
G01 X102.2807 Y26.5333
G01 X102.2305 Y26.5887
G01 X102.1831 Y26.6465
G01 X102.1385 Y26.7065
G01 X102.1051 Y26.7565
G00 Z2.0000
G00 X104.2105 Y26.3049
G01 F60.00
G01 Z-0.2001
G01 F320.00
G01 X105.0967 Y26.3049
G01 X105.0714 Y26.3218
G01 X104.2358 Y26.3218
G01 X104.2105 Y26.3049
G00 Z2.0000
G00 X106.7505 Y26.3049
G01 F60.00
G01 Z-0.2001
G01 F320.00
G01 X107.6114 Y26.3049
G01 X107.6489 Y26.3300
G01 X107.7130 Y26.3684
G01 X107.7789 Y26.4036
G01 X107.8465 Y26.4356
G01 X107.9155 Y26.4642
G01 X107.9859 Y26.4894
G01 X108.0574 Y26.5111
G01 X108.1299 Y26.5292
G01 X108.2032 Y26.5438
G01 X108.2772 Y26.5548
G01 X108.3515 Y26.5621
G01 X108.4262 Y26.5658
G01 X108.5009 Y26.5658
G01 X108.5756 Y26.5621
G01 X108.6500 Y26.5548
G01 X108.7240 Y26.5438
G01 X108.7972 Y26.5292
G01 X108.8698 Y26.5111
G01 X108.9413 Y26.4894
G01 X109.0117 Y26.4642
G01 X109.0807 Y26.4356
G01 X109.1483 Y26.4036
G01 X109.2142 Y26.3684
G01 X109.2783 Y26.3300
G01 X109.3404 Y26.2884
G01 X109.4005 Y26.2439
G01 X109.4583 Y26.1965
G01 X109.5137 Y26.1463
G01 X109.5665 Y26.0935
G01 X109.6167 Y26.0380
G01 X109.6641 Y25.9803
G01 X109.7086 Y25.9202
G01 X109.7336 Y25.8829
G01 X109.7420 Y25.8956
G01 X109.7420 Y29.2712
G01 X109.7170 Y29.3087
G01 X109.6786 Y29.3728
G01 X109.6434 Y29.4387
G01 X109.6114 Y29.5063
G01 X109.5828 Y29.5753
G01 X109.5576 Y29.6457
G01 X109.5359 Y29.7172
G01 X109.5177 Y29.7897
G01 X109.5032 Y29.8630
G01 X109.4922 Y29.9370
G01 X109.4849 Y30.0113
G01 X109.4812 Y30.0860
G01 X109.4812 Y30.1607
G01 X109.4849 Y30.2354
G01 X109.4922 Y30.3098
G01 X109.5032 Y30.3837
G01 X109.5177 Y30.4570
G01 X109.5359 Y30.5296
G01 X109.5576 Y30.6011
G01 X109.5828 Y30.6715
G01 X109.6114 Y30.7405
G01 X109.6434 Y30.8081
G01 X109.6786 Y30.8740
G01 X109.7170 Y30.9381
G01 X109.7585 Y31.0002
G01 X109.8031 Y31.0603
G01 X109.8505 Y31.1180
G01 X109.9007 Y31.1735
G01 X109.9535 Y31.2263
G01 X110.0089 Y31.2765
G01 X110.0667 Y31.3239
G01 X110.1267 Y31.3684
G01 X110.1889 Y31.4100
G01 X110.2530 Y31.4484
G01 X110.3189 Y31.4836
G01 X110.3865 Y31.5156
G01 X110.4373 Y31.5366
G01 X110.3764 Y31.5692
G01 X110.3343 Y31.5945
G01 X110.2722 Y31.6360
G01 X110.2327 Y31.6652
G01 X110.1778 Y31.7103
G01 X110.1550 Y31.6852
G01 X110.1022 Y31.6323
G01 X110.0542 Y31.5888
G01 X109.9964 Y31.5414
G01 X109.9444 Y31.5028
G01 X109.8823 Y31.4613
G01 X109.8267 Y31.4280
G01 X109.7608 Y31.3928
G01 X109.7022 Y31.3650
G01 X109.6332 Y31.3365
G01 X109.5722 Y31.3146
G01 X109.5007 Y31.2929
G01 X109.4378 Y31.2772
G01 X109.3645 Y31.2626
G01 X109.3004 Y31.2531
G01 X109.2261 Y31.2458
G01 X109.1613 Y31.2426
G01 X109.1240 Y31.2417
G01 X107.8032 Y31.2417
G01 X107.7658 Y31.2426
G01 X107.7011 Y31.2458
G01 X107.6268 Y31.2531
G01 X107.5626 Y31.2626
G01 X107.4894 Y31.2772
G01 X107.4265 Y31.2929
G01 X107.3550 Y31.3146
G01 X107.2940 Y31.3365
G01 X107.2250 Y31.3650
G01 X107.1851 Y31.3839
G01 X107.1851 Y28.4356
G01 X107.2102 Y28.3981
G01 X107.2486 Y28.3340
G01 X107.2838 Y28.2681
G01 X107.3158 Y28.2005
G01 X107.3444 Y28.1315
G01 X107.3696 Y28.0611
G01 X107.3913 Y27.9896
G01 X107.4094 Y27.9170
G01 X107.4240 Y27.8437
G01 X107.4350 Y27.7698
G01 X107.4423 Y27.6954
G01 X107.4460 Y27.6207
G01 X107.4460 Y27.5460
G01 X107.4423 Y27.4713
G01 X107.4350 Y27.3970
G01 X107.4240 Y27.3230
G01 X107.4094 Y27.2497
G01 X107.3913 Y27.1772
G01 X107.3696 Y27.1057
G01 X107.3444 Y27.0353
G01 X107.3158 Y26.9663
G01 X107.2838 Y26.8987
G01 X107.2486 Y26.8328
G01 X107.2102 Y26.7687
G01 X107.1686 Y26.7065
G01 X107.1241 Y26.6465
G01 X107.0767 Y26.5887
G01 X107.0265 Y26.5333
G01 X106.9737 Y26.4805
G01 X106.9183 Y26.4303
G01 X106.8605 Y26.3829
G01 X106.8004 Y26.3383
G01 X106.7505 Y26.3049
G00 Z2.0000
G00 X102.5567 Y23.7818
G01 F60.00
G01 Z-0.2001
G01 F320.00
G01 X102.1051 Y23.7818
G01 X102.1051 Y23.7649
G01 X102.5314 Y23.7649
G01 X102.5567 Y23.7818
G00 Z2.0000
G00 X101.4098 Y21.0901
G01 F60.00
G01 Z-0.2001
G01 F320.00
G01 X101.4708 Y21.0576
G01 X101.5129 Y21.0323
G01 X101.5750 Y20.9908
G01 X101.6144 Y20.9616
G01 X101.6722 Y20.9142
G01 X101.7086 Y20.8812
G01 X101.7614 Y20.8284
G01 X101.7944 Y20.7920
G01 X101.8418 Y20.7342
G01 X101.8710 Y20.6948
G01 X101.9125 Y20.6327
G01 X101.9378 Y20.5906
G01 X101.9730 Y20.5247
G01 X101.9940 Y20.4803
G01 X102.0226 Y20.4113
G01 X102.0391 Y20.3651
G01 X102.0608 Y20.2936
G01 X102.0727 Y20.2460
G01 X102.0873 Y20.1727
G01 X102.0945 Y20.1241
G01 X102.1018 Y20.0498
G01 X102.1042 Y20.0007
G01 X102.1051 Y19.9634
G01 X102.1051 Y5.5756
G01 X102.1136 Y5.5629
G01 X102.1220 Y5.5756
G01 X102.1220 Y17.4234
G01 X102.1230 Y17.4607
G01 X102.1254 Y17.5098
G01 X102.1327 Y17.5841
G01 X102.1399 Y17.6327
G01 X102.1545 Y17.7060
G01 X102.1664 Y17.7536
G01 X102.1881 Y17.8251
G01 X102.2046 Y17.8713
G01 X102.2332 Y17.9403
G01 X102.2542 Y17.9847
G01 X102.2894 Y18.0506
G01 X102.3147 Y18.0927
G01 X102.3562 Y18.1548
G01 X102.3854 Y18.1942
G01 X102.4328 Y18.2520
G01 X102.4658 Y18.2884
G01 X102.5186 Y18.3412
G01 X102.5550 Y18.3742
G01 X102.6127 Y18.4216
G01 X102.6522 Y18.4508
G01 X102.7143 Y18.4923
G01 X102.7564 Y18.5176
G01 X102.8223 Y18.5528
G01 X102.8667 Y18.5738
G01 X102.9357 Y18.6023
G01 X102.9819 Y18.6189
G01 X103.0534 Y18.6406
G01 X103.1010 Y18.6525
G01 X103.1743 Y18.6671
G01 X103.2228 Y18.6743
G01 X103.2972 Y18.6816
G01 X103.3462 Y18.6840
G01 X103.3836 Y18.6849
G01 X109.7420 Y18.6849
G01 X109.7420 Y24.1912
G01 X109.7336 Y24.2039
G01 X109.7086 Y24.1665
G01 X109.6641 Y24.1065
G01 X109.6167 Y24.0487
G01 X109.5665 Y23.9933
G01 X109.5137 Y23.9405
G01 X109.4583 Y23.8903
G01 X109.4005 Y23.8429
G01 X109.3404 Y23.7983
G01 X109.2783 Y23.7568
G01 X109.2142 Y23.7184
G01 X109.1483 Y23.6832
G01 X109.0807 Y23.6512
G01 X109.0117 Y23.6226
G01 X108.9413 Y23.5974
G01 X108.8698 Y23.5757
G01 X108.7972 Y23.5575
G01 X108.7240 Y23.5430
G01 X108.6500 Y23.5320
G01 X108.5756 Y23.5247
G01 X108.5009 Y23.5210
G01 X108.4262 Y23.5210
G01 X108.3515 Y23.5247
G01 X108.2772 Y23.5320
G01 X108.2032 Y23.5430
G01 X108.1299 Y23.5575
G01 X108.0574 Y23.5757
G01 X107.9859 Y23.5974
G01 X107.9155 Y23.6226
G01 X107.8465 Y23.6512
G01 X107.7789 Y23.6832
G01 X107.7130 Y23.7184
G01 X107.6489 Y23.7568
G01 X107.6114 Y23.7818
G01 X104.2105 Y23.7818
G01 X104.2604 Y23.7484
G01 X104.3205 Y23.7039
G01 X104.3783 Y23.6565
G01 X104.4337 Y23.6063
G01 X104.4865 Y23.5535
G01 X104.5367 Y23.4980
G01 X104.5841 Y23.4403
G01 X104.6286 Y23.3802
G01 X104.6702 Y23.3181
G01 X104.7086 Y23.2540
G01 X104.7438 Y23.1881
G01 X104.7758 Y23.1205
G01 X104.8044 Y23.0515
G01 X104.8296 Y22.9811
G01 X104.8513 Y22.9096
G01 X104.8694 Y22.8370
G01 X104.8840 Y22.7637
G01 X104.8950 Y22.6898
G01 X104.9023 Y22.6154
G01 X104.9060 Y22.5407
G01 X104.9060 Y22.4660
G01 X104.9023 Y22.3913
G01 X104.8950 Y22.3170
G01 X104.8840 Y22.2430
G01 X104.8694 Y22.1697
G01 X104.8513 Y22.0972
