(G-CODE GENERATED BY FLATCAM v8.991 - www.flatcam.org - Version Date: 2019/12/27)

(Name: 001_Display_iso1)
(Type: G-code from Geometry)
(Units: MM)

(Created on Sunday, 01 March 2020 at 13:26)

(TOOL DIAMETER: 0.331 mm)
(Feedrate: 320.0 mm/min)
(Feedrate_Z: 60.0 mm/min)
(Feedrate rapids 1500.0 mm/min)

(Z_Cut: -0.2001 mm)
(Z_Move: 2.0 mm)
(Z Toolchange: 15.0 mm)
(X,Y Toolchange: 0.0000, 0.0000 mm)
(Z Start: None mm)
(Z End: 15.0 mm)
(Steps per circle: 64)
(Preprocessor Geometry: default)

(X range:    3.6580 ...  147.4911  mm)
(Y range:    3.7961 ...   97.0907  mm)

(Spindle Speed: None RPM)
G21
G90
G94

M03 S3000


G01 F320.00
G00 Z2.0000

M03
G00 X11.5396 Y5.3686
G01 F60.00
G01 Z-0.2001
G01 F320.00
G01 X11.4937 Y5.3179
G01 X11.4834 Y5.3054
G01 X11.4388 Y5.2453
G01 X11.4298 Y5.2318
G01 X11.3914 Y5.1677
G01 X11.3837 Y5.1533
G01 X11.3517 Y5.0857
G01 X11.3455 Y5.0707
G01 X11.3203 Y5.0003
G01 X11.3156 Y4.9848
G01 X11.2974 Y4.9123
G01 X11.2943 Y4.8963
G01 X11.2833 Y4.8224
G01 X11.2817 Y4.8062
G01 X11.2780 Y4.7315
G01 X11.2780 Y4.7153
G01 X11.2817 Y4.6406
G01 X11.2833 Y4.6244
G01 X11.2943 Y4.5504
G01 X11.2974 Y4.5345
G01 X11.3156 Y4.4620
G01 X11.3203 Y4.4464
G01 X11.3455 Y4.3760
G01 X11.3517 Y4.3610
G01 X11.3837 Y4.2934
G01 X11.3914 Y4.2791
G01 X11.4298 Y4.2150
G01 X11.4388 Y4.2015
G01 X11.4834 Y4.1414
G01 X11.4937 Y4.1288
G01 X11.5439 Y4.0734
G01 X11.5554 Y4.0619
G01 X11.6108 Y4.0117
G01 X11.6233 Y4.0014
G01 X11.6834 Y3.9569
G01 X11.6969 Y3.9479
G01 X11.7611 Y3.9094
G01 X11.7754 Y3.9018
G01 X11.8430 Y3.8698
G01 X11.8580 Y3.8636
G01 X11.9284 Y3.8384
G01 X11.9439 Y3.8337
G01 X12.0165 Y3.8155
G01 X12.0324 Y3.8123
G01 X12.1064 Y3.8013
G01 X12.1225 Y3.7998
G01 X12.1972 Y3.7961
G01 X12.2135 Y3.7961
G01 X12.2881 Y3.7998
G01 X12.3043 Y3.8013
G01 X12.3783 Y3.8123
G01 X12.3942 Y3.8155
G01 X12.4667 Y3.8337
G01 X12.4823 Y3.8384
G01 X12.5527 Y3.8636
G01 X12.5677 Y3.8698
G01 X12.6353 Y3.9018
G01 X12.6496 Y3.9094
G01 X12.7138 Y3.9479
G01 X12.7273 Y3.9569
G01 X12.7873 Y4.0014
G01 X12.7999 Y4.0117
G01 X12.8553 Y4.0619
G01 X12.8668 Y4.0734
G01 X12.9170 Y4.1288
G01 X12.9273 Y4.1414
G01 X12.9718 Y4.2015
G01 X12.9809 Y4.2150
G01 X13.0193 Y4.2791
G01 X13.0270 Y4.2934
G01 X13.0589 Y4.3610
G01 X13.0652 Y4.3760
G01 X13.0904 Y4.4464
G01 X13.0951 Y4.4620
G01 X13.1132 Y4.5345
G01 X13.1164 Y4.5504
G01 X13.1274 Y4.6244
G01 X13.1290 Y4.6406
G01 X13.1326 Y4.7153
G01 X13.1326 Y4.7315
G01 X13.1290 Y4.8062
G01 X13.1274 Y4.8224
G01 X13.1164 Y4.8963
G01 X13.1132 Y4.9123
G01 X13.0951 Y4.9848
G01 X13.0904 Y5.0003
G01 X13.0652 Y5.0707
G01 X13.0589 Y5.0857
G01 X13.0270 Y5.1533
G01 X13.0193 Y5.1677
G01 X12.9809 Y5.2318
G01 X12.9718 Y5.2453
G01 X12.9273 Y5.3054
G01 X12.9170 Y5.3179
G01 X12.8711 Y5.3686
G01 X12.8711 Y24.3776
G01 X19.1801 Y24.3776
G01 X19.2308 Y24.3317
G01 X19.2433 Y24.3214
G01 X19.3034 Y24.2769
G01 X19.3169 Y24.2679
G01 X19.3811 Y24.2294
G01 X19.3954 Y24.2218
G01 X19.4630 Y24.1898
G01 X19.4780 Y24.1836
G01 X19.5484 Y24.1584
G01 X19.5639 Y24.1537
G01 X19.6365 Y24.1355
G01 X19.6524 Y24.1323
G01 X19.7264 Y24.1213
G01 X19.7425 Y24.1198
G01 X19.8172 Y24.1161
G01 X19.8335 Y24.1161
G01 X19.9081 Y24.1198
G01 X19.9243 Y24.1213
G01 X19.9983 Y24.1323
G01 X20.0142 Y24.1355
G01 X20.0867 Y24.1537
G01 X20.1023 Y24.1584
G01 X20.1727 Y24.1836
G01 X20.1877 Y24.1898
G01 X20.2553 Y24.2218
G01 X20.2696 Y24.2294
G01 X20.3338 Y24.2679
G01 X20.3473 Y24.2769
G01 X20.4073 Y24.3214
G01 X20.4199 Y24.3317
G01 X20.4753 Y24.3819
G01 X20.4868 Y24.3934
G01 X20.5370 Y24.4488
G01 X20.5473 Y24.4614
G01 X20.5918 Y24.5215
G01 X20.6009 Y24.5350
G01 X20.6393 Y24.5991
G01 X20.6470 Y24.6134
G01 X20.6789 Y24.6810
G01 X20.6852 Y24.6960
G01 X20.7104 Y24.7664
G01 X20.7151 Y24.7820
G01 X20.7332 Y24.8545
G01 X20.7364 Y24.8704
G01 X20.7474 Y24.9444
G01 X20.7490 Y24.9606
G01 X20.7526 Y25.0353
G01 X20.7526 Y25.0515
G01 X20.7490 Y25.1262
G01 X20.7474 Y25.1424
G01 X20.7364 Y25.2163
G01 X20.7332 Y25.2323
G01 X20.7151 Y25.3048
G01 X20.7104 Y25.3203
G01 X20.6852 Y25.3907
G01 X20.6789 Y25.4057
G01 X20.6470 Y25.4733
G01 X20.6393 Y25.4877
G01 X20.6009 Y25.5518
G01 X20.5918 Y25.5653
G01 X20.5473 Y25.6254
G01 X20.5370 Y25.6379
G01 X20.4868 Y25.6933
G01 X20.4753 Y25.7048
G01 X20.4199 Y25.7550
G01 X20.4073 Y25.7653
G01 X20.3473 Y25.8099
G01 X20.3338 Y25.8189
G01 X20.2696 Y25.8574
G01 X20.2553 Y25.8650
G01 X20.1877 Y25.8970
G01 X20.1727 Y25.9032
G01 X20.1023 Y25.9284
G01 X20.0867 Y25.9331
G01 X20.0142 Y25.9513
G01 X19.9983 Y25.9544
G01 X19.9243 Y25.9654
G01 X19.9081 Y25.9670
G01 X19.8335 Y25.9707
G01 X19.8172 Y25.9707
G01 X19.7425 Y25.9670
G01 X19.7264 Y25.9654
G01 X19.6524 Y25.9544
G01 X19.6365 Y25.9513
G01 X19.5639 Y25.9331
G01 X19.5484 Y25.9284
G01 X19.4780 Y25.9032
G01 X19.4630 Y25.8970
G01 X19.3954 Y25.8650
G01 X19.3811 Y25.8574
G01 X19.3169 Y25.8189
G01 X19.3034 Y25.8099
G01 X19.2433 Y25.7653
G01 X19.2308 Y25.7550
G01 X19.1801 Y25.7091
G01 X12.2053 Y25.7091
G01 X12.1482 Y25.7065
G01 X12.1320 Y25.7049
G01 X12.0835 Y25.6977
G01 X12.0675 Y25.6946
G01 X12.0199 Y25.6826
G01 X12.0044 Y25.6779
G01 X11.9581 Y25.6614
G01 X11.9431 Y25.6552
G01 X11.8988 Y25.6342
G01 X11.8844 Y25.6265
G01 X11.8423 Y25.6013
G01 X11.8288 Y25.5923
G01 X11.7894 Y25.5630
G01 X11.7768 Y25.5527
G01 X11.7405 Y25.5197
G01 X11.7290 Y25.5083
G01 X11.6960 Y25.4719
G01 X11.6857 Y25.4593
G01 X11.6565 Y25.4199
G01 X11.6474 Y25.4064
G01 X11.6222 Y25.3643
G01 X11.6146 Y25.3500
G01 X11.5936 Y25.3056
G01 X11.5873 Y25.2906
G01 X11.5708 Y25.2444
G01 X11.5661 Y25.2288
G01 X11.5542 Y25.1812
G01 X11.5510 Y25.1653
G01 X11.5438 Y25.1167
G01 X11.5422 Y25.1005
G01 X11.5396 Y25.0434
G01 X11.5396 Y5.3686
G00 Z2.0000
G00 X14.0796 Y5.3686
G01 F60.00
G01 Z-0.2001
G01 F320.00
G01 X14.0337 Y5.3179
G01 X14.0234 Y5.3054
G01 X13.9788 Y5.2453
G01 X13.9698 Y5.2318
G01 X13.9314 Y5.1677
G01 X13.9237 Y5.1533
G01 X13.8917 Y5.0857
G01 X13.8855 Y5.0707
G01 X13.8603 Y5.0003
G01 X13.8556 Y4.9848
G01 X13.8374 Y4.9123
G01 X13.8343 Y4.8963
G01 X13.8233 Y4.8224
G01 X13.8217 Y4.8062
G01 X13.8180 Y4.7315
G01 X13.8180 Y4.7153
G01 X13.8217 Y4.6406
G01 X13.8233 Y4.6244
G01 X13.8343 Y4.5504
G01 X13.8374 Y4.5345
G01 X13.8556 Y4.4620
G01 X13.8603 Y4.4464
G01 X13.8855 Y4.3760
G01 X13.8917 Y4.3610
G01 X13.9237 Y4.2934
G01 X13.9314 Y4.2791
G01 X13.9698 Y4.2150
G01 X13.9788 Y4.2015
G01 X14.0234 Y4.1414
G01 X14.0337 Y4.1288
G01 X14.0839 Y4.0734
G01 X14.0954 Y4.0619
G01 X14.1508 Y4.0117
G01 X14.1633 Y4.0014
G01 X14.2234 Y3.9569
G01 X14.2369 Y3.9479
G01 X14.3011 Y3.9094
G01 X14.3154 Y3.9018
G01 X14.3830 Y3.8698
G01 X14.3980 Y3.8636
G01 X14.4684 Y3.8384
G01 X14.4839 Y3.8337
G01 X14.5565 Y3.8155
G01 X14.5724 Y3.8123
G01 X14.6464 Y3.8013
G01 X14.6625 Y3.7998
G01 X14.7372 Y3.7961
G01 X14.7535 Y3.7961
G01 X14.8281 Y3.7998
G01 X14.8443 Y3.8013
G01 X14.9183 Y3.8123
G01 X14.9342 Y3.8155
G01 X15.0067 Y3.8337
G01 X15.0223 Y3.8384
G01 X15.0927 Y3.8636
G01 X15.1077 Y3.8698
G01 X15.1753 Y3.9018
G01 X15.1896 Y3.9094
G01 X15.2538 Y3.9479
G01 X15.2673 Y3.9569
G01 X15.3273 Y4.0014
G01 X15.3399 Y4.0117
G01 X15.3953 Y4.0619
G01 X15.4068 Y4.0734
G01 X15.4570 Y4.1288
G01 X15.4673 Y4.1414
G01 X15.5118 Y4.2015
G01 X15.5209 Y4.2150
G01 X15.5593 Y4.2791
G01 X15.5670 Y4.2934
G01 X15.5989 Y4.3610
G01 X15.6052 Y4.3760
G01 X15.6304 Y4.4464
G01 X15.6351 Y4.4620
G01 X15.6532 Y4.5345
G01 X15.6564 Y4.5504
G01 X15.6674 Y4.6244
G01 X15.6690 Y4.6406
G01 X15.6726 Y4.7153
G01 X15.6726 Y4.7315
G01 X15.6690 Y4.8062
G01 X15.6674 Y4.8224
G01 X15.6564 Y4.8963
G01 X15.6532 Y4.9123
G01 X15.6351 Y4.9848
G01 X15.6304 Y5.0003
G01 X15.6052 Y5.0707
G01 X15.5989 Y5.0857
G01 X15.5670 Y5.1533
G01 X15.5593 Y5.1677
G01 X15.5209 Y5.2318
G01 X15.5118 Y5.2453
G01 X15.4673 Y5.3054
G01 X15.4570 Y5.3179
G01 X15.4111 Y5.3686
G01 X15.4111 Y19.2976
G01 X19.1801 Y19.2976
G01 X19.2308 Y19.2517
G01 X19.2433 Y19.2414
G01 X19.3034 Y19.1969
G01 X19.3169 Y19.1879
G01 X19.3811 Y19.1494
G01 X19.3954 Y19.1418
G01 X19.4630 Y19.1098
G01 X19.4780 Y19.1036
G01 X19.5484 Y19.0784
G01 X19.5639 Y19.0737
G01 X19.6365 Y19.0555
G01 X19.6524 Y19.0523
G01 X19.7264 Y19.0413
G01 X19.7425 Y19.0398
G01 X19.8172 Y19.0361
G01 X19.8335 Y19.0361
G01 X19.9081 Y19.0398
G01 X19.9243 Y19.0413
G01 X19.9983 Y19.0523
G01 X20.0142 Y19.0555
G01 X20.0867 Y19.0737
G01 X20.1023 Y19.0784
G01 X20.1727 Y19.1036
G01 X20.1877 Y19.1098
G01 X20.2553 Y19.1418
G01 X20.2696 Y19.1494
G01 X20.3338 Y19.1879
G01 X20.3473 Y19.1969
G01 X20.4073 Y19.2414
G01 X20.4199 Y19.2517
G01 X20.4705 Y19.2976
G01 X32.5253 Y19.2976
G01 X32.5825 Y19.3002
G01 X32.5987 Y19.3018
G01 X32.6472 Y19.3090
G01 X32.6631 Y19.3122
G01 X32.7108 Y19.3241
G01 X32.7263 Y19.3289
G01 X32.7725 Y19.3454
G01 X32.7875 Y19.3516
G01 X32.8319 Y19.3726
G01 X32.8462 Y19.3803
G01 X32.8883 Y19.4055
G01 X32.9018 Y19.4145
G01 X32.9413 Y19.4438
G01 X32.9538 Y19.4541
G01 X32.9902 Y19.4870
G01 X33.0017 Y19.4985
G01 X33.0347 Y19.5349
G01 X33.0450 Y19.5474
G01 X33.0742 Y19.5869
G01 X33.0832 Y19.6004
G01 X33.1085 Y19.6425
G01 X33.1161 Y19.6568
G01 X33.1371 Y19.7012
G01 X33.1433 Y19.7162
G01 X33.1599 Y19.7624
G01 X33.1646 Y19.7780
G01 X33.1765 Y19.8256
G01 X33.1797 Y19.8415
G01 X33.1869 Y19.8901
G01 X33.1885 Y19.9062
G01 X33.1911 Y19.9634
G01 X33.1911 Y26.9382
G01 X33.2370 Y26.9888
G01 X33.2473 Y27.0014
G01 X33.2918 Y27.0615
G01 X33.3009 Y27.0750
G01 X33.3393 Y27.1391
G01 X33.3470 Y27.1534
G01 X33.3789 Y27.2210
G01 X33.3852 Y27.2360
G01 X33.4104 Y27.3064
G01 X33.4151 Y27.3220
G01 X33.4332 Y27.3945
G01 X33.4364 Y27.4104
G01 X33.4474 Y27.4844
G01 X33.4490 Y27.5006
G01 X33.4526 Y27.5753
G01 X33.4526 Y27.5915
G01 X33.4490 Y27.6662
G01 X33.4474 Y27.6824
G01 X33.4364 Y27.7563
G01 X33.4332 Y27.7723
G01 X33.4151 Y27.8448
G01 X33.4104 Y27.8603
G01 X33.3852 Y27.9307
G01 X33.3789 Y27.9457
G01 X33.3470 Y28.0133
G01 X33.3393 Y28.0277
G01 X33.3009 Y28.0918
G01 X33.2918 Y28.1053
G01 X33.2473 Y28.1654
G01 X33.2370 Y28.1779
G01 X33.1868 Y28.2333
G01 X33.1753 Y28.2448
G01 X33.1199 Y28.2950
G01 X33.1073 Y28.3053
G01 X33.0473 Y28.3499
G01 X33.0338 Y28.3589
G01 X32.9696 Y28.3974
G01 X32.9553 Y28.4050
G01 X32.8877 Y28.4370
G01 X32.8727 Y28.4432
G01 X32.8023 Y28.4684
G01 X32.7867 Y28.4731
G01 X32.7142 Y28.4913
G01 X32.6983 Y28.4944
G01 X32.6243 Y28.5054
G01 X32.6081 Y28.5070
G01 X32.5335 Y28.5107
G01 X32.5172 Y28.5107
G01 X32.4425 Y28.5070
G01 X32.4264 Y28.5054
G01 X32.3524 Y28.4944
G01 X32.3365 Y28.4913
G01 X32.2639 Y28.4731
G01 X32.2484 Y28.4684
G01 X32.1780 Y28.4432
G01 X32.1630 Y28.4370
G01 X32.0954 Y28.4050
G01 X32.0811 Y28.3974
G01 X32.0169 Y28.3589
G01 X32.0034 Y28.3499
G01 X31.9433 Y28.3053
G01 X31.9308 Y28.2950
G01 X31.8754 Y28.2448
G01 X31.8639 Y28.2333
G01 X31.8137 Y28.1779
G01 X31.8034 Y28.1654
G01 X31.7588 Y28.1053
G01 X31.7498 Y28.0918
G01 X31.7114 Y28.0277
G01 X31.7037 Y28.0133
G01 X31.6717 Y27.9457
G01 X31.6655 Y27.9307
G01 X31.6403 Y27.8603
G01 X31.6356 Y27.8448
G01 X31.6174 Y27.7723
G01 X31.6143 Y27.7563
G01 X31.6033 Y27.6824
G01 X31.6017 Y27.6662
G01 X31.5980 Y27.5915
G01 X31.5980 Y27.5753
G01 X31.6017 Y27.5006
G01 X31.6033 Y27.4844
G01 X31.6143 Y27.4104
G01 X31.6174 Y27.3945
G01 X31.6356 Y27.3220
G01 X31.6403 Y27.3064
G01 X31.6655 Y27.2360
G01 X31.6717 Y27.2210
G01 X31.7037 Y27.1534
G01 X31.7114 Y27.1391
G01 X31.7498 Y27.0750
G01 X31.7588 Y27.0615
G01 X31.8034 Y27.0014
G01 X31.8137 Y26.9888
G01 X31.8596 Y26.9382
G01 X31.8596 Y20.6291
G01 X20.4705 Y20.6291
G01 X20.4199 Y20.6750
G01 X20.4073 Y20.6853
G01 X20.3473 Y20.7299
G01 X20.3338 Y20.7389
G01 X20.2696 Y20.7774
G01 X20.2553 Y20.7850
G01 X20.1877 Y20.8170
G01 X20.1727 Y20.8232
G01 X20.1023 Y20.8484
G01 X20.0867 Y20.8531
G01 X20.0142 Y20.8713
G01 X19.9983 Y20.8744
G01 X19.9243 Y20.8854
G01 X19.9081 Y20.8870
G01 X19.8335 Y20.8907
G01 X19.8172 Y20.8907
G01 X19.7425 Y20.8870
G01 X19.7264 Y20.8854
G01 X19.6524 Y20.8744
G01 X19.6365 Y20.8713
G01 X19.5639 Y20.8531
G01 X19.5484 Y20.8484
G01 X19.4780 Y20.8232
G01 X19.4630 Y20.8170
G01 X19.3954 Y20.7850
G01 X19.3811 Y20.7774
G01 X19.3169 Y20.7389
G01 X19.3034 Y20.7299
G01 X19.2433 Y20.6853
G01 X19.2308 Y20.6750
G01 X19.1801 Y20.6291
G01 X14.7372 Y20.6289
G01 X14.6882 Y20.6265
G01 X14.6720 Y20.6249
G01 X14.6235 Y20.6177
G01 X14.6075 Y20.6146
G01 X14.5599 Y20.6026
G01 X14.5444 Y20.5979
G01 X14.4981 Y20.5814
G01 X14.4831 Y20.5752
G01 X14.4388 Y20.5542
G01 X14.4244 Y20.5465
G01 X14.3823 Y20.5213
G01 X14.3688 Y20.5123
G01 X14.3294 Y20.4830
G01 X14.3168 Y20.4727
G01 X14.2805 Y20.4397
G01 X14.2690 Y20.4283
G01 X14.2360 Y20.3919
G01 X14.2257 Y20.3793
G01 X14.1965 Y20.3399
G01 X14.1874 Y20.3264
G01 X14.1622 Y20.2843
G01 X14.1546 Y20.2700
G01 X14.1336 Y20.2256
G01 X14.1273 Y20.2106
G01 X14.1108 Y20.1644
G01 X14.1061 Y20.1488
G01 X14.0942 Y20.1012
G01 X14.0910 Y20.0853
G01 X14.0838 Y20.0367
G01 X14.0822 Y20.0205
G01 X14.0796 Y19.9634
G01 X14.0796 Y5.3686
G00 Z2.0000
G00 X25.2800 Y9.8115
G01 F60.00
G01 Z-0.2001
G01 F320.00
G01 X25.2800 Y9.7953
G01 X25.2897 Y9.5992
G01 X25.2913 Y9.5831
G01 X25.3201 Y9.3889
G01 X25.3232 Y9.3730
G01 X25.3709 Y9.1826
G01 X25.3756 Y9.1671
G01 X25.4418 Y8.9823
G01 X25.4480 Y8.9673
G01 X25.5319 Y8.7898
G01 X25.5395 Y8.7755
G01 X25.6405 Y8.6072
G01 X25.6495 Y8.5937
G01 X25.7664 Y8.4360
G01 X25.7767 Y8.4235
G01 X25.9085 Y8.2780
G01 X25.9200 Y8.2665
G01 X26.0654 Y8.1347
G01 X26.0780 Y8.1244
G01 X26.2356 Y8.0075
G01 X26.2491 Y7.9985
G01 X26.4175 Y7.8976
G01 X26.4318 Y7.8899
G01 X26.6092 Y7.8060
G01 X26.6242 Y7.7998
G01 X26.8090 Y7.7337
G01 X26.8246 Y7.7290
G01 X27.0149 Y7.6813
G01 X27.0309 Y7.6781
G01 X27.2250 Y7.6493
G01 X27.2412 Y7.6477
G01 X27.4372 Y7.6381
G01 X27.4535 Y7.6381
G01 X27.6495 Y7.6477
G01 X27.6657 Y7.6493
G01 X27.8598 Y7.6781
G01 X27.8757 Y7.6813
G01 X28.0661 Y7.7290
G01 X28.0817 Y7.7337
G01 X28.2665 Y7.7998
G01 X28.2815 Y7.8060
G01 X28.4589 Y7.8899
G01 X28.4732 Y7.8976
G01 X28.6416 Y7.9985
G01 X28.6551 Y8.0075
G01 X28.8127 Y8.1244
G01 X28.8253 Y8.1347
G01 X28.9707 Y8.2665
G01 X28.9822 Y8.2780
G01 X29.1140 Y8.4235
G01 X29.1243 Y8.4360
G01 X29.2412 Y8.5937
G01 X29.2502 Y8.6072
G01 X29.3511 Y8.7755
G01 X29.3588 Y8.7898
G01 X29.4427 Y8.9673
G01 X29.4489 Y8.9823
G01 X29.5150 Y9.1671
G01 X29.5198 Y9.1826
G01 X29.5674 Y9.3730
G01 X29.5706 Y9.3889
G01 X29.5994 Y9.5831
G01 X29.6010 Y9.5992
G01 X29.6106 Y9.7953
G01 X29.6106 Y9.8115
G01 X29.6010 Y10.0075
G01 X29.5994 Y10.0237
G01 X29.5706 Y10.2178
G01 X29.5674 Y10.2338
G01 X29.5198 Y10.4242
G01 X29.5150 Y10.4397
G01 X29.4489 Y10.6245
G01 X29.4427 Y10.6395
G01 X29.3588 Y10.8169
G01 X29.3511 Y10.8313
G01 X29.2502 Y10.9996
G01 X29.2412 Y11.0131
G01 X29.1243 Y11.1708
G01 X29.1140 Y11.1833
G01 X28.9822 Y11.3287
G01 X28.9707 Y11.3402
G01 X28.8253 Y11.4720
G01 X28.8127 Y11.4823
G01 X28.6551 Y11.5992
G01 X28.6416 Y11.6083
G01 X28.4732 Y11.7092
G01 X28.4589 Y11.7168
G01 X28.2815 Y11.8007
G01 X28.2665 Y11.8070
G01 X28.0817 Y11.8731
G01 X28.0661 Y11.8778
G01 X27.8757 Y11.9255
G01 X27.8598 Y11.9287
G01 X27.6657 Y11.9575
G01 X27.6495 Y11.9590
G01 X27.4535 Y11.9687
G01 X27.4372 Y11.9687
G01 X27.2412 Y11.9590
G01 X27.2250 Y11.9575
G01 X27.0309 Y11.9287
G01 X27.0149 Y11.9255
G01 X26.8246 Y11.8778
G01 X26.8090 Y11.8731
G01 X26.6242 Y11.8070
G01 X26.6092 Y11.8007
G01 X26.4318 Y11.7168
G01 X26.4175 Y11.7092
G01 X26.2491 Y11.6083
G01 X26.2356 Y11.5992
G01 X26.0780 Y11.4823
G01 X26.0654 Y11.4720
G01 X25.9200 Y11.3402
G01 X25.9085 Y11.3287
G01 X25.7767 Y11.1833
G01 X25.7664 Y11.1708
G01 X25.6495 Y11.0131
G01 X25.6405 Y10.9996
G01 X25.5395 Y10.8313
G01 X25.5319 Y10.8169
G01 X25.4480 Y10.6395
G01 X25.4418 Y10.6245
G01 X25.3756 Y10.4397
G01 X25.3709 Y10.4242
G01 X25.3232 Y10.2338
G01 X25.3201 Y10.2178
G01 X25.2913 Y10.0237
G01 X25.2897 Y10.0075
G01 X25.2800 Y9.8115
G00 Z2.0000
G00 X34.3996 Y20.6086
G01 F60.00
G01 Z-0.2001
G01 F320.00
G01 X34.3537 Y20.5579
G01 X34.3434 Y20.5454
G01 X34.2988 Y20.4853
G01 X34.2898 Y20.4718
G01 X34.2514 Y20.4077
G01 X34.2437 Y20.3933
G01 X34.2117 Y20.3257
G01 X34.2055 Y20.3107
G01 X34.1803 Y20.2403
G01 X34.1756 Y20.2248
G01 X34.1574 Y20.1523
G01 X34.1543 Y20.1363
G01 X34.1433 Y20.0624
G01 X34.1417 Y20.0462
G01 X34.1380 Y19.9715
G01 X34.1380 Y19.9553
G01 X34.1417 Y19.8806
G01 X34.1433 Y19.8644
G01 X34.1543 Y19.7904
G01 X34.1574 Y19.7745
G01 X34.1756 Y19.7020
G01 X34.1803 Y19.6864
G01 X34.2055 Y19.6160
G01 X34.2117 Y19.6010
G01 X34.2437 Y19.5334
G01 X34.2514 Y19.5191
G01 X34.2898 Y19.4550
G01 X34.2988 Y19.4415
G01 X34.3434 Y19.3814
G01 X34.3537 Y19.3688
G01 X34.4039 Y19.3134
G01 X34.4154 Y19.3019
G01 X34.4708 Y19.2517
G01 X34.4833 Y19.2414
G01 X34.5434 Y19.1969
G01 X34.5569 Y19.1879
G01 X34.6211 Y19.1494
G01 X34.6354 Y19.1418
G01 X34.7030 Y19.1098
G01 X34.7180 Y19.1036
G01 X34.7884 Y19.0784
G01 X34.8039 Y19.0737
G01 X34.8765 Y19.0555
G01 X34.8924 Y19.0523
G01 X34.9664 Y19.0413
G01 X34.9825 Y19.0398
G01 X35.0572 Y19.0361
G01 X35.0735 Y19.0361
G01 X35.1481 Y19.0398
G01 X35.1643 Y19.0413
G01 X35.2383 Y19.0523
G01 X35.2542 Y19.0555
G01 X35.3267 Y19.0737
G01 X35.3423 Y19.0784
G01 X35.4127 Y19.1036
G01 X35.4277 Y19.1098
G01 X35.4953 Y19.1418
G01 X35.5096 Y19.1494
G01 X35.5738 Y19.1879
G01 X35.5873 Y19.1969
G01 X35.6473 Y19.2414
G01 X35.6599 Y19.2517
G01 X35.7153 Y19.3019
G01 X35.7268 Y19.3134
G01 X35.7770 Y19.3688
G01 X35.7873 Y19.3814
G01 X35.8318 Y19.4415
G01 X35.8409 Y19.4550
G01 X35.8793 Y19.5191
G01 X35.8870 Y19.5334
G01 X35.9189 Y19.6010
G01 X35.9252 Y19.6160
G01 X35.9504 Y19.6864
G01 X35.9551 Y19.7020
G01 X35.9732 Y19.7745
G01 X35.9764 Y19.7904
G01 X35.9874 Y19.8644
G01 X35.9890 Y19.8806
G01 X35.9926 Y19.9553
G01 X35.9926 Y19.9715
G01 X35.9890 Y20.0462
G01 X35.9874 Y20.0624
G01 X35.9764 Y20.1363
G01 X35.9732 Y20.1523
G01 X35.9551 Y20.2248
G01 X35.9504 Y20.2403
G01 X35.9252 Y20.3107
G01 X35.9189 Y20.3257
G01 X35.8870 Y20.3933
G01 X35.8793 Y20.4077
G01 X35.8409 Y20.4718
G01 X35.8318 Y20.4853
G01 X35.7873 Y20.5454
G01 X35.7770 Y20.5579
G01 X35.7311 Y20.6086
G01 X35.7311 Y24.3776
G01 X38.9638 Y24.3776
G01 X38.9638 Y24.2814
G01 X38.9646 Y24.2652
G01 X38.9670 Y24.2491
G01 X38.9710 Y24.2333
G01 X38.9764 Y24.2181
G01 X38.9834 Y24.2034
G01 X38.9917 Y24.1894
G01 X39.0014 Y24.1764
G01 X39.0123 Y24.1644
G01 X39.0243 Y24.1535
G01 X39.0374 Y24.1438
G01 X39.0513 Y24.1354
G01 X39.0660 Y24.1285
G01 X39.0813 Y24.1230
G01 X39.0971 Y24.1191
G01 X39.1131 Y24.1167
G01 X39.1293 Y24.1159
G01 X41.1613 Y24.1159
G01 X41.1776 Y24.1167
G01 X41.1936 Y24.1191
G01 X41.2094 Y24.1230
G01 X41.2247 Y24.1285
G01 X41.2394 Y24.1354
G01 X41.2533 Y24.1438
G01 X41.2663 Y24.1535
G01 X41.2784 Y24.1644
G01 X41.2893 Y24.1764
G01 X41.2989 Y24.1894
G01 X41.3073 Y24.2034
G01 X41.3142 Y24.2181
G01 X41.3197 Y24.2333
G01 X41.3237 Y24.2491
G01 X41.3260 Y24.2652
G01 X41.3268 Y24.2814
G01 X41.3268 Y25.8054
G01 X41.3260 Y25.8216
G01 X41.3237 Y25.8377
G01 X41.3197 Y25.8534
G01 X41.3142 Y25.8687
G01 X41.3073 Y25.8834
G01 X41.2989 Y25.8973
G01 X41.2893 Y25.9104
G01 X41.2784 Y25.9224
G01 X41.2663 Y25.9333
G01 X41.2533 Y25.9430
G01 X41.2394 Y25.9513
G01 X41.2247 Y25.9583
G01 X41.2094 Y25.9638
G01 X41.1936 Y25.9677
G01 X41.1776 Y25.9701
G01 X41.1613 Y25.9709
G01 X39.1293 Y25.9709
G01 X39.1131 Y25.9701
G01 X39.0971 Y25.9677
G01 X39.0813 Y25.9638
G01 X39.0660 Y25.9583
G01 X39.0513 Y25.9513
G01 X39.0374 Y25.9430
G01 X39.0243 Y25.9333
G01 X39.0123 Y25.9224
G01 X39.0014 Y25.9104
G01 X38.9917 Y25.8973
G01 X38.9834 Y25.8834
G01 X38.9764 Y25.8687
G01 X38.9710 Y25.8534
G01 X38.9670 Y25.8377
G01 X38.9646 Y25.8216
G01 X38.9638 Y25.8054
G01 X38.9638 Y25.7091
G01 X35.0572 Y25.7089
G01 X35.0082 Y25.7065
G01 X34.9920 Y25.7049
G01 X34.9435 Y25.6977
G01 X34.9275 Y25.6946
G01 X34.8799 Y25.6826
G01 X34.8644 Y25.6779
G01 X34.8181 Y25.6614
G01 X34.8031 Y25.6552
G01 X34.7588 Y25.6342
G01 X34.7444 Y25.6265
G01 X34.7023 Y25.6013
G01 X34.6888 Y25.5923
G01 X34.6494 Y25.5630
G01 X34.6368 Y25.5527
G01 X34.6005 Y25.5197
G01 X34.5890 Y25.5083
G01 X34.5560 Y25.4719
G01 X34.5457 Y25.4593
G01 X34.5165 Y25.4199
G01 X34.5074 Y25.4064
G01 X34.4822 Y25.3643
G01 X34.4746 Y25.3500
G01 X34.4536 Y25.3056
G01 X34.4473 Y25.2906
G01 X34.4308 Y25.2444
G01 X34.4261 Y25.2288
G01 X34.4142 Y25.1812
G01 X34.4110 Y25.1653
G01 X34.4038 Y25.1167
G01 X34.4022 Y25.1005
G01 X34.3996 Y25.0434
G01 X34.3996 Y20.6086
G00 Z2.0000
G00 X44.5596 Y20.6086
G01 F60.00
G01 Z-0.2001
G01 F320.00
G01 X44.5137 Y20.5579
G01 X44.5034 Y20.5454
G01 X44.4588 Y20.4853
G01 X44.4498 Y20.4718
G01 X44.4114 Y20.4077
G01 X44.4037 Y20.3933
G01 X44.3717 Y20.3257
G01 X44.3655 Y20.3107
G01 X44.3403 Y20.2403
G01 X44.3356 Y20.2248
G01 X44.3174 Y20.1523
G01 X44.3143 Y20.1363
G01 X44.3033 Y20.0624
G01 X44.3017 Y20.0462
G01 X44.2980 Y19.9715
G01 X44.2980 Y19.9553
G01 X44.3017 Y19.8806
G01 X44.3033 Y19.8644
G01 X44.3143 Y19.7904
G01 X44.3174 Y19.7745
G01 X44.3356 Y19.7020
G01 X44.3403 Y19.6864
G01 X44.3655 Y19.6160
G01 X44.3717 Y19.6010
G01 X44.4037 Y19.5334
G01 X44.4114 Y19.5191
G01 X44.4498 Y19.4550
G01 X44.4588 Y19.4415
G01 X44.5034 Y19.3814
G01 X44.5137 Y19.3688
G01 X44.5639 Y19.3134
G01 X44.5754 Y19.3019
G01 X44.6308 Y19.2517
G01 X44.6433 Y19.2414
G01 X44.7034 Y19.1969
G01 X44.7169 Y19.1879
G01 X44.7811 Y19.1494
G01 X44.7954 Y19.1418
G01 X44.8630 Y19.1098
G01 X44.8780 Y19.1036
G01 X44.9484 Y19.0784
G01 X44.9639 Y19.0737
G01 X45.0365 Y19.0555
G01 X45.0524 Y19.0523
G01 X45.1264 Y19.0413
G01 X45.1425 Y19.0398
G01 X45.2172 Y19.0361
G01 X45.2335 Y19.0361
G01 X45.3081 Y19.0398
G01 X45.3243 Y19.0413
G01 X45.3983 Y19.0523
G01 X45.4142 Y19.0555
G01 X45.4867 Y19.0737
G01 X45.5023 Y19.0784
G01 X45.5727 Y19.1036
G01 X45.5877 Y19.1098
G01 X45.6553 Y19.1418
G01 X45.6696 Y19.1494
G01 X45.7338 Y19.1879
G01 X45.7473 Y19.1969
G01 X45.8073 Y19.2414
G01 X45.8199 Y19.2517
G01 X45.8753 Y19.3019
G01 X45.8868 Y19.3134
G01 X45.9370 Y19.3688
G01 X45.9473 Y19.3814
G01 X45.9918 Y19.4415
G01 X46.0009 Y19.4550
G01 X46.0393 Y19.5191
G01 X46.0470 Y19.5334
G01 X46.0789 Y19.6010
G01 X46.0852 Y19.6160
G01 X46.1104 Y19.6864
G01 X46.1151 Y19.7020
G01 X46.1332 Y19.7745
G01 X46.1364 Y19.7904
G01 X46.1474 Y19.8644
G01 X46.1490 Y19.8806
G01 X46.1526 Y19.9553
G01 X46.1526 Y19.9715
G01 X46.1490 Y20.0462
G01 X46.1474 Y20.0624
G01 X46.1364 Y20.1363
G01 X46.1332 Y20.1523
G01 X46.1151 Y20.2248
G01 X46.1104 Y20.2403
G01 X46.0852 Y20.3107
G01 X46.0789 Y20.3257
G01 X46.0470 Y20.3933
G01 X46.0393 Y20.4077
G01 X46.0009 Y20.4718
G01 X45.9918 Y20.4853
G01 X45.9473 Y20.5454
G01 X45.9370 Y20.5579
G01 X45.8911 Y20.6086
G01 X45.8911 Y24.3776
G01 X49.1238 Y24.3776
G01 X49.1238 Y24.2814
G01 X49.1246 Y24.2652
G01 X49.1270 Y24.2491
G01 X49.1310 Y24.2333
G01 X49.1364 Y24.2181
G01 X49.1434 Y24.2034
G01 X49.1517 Y24.1894
G01 X49.1614 Y24.1764
G01 X49.1723 Y24.1644
G01 X49.1843 Y24.1535
G01 X49.1974 Y24.1438
G01 X49.2113 Y24.1354
G01 X49.2260 Y24.1285
G01 X49.2413 Y24.1230
G01 X49.2571 Y24.1191
G01 X49.2731 Y24.1167
G01 X49.2893 Y24.1159
G01 X51.3213 Y24.1159
G01 X51.3376 Y24.1167
G01 X51.3536 Y24.1191
G01 X51.3694 Y24.1230
G01 X51.3847 Y24.1285
G01 X51.3994 Y24.1354
G01 X51.4133 Y24.1438
G01 X51.4263 Y24.1535
G01 X51.4384 Y24.1644
G01 X51.4493 Y24.1764
G01 X51.4589 Y24.1894
G01 X51.4673 Y24.2034
G01 X51.4742 Y24.2181
G01 X51.4797 Y24.2333
G01 X51.4837 Y24.2491
G01 X51.4860 Y24.2652
G01 X51.4868 Y24.2814
G01 X51.4868 Y25.8054
G01 X51.4860 Y25.8216
G01 X51.4837 Y25.8377
G01 X51.4797 Y25.8534
G01 X51.4742 Y25.8687
G01 X51.4673 Y25.8834
G01 X51.4589 Y25.8973
G01 X51.4493 Y25.9104
G01 X51.4384 Y25.9224
G01 X51.4263 Y25.9333
G01 X51.4133 Y25.9430
G01 X51.3994 Y25.9513
G01 X51.3847 Y25.9583
G01 X51.3694 Y25.9638
G01 X51.3536 Y25.9677
G01 X51.3376 Y25.9701
G01 X51.3213 Y25.9709
G01 X49.2893 Y25.9709
G01 X49.2731 Y25.9701
G01 X49.2571 Y25.9677
G01 X49.2413 Y25.9638
G01 X49.2260 Y25.9583
G01 X49.2113 Y25.9513
G01 X49.1974 Y25.9430
G01 X49.1843 Y25.9333
G01 X49.1723 Y25.9224
G01 X49.1614 Y25.9104
G01 X49.1517 Y25.8973
G01 X49.1434 Y25.8834
G01 X49.1364 Y25.8687
G01 X49.1310 Y25.8534
G01 X49.1270 Y25.8377
G01 X49.1246 Y25.8216
G01 X49.1238 Y25.8054
G01 X49.1238 Y25.7091
G01 X45.2172 Y25.7089
G01 X45.1682 Y25.7065
G01 X45.1520 Y25.7049
G01 X45.1035 Y25.6977
G01 X45.0875 Y25.6946
G01 X45.0399 Y25.6826
G01 X45.0244 Y25.6779
G01 X44.9781 Y25.6614
G01 X44.9631 Y25.6552
G01 X44.9188 Y25.6342
G01 X44.9044 Y25.6265
G01 X44.8623 Y25.6013
G01 X44.8488 Y25.5923
G01 X44.8094 Y25.5630
G01 X44.7968 Y25.5527
G01 X44.7605 Y25.5197
G01 X44.7490 Y25.5083
G01 X44.7160 Y25.4719
G01 X44.7057 Y25.4593
G01 X44.6765 Y25.4199
G01 X44.6674 Y25.4064
G01 X44.6422 Y25.3643
G01 X44.6346 Y25.3500
G01 X44.6136 Y25.3056
G01 X44.6073 Y25.2906
G01 X44.5908 Y25.2444
G01 X44.5861 Y25.2288
G01 X44.5742 Y25.1812
G01 X44.5710 Y25.1653
G01 X44.5638 Y25.1167
G01 X44.5622 Y25.1005
G01 X44.5596 Y25.0434
G01 X44.5596 Y20.6086
G00 Z2.0000
G00 X54.7196 Y20.6086
G01 F60.00
G01 Z-0.2001
G01 F320.00
G01 X54.6737 Y20.5579
G01 X54.6634 Y20.5454
G01 X54.6188 Y20.4853
G01 X54.6098 Y20.4718
G01 X54.5714 Y20.4077
G01 X54.5637 Y20.3933
G01 X54.5317 Y20.3257
G01 X54.5255 Y20.3107
G01 X54.5003 Y20.2403
G01 X54.4956 Y20.2248
G01 X54.4774 Y20.1523
G01 X54.4743 Y20.1363
G01 X54.4633 Y20.0624
G01 X54.4617 Y20.0462
G01 X54.4580 Y19.9715
G01 X54.4580 Y19.9553
G01 X54.4617 Y19.8806
G01 X54.4633 Y19.8644
G01 X54.4743 Y19.7904
G01 X54.4774 Y19.7745
G01 X54.4956 Y19.7020
G01 X54.5003 Y19.6864
G01 X54.5255 Y19.6160
G01 X54.5317 Y19.6010
G01 X54.5637 Y19.5334
G01 X54.5714 Y19.5191
G01 X54.6098 Y19.4550
G01 X54.6188 Y19.4415
G01 X54.6634 Y19.3814
G01 X54.6737 Y19.3688
G01 X54.7239 Y19.3134
G01 X54.7354 Y19.3019
G01 X54.7908 Y19.2517
G01 X54.8033 Y19.2414
G01 X54.8634 Y19.1969
G01 X54.8769 Y19.1879
G01 X54.9411 Y19.1494
G01 X54.9554 Y19.1418
G01 X55.0230 Y19.1098
G01 X55.0380 Y19.1036
G01 X55.1084 Y19.0784
G01 X55.1239 Y19.0737
G01 X55.1965 Y19.0555
G01 X55.2124 Y19.0523
G01 X55.2864 Y19.0413
G01 X55.3025 Y19.0398
G01 X55.3772 Y19.0361
G01 X55.3935 Y19.0361
G01 X55.4681 Y19.0398
G01 X55.4843 Y19.0413
G01 X55.5583 Y19.0523
G01 X55.5742 Y19.0555
G01 X55.6467 Y19.0737
G01 X55.6623 Y19.0784
G01 X55.7327 Y19.1036
G01 X55.7477 Y19.1098
G01 X55.8153 Y19.1418
G01 X55.8296 Y19.1494
G01 X55.8938 Y19.1879
G01 X55.9073 Y19.1969
G01 X55.9673 Y19.2414
G01 X55.9799 Y19.2517
G01 X56.0353 Y19.3019
G01 X56.0468 Y19.3134
G01 X56.0970 Y19.3688
G01 X56.1073 Y19.3814
G01 X56.1518 Y19.4415
G01 X56.1609 Y19.4550
G01 X56.1993 Y19.5191
G01 X56.2070 Y19.5334
G01 X56.2389 Y19.6010
G01 X56.2452 Y19.6160
G01 X56.2704 Y19.6864
G01 X56.2751 Y19.7020
G01 X56.2932 Y19.7745
G01 X56.2964 Y19.7904
G01 X56.3074 Y19.8644
G01 X56.3090 Y19.8806
G01 X56.3126 Y19.9553
G01 X56.3126 Y19.9715
G01 X56.3090 Y20.0462
G01 X56.3074 Y20.0624
G01 X56.2964 Y20.1363
G01 X56.2932 Y20.1523
G01 X56.2751 Y20.2248
G01 X56.2704 Y20.2403
G01 X56.2452 Y20.3107
G01 X56.2389 Y20.3257
G01 X56.2070 Y20.3933
G01 X56.1993 Y20.4077
G01 X56.1609 Y20.4718
G01 X56.1518 Y20.4853
G01 X56.1073 Y20.5454
G01 X56.0970 Y20.5579
G01 X56.0511 Y20.6086
G01 X56.0511 Y24.3776
G01 X59.2838 Y24.3776
G01 X59.2838 Y24.2814
G01 X59.2846 Y24.2652
G01 X59.2870 Y24.2491
G01 X59.2910 Y24.2333
G01 X59.2964 Y24.2181
G01 X59.3034 Y24.2034
G01 X59.3117 Y24.1894
G01 X59.3214 Y24.1764
G01 X59.3323 Y24.1644
G01 X59.3443 Y24.1535
G01 X59.3574 Y24.1438
G01 X59.3713 Y24.1354
G01 X59.3860 Y24.1285
G01 X59.4013 Y24.1230
G01 X59.4171 Y24.1191
G01 X59.4331 Y24.1167
G01 X59.4493 Y24.1159
G01 X61.4813 Y24.1159
G01 X61.4976 Y24.1167
G01 X61.5136 Y24.1191
G01 X61.5294 Y24.1230
G01 X61.5447 Y24.1285
G01 X61.5594 Y24.1354
G01 X61.5733 Y24.1438
G01 X61.5863 Y24.1535
G01 X61.5984 Y24.1644
G01 X61.6093 Y24.1764
G01 X61.6189 Y24.1894
G01 X61.6273 Y24.2034
G01 X61.6342 Y24.2181
G01 X61.6397 Y24.2333
G01 X61.6437 Y24.2491
G01 X61.6460 Y24.2652
G01 X61.6468 Y24.2814
G01 X61.6468 Y25.8054
G01 X61.6460 Y25.8216
G01 X61.6437 Y25.8377
G01 X61.6397 Y25.8534
G01 X61.6342 Y25.8687
G01 X61.6273 Y25.8834
G01 X61.6189 Y25.8973
G01 X61.6093 Y25.9104
G01 X61.5984 Y25.9224
G01 X61.5863 Y25.9333
G01 X61.5733 Y25.9430
G01 X61.5594 Y25.9513
G01 X61.5447 Y25.9583
G01 X61.5294 Y25.9638
G01 X61.5136 Y25.9677
G01 X61.4976 Y25.9701
G01 X61.4813 Y25.9709
G01 X59.4493 Y25.9709
G01 X59.4331 Y25.9701
G01 X59.4171 Y25.9677
G01 X59.4013 Y25.9638
G01 X59.3860 Y25.9583
G01 X59.3713 Y25.9513
G01 X59.3574 Y25.9430
G01 X59.3443 Y25.9333
G01 X59.3323 Y25.9224
G01 X59.3214 Y25.9104
G01 X59.3117 Y25.8973
G01 X59.3034 Y25.8834
G01 X59.2964 Y25.8687
G01 X59.2910 Y25.8534
G01 X59.2870 Y25.8377
G01 X59.2846 Y25.8216
G01 X59.2838 Y25.8054
G01 X59.2838 Y25.7091
G01 X55.3772 Y25.7089
G01 X55.3282 Y25.7065
G01 X55.3120 Y25.7049
G01 X55.2635 Y25.6977
G01 X55.2475 Y25.6946
G01 X55.1999 Y25.6826
G01 X55.1844 Y25.6779
G01 X55.1381 Y25.6614
G01 X55.1231 Y25.6552
G01 X55.0788 Y25.6342
G01 X55.0644 Y25.6265
G01 X55.0223 Y25.6013
G01 X55.0088 Y25.5923
G01 X54.9694 Y25.5630
G01 X54.9568 Y25.5527
G01 X54.9205 Y25.5197
G01 X54.9090 Y25.5083
G01 X54.8760 Y25.4719
G01 X54.8657 Y25.4593
G01 X54.8365 Y25.4199
G01 X54.8274 Y25.4064
G01 X54.8022 Y25.3643
G01 X54.7946 Y25.3500
G01 X54.7736 Y25.3056
G01 X54.7673 Y25.2906
G01 X54.7508 Y25.2444
G01 X54.7461 Y25.2288
G01 X54.7342 Y25.1812
G01 X54.7310 Y25.1653
G01 X54.7238 Y25.1167
G01 X54.7222 Y25.1005
G01 X54.7196 Y25.0434
G01 X54.7196 Y20.6086
G00 Z2.0000
G00 X64.8796 Y20.6086
G01 F60.00
G01 Z-0.2001
G01 F320.00
G01 X64.8337 Y20.5579
G01 X64.8234 Y20.5454
G01 X64.7788 Y20.4853
G01 X64.7698 Y20.4718
G01 X64.7314 Y20.4077
G01 X64.7237 Y20.3933
G01 X64.6917 Y20.3257
G01 X64.6855 Y20.3107
G01 X64.6603 Y20.2403
G01 X64.6556 Y20.2248
G01 X64.6374 Y20.1523
G01 X64.6343 Y20.1363
G01 X64.6233 Y20.0624
G01 X64.6217 Y20.0462
G01 X64.6180 Y19.9715
G01 X64.6180 Y19.9553
G01 X64.6217 Y19.8806
G01 X64.6233 Y19.8644
G01 X64.6343 Y19.7904
G01 X64.6374 Y19.7745
G01 X64.6556 Y19.7020
G01 X64.6603 Y19.6864
G01 X64.6855 Y19.6160
G01 X64.6917 Y19.6010
G01 X64.7237 Y19.5334
G01 X64.7314 Y19.5191
G01 X64.7698 Y19.4550
G01 X64.7788 Y19.4415
G01 X64.8234 Y19.3814
G01 X64.8337 Y19.3688
G01 X64.8839 Y19.3134
G01 X64.8954 Y19.3019
G01 X64.9508 Y19.2517
G01 X64.9633 Y19.2414
G01 X65.0234 Y19.1969
G01 X65.0369 Y19.1879
G01 X65.1011 Y19.1494
G01 X65.1154 Y19.1418
G01 X65.1830 Y19.1098
G01 X65.1980 Y19.1036
G01 X65.2684 Y19.0784
G01 X65.2839 Y19.0737
G01 X65.3565 Y19.0555
G01 X65.3724 Y19.0523
G01 X65.4464 Y19.0413
G01 X65.4625 Y19.0398
G01 X65.5372 Y19.0361
G01 X65.5535 Y19.0361
G01 X65.6281 Y19.0398
G01 X65.6443 Y19.0413
G01 X65.7183 Y19.0523
G01 X65.7342 Y19.0555
G01 X65.8067 Y19.0737
G01 X65.8223 Y19.0784
G01 X65.8927 Y19.1036
G01 X65.9077 Y19.1098
G01 X65.9753 Y19.1418
G01 X65.9896 Y19.1494
G01 X66.0538 Y19.1879
G01 X66.0673 Y19.1969
G01 X66.1273 Y19.2414
G01 X66.1399 Y19.2517
G01 X66.1953 Y19.3019
G01 X66.2068 Y19.3134
G01 X66.2570 Y19.3688
G01 X66.2673 Y19.3814
G01 X66.3118 Y19.4415
G01 X66.3209 Y19.4550
G01 X66.3593 Y19.5191
G01 X66.3670 Y19.5334
G01 X66.3989 Y19.6010
G01 X66.4052 Y19.6160
G01 X66.4304 Y19.6864
G01 X66.4351 Y19.7020
G01 X66.4532 Y19.7745
G01 X66.4564 Y19.7904
G01 X66.4674 Y19.8644
G01 X66.4690 Y19.8806
G01 X66.4726 Y19.9553
G01 X66.4726 Y19.9715
G01 X66.4690 Y20.0462
G01 X66.4674 Y20.0624
G01 X66.4564 Y20.1363
G01 X66.4532 Y20.1523
G01 X66.4351 Y20.2248
G01 X66.4304 Y20.2403
G01 X66.4052 Y20.3107
G01 X66.3989 Y20.3257
G01 X66.3670 Y20.3933
G01 X66.3593 Y20.4077
G01 X66.3209 Y20.4718
G01 X66.3118 Y20.4853
G01 X66.2673 Y20.5454
G01 X66.2570 Y20.5579
G01 X66.2111 Y20.6086
G01 X66.2111 Y24.3776
G01 X69.4438 Y24.3776
G01 X69.4438 Y24.2814
G01 X69.4446 Y24.2652
G01 X69.4470 Y24.2491
G01 X69.4510 Y24.2333
G01 X69.4564 Y24.2181
G01 X69.4634 Y24.2034
G01 X69.4717 Y24.1894
G01 X69.4814 Y24.1764
G01 X69.4923 Y24.1644
G01 X69.5043 Y24.1535
G01 X69.5174 Y24.1438
G01 X69.5313 Y24.1354
G01 X69.5460 Y24.1285
G01 X69.5613 Y24.1230
G01 X69.5771 Y24.1191
G01 X69.5931 Y24.1167
G01 X69.6093 Y24.1159
G01 X71.6413 Y24.1159
G01 X71.6576 Y24.1167
G01 X71.6736 Y24.1191
G01 X71.6894 Y24.1230
G01 X71.7047 Y24.1285
G01 X71.7194 Y24.1354
G01 X71.7333 Y24.1438
G01 X71.7463 Y24.1535
G01 X71.7584 Y24.1644
G01 X71.7693 Y24.1764
G01 X71.7789 Y24.1894
G01 X71.7873 Y24.2034
G01 X71.7942 Y24.2181
G01 X71.7997 Y24.2333
G01 X71.8037 Y24.2491
G01 X71.8060 Y24.2652
G01 X71.8068 Y24.2814
G01 X71.8068 Y25.8054
G01 X71.8060 Y25.8216
G01 X71.8037 Y25.8377
G01 X71.7997 Y25.8534
G01 X71.7942 Y25.8687
G01 X71.7873 Y25.8834
G01 X71.7789 Y25.8973
G01 X71.7693 Y25.9104
G01 X71.7584 Y25.9224
G01 X71.7463 Y25.9333
G01 X71.7333 Y25.9430
G01 X71.7194 Y25.9513
G01 X71.7047 Y25.9583
G01 X71.6894 Y25.9638
G01 X71.6736 Y25.9677
G01 X71.6576 Y25.9701
G01 X71.6413 Y25.9709
G01 X69.6093 Y25.9709
G01 X69.5931 Y25.9701
G01 X69.5771 Y25.9677
G01 X69.5613 Y25.9638
G01 X69.5460 Y25.9583
G01 X69.5313 Y25.9513
G01 X69.5174 Y25.9430
G01 X69.5043 Y25.9333
G01 X69.4923 Y25.9224
G01 X69.4814 Y25.9104
G01 X69.4717 Y25.8973
G01 X69.4634 Y25.8834
G01 X69.4564 Y25.8687
G01 X69.4510 Y25.8534
G01 X69.4470 Y25.8377
G01 X69.4446 Y25.8216
G01 X69.4438 Y25.8054
G01 X69.4438 Y25.7091
G01 X65.5372 Y25.7089
G01 X65.4882 Y25.7065
G01 X65.4720 Y25.7049
G01 X65.4235 Y25.6977
G01 X65.4075 Y25.6946
G01 X65.3599 Y25.6826
G01 X65.3444 Y25.6779
G01 X65.2981 Y25.6614
G01 X65.2831 Y25.6552
G01 X65.2388 Y25.6342
G01 X65.2244 Y25.6265
G01 X65.1823 Y25.6013
G01 X65.1688 Y25.5923
G01 X65.1294 Y25.5630
G01 X65.1168 Y25.5527
G01 X65.0805 Y25.5197
G01 X65.0690 Y25.5083
G01 X65.0360 Y25.4719
G01 X65.0257 Y25.4593
G01 X64.9965 Y25.4199
G01 X64.9874 Y25.4064
G01 X64.9622 Y25.3643
G01 X64.9546 Y25.3500
G01 X64.9336 Y25.3056
G01 X64.9273 Y25.2906
G01 X64.9108 Y25.2444
G01 X64.9061 Y25.2288
G01 X64.8942 Y25.1812
G01 X64.8910 Y25.1653
G01 X64.8838 Y25.1167
G01 X64.8822 Y25.1005
G01 X64.8796 Y25.0434
G01 X64.8796 Y20.6086
G00 Z2.0000
G00 X75.0396 Y20.6086
G01 F60.00
G01 Z-0.2001
G01 F320.00
G01 X74.9937 Y20.5579
G01 X74.9834 Y20.5454
G01 X74.9388 Y20.4853
G01 X74.9298 Y20.4718
G01 X74.8914 Y20.4077
G01 X74.8837 Y20.3933
G01 X74.8517 Y20.3257
G01 X74.8455 Y20.3107
G01 X74.8203 Y20.2403
G01 X74.8156 Y20.2248
G01 X74.7974 Y20.1523
G01 X74.7943 Y20.1363
G01 X74.7833 Y20.0624
G01 X74.7817 Y20.0462
G01 X74.7780 Y19.9715
G01 X74.7780 Y19.9553
G01 X74.7817 Y19.8806
G01 X74.7833 Y19.8644
G01 X74.7943 Y19.7904
G01 X74.7974 Y19.7745
G01 X74.8156 Y19.7020
G01 X74.8203 Y19.6864
G01 X74.8455 Y19.6160
G01 X74.8517 Y19.6010
G01 X74.8837 Y19.5334
G01 X74.8914 Y19.5191
G01 X74.9298 Y19.4550
G01 X74.9388 Y19.4415
G01 X74.9834 Y19.3814
G01 X74.9937 Y19.3688
G01 X75.0439 Y19.3134
G01 X75.0554 Y19.3019
G01 X75.1108 Y19.2517
G01 X75.1233 Y19.2414
G01 X75.1834 Y19.1969
G01 X75.1969 Y19.1879
G01 X75.2611 Y19.1494
G01 X75.2754 Y19.1418
G01 X75.3430 Y19.1098
G01 X75.3580 Y19.1036
G01 X75.4284 Y19.0784
G01 X75.4439 Y19.0737
G01 X75.5165 Y19.0555
G01 X75.5324 Y19.0523
G01 X75.6064 Y19.0413
G01 X75.6225 Y19.0398
G01 X75.6972 Y19.0361
G01 X75.7135 Y19.0361
G01 X75.7881 Y19.0398
G01 X75.8043 Y19.0413
G01 X75.8783 Y19.0523
G01 X75.8942 Y19.0555
G01 X75.9667 Y19.0737
G01 X75.9823 Y19.0784
G01 X76.0527 Y19.1036
G01 X76.0677 Y19.1098
G01 X76.1353 Y19.1418
G01 X76.1496 Y19.1494
G01 X76.2138 Y19.1879
G01 X76.2273 Y19.1969
G01 X76.2873 Y19.2414
G01 X76.2999 Y19.2517
G01 X76.3553 Y19.3019
G01 X76.3668 Y19.3134
G01 X76.4170 Y19.3688
G01 X76.4273 Y19.3814
G01 X76.4718 Y19.4415
G01 X76.4809 Y19.4550
G01 X76.5193 Y19.5191
G01 X76.5270 Y19.5334
G01 X76.5589 Y19.6010
G01 X76.5652 Y19.6160
G01 X76.5904 Y19.6864
G01 X76.5951 Y19.7020
G01 X76.6132 Y19.7745
G01 X76.6164 Y19.7904
G01 X76.6274 Y19.8644
G01 X76.6290 Y19.8806
G01 X76.6326 Y19.9553
G01 X76.6326 Y19.9715
G01 X76.6290 Y20.0462
G01 X76.6274 Y20.0624
G01 X76.6164 Y20.1363
G01 X76.6132 Y20.1523
G01 X76.5951 Y20.2248
G01 X76.5904 Y20.2403
G01 X76.5652 Y20.3107
G01 X76.5589 Y20.3257
G01 X76.5270 Y20.3933
G01 X76.5193 Y20.4077
G01 X76.4809 Y20.4718
G01 X76.4718 Y20.4853
G01 X76.4273 Y20.5454
G01 X76.4170 Y20.5579
G01 X76.3711 Y20.6086
G01 X76.3711 Y24.3776
G01 X79.6038 Y24.3776
G01 X79.6038 Y24.2814
G01 X79.6046 Y24.2652
G01 X79.6070 Y24.2491
G01 X79.6110 Y24.2333
G01 X79.6164 Y24.2181
G01 X79.6234 Y24.2034
G01 X79.6317 Y24.1894
G01 X79.6414 Y24.1764
G01 X79.6523 Y24.1644
G01 X79.6643 Y24.1535
G01 X79.6774 Y24.1438
G01 X79.6913 Y24.1354
G01 X79.7060 Y24.1285
G01 X79.7213 Y24.1230
G01 X79.7371 Y24.1191
G01 X79.7531 Y24.1167
G01 X79.7693 Y24.1159
G01 X81.8013 Y24.1159
G01 X81.8176 Y24.1167
G01 X81.8336 Y24.1191
G01 X81.8494 Y24.1230
G01 X81.8647 Y24.1285
G01 X81.8794 Y24.1354
G01 X81.8933 Y24.1438
G01 X81.9063 Y24.1535
G01 X81.9184 Y24.1644
G01 X81.9293 Y24.1764
G01 X81.9389 Y24.1894
G01 X81.9473 Y24.2034
G01 X81.9542 Y24.2181
G01 X81.9597 Y24.2333
G01 X81.9637 Y24.2491
G01 X81.9660 Y24.2652
G01 X81.9668 Y24.2814
G01 X81.9668 Y25.8054
G01 X81.9660 Y25.8216
G01 X81.9637 Y25.8377
G01 X81.9597 Y25.8534
G01 X81.9542 Y25.8687
G01 X81.9473 Y25.8834
G01 X81.9389 Y25.8973
G01 X81.9293 Y25.9104
G01 X81.9184 Y25.9224
G01 X81.9063 Y25.9333
G01 X81.8933 Y25.9430
G01 X81.8794 Y25.9513
G01 X81.8647 Y25.9583
G01 X81.8494 Y25.9638
G01 X81.8336 Y25.9677
G01 X81.8176 Y25.9701
G01 X81.8013 Y25.9709
G01 X79.7693 Y25.9709
G01 X79.7531 Y25.9701
G01 X79.7371 Y25.9677
G01 X79.7213 Y25.9638
G01 X79.7060 Y25.9583
G01 X79.6913 Y25.9513
G01 X79.6774 Y25.9430
G01 X79.6643 Y25.9333
G01 X79.6523 Y25.9224
G01 X79.6414 Y25.9104
G01 X79.6317 Y25.8973
G01 X79.6234 Y25.8834
G01 X79.6164 Y25.8687
G01 X79.6110 Y25.8534
G01 X79.6070 Y25.8377
G01 X79.6046 Y25.8216
G01 X79.6038 Y25.8054
G01 X79.6038 Y25.7091
G01 X75.6972 Y25.7089
G01 X75.6482 Y25.7065
G01 X75.6320 Y25.7049
G01 X75.5835 Y25.6977
G01 X75.5675 Y25.6946
G01 X75.5199 Y25.6826
G01 X75.5044 Y25.6779
G01 X75.4581 Y25.6614
G01 X75.4431 Y25.6552
G01 X75.3988 Y25.6342
G01 X75.3844 Y25.6265
G01 X75.3423 Y25.6013
G01 X75.3288 Y25.5923
G01 X75.2894 Y25.5630
G01 X75.2768 Y25.5527
G01 X75.2405 Y25.5197
G01 X75.2290 Y25.5083
G01 X75.1960 Y25.4719
G01 X75.1857 Y25.4593
G01 X75.1565 Y25.4199
G01 X75.1474 Y25.4064
G01 X75.1222 Y25.3643
G01 X75.1146 Y25.3500
G01 X75.0936 Y25.3056
G01 X75.0873 Y25.2906
G01 X75.0708 Y25.2444
G01 X75.0661 Y25.2288
G01 X75.0542 Y25.1812
G01 X75.0510 Y25.1653
G01 X75.0438 Y25.1167
G01 X75.0422 Y25.1005
G01 X75.0396 Y25.0434
G01 X75.0396 Y20.6086
G00 Z2.0000
G00 X85.1996 Y20.6086
G01 F60.00
G01 Z-0.2001
G01 F320.00
G01 X85.1537 Y20.5579
G01 X85.1434 Y20.5454
G01 X85.0988 Y20.4853
G01 X85.0898 Y20.4718
G01 X85.0514 Y20.4077
G01 X85.0437 Y20.3933
G01 X85.0117 Y20.3257
G01 X85.0055 Y20.3107
G01 X84.9803 Y20.2403
G01 X84.9756 Y20.2248
G01 X84.9574 Y20.1523
G01 X84.9543 Y20.1363
G01 X84.9433 Y20.0624
G01 X84.9417 Y20.0462
G01 X84.9380 Y19.9715
G01 X84.9380 Y19.9553
G01 X84.9417 Y19.8806
G01 X84.9433 Y19.8644
G01 X84.9543 Y19.7904
G01 X84.9574 Y19.7745
G01 X84.9756 Y19.7020
G01 X84.9803 Y19.6864
G01 X85.0055 Y19.6160
G01 X85.0117 Y19.6010
G01 X85.0437 Y19.5334
G01 X85.0514 Y19.5191
G01 X85.0898 Y19.4550
G01 X85.0988 Y19.4415
G01 X85.1434 Y19.3814
G01 X85.1537 Y19.3688
G01 X85.2039 Y19.3134
G01 X85.2154 Y19.3019
G01 X85.2708 Y19.2517
G01 X85.2833 Y19.2414
G01 X85.3434 Y19.1969
G01 X85.3569 Y19.1879
G01 X85.4211 Y19.1494
G01 X85.4354 Y19.1418
G01 X85.5030 Y19.1098
G01 X85.5180 Y19.1036
G01 X85.5884 Y19.0784
G01 X85.6039 Y19.0737
G01 X85.6765 Y19.0555
G01 X85.6924 Y19.0523
G01 X85.7664 Y19.0413
G01 X85.7825 Y19.0398
G01 X85.8572 Y19.0361
G01 X85.8735 Y19.0361
G01 X85.9481 Y19.0398
G01 X85.9643 Y19.0413
G01 X86.0383 Y19.0523
G01 X86.0542 Y19.0555
G01 X86.1267 Y19.0737
G01 X86.1423 Y19.0784
G01 X86.2127 Y19.1036
G01 X86.2277 Y19.1098
G01 X86.2953 Y19.1418
G01 X86.3096 Y19.1494
G01 X86.3738 Y19.1879
G01 X86.3873 Y19.1969
G01 X86.4473 Y19.2414
G01 X86.4599 Y19.2517
G01 X86.5153 Y19.3019
G01 X86.5268 Y19.3134
G01 X86.5770 Y19.3688
G01 X86.5873 Y19.3814
G01 X86.6318 Y19.4415
G01 X86.6409 Y19.4550
G01 X86.6793 Y19.5191
G01 X86.6870 Y19.5334
G01 X86.7189 Y19.6010
G01 X86.7252 Y19.6160
G01 X86.7504 Y19.6864
G01 X86.7551 Y19.7020
G01 X86.7732 Y19.7745
G01 X86.7764 Y19.7904
G01 X86.7874 Y19.8644
G01 X86.7890 Y19.8806
G01 X86.7926 Y19.9553
G01 X86.7926 Y19.9715
G01 X86.7890 Y20.0462
G01 X86.7874 Y20.0624
G01 X86.7764 Y20.1363
G01 X86.7732 Y20.1523
G01 X86.7551 Y20.2248
G01 X86.7504 Y20.2403
G01 X86.7252 Y20.3107
G01 X86.7189 Y20.3257
G01 X86.6870 Y20.3933
G01 X86.6793 Y20.4077
G01 X86.6409 Y20.4718
G01 X86.6318 Y20.4853
G01 X86.5873 Y20.5454
G01 X86.5770 Y20.5579
G01 X86.5311 Y20.6086
G01 X86.5311 Y24.3776
G01 X89.7638 Y24.3776
G01 X89.7638 Y24.2814
G01 X89.7646 Y24.2652
G01 X89.7670 Y24.2491
G01 X89.7710 Y24.2333
G01 X89.7764 Y24.2181
G01 X89.7834 Y24.2034
G01 X89.7917 Y24.1894
G01 X89.8014 Y24.1764
G01 X89.8123 Y24.1644
G01 X89.8243 Y24.1535
G01 X89.8374 Y24.1438
G01 X89.8513 Y24.1354
G01 X89.8660 Y24.1285
G01 X89.8813 Y24.1230
G01 X89.8971 Y24.1191
G01 X89.9131 Y24.1167
G01 X89.9293 Y24.1159
G01 X91.9613 Y24.1159
G01 X91.9776 Y24.1167
G01 X91.9936 Y24.1191
G01 X92.0094 Y24.1230
G01 X92.0247 Y24.1285
G01 X92.0394 Y24.1354
G01 X92.0533 Y24.1438
G01 X92.0663 Y24.1535
G01 X92.0784 Y24.1644
G01 X92.0893 Y24.1764
G01 X92.0989 Y24.1894
G01 X92.1073 Y24.2034
G01 X92.1142 Y24.2181
G01 X92.1197 Y24.2333
G01 X92.1237 Y24.2491
G01 X92.1260 Y24.2652
G01 X92.1268 Y24.2814
G01 X92.1268 Y25.8054
G01 X92.1260 Y25.8216
G01 X92.1237 Y25.8377
G01 X92.1197 Y25.8534
G01 X92.1142 Y25.8687
G01 X92.1073 Y25.8834
G01 X92.0989 Y25.8973
G01 X92.0893 Y25.9104
G01 X92.0784 Y25.9224
G01 X92.0663 Y25.9333
G01 X92.0533 Y25.9430
G01 X92.0394 Y25.9513
G01 X92.0247 Y25.9583
G01 X92.0094 Y25.9638
G01 X91.9936 Y25.9677
G01 X91.9776 Y25.9701
G01 X91.9613 Y25.9709
G01 X89.9293 Y25.9709
G01 X89.9131 Y25.9701
G01 X89.8971 Y25.9677
G01 X89.8813 Y25.9638
G01 X89.8660 Y25.9583
G01 X89.8513 Y25.9513
G01 X89.8374 Y25.9430
G01 X89.8243 Y25.9333
G01 X89.8123 Y25.9224
G01 X89.8014 Y25.9104
G01 X89.7917 Y25.8973
G01 X89.7834 Y25.8834
G01 X89.7764 Y25.8687
G01 X89.7710 Y25.8534
G01 X89.7670 Y25.8377
G01 X89.7646 Y25.8216
G01 X89.7638 Y25.8054
G01 X89.7638 Y25.7091
G01 X85.8572 Y25.7089
G01 X85.8082 Y25.7065
G01 X85.7920 Y25.7049
G01 X85.7435 Y25.6977
G01 X85.7275 Y25.6946
G01 X85.6799 Y25.6826
G01 X85.6644 Y25.6779
G01 X85.6181 Y25.6614
G01 X85.6031 Y25.6552
G01 X85.5588 Y25.6342
G01 X85.5444 Y25.6265
G01 X85.5023 Y25.6013
G01 X85.4888 Y25.5923
G01 X85.4494 Y25.5630
G01 X85.4368 Y25.5527
G01 X85.4005 Y25.5197
G01 X85.3890 Y25.5083
G01 X85.3560 Y25.4719
G01 X85.3457 Y25.4593
G01 X85.3165 Y25.4199
G01 X85.3074 Y25.4064
G01 X85.2822 Y25.3643
G01 X85.2746 Y25.3500
G01 X85.2536 Y25.3056
G01 X85.2473 Y25.2906
G01 X85.2308 Y25.2444
G01 X85.2261 Y25.2288
G01 X85.2142 Y25.1812
G01 X85.2110 Y25.1653
G01 X85.2038 Y25.1167
G01 X85.2022 Y25.1005
G01 X85.1996 Y25.0434
G01 X85.1996 Y20.6086
G00 Z2.0000
G00 X95.3596 Y20.6086
G01 F60.00
G01 Z-0.2001
G01 F320.00
G01 X95.3137 Y20.5579
G01 X95.3034 Y20.5454
G01 X95.2588 Y20.4853
G01 X95.2498 Y20.4718
G01 X95.2114 Y20.4077
G01 X95.2037 Y20.3933
G01 X95.1717 Y20.3257
G01 X95.1655 Y20.3107
G01 X95.1403 Y20.2403
G01 X95.1356 Y20.2248
G01 X95.1174 Y20.1523
G01 X95.1143 Y20.1363
G01 X95.1033 Y20.0624
G01 X95.1017 Y20.0462
G01 X95.0980 Y19.9715
G01 X95.0980 Y19.9553
G01 X95.1017 Y19.8806
G01 X95.1033 Y19.8644
G01 X95.1143 Y19.7904
G01 X95.1174 Y19.7745
G01 X95.1356 Y19.7020
G01 X95.1403 Y19.6864
G01 X95.1655 Y19.6160
G01 X95.1717 Y19.6010
G01 X95.2037 Y19.5334
G01 X95.2114 Y19.5191
G01 X95.2498 Y19.4550
G01 X95.2588 Y19.4415
G01 X95.3034 Y19.3814
G01 X95.3137 Y19.3688
G01 X95.3639 Y19.3134
G01 X95.3754 Y19.3019
G01 X95.4308 Y19.2517
G01 X95.4433 Y19.2414
G01 X95.5034 Y19.1969
G01 X95.5169 Y19.1879
G01 X95.5811 Y19.1494
G01 X95.5954 Y19.1418
G01 X95.6630 Y19.1098
G01 X95.6780 Y19.1036
G01 X95.7484 Y19.0784
G01 X95.7639 Y19.0737
G01 X95.8365 Y19.0555
G01 X95.8524 Y19.0523
G01 X95.9264 Y19.0413
G01 X95.9425 Y19.0398
G01 X96.0172 Y19.0361
G01 X96.0335 Y19.0361
G01 X96.1081 Y19.0398
G01 X96.1243 Y19.0413
G01 X96.1983 Y19.0523
G01 X96.2142 Y19.0555
G01 X96.2867 Y19.0737
G01 X96.3023 Y19.0784
G01 X96.3727 Y19.1036
G01 X96.3877 Y19.1098
G01 X96.4553 Y19.1418
G01 X96.4696 Y19.1494
G01 X96.5338 Y19.1879
G01 X96.5473 Y19.1969
G01 X96.6073 Y19.2414
G01 X96.6199 Y19.2517
G01 X96.6753 Y19.3019
G01 X96.6868 Y19.3134
G01 X96.7370 Y19.3688
G01 X96.7473 Y19.3814
G01 X96.7918 Y19.4415
G01 X96.8009 Y19.4550
G01 X96.8393 Y19.5191
G01 X96.8470 Y19.5334
G01 X96.8789 Y19.6010
G01 X96.8852 Y19.6160
G01 X96.9104 Y19.6864
G01 X96.9151 Y19.7020
G01 X96.9332 Y19.7745
G01 X96.9364 Y19.7904
G01 X96.9474 Y19.8644
G01 X96.9490 Y19.8806
G01 X96.9526 Y19.9553
G01 X96.9526 Y19.9715
G01 X96.9490 Y20.0462
G01 X96.9474 Y20.0624
G01 X96.9364 Y20.1363
G01 X96.9332 Y20.1523
G01 X96.9151 Y20.2248
G01 X96.9104 Y20.2403
G01 X96.8852 Y20.3107
G01 X96.8789 Y20.3257
G01 X96.8470 Y20.3933
G01 X96.8393 Y20.4077
G01 X96.8009 Y20.4718
G01 X96.7918 Y20.4853
G01 X96.7473 Y20.5454
G01 X96.7370 Y20.5579
G01 X96.6911 Y20.6086
G01 X96.6911 Y24.3776
G01 X99.9238 Y24.3776
G01 X99.9238 Y24.2814
G01 X99.9246 Y24.2652
G01 X99.9270 Y24.2491
G01 X99.9310 Y24.2333
G01 X99.9364 Y24.2181
G01 X99.9434 Y24.2034
G01 X99.9517 Y24.1894
G01 X99.9614 Y24.1764
G01 X99.9723 Y24.1644
G01 X99.9843 Y24.1535
G01 X99.9974 Y24.1438
G01 X100.0113 Y24.1354
G01 X100.0260 Y24.1285
G01 X100.0413 Y24.1230
G01 X100.0571 Y24.1191
G01 X100.0731 Y24.1167
G01 X100.0893 Y24.1159
G01 X102.1213 Y24.1159
G01 X102.1376 Y24.1167
G01 X102.1536 Y24.1191
G01 X102.1694 Y24.1230
G01 X102.1847 Y24.1285
G01 X102.1994 Y24.1354
G01 X102.2133 Y24.1438
G01 X102.2263 Y24.1535
G01 X102.2384 Y24.1644
G01 X102.2493 Y24.1764
G01 X102.2589 Y24.1894
G01 X102.2673 Y24.2034
G01 X102.2742 Y24.2181
G01 X102.2797 Y24.2333
G01 X102.2837 Y24.2491
G01 X102.2860 Y24.2652
G01 X102.2868 Y24.2814
G01 X102.2868 Y25.8054
G01 X102.2860 Y25.8216
G01 X102.2837 Y25.8377
G01 X102.2797 Y25.8534
G01 X102.2742 Y25.8687
G01 X102.2673 Y25.8834
G01 X102.2589 Y25.8973
G01 X102.2493 Y25.9104
G01 X102.2384 Y25.9224
G01 X102.2263 Y25.9333
G01 X102.2133 Y25.9430
G01 X102.1994 Y25.9513
G01 X102.1847 Y25.9583
G01 X102.1694 Y25.9638
G01 X102.1536 Y25.9677
G01 X102.1376 Y25.9701
G01 X102.1213 Y25.9709
G01 X100.0893 Y25.9709
G01 X100.0731 Y25.9701
G01 X100.0571 Y25.9677
G01 X100.0413 Y25.9638
G01 X100.0260 Y25.9583
G01 X100.0113 Y25.9513
G01 X99.9974 Y25.9430
G01 X99.9843 Y25.9333
G01 X99.9723 Y25.9224
G01 X99.9614 Y25.9104
G01 X99.9517 Y25.8973
G01 X99.9434 Y25.8834
G01 X99.9364 Y25.8687
G01 X99.9310 Y25.8534
G01 X99.9270 Y25.8377
G01 X99.9246 Y25.8216
G01 X99.9238 Y25.8054
G01 X99.9238 Y25.7091
G01 X96.0172 Y25.7089
G01 X95.9682 Y25.7065
G01 X95.9520 Y25.7049
G01 X95.9035 Y25.6977
G01 X95.8875 Y25.6946
G01 X95.8399 Y25.6826
G01 X95.8244 Y25.6779
G01 X95.7781 Y25.6614
G01 X95.7631 Y25.6552
G01 X95.7188 Y25.6342
G01 X95.7044 Y25.6265
G01 X95.6623 Y25.6013
G01 X95.6488 Y25.5923
G01 X95.6094 Y25.5630
G01 X95.5968 Y25.5527
G01 X95.5605 Y25.5197
G01 X95.5490 Y25.5083
G01 X95.5160 Y25.4719
G01 X95.5057 Y25.4593
G01 X95.4765 Y25.4199
G01 X95.4674 Y25.4064
G01 X95.4422 Y25.3643
G01 X95.4346 Y25.3500
G01 X95.4136 Y25.3056
G01 X95.4073 Y25.2906
G01 X95.3908 Y25.2444
G01 X95.3861 Y25.2288
G01 X95.3742 Y25.1812
G01 X95.3710 Y25.1653
G01 X95.3638 Y25.1167
G01 X95.3622 Y25.1005
G01 X95.3596 Y25.0434
G01 X95.3596 Y20.6086
G00 Z2.0000
G00 X105.5196 Y20.6086
G01 F60.00
G01 Z-0.2001
G01 F320.00
G01 X105.4737 Y20.5579
G01 X105.4634 Y20.5454
G01 X105.4188 Y20.4853
G01 X105.4098 Y20.4718
G01 X105.3714 Y20.4077
G01 X105.3637 Y20.3933
G01 X105.3317 Y20.3257
G01 X105.3255 Y20.3107
G01 X105.3003 Y20.2403
G01 X105.2956 Y20.2248
G01 X105.2774 Y20.1523
G01 X105.2743 Y20.1363
G01 X105.2633 Y20.0624
G01 X105.2617 Y20.0462
G01 X105.2580 Y19.9715
G01 X105.2580 Y19.9553
G01 X105.2617 Y19.8806
G01 X105.2633 Y19.8644
G01 X105.2743 Y19.7904
G01 X105.2774 Y19.7745
G01 X105.2956 Y19.7020
G01 X105.3003 Y19.6864
G01 X105.3255 Y19.6160
G01 X105.3317 Y19.6010
G01 X105.3637 Y19.5334
G01 X105.3714 Y19.5191
G01 X105.4098 Y19.4550
G01 X105.4188 Y19.4415
G01 X105.4634 Y19.3814
G01 X105.4737 Y19.3688
G01 X105.5239 Y19.3134
G01 X105.5354 Y19.3019
G01 X105.5908 Y19.2517
G01 X105.6033 Y19.2414
G01 X105.6634 Y19.1969
G01 X105.6769 Y19.1879
G01 X105.7411 Y19.1494
G01 X105.7554 Y19.1418
G01 X105.8230 Y19.1098
G01 X105.8380 Y19.1036
G01 X105.9084 Y19.0784
G01 X105.9239 Y19.0737
G01 X105.9965 Y19.0555
G01 X106.0124 Y19.0523
G01 X106.0864 Y19.0413
G01 X106.1025 Y19.0398
G01 X106.1772 Y19.0361
G01 X106.1935 Y19.0361
G01 X106.2681 Y19.0398
G01 X106.2843 Y19.0413
G01 X106.3583 Y19.0523
G01 X106.3742 Y19.0555
G01 X106.4467 Y19.0737
G01 X106.4623 Y19.0784
G01 X106.5327 Y19.1036
G01 X106.5477 Y19.1098
G01 X106.6153 Y19.1418
G01 X106.6296 Y19.1494
G01 X106.6938 Y19.1879
G01 X106.7073 Y19.1969
G01 X106.7673 Y19.2414
G01 X106.7799 Y19.2517
G01 X106.8353 Y19.3019
G01 X106.8468 Y19.3134
G01 X106.8970 Y19.3688
G01 X106.9073 Y19.3814
G01 X106.9518 Y19.4415
G01 X106.9609 Y19.4550
G01 X106.9993 Y19.5191
G01 X107.0070 Y19.5334
G01 X107.0389 Y19.6010
G01 X107.0452 Y19.6160
G01 X107.0704 Y19.6864
G01 X107.0751 Y19.7020
G01 X107.0932 Y19.7745
G01 X107.0964 Y19.7904
G01 X107.1074 Y19.8644
G01 X107.1090 Y19.8806
G01 X107.1126 Y19.9553
G01 X107.1126 Y19.9715
G01 X107.1090 Y20.0462
G01 X107.1074 Y20.0624
G01 X107.0964 Y20.1363
G01 X107.0932 Y20.1523
G01 X107.0751 Y20.2248
G01 X107.0704 Y20.2403
G01 X107.0452 Y20.3107
G01 X107.0389 Y20.3257
G01 X107.0070 Y20.3933
G01 X106.9993 Y20.4077
G01 X106.9609 Y20.4718
G01 X106.9518 Y20.4853
G01 X106.9073 Y20.5454
G01 X106.8970 Y20.5579
G01 X106.8511 Y20.6086
G01 X106.8511 Y24.3776
G01 X110.0838 Y24.3776
G01 X110.0838 Y24.2814
G01 X110.0846 Y24.2652
G01 X110.0870 Y24.2491
G01 X110.0910 Y24.2333
G01 X110.0964 Y24.2181
G01 X110.1034 Y24.2034
G01 X110.1117 Y24.1894
G01 X110.1214 Y24.1764
G01 X110.1323 Y24.1644
G01 X110.1443 Y24.1535
G01 X110.1574 Y24.1438
G01 X110.1713 Y24.1354
G01 X110.1860 Y24.1285
G01 X110.2013 Y24.1230
G01 X110.2171 Y24.1191
G01 X110.2331 Y24.1167
G01 X110.2493 Y24.1159
G01 X112.2813 Y24.1159
G01 X112.2976 Y24.1167
G01 X112.3136 Y24.1191
G01 X112.3294 Y24.1230
G01 X112.3447 Y24.1285
G01 X112.3594 Y24.1354
G01 X112.3733 Y24.1438
G01 X112.3863 Y24.1535
G01 X112.3984 Y24.1644
G01 X112.4093 Y24.1764
G01 X112.4189 Y24.1894
G01 X112.4273 Y24.2034
G01 X112.4342 Y24.2181
G01 X112.4397 Y24.2333
G01 X112.4437 Y24.2491
G01 X112.4460 Y24.2652
G01 X112.4468 Y24.2814
G01 X112.4468 Y25.8054
G01 X112.4460 Y25.8216
G01 X112.4437 Y25.8377
G01 X112.4397 Y25.8534
G01 X112.4342 Y25.8687
G01 X112.4273 Y25.8834
G01 X112.4189 Y25.8973
G01 X112.4093 Y25.9104
G01 X112.3984 Y25.9224
G01 X112.3863 Y25.9333
G01 X112.3733 Y25.9430
G01 X112.3594 Y25.9513
G01 X112.3447 Y25.9583
G01 X112.3294 Y25.9638
G01 X112.3136 Y25.9677
G01 X112.2976 Y25.9701
G01 X112.2813 Y25.9709
G01 X110.2493 Y25.9709
G01 X110.2331 Y25.9701
G01 X110.2171 Y25.9677
G01 X110.2013 Y25.9638
G01 X110.1860 Y25.9583
G01 X110.1713 Y25.9513
G01 X110.1574 Y25.9430
G01 X110.1443 Y25.9333
G01 X110.1323 Y25.9224
G01 X110.1214 Y25.9104
G01 X110.1117 Y25.8973
G01 X110.1034 Y25.8834
G01 X110.0964 Y25.8687
G01 X110.0910 Y25.8534
G01 X110.0870 Y25.8377
G01 X110.0846 Y25.8216
G01 X110.0838 Y25.8054
G01 X110.0838 Y25.7091
G01 X106.1772 Y25.7089
G01 X106.1282 Y25.7065
G01 X106.1120 Y25.7049
G01 X106.0635 Y25.6977
G01 X106.0475 Y25.6946
G01 X105.9999 Y25.6826
G01 X105.9844 Y25.6779
G01 X105.9381 Y25.6614
G01 X105.9231 Y25.6552
G01 X105.8788 Y25.6342
G01 X105.8644 Y25.6265
G01 X105.8223 Y25.6013
G01 X105.8088 Y25.5923
G01 X105.7694 Y25.5630
G01 X105.7568 Y25.5527
G01 X105.7205 Y25.5197
G01 X105.7090 Y25.5083
G01 X105.6760 Y25.4719
G01 X105.6657 Y25.4593
G01 X105.6365 Y25.4199
G01 X105.6274 Y25.4064
G01 X105.6022 Y25.3643
G01 X105.5946 Y25.3500
G01 X105.5736 Y25.3056
G01 X105.5673 Y25.2906
G01 X105.5508 Y25.2444
G01 X105.5461 Y25.2288
G01 X105.5342 Y25.1812
G01 X105.5310 Y25.1653
G01 X105.5238 Y25.1167
G01 X105.5222 Y25.1005
G01 X105.5196 Y25.0434
G01 X105.5196 Y20.6086
G00 Z2.0000
G00 X115.6796 Y20.6086
G01 F60.00
G01 Z-0.2001
G01 F320.00
G01 X115.6337 Y20.5579
G01 X115.6234 Y20.5454
G01 X115.5788 Y20.4853
G01 X115.5698 Y20.4718
G01 X115.5314 Y20.4077
G01 X115.5237 Y20.3933
G01 X115.4917 Y20.3257
G01 X115.4855 Y20.3107
G01 X115.4603 Y20.2403
G01 X115.4556 Y20.2248
G01 X115.4374 Y20.1523
G01 X115.4343 Y20.1363
G01 X115.4233 Y20.0624
G01 X115.4217 Y20.0462
G01 X115.4180 Y19.9715
G01 X115.4180 Y19.9553
G01 X115.4217 Y19.8806
G01 X115.4233 Y19.8644
G01 X115.4343 Y19.7904
G01 X115.4374 Y19.7745
G01 X115.4556 Y19.7020
G01 X115.4603 Y19.6864
G01 X115.4855 Y19.6160
G01 X115.4917 Y19.6010
G01 X115.5237 Y19.5334
G01 X115.5314 Y19.5191
G01 X115.5698 Y19.4550
G01 X115.5788 Y19.4415
G01 X115.6234 Y19.3814
G01 X115.6337 Y19.3688
G01 X115.6839 Y19.3134
G01 X115.6954 Y19.3019
G01 X115.7508 Y19.2517
G01 X115.7633 Y19.2414
G01 X115.8234 Y19.1969
G01 X115.8369 Y19.1879
G01 X115.9011 Y19.1494
G01 X115.9154 Y19.1418
G01 X115.9830 Y19.1098
G01 X115.9980 Y19.1036
G01 X116.0684 Y19.0784
G01 X116.0839 Y19.0737
G01 X116.1565 Y19.0555
G01 X116.1724 Y19.0523
G01 X116.2464 Y19.0413
G01 X116.2625 Y19.0398
G01 X116.3372 Y19.0361
G01 X116.3535 Y19.0361
G01 X116.4281 Y19.0398
G01 X116.4443 Y19.0413
G01 X116.5183 Y19.0523
G01 X116.5342 Y19.0555
G01 X116.6067 Y19.0737
G01 X116.6223 Y19.0784
G01 X116.6927 Y19.1036
G01 X116.7077 Y19.1098
G01 X116.7753 Y19.1418
G01 X116.7896 Y19.1494
G01 X116.8538 Y19.1879
G01 X116.8673 Y19.1969
G01 X116.9273 Y19.2414
G01 X116.9399 Y19.2517
G01 X116.9953 Y19.3019
G01 X117.0068 Y19.3134
G01 X117.0570 Y19.3688
G01 X117.0673 Y19.3814
G01 X117.1118 Y19.4415
G01 X117.1209 Y19.4550
G01 X117.1593 Y19.5191
G01 X117.1670 Y19.5334
G01 X117.1989 Y19.6010
G01 X117.2052 Y19.6160
G01 X117.2304 Y19.6864
G01 X117.2351 Y19.7020
G01 X117.2532 Y19.7745
G01 X117.2564 Y19.7904
G01 X117.2674 Y19.8644
G01 X117.2690 Y19.8806
G01 X117.2726 Y19.9553
G01 X117.2726 Y19.9715
G01 X117.2690 Y20.0462
G01 X117.2674 Y20.0624
G01 X117.2564 Y20.1363
G01 X117.2532 Y20.1523
G01 X117.2351 Y20.2248
G01 X117.2304 Y20.2403
G01 X117.2052 Y20.3107
G01 X117.1989 Y20.3257
G01 X117.1670 Y20.3933
G01 X117.1593 Y20.4077
G01 X117.1209 Y20.4718
G01 X117.1118 Y20.4853
G01 X117.0673 Y20.5454
G01 X117.0570 Y20.5579
G01 X117.0111 Y20.6086
G01 X117.0111 Y24.3776
G01 X120.2438 Y24.3776
G01 X120.2438 Y24.2814
G01 X120.2446 Y24.2652
G01 X120.2470 Y24.2491
G01 X120.2510 Y24.2333
G01 X120.2564 Y24.2181
G01 X120.2634 Y24.2034
G01 X120.2717 Y24.1894
G01 X120.2814 Y24.1764
G01 X120.2923 Y24.1644
G01 X120.3043 Y24.1535
G01 X120.3174 Y24.1438
G01 X120.3313 Y24.1354
G01 X120.3460 Y24.1285
G01 X120.3613 Y24.1230
G01 X120.3771 Y24.1191
G01 X120.3931 Y24.1167
G01 X120.4093 Y24.1159
G01 X122.4413 Y24.1159
G01 X122.4576 Y24.1167
G01 X122.4736 Y24.1191
G01 X122.4894 Y24.1230
G01 X122.5047 Y24.1285
G01 X122.5194 Y24.1354
G01 X122.5333 Y24.1438
G01 X122.5463 Y24.1535
G01 X122.5584 Y24.1644
G01 X122.5693 Y24.1764
G01 X122.5789 Y24.1894
G01 X122.5873 Y24.2034
G01 X122.5942 Y24.2181
G01 X122.5997 Y24.2333
G01 X122.6037 Y24.2491
G01 X122.6060 Y24.2652
G01 X122.6068 Y24.2814
G01 X122.6068 Y25.8054
G01 X122.6060 Y25.8216
G01 X122.6037 Y25.8377
G01 X122.5997 Y25.8534
G01 X122.5942 Y25.8687
G01 X122.5873 Y25.8834
G01 X122.5789 Y25.8973
G01 X122.5693 Y25.9104
G01 X122.5584 Y25.9224
G01 X122.5463 Y25.9333
G01 X122.5333 Y25.9430
G01 X122.5194 Y25.9513
G01 X122.5047 Y25.9583
G01 X122.4894 Y25.9638
G01 X122.4736 Y25.9677
G01 X122.4576 Y25.9701
G01 X122.4413 Y25.9709
G01 X120.4093 Y25.9709
G01 X120.3931 Y25.9701
G01 X120.3771 Y25.9677
G01 X120.3613 Y25.9638
G01 X120.3460 Y25.9583
G01 X120.3313 Y25.9513
G01 X120.3174 Y25.9430
G01 X120.3043 Y25.9333
G01 X120.2923 Y25.9224
G01 X120.2814 Y25.9104
G01 X120.2717 Y25.8973
G01 X120.2634 Y25.8834
G01 X120.2564 Y25.8687
G01 X120.2510 Y25.8534
G01 X120.2470 Y25.8377
G01 X120.2446 Y25.8216
G01 X120.2438 Y25.8054
G01 X120.2438 Y25.7091
G01 X116.3372 Y25.7089
G01 X116.2882 Y25.7065
G01 X116.2720 Y25.7049
G01 X116.2235 Y25.6977
G01 X116.2075 Y25.6946
G01 X116.1599 Y25.6826
G01 X116.1444 Y25.6779
G01 X116.0981 Y25.6614
G01 X116.0831 Y25.6552
G01 X116.0388 Y25.6342
G01 X116.0244 Y25.6265
G01 X115.9823 Y25.6013
G01 X115.9688 Y25.5923
G01 X115.9294 Y25.5630
G01 X115.9168 Y25.5527
G01 X115.8805 Y25.5197
G01 X115.8690 Y25.5083
G01 X115.8360 Y25.4719
G01 X115.8257 Y25.4593
G01 X115.7965 Y25.4199
G01 X115.7874 Y25.4064
G01 X115.7622 Y25.3643
G01 X115.7546 Y25.3500
G01 X115.7336 Y25.3056
G01 X115.7273 Y25.2906
G01 X115.7108 Y25.2444
G01 X115.7061 Y25.2288
G01 X115.6942 Y25.1812
G01 X115.6910 Y25.1653
G01 X115.6838 Y25.1167
G01 X115.6822 Y25.1005
G01 X115.6796 Y25.0434
G01 X115.6796 Y20.6086
G00 Z2.0000
G00 X125.8396 Y20.6086
G01 F60.00
G01 Z-0.2001
G01 F320.00
G01 X125.7937 Y20.5579
G01 X125.7834 Y20.5454
G01 X125.7388 Y20.4853
G01 X125.7298 Y20.4718
G01 X125.6914 Y20.4077
G01 X125.6837 Y20.3933
G01 X125.6517 Y20.3257
G01 X125.6455 Y20.3107
G01 X125.6203 Y20.2403
G01 X125.6156 Y20.2248
G01 X125.5974 Y20.1523
G01 X125.5943 Y20.1363
G01 X125.5833 Y20.0624
G01 X125.5817 Y20.0462
G01 X125.5780 Y19.9715
G01 X125.5780 Y19.9553
G01 X125.5817 Y19.8806
G01 X125.5833 Y19.8644
G01 X125.5943 Y19.7904
G01 X125.5974 Y19.7745
G01 X125.6156 Y19.7020
G01 X125.6203 Y19.6864
G01 X125.6455 Y19.6160
G01 X125.6517 Y19.6010
G01 X125.6837 Y19.5334
G01 X125.6914 Y19.5191
G01 X125.7298 Y19.4550
G01 X125.7388 Y19.4415
G01 X125.7834 Y19.3814
G01 X125.7937 Y19.3688
G01 X125.8439 Y19.3134
G01 X125.8554 Y19.3019
G01 X125.9108 Y19.2517
G01 X125.9233 Y19.2414
G01 X125.9834 Y19.1969
G01 X125.9969 Y19.1879
G01 X126.0611 Y19.1494
G01 X126.0754 Y19.1418
G01 X126.1430 Y19.1098
G01 X126.1580 Y19.1036
G01 X126.2284 Y19.0784
G01 X126.2439 Y19.0737
G01 X126.3165 Y19.0555
G01 X126.3324 Y19.0523
G01 X126.4064 Y19.0413
G01 X126.4225 Y19.0398
G01 X126.4972 Y19.0361
G01 X126.5135 Y19.0361
G01 X126.5881 Y19.0398
G01 X126.6043 Y19.0413
G01 X126.6783 Y19.0523
G01 X126.6942 Y19.0555
G01 X126.7667 Y19.0737
G01 X126.7823 Y19.0784
G01 X126.8527 Y19.1036
G01 X126.8677 Y19.1098
G01 X126.9353 Y19.1418
G01 X126.9496 Y19.1494
G01 X127.0138 Y19.1879
G01 X127.0273 Y19.1969
G01 X127.0873 Y19.2414
G01 X127.0999 Y19.2517
G01 X127.1553 Y19.3019
G01 X127.1668 Y19.3134
G01 X127.2170 Y19.3688
G01 X127.2273 Y19.3814
G01 X127.2718 Y19.4415
G01 X127.2809 Y19.4550
G01 X127.3193 Y19.5191
G01 X127.3270 Y19.5334
G01 X127.3589 Y19.6010
G01 X127.3652 Y19.6160
G01 X127.3904 Y19.6864
G01 X127.3951 Y19.7020
G01 X127.4132 Y19.7745
G01 X127.4164 Y19.7904
G01 X127.4274 Y19.8644
G01 X127.4290 Y19.8806
G01 X127.4326 Y19.9553
G01 X127.4326 Y19.9715
G01 X127.4290 Y20.0462
G01 X127.4274 Y20.0624
G01 X127.4164 Y20.1363
G01 X127.4132 Y20.1523
G01 X127.3951 Y20.2248
G01 X127.3904 Y20.2403
G01 X127.3652 Y20.3107
G01 X127.3589 Y20.3257
G01 X127.3270 Y20.3933
G01 X127.3193 Y20.4077
G01 X127.2809 Y20.4718
G01 X127.2718 Y20.4853
G01 X127.2273 Y20.5454
G01 X127.2170 Y20.5579
G01 X127.1711 Y20.6086
G01 X127.1711 Y24.3776
G01 X130.4038 Y24.3776
G01 X130.4038 Y24.2814
G01 X130.4046 Y24.2652
G01 X130.4070 Y24.2491
G01 X130.4110 Y24.2333
G01 X130.4164 Y24.2181
G01 X130.4234 Y24.2034
G01 X130.4317 Y24.1894
G01 X130.4414 Y24.1764
G01 X130.4523 Y24.1644
G01 X130.4643 Y24.1535
G01 X130.4774 Y24.1438
G01 X130.4913 Y24.1354
G01 X130.5060 Y24.1285
G01 X130.5213 Y24.1230
G01 X130.5371 Y24.1191
G01 X130.5531 Y24.1167
G01 X130.5693 Y24.1159
G01 X132.6013 Y24.1159
G01 X132.6176 Y24.1167
G01 X132.6336 Y24.1191
G01 X132.6494 Y24.1230
G01 X132.6647 Y24.1285
G01 X132.6794 Y24.1354
G01 X132.6933 Y24.1438
G01 X132.7063 Y24.1535
G01 X132.7184 Y24.1644
G01 X132.7293 Y24.1764
G01 X132.7389 Y24.1894
G01 X132.7473 Y24.2034
G01 X132.7542 Y24.2181
G01 X132.7597 Y24.2333
G01 X132.7637 Y24.2491
G01 X132.7660 Y24.2652
G01 X132.7668 Y24.2814
G01 X132.7668 Y25.8054
G01 X132.7660 Y25.8216
G01 X132.7637 Y25.8377
G01 X132.7597 Y25.8534
G01 X132.7542 Y25.8687
G01 X132.7473 Y25.8834
G01 X132.7389 Y25.8973
G01 X132.7293 Y25.9104
G01 X132.7184 Y25.9224
G01 X132.7063 Y25.9333
G01 X132.6933 Y25.9430
G01 X132.6794 Y25.9513
G01 X132.6647 Y25.9583
G01 X132.6494 Y25.9638
G01 X132.6336 Y25.9677
G01 X132.6176 Y25.9701
G01 X132.6013 Y25.9709
G01 X130.5693 Y25.9709
G01 X130.5531 Y25.9701
G01 X130.5371 Y25.9677
G01 X130.5213 Y25.9638
G01 X130.5060 Y25.9583
G01 X130.4913 Y25.9513
G01 X130.4774 Y25.9430
G01 X130.4643 Y25.9333
G01 X130.4523 Y25.9224
G01 X130.4414 Y25.9104
G01 X130.4317 Y25.8973
G01 X130.4234 Y25.8834
G01 X130.4164 Y25.8687
G01 X130.4110 Y25.8534
G01 X130.4070 Y25.8377
G01 X130.4046 Y25.8216
G01 X130.4038 Y25.8054
G01 X130.4038 Y25.7091
G01 X126.4972 Y25.7089
G01 X126.4482 Y25.7065
G01 X126.4320 Y25.7049
G01 X126.3835 Y25.6977
G01 X126.3675 Y25.6946
G01 X126.3199 Y25.6826
G01 X126.3044 Y25.6779
G01 X126.2581 Y25.6614
G01 X126.2431 Y25.6552
G01 X126.1988 Y25.6342
G01 X126.1844 Y25.6265
G01 X126.1423 Y25.6013
G01 X126.1288 Y25.5923
G01 X126.0894 Y25.5630
G01 X126.0768 Y25.5527
G01 X126.0405 Y25.5197
G01 X126.0290 Y25.5083
G01 X125.9960 Y25.4719
G01 X125.9857 Y25.4593
G01 X125.9565 Y25.4199
G01 X125.9474 Y25.4064
G01 X125.9222 Y25.3643
G01 X125.9146 Y25.3500
G01 X125.8936 Y25.3056
G01 X125.8873 Y25.2906
G01 X125.8708 Y25.2444
G01 X125.8661 Y25.2288
G01 X125.8542 Y25.1812
G01 X125.8510 Y25.1653
G01 X125.8438 Y25.1167
G01 X125.8422 Y25.1005
G01 X125.8396 Y25.0434
G01 X125.8396 Y20.6086
G00 Z2.0000
G00 X135.9996 Y20.6086
G01 F60.00
G01 Z-0.2001
G01 F320.00
G01 X135.9537 Y20.5579
G01 X135.9434 Y20.5454
G01 X135.8988 Y20.4853
G01 X135.8898 Y20.4718
G01 X135.8514 Y20.4077
G01 X135.8437 Y20.3933
G01 X135.8117 Y20.3257
G01 X135.8055 Y20.3107
G01 X135.7803 Y20.2403
G01 X135.7756 Y20.2248
G01 X135.7574 Y20.1523
G01 X135.7543 Y20.1363
G01 X135.7433 Y20.0624
G01 X135.7417 Y20.0462
G01 X135.7380 Y19.9715
G01 X135.7380 Y19.9553
G01 X135.7417 Y19.8806
G01 X135.7433 Y19.8644
G01 X135.7543 Y19.7904
G01 X135.7574 Y19.7745
G01 X135.7756 Y19.7020
G01 X135.7803 Y19.6864
G01 X135.8055 Y19.6160
G01 X135.8117 Y19.6010
G01 X135.8437 Y19.5334
G01 X135.8514 Y19.5191
G01 X135.8898 Y19.4550
G01 X135.8988 Y19.4415
G01 X135.9434 Y19.3814
G01 X135.9537 Y19.3688
G01 X136.0039 Y19.3134
G01 X136.0154 Y19.3019
G01 X136.0708 Y19.2517
G01 X136.0833 Y19.2414
G01 X136.1434 Y19.1969
G01 X136.1569 Y19.1879
G01 X136.2211 Y19.1494
G01 X136.2354 Y19.1418
G01 X136.3030 Y19.1098
G01 X136.3180 Y19.1036
G01 X136.3884 Y19.0784
G01 X136.4039 Y19.0737
G01 X136.4765 Y19.0555
G01 X136.4924 Y19.0523
G01 X136.5664 Y19.0413
G01 X136.5825 Y19.0398
G01 X136.6572 Y19.0361
G01 X136.6735 Y19.0361
G01 X136.7481 Y19.0398
G01 X136.7643 Y19.0413
G01 X136.8383 Y19.0523
G01 X136.8542 Y19.0555
G01 X136.9267 Y19.0737
G01 X136.9423 Y19.0784
G01 X137.0127 Y19.1036
G01 X137.0277 Y19.1098
G01 X137.0953 Y19.1418
G01 X137.1096 Y19.1494
G01 X137.1738 Y19.1879
G01 X137.1873 Y19.1969
G01 X137.2473 Y19.2414
G01 X137.2599 Y19.2517
G01 X137.3153 Y19.3019
G01 X137.3268 Y19.3134
G01 X137.3770 Y19.3688
G01 X137.3873 Y19.3814
G01 X137.4318 Y19.4415
G01 X137.4409 Y19.4550
G01 X137.4793 Y19.5191
G01 X137.4870 Y19.5334
G01 X137.5189 Y19.6010
G01 X137.5252 Y19.6160
G01 X137.5504 Y19.6864
G01 X137.5551 Y19.7020
G01 X137.5732 Y19.7745
G01 X137.5764 Y19.7904
G01 X137.5874 Y19.8644
G01 X137.5890 Y19.8806
G01 X137.5926 Y19.9553
G01 X137.5926 Y19.9715
G01 X137.5890 Y20.0462
G01 X137.5874 Y20.0624
G01 X137.5764 Y20.1363
G01 X137.5732 Y20.1523
G01 X137.5551 Y20.2248
G01 X137.5504 Y20.2403
G01 X137.5252 Y20.3107
G01 X137.5189 Y20.3257
G01 X137.4870 Y20.3933
G01 X137.4793 Y20.4077
G01 X137.4409 Y20.4718
G01 X137.4318 Y20.4853
G01 X137.3873 Y20.5454
G01 X137.3770 Y20.5579
G01 X137.3311 Y20.6086
G01 X137.3311 Y24.3776
G01 X140.5638 Y24.3776
G01 X140.5638 Y24.2814
G01 X140.5646 Y24.2652
G01 X140.5670 Y24.2491
G01 X140.5710 Y24.2333
G01 X140.5764 Y24.2181
G01 X140.5834 Y24.2034
G01 X140.5917 Y24.1894
G01 X140.6014 Y24.1764
G01 X140.6123 Y24.1644
G01 X140.6243 Y24.1535
G01 X140.6374 Y24.1438
G01 X140.6513 Y24.1354
G01 X140.6660 Y24.1285
G01 X140.6813 Y24.1230
G01 X140.6971 Y24.1191
G01 X140.7131 Y24.1167
G01 X140.7293 Y24.1159
G01 X142.7613 Y24.1159
G01 X142.7776 Y24.1167
G01 X142.7936 Y24.1191
G01 X142.8094 Y24.1230
G01 X142.8247 Y24.1285
G01 X142.8394 Y24.1354
G01 X142.8533 Y24.1438
G01 X142.8663 Y24.1535
G01 X142.8784 Y24.1644
G01 X142.8893 Y24.1764
G01 X142.8989 Y24.1894
G01 X142.9073 Y24.2034
G01 X142.9142 Y24.2181
G01 X142.9197 Y24.2333
G01 X142.9237 Y24.2491
G01 X142.9260 Y24.2652
G01 X142.9268 Y24.2814
G01 X142.9268 Y25.8054
G01 X142.9260 Y25.8216
G01 X142.9237 Y25.8377
G01 X142.9197 Y25.8534
G01 X142.9142 Y25.8687
G01 X142.9073 Y25.8834
G01 X142.8989 Y25.8973
G01 X142.8893 Y25.9104
G01 X142.8784 Y25.9224
G01 X142.8663 Y25.9333
G01 X142.8533 Y25.9430
G01 X142.8394 Y25.9513
G01 X142.8247 Y25.9583
G01 X142.8094 Y25.9638
G01 X142.7936 Y25.9677
G01 X142.7776 Y25.9701
G01 X142.7613 Y25.9709
G01 X140.7293 Y25.9709
G01 X140.7131 Y25.9701
G01 X140.6971 Y25.9677
G01 X140.6813 Y25.9638
G01 X140.6660 Y25.9583
G01 X140.6513 Y25.9513
G01 X140.6374 Y25.9430
G01 X140.6243 Y25.9333
G01 X140.6123 Y25.9224
G01 X140.6014 Y25.9104
G01 X140.5917 Y25.8973
G01 X140.5834 Y25.8834
G01 X140.5764 Y25.8687
G01 X140.5710 Y25.8534
G01 X140.5670 Y25.8377
G01 X140.5646 Y25.8216
G01 X140.5638 Y25.8054
G01 X140.5638 Y25.7091
G01 X136.6572 Y25.7089
G01 X136.6082 Y25.7065
G01 X136.5920 Y25.7049
G01 X136.5435 Y25.6977
G01 X136.5275 Y25.6946
G01 X136.4799 Y25.6826
G01 X136.4644 Y25.6779
G01 X136.4181 Y25.6614
G01 X136.4031 Y25.6552
G01 X136.3588 Y25.6342
G01 X136.3444 Y25.6265
G01 X136.3023 Y25.6013
G01 X136.2888 Y25.5923
G01 X136.2494 Y25.5630
G01 X136.2368 Y25.5527
G01 X136.2005 Y25.5197
G01 X136.1890 Y25.5083
G01 X136.1560 Y25.4719
G01 X136.1457 Y25.4593
G01 X136.1165 Y25.4199
G01 X136.1074 Y25.4064
G01 X136.0822 Y25.3643
G01 X136.0746 Y25.3500
G01 X136.0536 Y25.3056
G01 X136.0473 Y25.2906
G01 X136.0308 Y25.2444
G01 X136.0261 Y25.2288
G01 X136.0142 Y25.1812
G01 X136.0110 Y25.1653
G01 X136.0038 Y25.1167
G01 X136.0022 Y25.1005
G01 X135.9996 Y25.0434
G01 X135.9996 Y20.6086
G00 Z2.0000
G00 X132.2305 Y39.6176
G01 F60.00
G01 Z-0.2001
G01 F320.00
G01 X133.4801 Y39.6176
G01 X133.5308 Y39.5717
G01 X133.5433 Y39.5614
G01 X133.6034 Y39.5169
G01 X133.6169 Y39.5079
G01 X133.6811 Y39.4694
G01 X133.6954 Y39.4618
G01 X133.7630 Y39.4298
G01 X133.7780 Y39.4236
G01 X133.8484 Y39.3984
G01 X133.8639 Y39.3937
G01 X133.9365 Y39.3755
G01 X133.9524 Y39.3723
G01 X134.0264 Y39.3613
G01 X134.0425 Y39.3598
G01 X134.1172 Y39.3561
G01 X134.1335 Y39.3561
G01 X134.2081 Y39.3598
G01 X134.2243 Y39.3613
G01 X134.2983 Y39.3723
G01 X134.3142 Y39.3755
G01 X134.3867 Y39.3937
G01 X134.4023 Y39.3984
G01 X134.4727 Y39.4236
G01 X134.4877 Y39.4298
G01 X134.5553 Y39.4618
G01 X134.5696 Y39.4694
G01 X134.6338 Y39.5079
G01 X134.6473 Y39.5169
G01 X134.7073 Y39.5614
G01 X134.7199 Y39.5717
G01 X134.7753 Y39.6219
G01 X134.7868 Y39.6334
G01 X134.8370 Y39.6888
G01 X134.8473 Y39.7014
G01 X134.8918 Y39.7615
G01 X134.9009 Y39.7750
G01 X134.9393 Y39.8391
G01 X134.9470 Y39.8534
G01 X134.9789 Y39.9210
G01 X134.9852 Y39.9360
G01 X135.0104 Y40.0064
G01 X135.0151 Y40.0220
G01 X135.0332 Y40.0945
G01 X135.0364 Y40.1104
G01 X135.0474 Y40.1844
G01 X135.0490 Y40.2006
G01 X135.0526 Y40.2753
G01 X135.0526 Y40.2915
G01 X135.0490 Y40.3662
G01 X135.0474 Y40.3824
G01 X135.0364 Y40.4563
G01 X135.0332 Y40.4723
G01 X135.0151 Y40.5448
G01 X135.0104 Y40.5603
G01 X134.9852 Y40.6307
G01 X134.9789 Y40.6457
G01 X134.9470 Y40.7133
G01 X134.9393 Y40.7277
G01 X134.9009 Y40.7918
G01 X134.8918 Y40.8053
G01 X134.8473 Y40.8654
G01 X134.8370 Y40.8779
G01 X134.7868 Y40.9333
G01 X134.7753 Y40.9448
G01 X134.7199 Y40.9950
G01 X134.7073 Y41.0053
G01 X134.6473 Y41.0499
G01 X134.6338 Y41.0589
G01 X134.5696 Y41.0974
G01 X134.5553 Y41.1050
G01 X134.4877 Y41.1370
G01 X134.4727 Y41.1432
G01 X134.4023 Y41.1684
G01 X134.3867 Y41.1731
G01 X134.3142 Y41.1913
G01 X134.2983 Y41.1944
G01 X134.2243 Y41.2054
G01 X134.2081 Y41.2070
G01 X134.1335 Y41.2107
G01 X134.1172 Y41.2107
G01 X134.0425 Y41.2070
G01 X134.0264 Y41.2054
G01 X133.9524 Y41.1944
G01 X133.9365 Y41.1913
G01 X133.8639 Y41.1731
G01 X133.8484 Y41.1684
G01 X133.7780 Y41.1432
G01 X133.7630 Y41.1370
G01 X133.6954 Y41.1050
G01 X133.6811 Y41.0974
G01 X133.6169 Y41.0589
G01 X133.6034 Y41.0499
G01 X133.5433 Y41.0053
G01 X133.5308 Y40.9950
G01 X133.4801 Y40.9491
G01 X132.2305 Y40.9491
G01 X132.1799 Y40.9950
G01 X132.1673 Y41.0053
G01 X132.1073 Y41.0499
G01 X132.0938 Y41.0589
G01 X132.0296 Y41.0974
G01 X132.0153 Y41.1050
G01 X131.9477 Y41.1370
G01 X131.9327 Y41.1432
G01 X131.8623 Y41.1684
G01 X131.8467 Y41.1731
G01 X131.7742 Y41.1913
G01 X131.7583 Y41.1944
G01 X131.6843 Y41.2054
G01 X131.6681 Y41.2070
G01 X131.5935 Y41.2107
G01 X131.5772 Y41.2107
G01 X131.5025 Y41.2070
G01 X131.4864 Y41.2054
G01 X131.4124 Y41.1944
G01 X131.3965 Y41.1913
G01 X131.3239 Y41.1731
G01 X131.3084 Y41.1684
G01 X131.2380 Y41.1432
G01 X131.2230 Y41.1370
G01 X131.1554 Y41.1050
G01 X131.1411 Y41.0974
G01 X131.0769 Y41.0589
G01 X131.0634 Y41.0499
G01 X131.0033 Y41.0053
G01 X130.9908 Y40.9950
G01 X130.9354 Y40.9448
G01 X130.9239 Y40.9333
G01 X130.8737 Y40.8779
G01 X130.8634 Y40.8654
G01 X130.8188 Y40.8053
G01 X130.8098 Y40.7918
G01 X130.7714 Y40.7277
G01 X130.7637 Y40.7133
G01 X130.7317 Y40.6457
G01 X130.7255 Y40.6307
G01 X130.7003 Y40.5603
G01 X130.6956 Y40.5448
G01 X130.6774 Y40.4723
G01 X130.6743 Y40.4563
G01 X130.6633 Y40.3824
G01 X130.6617 Y40.3662
G01 X130.6580 Y40.2915
G01 X130.6580 Y40.2753
G01 X130.6617 Y40.2006
G01 X130.6633 Y40.1844
G01 X130.6743 Y40.1104
G01 X130.6774 Y40.0945
G01 X130.6956 Y40.0220
G01 X130.7003 Y40.0064
G01 X130.7255 Y39.9360
G01 X130.7317 Y39.9210
G01 X130.7637 Y39.8534
G01 X130.7714 Y39.8391
G01 X130.8098 Y39.7750
G01 X130.8188 Y39.7615
G01 X130.8634 Y39.7014
G01 X130.8737 Y39.6888
G01 X130.9239 Y39.6334
G01 X130.9354 Y39.6219
G01 X130.9908 Y39.5717
G01 X131.0033 Y39.5614
G01 X131.0634 Y39.5169
G01 X131.0769 Y39.5079
G01 X131.1411 Y39.4694
G01 X131.1554 Y39.4618
G01 X131.2230 Y39.4298
G01 X131.2380 Y39.4236
G01 X131.3084 Y39.3984
G01 X131.3239 Y39.3937
G01 X131.3965 Y39.3755
G01 X131.4124 Y39.3723
G01 X131.4864 Y39.3613
G01 X131.5025 Y39.3598
G01 X131.5772 Y39.3561
G01 X131.5935 Y39.3561
G01 X131.6681 Y39.3598
G01 X131.6843 Y39.3613
G01 X131.7583 Y39.3723
G01 X131.7742 Y39.3755
G01 X131.8467 Y39.3937
G01 X131.8623 Y39.3984
G01 X131.9327 Y39.4236
G01 X131.9477 Y39.4298
G01 X132.0153 Y39.4618
G01 X132.0296 Y39.4694
G01 X132.0938 Y39.5079
G01 X132.1073 Y39.5169
G01 X132.1673 Y39.5614
G01 X132.1799 Y39.5717
G01 X132.2305 Y39.6176
G00 Z2.0000
G00 X128.1180 Y45.3715
G01 F60.00
G01 Z-0.2001
G01 F320.00
G01 X128.1180 Y45.3553
G01 X128.1217 Y45.2806
G01 X128.1233 Y45.2644
G01 X128.1343 Y45.1904
G01 X128.1374 Y45.1745
G01 X128.1556 Y45.1020
G01 X128.1603 Y45.0864
G01 X128.1855 Y45.0160
G01 X128.1917 Y45.0010
G01 X128.2237 Y44.9334
G01 X128.2314 Y44.9191
G01 X128.2698 Y44.8550
G01 X128.2788 Y44.8415
G01 X128.3234 Y44.7814
G01 X128.3337 Y44.7688
G01 X128.3839 Y44.7134
G01 X128.3954 Y44.7019
G01 X128.4508 Y44.6517
G01 X128.4633 Y44.6414
G01 X128.5234 Y44.5969
G01 X128.5369 Y44.5879
G01 X128.6011 Y44.5494
G01 X128.6154 Y44.5418
G01 X128.6830 Y44.5098
G01 X128.6980 Y44.5036
G01 X128.7684 Y44.4784
G01 X128.7839 Y44.4737
G01 X128.8565 Y44.4555
G01 X128.8724 Y44.4523
G01 X128.9464 Y44.4413
G01 X128.9625 Y44.4398
G01 X129.0372 Y44.4361
G01 X129.0535 Y44.4361
G01 X129.1281 Y44.4398
G01 X129.1443 Y44.4413
G01 X129.2183 Y44.4523
G01 X129.2342 Y44.4555
G01 X129.3067 Y44.4737
G01 X129.3223 Y44.4784
G01 X129.3927 Y44.5036
G01 X129.4077 Y44.5098
G01 X129.4753 Y44.5418
G01 X129.4896 Y44.5494
G01 X129.5538 Y44.5879
G01 X129.5673 Y44.5969
G01 X129.6273 Y44.6414
G01 X129.6399 Y44.6517
G01 X129.6953 Y44.7019
G01 X129.7068 Y44.7134
G01 X129.7570 Y44.7688
G01 X129.7673 Y44.7814
G01 X129.8118 Y44.8415
G01 X129.8209 Y44.8550
G01 X129.8593 Y44.9191
G01 X129.8670 Y44.9334
G01 X129.8989 Y45.0010
G01 X129.9052 Y45.0160
G01 X129.9304 Y45.0864
G01 X129.9351 Y45.1020
G01 X129.9532 Y45.1745
G01 X129.9564 Y45.1904
G01 X129.9674 Y45.2644
G01 X129.9690 Y45.2806
G01 X129.9726 Y45.3553
G01 X129.9726 Y45.3715
G01 X129.9690 Y45.4462
G01 X129.9674 Y45.4624
G01 X129.9564 Y45.5363
G01 X129.9532 Y45.5523
G01 X129.9351 Y45.6248
G01 X129.9304 Y45.6403
G01 X129.9052 Y45.7107
G01 X129.8989 Y45.7257
G01 X129.8670 Y45.7933
G01 X129.8593 Y45.8077
G01 X129.8209 Y45.8718
G01 X129.8118 Y45.8853
G01 X129.7673 Y45.9454
G01 X129.7570 Y45.9579
G01 X129.7068 Y46.0133
G01 X129.6953 Y46.0248
G01 X129.6399 Y46.0750
G01 X129.6273 Y46.0853
G01 X129.5673 Y46.1299
G01 X129.5538 Y46.1389
G01 X129.4896 Y46.1774
G01 X129.4753 Y46.1850
G01 X129.4077 Y46.2170
G01 X129.3927 Y46.2232
G01 X129.3223 Y46.2484
G01 X129.3067 Y46.2531
G01 X129.2342 Y46.2713
G01 X129.2183 Y46.2744
G01 X129.1443 Y46.2854
G01 X129.1281 Y46.2870
G01 X129.0535 Y46.2907
G01 X129.0372 Y46.2907
G01 X128.9625 Y46.2870
G01 X128.9464 Y46.2854
G01 X128.8724 Y46.2744
G01 X128.8565 Y46.2713
G01 X128.7839 Y46.2531
G01 X128.7684 Y46.2484
G01 X128.6980 Y46.2232
G01 X128.6830 Y46.2170
G01 X128.6154 Y46.1850
G01 X128.6011 Y46.1774
G01 X128.5369 Y46.1389
G01 X128.5234 Y46.1299
G01 X128.4633 Y46.0853
G01 X128.4508 Y46.0750
G01 X128.3954 Y46.0248
G01 X128.3839 Y46.0133
G01 X128.3337 Y45.9579
G01 X128.3234 Y45.9454
G01 X128.2788 Y45.8853
G01 X128.2698 Y45.8718
G01 X128.2314 Y45.8077
G01 X128.2237 Y45.7933
G01 X128.1917 Y45.7257
G01 X128.1855 Y45.7107
G01 X128.1603 Y45.6403
G01 X128.1556 Y45.6248
G01 X128.1374 Y45.5523
G01 X128.1343 Y45.5363
G01 X128.1233 Y45.4624
G01 X128.1217 Y45.4462
G01 X128.1180 Y45.3715
G00 Z2.0000
G00 X129.6905 Y49.7776
G01 F60.00
G01 Z-0.2001
G01 F320.00
G01 X131.5853 Y49.7776
G01 X131.6425 Y49.7802
G01 X131.6587 Y49.7818
G01 X131.7072 Y49.7890
G01 X131.7231 Y49.7922
G01 X131.7708 Y49.8041
G01 X131.7863 Y49.8089
G01 X131.8325 Y49.8254
G01 X131.8475 Y49.8316
G01 X131.8919 Y49.8526
G01 X131.9062 Y49.8603
G01 X131.9483 Y49.8855
G01 X131.9618 Y49.8945
G01 X132.0013 Y49.9238
G01 X132.0138 Y49.9341
G01 X132.0502 Y49.9670
G01 X132.0617 Y49.9785
G01 X132.0947 Y50.0149
G01 X132.1050 Y50.0274
G01 X132.1342 Y50.0669
G01 X132.1432 Y50.0804
G01 X132.1685 Y50.1225
G01 X132.1761 Y50.1368
G01 X132.1971 Y50.1812
G01 X132.2033 Y50.1962
G01 X132.2199 Y50.2424
G01 X132.2246 Y50.2580
G01 X132.2365 Y50.3056
G01 X132.2397 Y50.3215
G01 X132.2469 Y50.3701
G01 X132.2485 Y50.3862
G01 X132.2511 Y50.4434
G01 X132.2511 Y54.3419
G01 X132.3473 Y54.3419
G01 X132.3636 Y54.3427
G01 X132.3796 Y54.3451
G01 X132.3954 Y54.3490
G01 X132.4107 Y54.3545
G01 X132.4254 Y54.3614
G01 X132.4393 Y54.3698
G01 X132.4523 Y54.3795
G01 X132.4644 Y54.3904
G01 X132.4753 Y54.4024
G01 X132.4849 Y54.4154
G01 X132.4933 Y54.4294
G01 X132.5002 Y54.4441
G01 X132.5057 Y54.4593
G01 X132.5097 Y54.4751
G01 X132.5120 Y54.4912
G01 X132.5128 Y54.5074
G01 X132.5128 Y56.5394
G01 X132.5120 Y56.5556
G01 X132.5097 Y56.5717
G01 X132.5057 Y56.5874
G01 X132.5002 Y56.6027
G01 X132.4933 Y56.6174
G01 X132.4849 Y56.6313
G01 X132.4753 Y56.6444
G01 X132.4644 Y56.6564
G01 X132.4523 Y56.6673
G01 X132.4393 Y56.6770
G01 X132.4254 Y56.6853
G01 X132.4107 Y56.6923
G01 X132.3954 Y56.6978
G01 X132.3796 Y56.7017
G01 X132.3636 Y56.7041
G01 X132.3473 Y56.7049
G01 X132.2511 Y56.7049
G01 X132.2511 Y59.9582
G01 X132.2970 Y60.0088
G01 X132.3073 Y60.0214
G01 X132.3518 Y60.0815
G01 X132.3609 Y60.0950
G01 X132.3993 Y60.1591
G01 X132.4070 Y60.1734
G01 X132.4389 Y60.2410
G01 X132.4452 Y60.2560
G01 X132.4704 Y60.3264
G01 X132.4751 Y60.3420
G01 X132.4932 Y60.4145
G01 X132.4964 Y60.4304
G01 X132.5074 Y60.5044
G01 X132.5090 Y60.5206
G01 X132.5126 Y60.5953
G01 X132.5126 Y60.6115
G01 X132.5090 Y60.6862
G01 X132.5074 Y60.7024
G01 X132.4964 Y60.7763
G01 X132.4932 Y60.7923
G01 X132.4751 Y60.8648
G01 X132.4704 Y60.8803
G01 X132.4452 Y60.9507
G01 X132.4389 Y60.9657
G01 X132.4070 Y61.0333
G01 X132.3993 Y61.0477
G01 X132.3609 Y61.1118
G01 X132.3518 Y61.1253
G01 X132.3073 Y61.1854
G01 X132.2970 Y61.1979
G01 X132.2468 Y61.2533
G01 X132.2353 Y61.2648
G01 X132.1799 Y61.3150
G01 X132.1673 Y61.3253
G01 X132.1073 Y61.3699
G01 X132.0938 Y61.3789
G01 X132.0296 Y61.4174
G01 X132.0153 Y61.4250
G01 X131.9477 Y61.4570
G01 X131.9327 Y61.4632
G01 X131.8623 Y61.4884
G01 X131.8467 Y61.4931
G01 X131.7742 Y61.5113
G01 X131.7583 Y61.5144
G01 X131.6843 Y61.5254
G01 X131.6681 Y61.5270
G01 X131.5935 Y61.5307
G01 X131.5772 Y61.5307
G01 X131.5025 Y61.5270
G01 X131.4864 Y61.5254
G01 X131.4124 Y61.5144
G01 X131.3965 Y61.5113
G01 X131.3239 Y61.4931
G01 X131.3084 Y61.4884
G01 X131.2380 Y61.4632
G01 X131.2230 Y61.4570
G01 X131.1554 Y61.4250
G01 X131.1411 Y61.4174
G01 X131.0769 Y61.3789
G01 X131.0634 Y61.3699
G01 X131.0033 Y61.3253
G01 X130.9908 Y61.3150
G01 X130.9354 Y61.2648
G01 X130.9239 Y61.2533
G01 X130.8737 Y61.1979
G01 X130.8634 Y61.1854
G01 X130.8188 Y61.1253
G01 X130.8098 Y61.1118
G01 X130.7714 Y61.0477
G01 X130.7637 Y61.0333
G01 X130.7317 Y60.9657
G01 X130.7255 Y60.9507
G01 X130.7003 Y60.8803
G01 X130.6956 Y60.8648
G01 X130.6774 Y60.7923
G01 X130.6743 Y60.7763
G01 X130.6633 Y60.7024
G01 X130.6617 Y60.6862
G01 X130.6580 Y60.6115
G01 X130.6580 Y60.5953
G01 X130.6617 Y60.5206
G01 X130.6633 Y60.5044
G01 X130.6743 Y60.4304
G01 X130.6774 Y60.4145
G01 X130.6956 Y60.3420
G01 X130.7003 Y60.3264
G01 X130.7255 Y60.2560
G01 X130.7317 Y60.2410
G01 X130.7637 Y60.1734
G01 X130.7714 Y60.1591
G01 X130.8098 Y60.0950
G01 X130.8188 Y60.0815
G01 X130.8634 Y60.0214
G01 X130.8737 Y60.0088
G01 X130.9196 Y59.9582
G01 X130.9196 Y56.7049
G01 X130.8233 Y56.7049
G01 X130.8071 Y56.7041
G01 X130.7911 Y56.7017
G01 X130.7753 Y56.6978
G01 X130.7600 Y56.6923
G01 X130.7453 Y56.6853
G01 X130.7314 Y56.6770
G01 X130.7183 Y56.6673
G01 X130.7063 Y56.6564
G01 X130.6954 Y56.6444
G01 X130.6857 Y56.6313
G01 X130.6774 Y56.6174
G01 X130.6704 Y56.6027
G01 X130.6650 Y56.5874
G01 X130.6610 Y56.5717
G01 X130.6586 Y56.5556
G01 X130.6578 Y56.5394
G01 X130.6578 Y54.5074
G01 X130.6586 Y54.4912
G01 X130.6610 Y54.4751
G01 X130.6650 Y54.4593
G01 X130.6704 Y54.4441
G01 X130.6774 Y54.4294
G01 X130.6857 Y54.4154
G01 X130.6954 Y54.4024
G01 X130.7063 Y54.3904
G01 X130.7183 Y54.3795
G01 X130.7314 Y54.3698
G01 X130.7453 Y54.3614
G01 X130.7600 Y54.3545
G01 X130.7753 Y54.3490
G01 X130.7911 Y54.3451
G01 X130.8071 Y54.3427
G01 X130.8233 Y54.3419
G01 X130.9196 Y54.3419
G01 X130.9196 Y51.1091
G01 X129.6905 Y51.1091
G01 X129.6399 Y51.1550
G01 X129.6273 Y51.1653
G01 X129.5673 Y51.2099
G01 X129.5538 Y51.2189
G01 X129.4896 Y51.2574
G01 X129.4753 Y51.2650
G01 X129.4077 Y51.2970
G01 X129.3927 Y51.3032
G01 X129.3223 Y51.3284
G01 X129.3067 Y51.3331
G01 X129.2342 Y51.3513
G01 X129.2183 Y51.3544
G01 X129.1443 Y51.3654
G01 X129.1281 Y51.3670
G01 X129.0535 Y51.3707
G01 X129.0372 Y51.3707
G01 X128.9625 Y51.3670
G01 X128.9464 Y51.3654
G01 X128.8724 Y51.3544
G01 X128.8565 Y51.3513
G01 X128.7839 Y51.3331
G01 X128.7684 Y51.3284
G01 X128.6980 Y51.3032
G01 X128.6830 Y51.2970
G01 X128.6154 Y51.2650
G01 X128.6011 Y51.2574
G01 X128.5369 Y51.2189
G01 X128.5234 Y51.2099
G01 X128.4633 Y51.1653
G01 X128.4508 Y51.1550
G01 X128.3954 Y51.1048
G01 X128.3839 Y51.0933
G01 X128.3337 Y51.0379
G01 X128.3234 Y51.0254
G01 X128.2788 Y50.9653
G01 X128.2698 Y50.9518
G01 X128.2314 Y50.8877
G01 X128.2237 Y50.8733
G01 X128.1917 Y50.8057
G01 X128.1855 Y50.7907
G01 X128.1603 Y50.7203
G01 X128.1556 Y50.7048
G01 X128.1374 Y50.6323
G01 X128.1343 Y50.6163
G01 X128.1233 Y50.5424
G01 X128.1217 Y50.5262
G01 X128.1180 Y50.4515
G01 X128.1180 Y50.4353
G01 X128.1217 Y50.3606
G01 X128.1233 Y50.3444
G01 X128.1343 Y50.2704
G01 X128.1374 Y50.2545
G01 X128.1556 Y50.1820
G01 X128.1603 Y50.1664
G01 X128.1855 Y50.0960
G01 X128.1917 Y50.0810
G01 X128.2237 Y50.0134
G01 X128.2314 Y49.9991
G01 X128.2698 Y49.9350
G01 X128.2788 Y49.9215
G01 X128.3234 Y49.8614
G01 X128.3337 Y49.8488
G01 X128.3839 Y49.7934
G01 X128.3954 Y49.7819
G01 X128.4508 Y49.7317
G01 X128.4633 Y49.7214
G01 X128.5234 Y49.6769
G01 X128.5369 Y49.6679
G01 X128.6011 Y49.6294
G01 X128.6154 Y49.6218
G01 X128.6830 Y49.5898
G01 X128.6980 Y49.5836
G01 X128.7684 Y49.5584
G01 X128.7839 Y49.5537
G01 X128.8565 Y49.5355
G01 X128.8724 Y49.5323
G01 X128.9464 Y49.5213
G01 X128.9625 Y49.5198
G01 X129.0372 Y49.5161
G01 X129.0535 Y49.5161
G01 X129.1281 Y49.5198
G01 X129.1443 Y49.5213
G01 X129.2183 Y49.5323
G01 X129.2342 Y49.5355
G01 X129.3067 Y49.5537
G01 X129.3223 Y49.5584
G01 X129.3927 Y49.5836
G01 X129.4077 Y49.5898
G01 X129.4753 Y49.6218
G01 X129.4896 Y49.6294
G01 X129.5538 Y49.6679
G01 X129.5673 Y49.6769
G01 X129.6273 Y49.7214
G01 X129.6399 Y49.7317
G01 X129.6905 Y49.7776
G00 Z2.0000
G00 X124.6105 Y54.8576
G01 F60.00
G01 Z-0.2001
G01 F320.00
G01 X128.1178 Y54.8576
G01 X128.1178 Y54.5074
G01 X128.1186 Y54.4912
G01 X128.1210 Y54.4751
G01 X128.1250 Y54.4593
G01 X128.1304 Y54.4441
G01 X128.1374 Y54.4294
G01 X128.1457 Y54.4154
G01 X128.1554 Y54.4024
G01 X128.1663 Y54.3904
G01 X128.1783 Y54.3795
G01 X128.1914 Y54.3698
G01 X128.2053 Y54.3614
G01 X128.2200 Y54.3545
G01 X128.2353 Y54.3490
G01 X128.2511 Y54.3451
G01 X128.2671 Y54.3427
G01 X128.2833 Y54.3419
G01 X129.8073 Y54.3419
G01 X129.8236 Y54.3427
G01 X129.8396 Y54.3451
G01 X129.8554 Y54.3490
G01 X129.8707 Y54.3545
G01 X129.8854 Y54.3614
G01 X129.8993 Y54.3698
G01 X129.9123 Y54.3795
G01 X129.9244 Y54.3904
G01 X129.9353 Y54.4024
G01 X129.9449 Y54.4154
G01 X129.9533 Y54.4294
G01 X129.9602 Y54.4441
G01 X129.9657 Y54.4593
G01 X129.9697 Y54.4751
G01 X129.9720 Y54.4912
G01 X129.9728 Y54.5074
G01 X129.9728 Y56.5394
G01 X129.9720 Y56.5556
G01 X129.9697 Y56.5717
G01 X129.9657 Y56.5874
G01 X129.9602 Y56.6027
G01 X129.9533 Y56.6174
G01 X129.9449 Y56.6313
G01 X129.9353 Y56.6444
G01 X129.9244 Y56.6564
G01 X129.9123 Y56.6673
G01 X129.8993 Y56.6770
G01 X129.8854 Y56.6853
G01 X129.8707 Y56.6923
G01 X129.8554 Y56.6978
G01 X129.8396 Y56.7017
G01 X129.8236 Y56.7041
G01 X129.8073 Y56.7049
G01 X128.2833 Y56.7049
G01 X128.2671 Y56.7041
G01 X128.2511 Y56.7017
G01 X128.2353 Y56.6978
G01 X128.2200 Y56.6923
G01 X128.2053 Y56.6853
G01 X128.1914 Y56.6770
G01 X128.1783 Y56.6673
G01 X128.1663 Y56.6564
G01 X128.1554 Y56.6444
G01 X128.1457 Y56.6313
G01 X128.1374 Y56.6174
G01 X128.1304 Y56.6027
G01 X128.1250 Y56.5874
G01 X128.1210 Y56.5717
G01 X128.1186 Y56.5556
G01 X128.1178 Y56.5394
G01 X128.1178 Y56.1891
G01 X124.6105 Y56.1891
G01 X124.5599 Y56.2350
G01 X124.5473 Y56.2453
G01 X124.4873 Y56.2899
G01 X124.4738 Y56.2989
G01 X124.4096 Y56.3374
G01 X124.3953 Y56.3450
G01 X124.3277 Y56.3770
G01 X124.3127 Y56.3832
G01 X124.2423 Y56.4084
G01 X124.2267 Y56.4131
G01 X124.1542 Y56.4313
G01 X124.1383 Y56.4344
G01 X124.0643 Y56.4454
G01 X124.0481 Y56.4470
G01 X123.9735 Y56.4507
G01 X123.9572 Y56.4507
G01 X123.8825 Y56.4470
G01 X123.8664 Y56.4454
G01 X123.7924 Y56.4344
G01 X123.7765 Y56.4313
G01 X123.7039 Y56.4131
G01 X123.6884 Y56.4084
G01 X123.6180 Y56.3832
G01 X123.6030 Y56.3770
G01 X123.5354 Y56.3450
G01 X123.5211 Y56.3374
G01 X123.4569 Y56.2989
G01 X123.4434 Y56.2899
G01 X123.3833 Y56.2453
G01 X123.3708 Y56.2350
G01 X123.3154 Y56.1848
G01 X123.3039 Y56.1733
G01 X123.2537 Y56.1179
G01 X123.2434 Y56.1054
G01 X123.1988 Y56.0453
G01 X123.1898 Y56.0318
G01 X123.1514 Y55.9677
G01 X123.1437 Y55.9533
G01 X123.1117 Y55.8857
G01 X123.1055 Y55.8707
G01 X123.0803 Y55.8003
G01 X123.0756 Y55.7848
G01 X123.0574 Y55.7123
G01 X123.0543 Y55.6963
G01 X123.0433 Y55.6224
G01 X123.0417 Y55.6062
G01 X123.0380 Y55.5315
G01 X123.0380 Y55.5153
G01 X123.0417 Y55.4406
G01 X123.0433 Y55.4244
G01 X123.0543 Y55.3504
G01 X123.0574 Y55.3345
G01 X123.0756 Y55.2620
G01 X123.0803 Y55.2464
G01 X123.1055 Y55.1760
G01 X123.1117 Y55.1610
G01 X123.1437 Y55.0934
G01 X123.1514 Y55.0791
G01 X123.1898 Y55.0150
G01 X123.1988 Y55.0015
G01 X123.2434 Y54.9414
G01 X123.2537 Y54.9288
G01 X123.3039 Y54.8734
G01 X123.3154 Y54.8619
G01 X123.3708 Y54.8117
G01 X123.3833 Y54.8014
G01 X123.4434 Y54.7569
G01 X123.4569 Y54.7479
G01 X123.5211 Y54.7094
G01 X123.5354 Y54.7018
G01 X123.6030 Y54.6698
G01 X123.6180 Y54.6636
G01 X123.6884 Y54.6384
G01 X123.7039 Y54.6337
G01 X123.7765 Y54.6155
G01 X123.7924 Y54.6123
G01 X123.8664 Y54.6013
G01 X123.8825 Y54.5998
G01 X123.9572 Y54.5961
G01 X123.9735 Y54.5961
G01 X124.0481 Y54.5998
G01 X124.0643 Y54.6013
G01 X124.1383 Y54.6123
G01 X124.1542 Y54.6155
G01 X124.2267 Y54.6337
G01 X124.2423 Y54.6384
G01 X124.3127 Y54.6636
G01 X124.3277 Y54.6698
G01 X124.3953 Y54.7018
G01 X124.4096 Y54.7094
G01 X124.4738 Y54.7479
G01 X124.4873 Y54.7569
G01 X124.5473 Y54.8014
G01 X124.5599 Y54.8117
G01 X124.6105 Y54.8576
G00 Z2.0000
G00 X123.2996 Y59.9582
G01 F60.00
G01 Z-0.2001
G01 F320.00
G01 X123.2996 Y58.7086
G01 X123.2537 Y58.6579
G01 X123.2434 Y58.6454
G01 X123.1988 Y58.5853
G01 X123.1898 Y58.5718
G01 X123.1514 Y58.5077
G01 X123.1437 Y58.4933
G01 X123.1117 Y58.4257
G01 X123.1055 Y58.4107
G01 X123.0803 Y58.3403
G01 X123.0756 Y58.3248
G01 X123.0574 Y58.2523
G01 X123.0543 Y58.2363
G01 X123.0433 Y58.1624
G01 X123.0417 Y58.1462
G01 X123.0380 Y58.0715
G01 X123.0380 Y58.0553
G01 X123.0417 Y57.9806
G01 X123.0433 Y57.9644
G01 X123.0543 Y57.8904
G01 X123.0574 Y57.8745
G01 X123.0756 Y57.8020
G01 X123.0803 Y57.7864
G01 X123.1055 Y57.7160
G01 X123.1117 Y57.7010
G01 X123.1437 Y57.6334
G01 X123.1514 Y57.6191
G01 X123.1898 Y57.5550
G01 X123.1988 Y57.5415
G01 X123.2434 Y57.4814
G01 X123.2537 Y57.4688
G01 X123.3039 Y57.4134
G01 X123.3154 Y57.4019
G01 X123.3708 Y57.3517
G01 X123.3833 Y57.3414
G01 X123.4434 Y57.2969
G01 X123.4569 Y57.2879
G01 X123.5211 Y57.2494
G01 X123.5354 Y57.2418
G01 X123.6030 Y57.2098
G01 X123.6180 Y57.2036
G01 X123.6884 Y57.1784
G01 X123.7039 Y57.1737
G01 X123.7765 Y57.1555
G01 X123.7924 Y57.1523
G01 X123.8664 Y57.1413
G01 X123.8825 Y57.1398
G01 X123.9572 Y57.1361
G01 X123.9735 Y57.1361
G01 X124.0481 Y57.1398
G01 X124.0643 Y57.1413
G01 X124.1383 Y57.1523
G01 X124.1542 Y57.1555
G01 X124.2267 Y57.1737
G01 X124.2423 Y57.1784
G01 X124.3127 Y57.2036
G01 X124.3277 Y57.2098
G01 X124.3953 Y57.2418
G01 X124.4096 Y57.2494
G01 X124.4738 Y57.2879
G01 X124.4873 Y57.2969
G01 X124.5473 Y57.3414
G01 X124.5599 Y57.3517
G01 X124.6105 Y57.3976
G01 X125.8601 Y57.3976
G01 X125.9108 Y57.3517
G01 X125.9233 Y57.3414
G01 X125.9834 Y57.2969
G01 X125.9969 Y57.2879
G01 X126.0611 Y57.2494
G01 X126.0754 Y57.2418
G01 X126.1430 Y57.2098
G01 X126.1580 Y57.2036
G01 X126.2284 Y57.1784
G01 X126.2439 Y57.1737
G01 X126.3165 Y57.1555
G01 X126.3324 Y57.1523
G01 X126.4064 Y57.1413
G01 X126.4225 Y57.1398
G01 X126.4972 Y57.1361
G01 X126.5135 Y57.1361
G01 X126.5881 Y57.1398
G01 X126.6043 Y57.1413
G01 X126.6783 Y57.1523
G01 X126.6942 Y57.1555
G01 X126.7667 Y57.1737
G01 X126.7823 Y57.1784
G01 X126.8527 Y57.2036
G01 X126.8677 Y57.2098
G01 X126.9353 Y57.2418
G01 X126.9496 Y57.2494
G01 X127.0138 Y57.2879
G01 X127.0273 Y57.2969
G01 X127.0873 Y57.3414
G01 X127.0999 Y57.3517
G01 X127.1553 Y57.4019
G01 X127.1668 Y57.4134
G01 X127.2170 Y57.4688
G01 X127.2273 Y57.4814
G01 X127.2718 Y57.5415
G01 X127.2809 Y57.5550
G01 X127.3193 Y57.6191
G01 X127.3270 Y57.6334
G01 X127.3589 Y57.7010
G01 X127.3652 Y57.7160
G01 X127.3904 Y57.7864
G01 X127.3951 Y57.8020
G01 X127.4132 Y57.8745
G01 X127.4164 Y57.8904
G01 X127.4274 Y57.9644
G01 X127.4290 Y57.9806
G01 X127.4326 Y58.0553
G01 X127.4326 Y58.0715
G01 X127.4290 Y58.1462
G01 X127.4274 Y58.1624
G01 X127.4164 Y58.2363
G01 X127.4132 Y58.2523
G01 X127.3951 Y58.3248
G01 X127.3904 Y58.3403
G01 X127.3652 Y58.4107
G01 X127.3589 Y58.4257
G01 X127.3270 Y58.4933
G01 X127.3193 Y58.5077
G01 X127.2809 Y58.5718
G01 X127.2718 Y58.5853
G01 X127.2273 Y58.6454
G01 X127.2170 Y58.6579
G01 X127.1668 Y58.7133
G01 X127.1553 Y58.7248
G01 X127.0999 Y58.7750
G01 X127.0873 Y58.7853
G01 X127.0273 Y58.8299
G01 X127.0138 Y58.8389
G01 X126.9496 Y58.8774
G01 X126.9353 Y58.8850
G01 X126.8677 Y58.9170
G01 X126.8527 Y58.9232
G01 X126.7823 Y58.9484
G01 X126.7667 Y58.9531
G01 X126.6942 Y58.9713
G01 X126.6783 Y58.9744
G01 X126.6043 Y58.9854
G01 X126.5881 Y58.9870
G01 X126.5135 Y58.9907
G01 X126.4972 Y58.9907
G01 X126.4225 Y58.9870
G01 X126.4064 Y58.9854
G01 X126.3324 Y58.9744
G01 X126.3165 Y58.9713
G01 X126.2439 Y58.9531
G01 X126.2284 Y58.9484
G01 X126.1580 Y58.9232
G01 X126.1430 Y58.9170
G01 X126.0754 Y58.8850
G01 X126.0611 Y58.8774
G01 X125.9969 Y58.8389
G01 X125.9834 Y58.8299
G01 X125.9233 Y58.7853
G01 X125.9108 Y58.7750
G01 X125.8601 Y58.7291
G01 X124.6311 Y58.7291
G01 X124.6311 Y59.9582
G01 X124.6770 Y60.0088
G01 X124.6873 Y60.0214
G01 X124.7318 Y60.0815
G01 X124.7409 Y60.0950
G01 X124.7793 Y60.1591
G01 X124.7870 Y60.1734
G01 X124.8189 Y60.2410
G01 X124.8252 Y60.2560
G01 X124.8504 Y60.3264
G01 X124.8551 Y60.3420
G01 X124.8732 Y60.4145
G01 X124.8764 Y60.4304
G01 X124.8874 Y60.5044
G01 X124.8890 Y60.5206
G01 X124.8926 Y60.5953
G01 X124.8926 Y60.6115
G01 X124.8890 Y60.6862
G01 X124.8874 Y60.7024
G01 X124.8764 Y60.7763
G01 X124.8732 Y60.7923
G01 X124.8551 Y60.8648
G01 X124.8504 Y60.8803
G01 X124.8252 Y60.9507
G01 X124.8189 Y60.9657
G01 X124.7870 Y61.0333
G01 X124.7793 Y61.0477
G01 X124.7409 Y61.1118
G01 X124.7318 Y61.1253
G01 X124.6873 Y61.1854
G01 X124.6770 Y61.1979
G01 X124.6268 Y61.2533
G01 X124.6153 Y61.2648
G01 X124.5599 Y61.3150
G01 X124.5473 Y61.3253
G01 X124.4873 Y61.3699
G01 X124.4738 Y61.3789
G01 X124.4096 Y61.4174
G01 X124.3953 Y61.4250
G01 X124.3277 Y61.4570
G01 X124.3127 Y61.4632
G01 X124.2423 Y61.4884
G01 X124.2267 Y61.4931
G01 X124.1542 Y61.5113
G01 X124.1383 Y61.5144
G01 X124.0643 Y61.5254
G01 X124.0481 Y61.5270
G01 X123.9735 Y61.5307
G01 X123.9572 Y61.5307
G01 X123.8825 Y61.5270
G01 X123.8664 Y61.5254
G01 X123.7924 Y61.5144
G01 X123.7765 Y61.5113
G01 X123.7039 Y61.4931
G01 X123.6884 Y61.4884
G01 X123.6180 Y61.4632
G01 X123.6030 Y61.4570
G01 X123.5354 Y61.4250
G01 X123.5211 Y61.4174
G01 X123.4569 Y61.3789
G01 X123.4434 Y61.3699
G01 X123.3833 Y61.3253
G01 X123.3708 Y61.3150
G01 X123.3154 Y61.2648
G01 X123.3039 Y61.2533
G01 X123.2537 Y61.1979
G01 X123.2434 Y61.1854
G01 X123.1988 Y61.1253
G01 X123.1898 Y61.1118
G01 X123.1514 Y61.0477
G01 X123.1437 Y61.0333
G01 X123.1117 Y60.9657
G01 X123.1055 Y60.9507
G01 X123.0803 Y60.8803
G01 X123.0756 Y60.8648
G01 X123.0574 Y60.7923
G01 X123.0543 Y60.7763
G01 X123.0433 Y60.7024
G01 X123.0417 Y60.6862
G01 X123.0380 Y60.6115
G01 X123.0380 Y60.5953
G01 X123.0417 Y60.5206
G01 X123.0433 Y60.5044
G01 X123.0543 Y60.4304
G01 X123.0574 Y60.4145
G01 X123.0756 Y60.3420
G01 X123.0803 Y60.3264
G01 X123.1055 Y60.2560
G01 X123.1117 Y60.2410
G01 X123.1437 Y60.1734
G01 X123.1514 Y60.1591
G01 X123.1898 Y60.0950
G01 X123.1988 Y60.0815
G01 X123.2434 Y60.0214
G01 X123.2537 Y60.0088
G01 X123.2996 Y59.9582
G00 Z2.0000
G00 X116.9905 Y65.0176
G01 F60.00
G01 Z-0.2001
G01 F320.00
G01 X123.3201 Y65.0176
G01 X123.3708 Y64.9717
G01 X123.3833 Y64.9614
G01 X123.4434 Y64.9169
G01 X123.4569 Y64.9079
G01 X123.5211 Y64.8694
G01 X123.5354 Y64.8618
G01 X123.6030 Y64.8298
G01 X123.6180 Y64.8236
G01 X123.6884 Y64.7984
G01 X123.7039 Y64.7937
G01 X123.7765 Y64.7755
G01 X123.7924 Y64.7723
G01 X123.8664 Y64.7613
G01 X123.8825 Y64.7598
G01 X123.9572 Y64.7561
G01 X123.9735 Y64.7561
G01 X124.0481 Y64.7598
G01 X124.0643 Y64.7613
G01 X124.1383 Y64.7723
G01 X124.1542 Y64.7755
G01 X124.2267 Y64.7937
G01 X124.2423 Y64.7984
G01 X124.3127 Y64.8236
G01 X124.3277 Y64.8298
G01 X124.3953 Y64.8618
G01 X124.4096 Y64.8694
G01 X124.4738 Y64.9079
G01 X124.4873 Y64.9169
G01 X124.5473 Y64.9614
G01 X124.5599 Y64.9717
G01 X124.6153 Y65.0219
G01 X124.6268 Y65.0334
G01 X124.6770 Y65.0888
G01 X124.6873 Y65.1014
G01 X124.7318 Y65.1615
G01 X124.7409 Y65.1750
G01 X124.7793 Y65.2391
G01 X124.7870 Y65.2534
G01 X124.8189 Y65.3210
G01 X124.8252 Y65.3360
G01 X124.8504 Y65.4064
G01 X124.8551 Y65.4220
G01 X124.8732 Y65.4945
G01 X124.8764 Y65.5104
G01 X124.8874 Y65.5844
G01 X124.8890 Y65.6006
G01 X124.8926 Y65.6753
G01 X124.8926 Y65.6915
G01 X124.8890 Y65.7662
G01 X124.8874 Y65.7824
G01 X124.8764 Y65.8563
G01 X124.8732 Y65.8723
G01 X124.8551 Y65.9448
G01 X124.8504 Y65.9603
G01 X124.8252 Y66.0307
G01 X124.8189 Y66.0457
G01 X124.7870 Y66.1133
G01 X124.7793 Y66.1277
G01 X124.7409 Y66.1918
G01 X124.7318 Y66.2053
G01 X124.6873 Y66.2654
G01 X124.6770 Y66.2779
G01 X124.6311 Y66.3286
G01 X124.6311 Y67.5782
G01 X124.6770 Y67.6288
G01 X124.6873 Y67.6414
G01 X124.7318 Y67.7015
G01 X124.7409 Y67.7150
G01 X124.7793 Y67.7791
G01 X124.7870 Y67.7934
G01 X124.8189 Y67.8610
G01 X124.8252 Y67.8760
G01 X124.8504 Y67.9464
G01 X124.8551 Y67.9620
G01 X124.8732 Y68.0345
G01 X124.8764 Y68.0504
G01 X124.8874 Y68.1244
G01 X124.8890 Y68.1406
G01 X124.8926 Y68.2153
G01 X124.8926 Y68.2315
G01 X124.8890 Y68.3062
G01 X124.8874 Y68.3224
G01 X124.8764 Y68.3963
G01 X124.8732 Y68.4123
G01 X124.8551 Y68.4848
G01 X124.8504 Y68.5003
G01 X124.8252 Y68.5707
G01 X124.8189 Y68.5857
G01 X124.7870 Y68.6533
G01 X124.7793 Y68.6677
G01 X124.7409 Y68.7318
G01 X124.7318 Y68.7453
G01 X124.6873 Y68.8054
G01 X124.6770 Y68.8179
G01 X124.6268 Y68.8733
G01 X124.6153 Y68.8848
G01 X124.5599 Y68.9350
G01 X124.5473 Y68.9453
G01 X124.4873 Y68.9899
G01 X124.4738 Y68.9989
G01 X124.4096 Y69.0374
G01 X124.3953 Y69.0450
G01 X124.3277 Y69.0770
G01 X124.3127 Y69.0832
G01 X124.2423 Y69.1084
G01 X124.2267 Y69.1131
G01 X124.1542 Y69.1313
G01 X124.1383 Y69.1344
G01 X124.0643 Y69.1454
G01 X124.0481 Y69.1470
G01 X123.9735 Y69.1507
G01 X123.9572 Y69.1507
G01 X123.8825 Y69.1470
G01 X123.8664 Y69.1454
G01 X123.7924 Y69.1344
G01 X123.7765 Y69.1313
G01 X123.7039 Y69.1131
G01 X123.6884 Y69.1084
G01 X123.6180 Y69.0832
G01 X123.6030 Y69.0770
G01 X123.5354 Y69.0450
G01 X123.5211 Y69.0374
G01 X123.4569 Y68.9989
G01 X123.4434 Y68.9899
G01 X123.3833 Y68.9453
G01 X123.3708 Y68.9350
G01 X123.3154 Y68.8848
G01 X123.3039 Y68.8733
G01 X123.2537 Y68.8179
G01 X123.2434 Y68.8054
G01 X123.1988 Y68.7453
G01 X123.1898 Y68.7318
G01 X123.1514 Y68.6677
G01 X123.1437 Y68.6533
G01 X123.1117 Y68.5857
G01 X123.1055 Y68.5707
G01 X123.0803 Y68.5003
G01 X123.0756 Y68.4848
G01 X123.0574 Y68.4123
G01 X123.0543 Y68.3963
G01 X123.0433 Y68.3224
G01 X123.0417 Y68.3062
G01 X123.0380 Y68.2315
G01 X123.0380 Y68.2153
G01 X123.0417 Y68.1406
G01 X123.0433 Y68.1244
G01 X123.0543 Y68.0504
G01 X123.0574 Y68.0345
G01 X123.0756 Y67.9620
G01 X123.0803 Y67.9464
G01 X123.1055 Y67.8760
G01 X123.1117 Y67.8610
G01 X123.1437 Y67.7934
G01 X123.1514 Y67.7791
G01 X123.1898 Y67.7150
G01 X123.1988 Y67.7015
G01 X123.2434 Y67.6414
G01 X123.2537 Y67.6288
G01 X123.2996 Y67.5782
G01 X123.2996 Y66.3491
G01 X116.9905 Y66.3491
G01 X116.9399 Y66.3950
G01 X116.9273 Y66.4053
G01 X116.8673 Y66.4499
G01 X116.8538 Y66.4589
G01 X116.7896 Y66.4974
G01 X116.7753 Y66.5050
G01 X116.7077 Y66.5370
G01 X116.6927 Y66.5432
G01 X116.6223 Y66.5684
G01 X116.6067 Y66.5731
G01 X116.5342 Y66.5913
G01 X116.5183 Y66.5944
G01 X116.4443 Y66.6054
G01 X116.4281 Y66.6070
G01 X116.3535 Y66.6107
G01 X116.3372 Y66.6107
G01 X116.2625 Y66.6070
G01 X116.2464 Y66.6054
G01 X116.1724 Y66.5944
G01 X116.1565 Y66.5913
G01 X116.0839 Y66.5731
G01 X116.0684 Y66.5684
G01 X115.9980 Y66.5432
G01 X115.9830 Y66.5370
G01 X115.9154 Y66.5050
G01 X115.9011 Y66.4974
G01 X115.8369 Y66.4589
G01 X115.8234 Y66.4499
G01 X115.7633 Y66.4053
G01 X115.7508 Y66.3950
G01 X115.6954 Y66.3448
G01 X115.6839 Y66.3333
G01 X115.6337 Y66.2779
G01 X115.6234 Y66.2654
G01 X115.5788 Y66.2053
G01 X115.5698 Y66.1918
G01 X115.5314 Y66.1277
G01 X115.5237 Y66.1133
G01 X115.4917 Y66.0457
G01 X115.4855 Y66.0307
G01 X115.4603 Y65.9603
G01 X115.4556 Y65.9448
G01 X115.4374 Y65.8723
G01 X115.4343 Y65.8563
G01 X115.4233 Y65.7824
G01 X115.4217 Y65.7662
G01 X115.4180 Y65.6915
G01 X115.4180 Y65.6753
G01 X115.4217 Y65.6006
G01 X115.4233 Y65.5844
G01 X115.4343 Y65.5104
G01 X115.4374 Y65.4945
G01 X115.4556 Y65.4220
G01 X115.4603 Y65.4064
G01 X115.4855 Y65.3360
G01 X115.4917 Y65.3210
G01 X115.5237 Y65.2534
G01 X115.5314 Y65.2391
G01 X115.5698 Y65.1750
G01 X115.5788 Y65.1615
G01 X115.6234 Y65.1014
G01 X115.6337 Y65.0888
G01 X115.6839 Y65.0334
G01 X115.6954 Y65.0219
G01 X115.7508 Y64.9717
G01 X115.7633 Y64.9614
G01 X115.8234 Y64.9169
G01 X115.8369 Y64.9079
G01 X115.9011 Y64.8694
G01 X115.9154 Y64.8618
G01 X115.9830 Y64.8298
G01 X115.9980 Y64.8236
G01 X116.0684 Y64.7984
G01 X116.0839 Y64.7937
G01 X116.1565 Y64.7755
G01 X116.1724 Y64.7723
G01 X116.2464 Y64.7613
G01 X116.2625 Y64.7598
G01 X116.3372 Y64.7561
G01 X116.3535 Y64.7561
G01 X116.4281 Y64.7598
G01 X116.4443 Y64.7613
G01 X116.5183 Y64.7723
G01 X116.5342 Y64.7755
G01 X116.6067 Y64.7937
G01 X116.6223 Y64.7984
G01 X116.6927 Y64.8236
G01 X116.7077 Y64.8298
G01 X116.7753 Y64.8618
G01 X116.7896 Y64.8694
G01 X116.8538 Y64.9079
G01 X116.8673 Y64.9169
G01 X116.9273 Y64.9614
G01 X116.9399 Y64.9717
G01 X116.9905 Y65.0176
G00 Z2.0000
G00 X115.4180 Y68.2315
G01 F60.00
G01 Z-0.2001
G01 F320.00
G01 X115.4180 Y68.2153
G01 X115.4217 Y68.1406
G01 X115.4233 Y68.1244
G01 X115.4343 Y68.0504
G01 X115.4374 Y68.0345
G01 X115.4556 Y67.9620
