(G-CODE GENERATED BY FLATCAM v8.991 - www.flatcam.org - Version Date: 2019/12/27)

(Name: 002_Display_iso2)
(Type: G-code from Geometry)
(Units: MM)

(Created on Sunday, 01 March 2020 at 13:26)

(TOOL DIAMETER: 0.331 mm)
(Feedrate: 320.0 mm/min)
(Feedrate_Z: 60.0 mm/min)
(Feedrate rapids 1500.0 mm/min)

(Z_Cut: -0.2001 mm)
(Z_Move: 2.0 mm)
(Z Toolchange: 15.0 mm)
(X,Y Toolchange: 0.0000, 0.0000 mm)
(Z Start: None mm)
(Z End: 15.0 mm)
(Steps per circle: 64)
(Preprocessor Geometry: default)

(X range:    3.3605 ...  147.7890  mm)
(Y range:    3.4985 ...   97.3882  mm)

(Spindle Speed: None RPM)
G21
G90
G94

M03 S3000


G01 F320.00
G00 Z2.0000

M03
G00 X11.2417 Y5.4796
G01 F60.00
G01 Z-0.2001
G01 F320.00
G01 X11.1996 Y5.4228
G01 X11.1743 Y5.3850
G01 X11.1358 Y5.3208
G01 X11.1144 Y5.2807
G01 X11.0824 Y5.2131
G01 X11.0650 Y5.1711
G01 X11.0398 Y5.1007
G01 X11.0266 Y5.0572
G01 X11.0085 Y4.9846
G01 X10.9996 Y4.9400
G01 X10.9886 Y4.8661
G01 X10.9842 Y4.8208
G01 X10.9805 Y4.7461
G01 X10.9805 Y4.7006
G01 X10.9842 Y4.6260
G01 X10.9886 Y4.5807
G01 X10.9996 Y4.5067
G01 X11.0085 Y4.4621
G01 X11.0266 Y4.3896
G01 X11.0398 Y4.3461
G01 X11.0650 Y4.2757
G01 X11.0824 Y4.2337
G01 X11.1144 Y4.1661
G01 X11.1358 Y4.1259
G01 X11.1743 Y4.0618
G01 X11.1996 Y4.0240
G01 X11.2441 Y3.9639
G01 X11.2730 Y3.9288
G01 X11.3232 Y3.8734
G01 X11.3553 Y3.8412
G01 X11.4107 Y3.7910
G01 X11.4459 Y3.7621
G01 X11.5059 Y3.7176
G01 X11.5438 Y3.6923
G01 X11.6079 Y3.6539
G01 X11.6480 Y3.6325
G01 X11.7156 Y3.6005
G01 X11.7576 Y3.5831
G01 X11.8280 Y3.5579
G01 X11.8715 Y3.5447
G01 X11.9441 Y3.5265
G01 X11.9887 Y3.5176
G01 X12.0627 Y3.5067
G01 X12.1079 Y3.5022
G01 X12.1826 Y3.4985
G01 X12.2281 Y3.4985
G01 X12.3028 Y3.5022
G01 X12.3480 Y3.5067
G01 X12.4220 Y3.5176
G01 X12.4666 Y3.5265
G01 X12.5391 Y3.5447
G01 X12.5826 Y3.5579
G01 X12.6531 Y3.5831
G01 X12.6951 Y3.6005
G01 X12.7627 Y3.6325
G01 X12.8028 Y3.6539
G01 X12.8669 Y3.6923
G01 X12.9047 Y3.7176
G01 X12.9648 Y3.7621
G01 X12.9999 Y3.7910
G01 X13.0554 Y3.8412
G01 X13.0875 Y3.8734
G01 X13.1377 Y3.9288
G01 X13.1666 Y3.9639
G01 X13.2111 Y4.0240
G01 X13.2364 Y4.0618
G01 X13.2748 Y4.1259
G01 X13.2963 Y4.1661
G01 X13.3282 Y4.2337
G01 X13.3456 Y4.2757
G01 X13.3708 Y4.3461
G01 X13.3840 Y4.3896
G01 X13.4022 Y4.4621
G01 X13.4111 Y4.5067
G01 X13.4221 Y4.5807
G01 X13.4265 Y4.6260
G01 X13.4302 Y4.7006
G01 X13.4302 Y4.7461
G01 X13.4265 Y4.8208
G01 X13.4221 Y4.8661
G01 X13.4111 Y4.9400
G01 X13.4022 Y4.9846
G01 X13.3840 Y5.0572
G01 X13.3708 Y5.1007
G01 X13.3456 Y5.1711
G01 X13.3282 Y5.2131
G01 X13.2963 Y5.2807
G01 X13.2748 Y5.3208
G01 X13.2364 Y5.3850
G01 X13.2111 Y5.4228
G01 X13.1690 Y5.4796
G01 X13.1690 Y24.0797
G01 X19.0691 Y24.0797
G01 X19.1259 Y24.0376
G01 X19.1638 Y24.0123
G01 X19.2279 Y23.9739
G01 X19.2680 Y23.9525
G01 X19.3356 Y23.9205
G01 X19.3776 Y23.9031
G01 X19.4480 Y23.8779
G01 X19.4915 Y23.8647
G01 X19.5641 Y23.8465
G01 X19.6087 Y23.8376
G01 X19.6827 Y23.8267
G01 X19.7279 Y23.8222
G01 X19.8026 Y23.8185
G01 X19.8481 Y23.8185
G01 X19.9228 Y23.8222
G01 X19.9680 Y23.8267
G01 X20.0420 Y23.8376
G01 X20.0866 Y23.8465
G01 X20.1591 Y23.8647
G01 X20.2026 Y23.8779
G01 X20.2731 Y23.9031
G01 X20.3151 Y23.9205
G01 X20.3827 Y23.9525
G01 X20.4228 Y23.9739
G01 X20.4869 Y24.0123
G01 X20.5247 Y24.0376
G01 X20.5848 Y24.0821
G01 X20.6199 Y24.1110
G01 X20.6754 Y24.1612
G01 X20.7075 Y24.1934
G01 X20.7577 Y24.2488
G01 X20.7866 Y24.2839
G01 X20.8311 Y24.3440
G01 X20.8564 Y24.3818
G01 X20.8948 Y24.4459
G01 X20.9163 Y24.4861
G01 X20.9482 Y24.5537
G01 X20.9656 Y24.5957
G01 X20.9908 Y24.6661
G01 X21.0040 Y24.7096
G01 X21.0222 Y24.7821
G01 X21.0311 Y24.8267
G01 X21.0421 Y24.9007
G01 X21.0465 Y24.9460
G01 X21.0502 Y25.0206
G01 X21.0502 Y25.0661
G01 X21.0465 Y25.1408
G01 X21.0421 Y25.1861
G01 X21.0311 Y25.2600
G01 X21.0222 Y25.3046
G01 X21.0040 Y25.3772
G01 X20.9908 Y25.4207
G01 X20.9656 Y25.4911
G01 X20.9482 Y25.5331
G01 X20.9163 Y25.6007
G01 X20.8948 Y25.6408
G01 X20.8564 Y25.7050
G01 X20.8311 Y25.7428
G01 X20.7866 Y25.8028
G01 X20.7577 Y25.8380
G01 X20.7075 Y25.8934
G01 X20.6754 Y25.9256
G01 X20.6199 Y25.9758
G01 X20.5848 Y26.0046
G01 X20.5247 Y26.0492
G01 X20.4869 Y26.0744
G01 X20.4228 Y26.1129
G01 X20.3827 Y26.1343
G01 X20.3151 Y26.1663
G01 X20.2731 Y26.1837
G01 X20.2026 Y26.2089
G01 X20.1591 Y26.2221
G01 X20.0866 Y26.2403
G01 X20.0420 Y26.2491
G01 X19.9680 Y26.2601
G01 X19.9228 Y26.2646
G01 X19.8481 Y26.2682
G01 X19.8026 Y26.2682
G01 X19.7279 Y26.2646
G01 X19.6827 Y26.2601
G01 X19.6087 Y26.2491
G01 X19.5641 Y26.2403
G01 X19.4915 Y26.2221
G01 X19.4480 Y26.2089
G01 X19.3776 Y26.1837
G01 X19.3356 Y26.1663
G01 X19.2680 Y26.1343
G01 X19.2279 Y26.1129
G01 X19.1638 Y26.0744
G01 X19.1259 Y26.0492
G01 X19.0691 Y26.0070
G01 X12.2053 Y26.0070
G01 X12.1826 Y26.0065
G01 X12.1336 Y26.0041
G01 X12.0883 Y25.9996
G01 X12.0398 Y25.9924
G01 X11.9951 Y25.9835
G01 X11.9475 Y25.9716
G01 X11.9040 Y25.9584
G01 X11.8578 Y25.9419
G01 X11.8158 Y25.9245
G01 X11.7714 Y25.9035
G01 X11.7313 Y25.8820
G01 X11.6892 Y25.8568
G01 X11.6514 Y25.8315
G01 X11.6119 Y25.8023
G01 X11.5768 Y25.7734
G01 X11.5404 Y25.7405
G01 X11.5083 Y25.7083
G01 X11.4753 Y25.6719
G01 X11.4464 Y25.6368
G01 X11.4172 Y25.5974
G01 X11.3919 Y25.5595
G01 X11.3667 Y25.5174
G01 X11.3453 Y25.4773
G01 X11.3243 Y25.4329
G01 X11.3069 Y25.3909
G01 X11.2903 Y25.3447
G01 X11.2771 Y25.3012
G01 X11.2652 Y25.2536
G01 X11.2563 Y25.2090
G01 X11.2491 Y25.1604
G01 X11.2447 Y25.1152
G01 X11.2423 Y25.0661
G01 X11.2417 Y25.0434
G01 X11.2417 Y5.4796
G00 Z2.0000
G00 X13.7817 Y5.4796
G01 F60.00
G01 Z-0.2001
G01 F320.00
G01 X13.7396 Y5.4228
G01 X13.7143 Y5.3850
G01 X13.6758 Y5.3208
G01 X13.6544 Y5.2807
G01 X13.6224 Y5.2131
G01 X13.6050 Y5.1711
G01 X13.5798 Y5.1007
G01 X13.5666 Y5.0572
G01 X13.5485 Y4.9846
G01 X13.5396 Y4.9400
G01 X13.5286 Y4.8661
G01 X13.5242 Y4.8208
G01 X13.5205 Y4.7461
G01 X13.5205 Y4.7006
G01 X13.5242 Y4.6260
G01 X13.5286 Y4.5807
G01 X13.5396 Y4.5067
G01 X13.5485 Y4.4621
G01 X13.5666 Y4.3896
G01 X13.5798 Y4.3461
G01 X13.6050 Y4.2757
G01 X13.6224 Y4.2337
G01 X13.6544 Y4.1661
G01 X13.6758 Y4.1259
G01 X13.7143 Y4.0618
G01 X13.7396 Y4.0240
G01 X13.7841 Y3.9639
G01 X13.8130 Y3.9288
G01 X13.8632 Y3.8734
G01 X13.8953 Y3.8412
G01 X13.9507 Y3.7910
G01 X13.9859 Y3.7621
G01 X14.0459 Y3.7176
G01 X14.0838 Y3.6923
G01 X14.1479 Y3.6539
G01 X14.1880 Y3.6325
G01 X14.2556 Y3.6005
G01 X14.2976 Y3.5831
G01 X14.3680 Y3.5579
G01 X14.4115 Y3.5447
G01 X14.4841 Y3.5265
G01 X14.5287 Y3.5176
G01 X14.6027 Y3.5067
G01 X14.6479 Y3.5022
G01 X14.7226 Y3.4985
G01 X14.7681 Y3.4985
G01 X14.8428 Y3.5022
G01 X14.8880 Y3.5067
G01 X14.9620 Y3.5176
G01 X15.0066 Y3.5265
G01 X15.0791 Y3.5447
G01 X15.1226 Y3.5579
G01 X15.1931 Y3.5831
G01 X15.2351 Y3.6005
G01 X15.3027 Y3.6325
G01 X15.3428 Y3.6539
G01 X15.4069 Y3.6923
G01 X15.4447 Y3.7176
G01 X15.5048 Y3.7621
G01 X15.5399 Y3.7910
G01 X15.5954 Y3.8412
G01 X15.6275 Y3.8734
G01 X15.6777 Y3.9288
G01 X15.7066 Y3.9639
G01 X15.7511 Y4.0240
G01 X15.7764 Y4.0618
G01 X15.8148 Y4.1259
G01 X15.8363 Y4.1661
G01 X15.8682 Y4.2337
G01 X15.8856 Y4.2757
G01 X15.9108 Y4.3461
G01 X15.9240 Y4.3896
G01 X15.9422 Y4.4621
G01 X15.9511 Y4.5067
G01 X15.9621 Y4.5807
G01 X15.9665 Y4.6260
G01 X15.9702 Y4.7006
G01 X15.9702 Y4.7461
G01 X15.9665 Y4.8208
G01 X15.9621 Y4.8661
G01 X15.9511 Y4.9400
G01 X15.9422 Y4.9846
G01 X15.9240 Y5.0572
G01 X15.9108 Y5.1007
G01 X15.8856 Y5.1711
G01 X15.8682 Y5.2131
G01 X15.8363 Y5.2807
G01 X15.8148 Y5.3208
G01 X15.7764 Y5.3850
G01 X15.7511 Y5.4228
G01 X15.7090 Y5.4796
G01 X15.7090 Y18.9997
G01 X19.0691 Y18.9997
G01 X19.1259 Y18.9576
G01 X19.1638 Y18.9323
G01 X19.2279 Y18.8939
G01 X19.2680 Y18.8725
G01 X19.3356 Y18.8405
G01 X19.3776 Y18.8231
G01 X19.4480 Y18.7979
G01 X19.4915 Y18.7847
G01 X19.5641 Y18.7665
G01 X19.6087 Y18.7576
G01 X19.6827 Y18.7467
G01 X19.7279 Y18.7422
G01 X19.8026 Y18.7385
G01 X19.8481 Y18.7385
G01 X19.9228 Y18.7422
G01 X19.9680 Y18.7467
G01 X20.0420 Y18.7576
G01 X20.0866 Y18.7665
G01 X20.1591 Y18.7847
G01 X20.2026 Y18.7979
G01 X20.2731 Y18.8231
G01 X20.3151 Y18.8405
G01 X20.3827 Y18.8725
G01 X20.4228 Y18.8939
G01 X20.4869 Y18.9323
G01 X20.5247 Y18.9576
G01 X20.5815 Y18.9997
G01 X32.5253 Y18.9997
G01 X32.5481 Y19.0003
G01 X32.5971 Y19.0027
G01 X32.6424 Y19.0072
G01 X32.6909 Y19.0144
G01 X32.7355 Y19.0232
G01 X32.7831 Y19.0352
G01 X32.8267 Y19.0484
G01 X32.8729 Y19.0649
G01 X32.9149 Y19.0823
G01 X32.9593 Y19.1033
G01 X32.9994 Y19.1247
G01 X33.0415 Y19.1500
G01 X33.0793 Y19.1752
G01 X33.1187 Y19.2045
G01 X33.1539 Y19.2333
G01 X33.1903 Y19.2663
G01 X33.2224 Y19.2985
G01 X33.2554 Y19.3348
G01 X33.2842 Y19.3700
G01 X33.3135 Y19.4094
G01 X33.3388 Y19.4472
G01 X33.3640 Y19.4893
G01 X33.3854 Y19.5294
G01 X33.4064 Y19.5738
G01 X33.4238 Y19.6158
G01 X33.4404 Y19.6621
G01 X33.4536 Y19.7056
G01 X33.4655 Y19.7532
G01 X33.4744 Y19.7978
G01 X33.4816 Y19.8464
G01 X33.4860 Y19.8916
G01 X33.4884 Y19.9406
G01 X33.4890 Y19.9634
G01 X33.4890 Y26.8272
G01 X33.5311 Y26.8840
G01 X33.5564 Y26.9218
G01 X33.5948 Y26.9859
G01 X33.6163 Y27.0261
G01 X33.6482 Y27.0937
G01 X33.6656 Y27.1357
G01 X33.6908 Y27.2061
G01 X33.7040 Y27.2496
G01 X33.7222 Y27.3221
G01 X33.7311 Y27.3667
G01 X33.7421 Y27.4407
G01 X33.7465 Y27.4860
G01 X33.7502 Y27.5606
G01 X33.7502 Y27.6061
G01 X33.7465 Y27.6808
G01 X33.7421 Y27.7261
G01 X33.7311 Y27.8000
G01 X33.7222 Y27.8446
G01 X33.7040 Y27.9172
G01 X33.6908 Y27.9607
G01 X33.6656 Y28.0311
G01 X33.6482 Y28.0731
G01 X33.6163 Y28.1407
G01 X33.5948 Y28.1808
G01 X33.5564 Y28.2450
G01 X33.5311 Y28.2828
G01 X33.4866 Y28.3428
G01 X33.4577 Y28.3780
G01 X33.4075 Y28.4334
G01 X33.3754 Y28.4656
G01 X33.3199 Y28.5158
G01 X33.2848 Y28.5446
G01 X33.2247 Y28.5892
G01 X33.1869 Y28.6144
G01 X33.1228 Y28.6529
G01 X33.0827 Y28.6743
G01 X33.0151 Y28.7063
G01 X32.9731 Y28.7237
G01 X32.9026 Y28.7489
G01 X32.8591 Y28.7621
G01 X32.7866 Y28.7803
G01 X32.7420 Y28.7891
G01 X32.6680 Y28.8001
G01 X32.6228 Y28.8046
G01 X32.5481 Y28.8082
G01 X32.5026 Y28.8082
G01 X32.4279 Y28.8046
G01 X32.3827 Y28.8001
G01 X32.3087 Y28.7891
G01 X32.2641 Y28.7803
G01 X32.1915 Y28.7621
G01 X32.1480 Y28.7489
G01 X32.0776 Y28.7237
G01 X32.0356 Y28.7063
G01 X31.9680 Y28.6743
G01 X31.9279 Y28.6529
G01 X31.8638 Y28.6144
G01 X31.8259 Y28.5892
G01 X31.7659 Y28.5446
G01 X31.7307 Y28.5158
G01 X31.6753 Y28.4656
G01 X31.6432 Y28.4334
G01 X31.5930 Y28.3780
G01 X31.5641 Y28.3428
G01 X31.5196 Y28.2828
G01 X31.4943 Y28.2450
G01 X31.4558 Y28.1808
G01 X31.4344 Y28.1407
G01 X31.4024 Y28.0731
G01 X31.3850 Y28.0311
G01 X31.3598 Y27.9607
G01 X31.3466 Y27.9172
G01 X31.3285 Y27.8446
G01 X31.3196 Y27.8000
G01 X31.3086 Y27.7261
G01 X31.3042 Y27.6808
G01 X31.3005 Y27.6061
G01 X31.3005 Y27.5606
G01 X31.3042 Y27.4860
G01 X31.3086 Y27.4407
G01 X31.3196 Y27.3667
G01 X31.3285 Y27.3221
G01 X31.3466 Y27.2496
G01 X31.3598 Y27.2061
G01 X31.3850 Y27.1357
G01 X31.4024 Y27.0937
G01 X31.4344 Y27.0261
G01 X31.4558 Y26.9859
G01 X31.4943 Y26.9218
G01 X31.5196 Y26.8840
G01 X31.5617 Y26.8272
G01 X31.5617 Y20.9270
G01 X20.5815 Y20.9270
G01 X20.5247 Y20.9692
G01 X20.4869 Y20.9944
G01 X20.4228 Y21.0329
G01 X20.3827 Y21.0543
G01 X20.3151 Y21.0863
G01 X20.2731 Y21.1037
G01 X20.2026 Y21.1289
G01 X20.1591 Y21.1421
G01 X20.0866 Y21.1603
G01 X20.0420 Y21.1691
G01 X19.9680 Y21.1801
G01 X19.9228 Y21.1846
G01 X19.8481 Y21.1882
G01 X19.8026 Y21.1882
G01 X19.7279 Y21.1846
G01 X19.6827 Y21.1801
G01 X19.6087 Y21.1691
G01 X19.5641 Y21.1603
G01 X19.4915 Y21.1421
G01 X19.4480 Y21.1289
G01 X19.3776 Y21.1037
G01 X19.3356 Y21.0863
G01 X19.2680 Y21.0543
G01 X19.2279 Y21.0329
G01 X19.1638 Y20.9944
G01 X19.1259 Y20.9692
G01 X19.0691 Y20.9270
G01 X14.7453 Y20.9270
G01 X14.7226 Y20.9265
G01 X14.6736 Y20.9241
G01 X14.6283 Y20.9196
G01 X14.5798 Y20.9124
G01 X14.5351 Y20.9035
G01 X14.4875 Y20.8916
G01 X14.4440 Y20.8784
G01 X14.3978 Y20.8619
G01 X14.3558 Y20.8445
G01 X14.3114 Y20.8235
G01 X14.2713 Y20.8020
G01 X14.2292 Y20.7768
G01 X14.1914 Y20.7515
G01 X14.1519 Y20.7223
G01 X14.1168 Y20.6934
G01 X14.0804 Y20.6605
G01 X14.0483 Y20.6283
G01 X14.0153 Y20.5919
G01 X13.9864 Y20.5568
G01 X13.9572 Y20.5174
G01 X13.9319 Y20.4795
G01 X13.9067 Y20.4374
G01 X13.8853 Y20.3973
G01 X13.8643 Y20.3529
G01 X13.8469 Y20.3109
G01 X13.8303 Y20.2647
G01 X13.8171 Y20.2212
G01 X13.8052 Y20.1736
G01 X13.7963 Y20.1290
G01 X13.7891 Y20.0804
G01 X13.7847 Y20.0352
G01 X13.7823 Y19.9861
G01 X13.7817 Y19.9634
G01 X13.7817 Y5.4796
G00 Z2.0000
G00 X24.9825 Y9.8261
G01 F60.00
G01 Z-0.2001
G01 F320.00
G01 X24.9825 Y9.7806
G01 X24.9921 Y9.5846
G01 X24.9966 Y9.5394
G01 X25.0254 Y9.3452
G01 X25.0343 Y9.3006
G01 X25.0820 Y9.1102
G01 X25.0952 Y9.0667
G01 X25.1613 Y8.8819
G01 X25.1787 Y8.8399
G01 X25.2626 Y8.6625
G01 X25.2840 Y8.6224
G01 X25.3849 Y8.4540
G01 X25.4102 Y8.4162
G01 X25.5271 Y8.2586
G01 X25.5560 Y8.2234
G01 X25.6878 Y8.0780
G01 X25.7199 Y8.0458
G01 X25.8654 Y7.9140
G01 X25.9005 Y7.8852
G01 X26.0582 Y7.7682
G01 X26.0960 Y7.7430
G01 X26.2643 Y7.6421
G01 X26.3044 Y7.6206
G01 X26.4818 Y7.5367
G01 X26.5239 Y7.5193
G01 X26.7087 Y7.4532
G01 X26.7522 Y7.4400
G01 X26.9426 Y7.3923
G01 X26.9872 Y7.3834
G01 X27.1813 Y7.3546
G01 X27.2266 Y7.3502
G01 X27.4226 Y7.3405
G01 X27.4681 Y7.3405
G01 X27.6641 Y7.3502
G01 X27.7094 Y7.3546
G01 X27.9035 Y7.3834
G01 X27.9481 Y7.3923
G01 X28.1385 Y7.4400
G01 X28.1820 Y7.4532
G01 X28.3668 Y7.5193
G01 X28.4088 Y7.5367
G01 X28.5863 Y7.6206
G01 X28.6264 Y7.6421
G01 X28.7947 Y7.7430
G01 X28.8325 Y7.7682
G01 X28.9902 Y7.8852
G01 X29.0253 Y7.9140
G01 X29.1707 Y8.0458
G01 X29.2029 Y8.0780
G01 X29.3347 Y8.2234
G01 X29.3636 Y8.2586
G01 X29.4805 Y8.4162
G01 X29.5057 Y8.4540
G01 X29.6066 Y8.6224
G01 X29.6281 Y8.6625
G01 X29.7120 Y8.8399
G01 X29.7294 Y8.8819
G01 X29.7955 Y9.0667
G01 X29.8087 Y9.1102
G01 X29.8564 Y9.3006
G01 X29.8653 Y9.3452
G01 X29.8941 Y9.5394
G01 X29.8985 Y9.5846
G01 X29.9082 Y9.7806
G01 X29.9082 Y9.8261
G01 X29.8985 Y10.0222
G01 X29.8941 Y10.0674
G01 X29.8653 Y10.2616
G01 X29.8564 Y10.3062
G01 X29.8087 Y10.4965
G01 X29.7955 Y10.5401
G01 X29.7294 Y10.7249
G01 X29.7120 Y10.7669
G01 X29.6281 Y10.9443
G01 X29.6066 Y10.9844
G01 X29.5057 Y11.1528
G01 X29.4805 Y11.1906
G01 X29.3636 Y11.3482
G01 X29.3347 Y11.3834
G01 X29.2029 Y11.5288
G01 X29.1707 Y11.5609
G01 X29.0253 Y11.6928
G01 X28.9902 Y11.7216
G01 X28.8325 Y11.8385
G01 X28.7947 Y11.8638
G01 X28.6264 Y11.9647
G01 X28.5863 Y11.9861
G01 X28.4088 Y12.0700
G01 X28.3668 Y12.0874
G01 X28.1820 Y12.1536
G01 X28.1385 Y12.1668
G01 X27.9481 Y12.2145
G01 X27.9035 Y12.2233
G01 X27.7094 Y12.2521
G01 X27.6641 Y12.2566
G01 X27.4681 Y12.2662
G01 X27.4226 Y12.2662
G01 X27.2266 Y12.2566
G01 X27.1813 Y12.2521
G01 X26.9872 Y12.2233
G01 X26.9426 Y12.2145
G01 X26.7522 Y12.1668
G01 X26.7087 Y12.1536
G01 X26.5239 Y12.0874
G01 X26.4818 Y12.0700
G01 X26.3044 Y11.9861
G01 X26.2643 Y11.9647
G01 X26.0960 Y11.8638
G01 X26.0582 Y11.8385
G01 X25.9005 Y11.7216
G01 X25.8654 Y11.6928
G01 X25.7199 Y11.5609
G01 X25.6878 Y11.5288
G01 X25.5560 Y11.3834
G01 X25.5271 Y11.3482
G01 X25.4102 Y11.1906
G01 X25.3849 Y11.1528
G01 X25.2840 Y10.9844
G01 X25.2626 Y10.9443
G01 X25.1787 Y10.7669
G01 X25.1613 Y10.7249
G01 X25.0952 Y10.5401
G01 X25.0820 Y10.4965
G01 X25.0343 Y10.3062
G01 X25.0254 Y10.2616
G01 X24.9966 Y10.0674
G01 X24.9921 Y10.0222
G01 X24.9825 Y9.8261
G00 Z2.0000
G00 X34.1017 Y20.7196
G01 F60.00
G01 Z-0.2001
G01 F320.00
G01 X34.0596 Y20.6628
G01 X34.0343 Y20.6250
G01 X33.9958 Y20.5608
G01 X33.9744 Y20.5207
G01 X33.9424 Y20.4531
G01 X33.9250 Y20.4111
G01 X33.8998 Y20.3407
G01 X33.8866 Y20.2972
G01 X33.8685 Y20.2246
G01 X33.8596 Y20.1800
G01 X33.8486 Y20.1061
G01 X33.8442 Y20.0608
G01 X33.8405 Y19.9861
G01 X33.8405 Y19.9406
G01 X33.8442 Y19.8660
G01 X33.8486 Y19.8207
G01 X33.8596 Y19.7467
G01 X33.8685 Y19.7021
G01 X33.8866 Y19.6296
G01 X33.8998 Y19.5861
G01 X33.9250 Y19.5157
G01 X33.9424 Y19.4737
G01 X33.9744 Y19.4061
G01 X33.9958 Y19.3659
G01 X34.0343 Y19.3018
G01 X34.0596 Y19.2640
G01 X34.1041 Y19.2039
G01 X34.1330 Y19.1688
G01 X34.1832 Y19.1134
G01 X34.2153 Y19.0812
G01 X34.2707 Y19.0310
G01 X34.3059 Y19.0021
G01 X34.3659 Y18.9576
G01 X34.4038 Y18.9323
G01 X34.4679 Y18.8939
G01 X34.5080 Y18.8725
G01 X34.5756 Y18.8405
G01 X34.6176 Y18.8231
G01 X34.6880 Y18.7979
G01 X34.7315 Y18.7847
G01 X34.8041 Y18.7665
G01 X34.8487 Y18.7576
G01 X34.9227 Y18.7467
G01 X34.9679 Y18.7422
G01 X35.0426 Y18.7385
G01 X35.0881 Y18.7385
G01 X35.1628 Y18.7422
G01 X35.2080 Y18.7467
G01 X35.2820 Y18.7576
G01 X35.3266 Y18.7665
G01 X35.3991 Y18.7847
G01 X35.4426 Y18.7979
G01 X35.5131 Y18.8231
G01 X35.5551 Y18.8405
G01 X35.6227 Y18.8725
G01 X35.6628 Y18.8939
G01 X35.7269 Y18.9323
G01 X35.7647 Y18.9576
G01 X35.8248 Y19.0021
G01 X35.8599 Y19.0310
G01 X35.9154 Y19.0812
G01 X35.9475 Y19.1134
G01 X35.9977 Y19.1688
G01 X36.0266 Y19.2039
G01 X36.0711 Y19.2640
G01 X36.0964 Y19.3018
G01 X36.1348 Y19.3659
G01 X36.1563 Y19.4061
G01 X36.1882 Y19.4737
G01 X36.2056 Y19.5157
G01 X36.2308 Y19.5861
G01 X36.2440 Y19.6296
G01 X36.2622 Y19.7021
G01 X36.2711 Y19.7467
G01 X36.2821 Y19.8207
G01 X36.2865 Y19.8660
G01 X36.2902 Y19.9406
G01 X36.2902 Y19.9861
G01 X36.2865 Y20.0608
G01 X36.2821 Y20.1061
G01 X36.2711 Y20.1800
G01 X36.2622 Y20.2246
G01 X36.2440 Y20.2972
G01 X36.2308 Y20.3407
G01 X36.2056 Y20.4111
G01 X36.1882 Y20.4531
G01 X36.1563 Y20.5207
G01 X36.1348 Y20.5608
G01 X36.0964 Y20.6250
G01 X36.0711 Y20.6628
G01 X36.0290 Y20.7196
G01 X36.0290 Y24.0797
G01 X38.7127 Y24.0797
G01 X38.7207 Y24.0629
G01 X38.7440 Y24.0239
G01 X38.7711 Y23.9874
G01 X38.8017 Y23.9537
G01 X38.8354 Y23.9232
G01 X38.8719 Y23.8961
G01 X38.9109 Y23.8727
G01 X38.9520 Y23.8533
G01 X38.9948 Y23.8379
G01 X39.0389 Y23.8269
G01 X39.0839 Y23.8202
G01 X39.1293 Y23.8180
G01 X41.1613 Y23.8180
G01 X41.2068 Y23.8202
G01 X41.2517 Y23.8269
G01 X41.2959 Y23.8379
G01 X41.3387 Y23.8533
G01 X41.3798 Y23.8727
G01 X41.4188 Y23.8961
G01 X41.4553 Y23.9232
G01 X41.4890 Y23.9537
G01 X41.5195 Y23.9874
G01 X41.5466 Y24.0239
G01 X41.5700 Y24.0629
G01 X41.5895 Y24.1041
G01 X41.6048 Y24.1469
G01 X41.6158 Y24.1910
G01 X41.6225 Y24.2360
G01 X41.6247 Y24.2814
G01 X41.6247 Y25.8054
G01 X41.6225 Y25.8508
G01 X41.6158 Y25.8958
G01 X41.6048 Y25.9399
G01 X41.5895 Y25.9827
G01 X41.5700 Y26.0238
G01 X41.5466 Y26.0628
G01 X41.5195 Y26.0994
G01 X41.4890 Y26.1331
G01 X41.4553 Y26.1636
G01 X41.4188 Y26.1907
G01 X41.3798 Y26.2141
G01 X41.3387 Y26.2335
G01 X41.2959 Y26.2488
G01 X41.2517 Y26.2599
G01 X41.2068 Y26.2666
G01 X41.1613 Y26.2688
G01 X39.1293 Y26.2688
G01 X39.0839 Y26.2666
G01 X39.0389 Y26.2599
G01 X38.9948 Y26.2488
G01 X38.9520 Y26.2335
G01 X38.9109 Y26.2141
G01 X38.8719 Y26.1907
G01 X38.8354 Y26.1636
G01 X38.8017 Y26.1331
G01 X38.7711 Y26.0994
G01 X38.7440 Y26.0628
G01 X38.7207 Y26.0238
G01 X38.7127 Y26.0070
G01 X35.0653 Y26.0070
G01 X35.0426 Y26.0065
G01 X34.9936 Y26.0041
G01 X34.9483 Y25.9996
G01 X34.8998 Y25.9924
G01 X34.8551 Y25.9835
G01 X34.8075 Y25.9716
G01 X34.7640 Y25.9584
G01 X34.7178 Y25.9419
G01 X34.6758 Y25.9245
G01 X34.6314 Y25.9035
G01 X34.5913 Y25.8820
G01 X34.5492 Y25.8568
G01 X34.5114 Y25.8315
G01 X34.4719 Y25.8023
G01 X34.4368 Y25.7734
G01 X34.4004 Y25.7405
G01 X34.3683 Y25.7083
G01 X34.3353 Y25.6719
G01 X34.3064 Y25.6368
G01 X34.2772 Y25.5974
G01 X34.2519 Y25.5595
G01 X34.2267 Y25.5174
G01 X34.2053 Y25.4773
G01 X34.1843 Y25.4329
G01 X34.1669 Y25.3909
G01 X34.1503 Y25.3447
G01 X34.1371 Y25.3012
G01 X34.1252 Y25.2536
G01 X34.1163 Y25.2090
G01 X34.1091 Y25.1604
G01 X34.1047 Y25.1152
G01 X34.1023 Y25.0661
G01 X34.1017 Y25.0434
G01 X34.1017 Y20.7196
G00 Z2.0000
G00 X44.2617 Y20.7196
G01 F60.00
G01 Z-0.2001
G01 F320.00
G01 X44.2196 Y20.6628
G01 X44.1943 Y20.6250
G01 X44.1558 Y20.5608
G01 X44.1344 Y20.5207
G01 X44.1024 Y20.4531
G01 X44.0850 Y20.4111
G01 X44.0598 Y20.3407
G01 X44.0466 Y20.2972
G01 X44.0285 Y20.2246
G01 X44.0196 Y20.1800
G01 X44.0086 Y20.1061
G01 X44.0042 Y20.0608
G01 X44.0005 Y19.9861
G01 X44.0005 Y19.9406
G01 X44.0042 Y19.8660
G01 X44.0086 Y19.8207
G01 X44.0196 Y19.7467
G01 X44.0285 Y19.7021
G01 X44.0466 Y19.6296
G01 X44.0598 Y19.5861
G01 X44.0850 Y19.5157
G01 X44.1024 Y19.4737
G01 X44.1344 Y19.4061
G01 X44.1558 Y19.3659
G01 X44.1943 Y19.3018
G01 X44.2196 Y19.2640
G01 X44.2641 Y19.2039
G01 X44.2930 Y19.1688
G01 X44.3432 Y19.1134
G01 X44.3753 Y19.0812
G01 X44.4307 Y19.0310
G01 X44.4659 Y19.0021
G01 X44.5259 Y18.9576
G01 X44.5638 Y18.9323
G01 X44.6279 Y18.8939
G01 X44.6680 Y18.8725
G01 X44.7356 Y18.8405
G01 X44.7776 Y18.8231
G01 X44.8480 Y18.7979
G01 X44.8915 Y18.7847
G01 X44.9641 Y18.7665
G01 X45.0087 Y18.7576
G01 X45.0827 Y18.7467
G01 X45.1279 Y18.7422
G01 X45.2026 Y18.7385
G01 X45.2481 Y18.7385
G01 X45.3228 Y18.7422
G01 X45.3680 Y18.7467
G01 X45.4420 Y18.7576
G01 X45.4866 Y18.7665
G01 X45.5591 Y18.7847
G01 X45.6026 Y18.7979
G01 X45.6731 Y18.8231
G01 X45.7151 Y18.8405
G01 X45.7827 Y18.8725
G01 X45.8228 Y18.8939
G01 X45.8869 Y18.9323
G01 X45.9247 Y18.9576
G01 X45.9848 Y19.0021
G01 X46.0199 Y19.0310
G01 X46.0754 Y19.0812
G01 X46.1075 Y19.1134
G01 X46.1577 Y19.1688
G01 X46.1866 Y19.2039
G01 X46.2311 Y19.2640
G01 X46.2564 Y19.3018
G01 X46.2948 Y19.3659
G01 X46.3163 Y19.4061
G01 X46.3482 Y19.4737
G01 X46.3656 Y19.5157
G01 X46.3908 Y19.5861
G01 X46.4040 Y19.6296
G01 X46.4222 Y19.7021
G01 X46.4311 Y19.7467
G01 X46.4421 Y19.8207
G01 X46.4465 Y19.8660
G01 X46.4502 Y19.9406
G01 X46.4502 Y19.9861
G01 X46.4465 Y20.0608
G01 X46.4421 Y20.1061
G01 X46.4311 Y20.1800
G01 X46.4222 Y20.2246
G01 X46.4040 Y20.2972
G01 X46.3908 Y20.3407
G01 X46.3656 Y20.4111
G01 X46.3482 Y20.4531
G01 X46.3163 Y20.5207
G01 X46.2948 Y20.5608
G01 X46.2564 Y20.6250
G01 X46.2311 Y20.6628
G01 X46.1890 Y20.7196
G01 X46.1890 Y24.0797
G01 X48.8727 Y24.0797
G01 X48.8807 Y24.0629
G01 X48.9040 Y24.0239
G01 X48.9311 Y23.9874
G01 X48.9617 Y23.9537
G01 X48.9954 Y23.9232
G01 X49.0319 Y23.8961
G01 X49.0709 Y23.8727
G01 X49.1120 Y23.8533
G01 X49.1548 Y23.8379
G01 X49.1989 Y23.8269
G01 X49.2439 Y23.8202
G01 X49.2893 Y23.8180
G01 X51.3213 Y23.8180
G01 X51.3668 Y23.8202
G01 X51.4117 Y23.8269
G01 X51.4559 Y23.8379
G01 X51.4987 Y23.8533
G01 X51.5398 Y23.8727
G01 X51.5788 Y23.8961
G01 X51.6153 Y23.9232
G01 X51.6490 Y23.9537
G01 X51.6795 Y23.9874
G01 X51.7066 Y24.0239
G01 X51.7300 Y24.0629
G01 X51.7495 Y24.1041
G01 X51.7648 Y24.1469
G01 X51.7758 Y24.1910
G01 X51.7825 Y24.2360
G01 X51.7847 Y24.2814
G01 X51.7847 Y25.8054
G01 X51.7825 Y25.8508
G01 X51.7758 Y25.8958
G01 X51.7648 Y25.9399
G01 X51.7495 Y25.9827
G01 X51.7300 Y26.0238
G01 X51.7066 Y26.0628
G01 X51.6795 Y26.0994
G01 X51.6490 Y26.1331
G01 X51.6153 Y26.1636
G01 X51.5788 Y26.1907
G01 X51.5398 Y26.2141
G01 X51.4987 Y26.2335
G01 X51.4559 Y26.2488
G01 X51.4117 Y26.2599
G01 X51.3668 Y26.2666
G01 X51.3213 Y26.2688
G01 X49.2893 Y26.2688
G01 X49.2439 Y26.2666
G01 X49.1989 Y26.2599
G01 X49.1548 Y26.2488
G01 X49.1120 Y26.2335
G01 X49.0709 Y26.2141
G01 X49.0319 Y26.1907
G01 X48.9954 Y26.1636
G01 X48.9617 Y26.1331
G01 X48.9311 Y26.0994
G01 X48.9040 Y26.0628
G01 X48.8807 Y26.0238
G01 X48.8727 Y26.0070
G01 X45.2253 Y26.0070
G01 X45.2026 Y26.0065
G01 X45.1536 Y26.0041
G01 X45.1083 Y25.9996
G01 X45.0598 Y25.9924
G01 X45.0151 Y25.9835
G01 X44.9675 Y25.9716
G01 X44.9240 Y25.9584
G01 X44.8778 Y25.9419
G01 X44.8358 Y25.9245
G01 X44.7914 Y25.9035
G01 X44.7513 Y25.8820
G01 X44.7092 Y25.8568
G01 X44.6714 Y25.8315
G01 X44.6319 Y25.8023
G01 X44.5968 Y25.7734
G01 X44.5604 Y25.7405
G01 X44.5283 Y25.7083
G01 X44.4953 Y25.6719
G01 X44.4664 Y25.6368
G01 X44.4372 Y25.5974
G01 X44.4119 Y25.5595
G01 X44.3867 Y25.5174
G01 X44.3653 Y25.4773
G01 X44.3443 Y25.4329
G01 X44.3269 Y25.3909
G01 X44.3103 Y25.3447
G01 X44.2971 Y25.3012
G01 X44.2852 Y25.2536
G01 X44.2763 Y25.2090
G01 X44.2691 Y25.1604
G01 X44.2647 Y25.1152
G01 X44.2623 Y25.0661
G01 X44.2617 Y25.0434
G01 X44.2617 Y20.7196
G00 Z2.0000
G00 X54.4217 Y20.7196
G01 F60.00
G01 Z-0.2001
G01 F320.00
G01 X54.3796 Y20.6628
G01 X54.3543 Y20.6250
G01 X54.3158 Y20.5608
G01 X54.2944 Y20.5207
G01 X54.2624 Y20.4531
G01 X54.2450 Y20.4111
G01 X54.2198 Y20.3407
G01 X54.2066 Y20.2972
G01 X54.1885 Y20.2246
G01 X54.1796 Y20.1800
G01 X54.1686 Y20.1061
G01 X54.1642 Y20.0608
G01 X54.1605 Y19.9861
G01 X54.1605 Y19.9406
G01 X54.1642 Y19.8660
G01 X54.1686 Y19.8207
G01 X54.1796 Y19.7467
G01 X54.1885 Y19.7021
G01 X54.2066 Y19.6296
G01 X54.2198 Y19.5861
G01 X54.2450 Y19.5157
G01 X54.2624 Y19.4737
G01 X54.2944 Y19.4061
G01 X54.3158 Y19.3659
G01 X54.3543 Y19.3018
G01 X54.3796 Y19.2640
G01 X54.4241 Y19.2039
G01 X54.4530 Y19.1688
G01 X54.5032 Y19.1134
G01 X54.5353 Y19.0812
G01 X54.5907 Y19.0310
G01 X54.6259 Y19.0021
G01 X54.6859 Y18.9576
G01 X54.7238 Y18.9323
G01 X54.7879 Y18.8939
G01 X54.8280 Y18.8725
G01 X54.8956 Y18.8405
G01 X54.9376 Y18.8231
G01 X55.0080 Y18.7979
G01 X55.0515 Y18.7847
G01 X55.1241 Y18.7665
G01 X55.1687 Y18.7576
G01 X55.2427 Y18.7467
G01 X55.2879 Y18.7422
G01 X55.3626 Y18.7385
G01 X55.4081 Y18.7385
G01 X55.4828 Y18.7422
G01 X55.5280 Y18.7467
G01 X55.6020 Y18.7576
G01 X55.6466 Y18.7665
G01 X55.7191 Y18.7847
G01 X55.7626 Y18.7979
G01 X55.8331 Y18.8231
G01 X55.8751 Y18.8405
G01 X55.9427 Y18.8725
G01 X55.9828 Y18.8939
G01 X56.0469 Y18.9323
G01 X56.0847 Y18.9576
G01 X56.1448 Y19.0021
G01 X56.1799 Y19.0310
G01 X56.2354 Y19.0812
G01 X56.2675 Y19.1134
G01 X56.3177 Y19.1688
G01 X56.3466 Y19.2039
G01 X56.3911 Y19.2640
G01 X56.4164 Y19.3018
G01 X56.4548 Y19.3659
G01 X56.4763 Y19.4061
G01 X56.5082 Y19.4737
G01 X56.5256 Y19.5157
G01 X56.5508 Y19.5861
G01 X56.5640 Y19.6296
G01 X56.5822 Y19.7021
G01 X56.5911 Y19.7467
G01 X56.6021 Y19.8207
G01 X56.6065 Y19.8660
G01 X56.6102 Y19.9406
G01 X56.6102 Y19.9861
G01 X56.6065 Y20.0608
G01 X56.6021 Y20.1061
G01 X56.5911 Y20.1800
G01 X56.5822 Y20.2246
G01 X56.5640 Y20.2972
G01 X56.5508 Y20.3407
G01 X56.5256 Y20.4111
G01 X56.5082 Y20.4531
G01 X56.4763 Y20.5207
G01 X56.4548 Y20.5608
G01 X56.4164 Y20.6250
G01 X56.3911 Y20.6628
G01 X56.3490 Y20.7196
G01 X56.3490 Y24.0797
G01 X59.0327 Y24.0797
G01 X59.0407 Y24.0629
G01 X59.0640 Y24.0239
G01 X59.0911 Y23.9874
G01 X59.1217 Y23.9537
G01 X59.1554 Y23.9232
G01 X59.1919 Y23.8961
G01 X59.2309 Y23.8727
G01 X59.2720 Y23.8533
G01 X59.3148 Y23.8379
G01 X59.3589 Y23.8269
G01 X59.4039 Y23.8202
G01 X59.4493 Y23.8180
G01 X61.4813 Y23.8180
G01 X61.5268 Y23.8202
G01 X61.5717 Y23.8269
G01 X61.6159 Y23.8379
G01 X61.6587 Y23.8533
G01 X61.6998 Y23.8727
G01 X61.7388 Y23.8961
G01 X61.7753 Y23.9232
G01 X61.8090 Y23.9537
G01 X61.8395 Y23.9874
G01 X61.8666 Y24.0239
G01 X61.8900 Y24.0629
G01 X61.9095 Y24.1041
G01 X61.9248 Y24.1469
G01 X61.9358 Y24.1910
G01 X61.9425 Y24.2360
G01 X61.9447 Y24.2814
G01 X61.9447 Y25.8054
G01 X61.9425 Y25.8508
G01 X61.9358 Y25.8958
G01 X61.9248 Y25.9399
G01 X61.9095 Y25.9827
G01 X61.8900 Y26.0238
G01 X61.8666 Y26.0628
G01 X61.8395 Y26.0994
G01 X61.8090 Y26.1331
G01 X61.7753 Y26.1636
G01 X61.7388 Y26.1907
G01 X61.6998 Y26.2141
G01 X61.6587 Y26.2335
G01 X61.6159 Y26.2488
G01 X61.5717 Y26.2599
G01 X61.5268 Y26.2666
G01 X61.4813 Y26.2688
G01 X59.4493 Y26.2688
G01 X59.4039 Y26.2666
G01 X59.3589 Y26.2599
G01 X59.3148 Y26.2488
G01 X59.2720 Y26.2335
G01 X59.2309 Y26.2141
G01 X59.1919 Y26.1907
G01 X59.1554 Y26.1636
G01 X59.1217 Y26.1331
G01 X59.0911 Y26.0994
G01 X59.0640 Y26.0628
G01 X59.0407 Y26.0238
G01 X59.0327 Y26.0070
G01 X55.3853 Y26.0070
G01 X55.3626 Y26.0065
G01 X55.3136 Y26.0041
G01 X55.2683 Y25.9996
G01 X55.2198 Y25.9924
G01 X55.1751 Y25.9835
G01 X55.1275 Y25.9716
G01 X55.0840 Y25.9584
G01 X55.0378 Y25.9419
G01 X54.9958 Y25.9245
G01 X54.9514 Y25.9035
G01 X54.9113 Y25.8820
G01 X54.8692 Y25.8568
G01 X54.8314 Y25.8315
G01 X54.7919 Y25.8023
G01 X54.7568 Y25.7734
G01 X54.7204 Y25.7405
G01 X54.6883 Y25.7083
G01 X54.6553 Y25.6719
G01 X54.6264 Y25.6368
G01 X54.5972 Y25.5974
G01 X54.5719 Y25.5595
G01 X54.5467 Y25.5174
G01 X54.5253 Y25.4773
G01 X54.5043 Y25.4329
G01 X54.4869 Y25.3909
G01 X54.4703 Y25.3447
G01 X54.4571 Y25.3012
G01 X54.4452 Y25.2536
G01 X54.4363 Y25.2090
G01 X54.4291 Y25.1604
G01 X54.4247 Y25.1152
G01 X54.4223 Y25.0661
G01 X54.4217 Y25.0434
G01 X54.4217 Y20.7196
G00 Z2.0000
G00 X64.5817 Y20.7196
G01 F60.00
G01 Z-0.2001
G01 F320.00
G01 X64.5396 Y20.6628
G01 X64.5143 Y20.6250
G01 X64.4758 Y20.5608
G01 X64.4544 Y20.5207
G01 X64.4224 Y20.4531
G01 X64.4050 Y20.4111
G01 X64.3798 Y20.3407
G01 X64.3666 Y20.2972
G01 X64.3485 Y20.2246
G01 X64.3396 Y20.1800
G01 X64.3286 Y20.1061
G01 X64.3242 Y20.0608
G01 X64.3205 Y19.9861
G01 X64.3205 Y19.9406
G01 X64.3242 Y19.8660
G01 X64.3286 Y19.8207
G01 X64.3396 Y19.7467
G01 X64.3485 Y19.7021
G01 X64.3666 Y19.6296
G01 X64.3798 Y19.5861
G01 X64.4050 Y19.5157
G01 X64.4224 Y19.4737
G01 X64.4544 Y19.4061
G01 X64.4758 Y19.3659
G01 X64.5143 Y19.3018
G01 X64.5396 Y19.2640
G01 X64.5841 Y19.2039
G01 X64.6130 Y19.1688
G01 X64.6632 Y19.1134
G01 X64.6953 Y19.0812
G01 X64.7507 Y19.0310
G01 X64.7859 Y19.0021
G01 X64.8459 Y18.9576
G01 X64.8838 Y18.9323
G01 X64.9479 Y18.8939
G01 X64.9880 Y18.8725
G01 X65.0556 Y18.8405
G01 X65.0976 Y18.8231
G01 X65.1680 Y18.7979
G01 X65.2115 Y18.7847
G01 X65.2841 Y18.7665
G01 X65.3287 Y18.7576
G01 X65.4027 Y18.7467
G01 X65.4479 Y18.7422
G01 X65.5226 Y18.7385
G01 X65.5681 Y18.7385
G01 X65.6428 Y18.7422
G01 X65.6880 Y18.7467
G01 X65.7620 Y18.7576
G01 X65.8066 Y18.7665
G01 X65.8791 Y18.7847
G01 X65.9226 Y18.7979
G01 X65.9931 Y18.8231
G01 X66.0351 Y18.8405
G01 X66.1027 Y18.8725
G01 X66.1428 Y18.8939
G01 X66.2069 Y18.9323
G01 X66.2447 Y18.9576
G01 X66.3048 Y19.0021
G01 X66.3399 Y19.0310
G01 X66.3954 Y19.0812
G01 X66.4275 Y19.1134
G01 X66.4777 Y19.1688
G01 X66.5066 Y19.2039
G01 X66.5511 Y19.2640
G01 X66.5764 Y19.3018
G01 X66.6148 Y19.3659
G01 X66.6363 Y19.4061
G01 X66.6682 Y19.4737
G01 X66.6856 Y19.5157
G01 X66.7108 Y19.5861
G01 X66.7240 Y19.6296
G01 X66.7422 Y19.7021
G01 X66.7511 Y19.7467
G01 X66.7621 Y19.8207
G01 X66.7665 Y19.8660
G01 X66.7702 Y19.9406
G01 X66.7702 Y19.9861
G01 X66.7665 Y20.0608
G01 X66.7621 Y20.1061
G01 X66.7511 Y20.1800
G01 X66.7422 Y20.2246
G01 X66.7240 Y20.2972
G01 X66.7108 Y20.3407
G01 X66.6856 Y20.4111
G01 X66.6682 Y20.4531
G01 X66.6363 Y20.5207
G01 X66.6148 Y20.5608
G01 X66.5764 Y20.6250
G01 X66.5511 Y20.6628
G01 X66.5090 Y20.7196
G01 X66.5090 Y24.0797
G01 X69.1927 Y24.0797
G01 X69.2007 Y24.0629
G01 X69.2240 Y24.0239
G01 X69.2511 Y23.9874
G01 X69.2817 Y23.9537
G01 X69.3154 Y23.9232
G01 X69.3519 Y23.8961
G01 X69.3909 Y23.8727
G01 X69.4320 Y23.8533
G01 X69.4748 Y23.8379
G01 X69.5189 Y23.8269
G01 X69.5639 Y23.8202
G01 X69.6093 Y23.8180
G01 X71.6413 Y23.8180
G01 X71.6868 Y23.8202
G01 X71.7317 Y23.8269
G01 X71.7759 Y23.8379
G01 X71.8187 Y23.8533
G01 X71.8598 Y23.8727
G01 X71.8988 Y23.8961
G01 X71.9353 Y23.9232
G01 X71.9690 Y23.9537
G01 X71.9995 Y23.9874
G01 X72.0266 Y24.0239
G01 X72.0500 Y24.0629
G01 X72.0695 Y24.1041
G01 X72.0848 Y24.1469
G01 X72.0958 Y24.1910
G01 X72.1025 Y24.2360
G01 X72.1047 Y24.2814
G01 X72.1047 Y25.8054
G01 X72.1025 Y25.8508
G01 X72.0958 Y25.8958
G01 X72.0848 Y25.9399
G01 X72.0695 Y25.9827
G01 X72.0500 Y26.0238
G01 X72.0266 Y26.0628
G01 X71.9995 Y26.0994
G01 X71.9690 Y26.1331
G01 X71.9353 Y26.1636
G01 X71.8988 Y26.1907
G01 X71.8598 Y26.2141
G01 X71.8187 Y26.2335
G01 X71.7759 Y26.2488
G01 X71.7317 Y26.2599
G01 X71.6868 Y26.2666
G01 X71.6413 Y26.2688
G01 X69.6093 Y26.2688
G01 X69.5639 Y26.2666
G01 X69.5189 Y26.2599
G01 X69.4748 Y26.2488
G01 X69.4320 Y26.2335
G01 X69.3909 Y26.2141
G01 X69.3519 Y26.1907
G01 X69.3154 Y26.1636
G01 X69.2817 Y26.1331
G01 X69.2511 Y26.0994
G01 X69.2240 Y26.0628
G01 X69.2007 Y26.0238
G01 X69.1927 Y26.0070
G01 X65.5453 Y26.0070
G01 X65.5226 Y26.0065
G01 X65.4736 Y26.0041
G01 X65.4283 Y25.9996
G01 X65.3798 Y25.9924
G01 X65.3351 Y25.9835
G01 X65.2875 Y25.9716
G01 X65.2440 Y25.9584
G01 X65.1978 Y25.9419
G01 X65.1558 Y25.9245
G01 X65.1114 Y25.9035
G01 X65.0713 Y25.8820
G01 X65.0292 Y25.8568
G01 X64.9914 Y25.8315
G01 X64.9519 Y25.8023
G01 X64.9168 Y25.7734
G01 X64.8804 Y25.7405
G01 X64.8483 Y25.7083
G01 X64.8153 Y25.6719
G01 X64.7864 Y25.6368
G01 X64.7572 Y25.5974
G01 X64.7319 Y25.5595
G01 X64.7067 Y25.5174
G01 X64.6853 Y25.4773
G01 X64.6643 Y25.4329
G01 X64.6469 Y25.3909
G01 X64.6303 Y25.3447
G01 X64.6171 Y25.3012
G01 X64.6052 Y25.2536
G01 X64.5963 Y25.2090
G01 X64.5891 Y25.1604
G01 X64.5847 Y25.1152
G01 X64.5823 Y25.0661
G01 X64.5817 Y25.0434
G01 X64.5817 Y20.7196
G00 Z2.0000
G00 X74.7417 Y20.7196
G01 F60.00
G01 Z-0.2001
G01 F320.00
G01 X74.6996 Y20.6628
G01 X74.6743 Y20.6250
G01 X74.6358 Y20.5608
G01 X74.6144 Y20.5207
G01 X74.5824 Y20.4531
G01 X74.5650 Y20.4111
G01 X74.5398 Y20.3407
G01 X74.5266 Y20.2972
G01 X74.5085 Y20.2246
G01 X74.4996 Y20.1800
G01 X74.4886 Y20.1061
G01 X74.4842 Y20.0608
G01 X74.4805 Y19.9861
G01 X74.4805 Y19.9406
G01 X74.4842 Y19.8660
G01 X74.4886 Y19.8207
G01 X74.4996 Y19.7467
G01 X74.5085 Y19.7021
G01 X74.5266 Y19.6296
G01 X74.5398 Y19.5861
G01 X74.5650 Y19.5157
G01 X74.5824 Y19.4737
G01 X74.6144 Y19.4061
G01 X74.6358 Y19.3659
G01 X74.6743 Y19.3018
G01 X74.6996 Y19.2640
G01 X74.7441 Y19.2039
G01 X74.7730 Y19.1688
G01 X74.8232 Y19.1134
G01 X74.8553 Y19.0812
G01 X74.9107 Y19.0310
G01 X74.9459 Y19.0021
G01 X75.0059 Y18.9576
G01 X75.0438 Y18.9323
G01 X75.1079 Y18.8939
G01 X75.1480 Y18.8725
G01 X75.2156 Y18.8405
G01 X75.2576 Y18.8231
G01 X75.3280 Y18.7979
G01 X75.3715 Y18.7847
G01 X75.4441 Y18.7665
G01 X75.4887 Y18.7576
G01 X75.5627 Y18.7467
G01 X75.6079 Y18.7422
G01 X75.6826 Y18.7385
G01 X75.7281 Y18.7385
G01 X75.8028 Y18.7422
G01 X75.8480 Y18.7467
G01 X75.9220 Y18.7576
G01 X75.9666 Y18.7665
G01 X76.0391 Y18.7847
G01 X76.0826 Y18.7979
G01 X76.1531 Y18.8231
G01 X76.1951 Y18.8405
G01 X76.2627 Y18.8725
G01 X76.3028 Y18.8939
G01 X76.3669 Y18.9323
G01 X76.4047 Y18.9576
G01 X76.4648 Y19.0021
G01 X76.4999 Y19.0310
G01 X76.5554 Y19.0812
G01 X76.5875 Y19.1134
G01 X76.6377 Y19.1688
G01 X76.6666 Y19.2039
G01 X76.7111 Y19.2640
G01 X76.7364 Y19.3018
G01 X76.7748 Y19.3659
G01 X76.7963 Y19.4061
G01 X76.8282 Y19.4737
G01 X76.8456 Y19.5157
G01 X76.8708 Y19.5861
G01 X76.8840 Y19.6296
G01 X76.9022 Y19.7021
G01 X76.9111 Y19.7467
G01 X76.9221 Y19.8207
G01 X76.9265 Y19.8660
G01 X76.9302 Y19.9406
G01 X76.9302 Y19.9861
G01 X76.9265 Y20.0608
G01 X76.9221 Y20.1061
G01 X76.9111 Y20.1800
G01 X76.9022 Y20.2246
G01 X76.8840 Y20.2972
G01 X76.8708 Y20.3407
G01 X76.8456 Y20.4111
G01 X76.8282 Y20.4531
G01 X76.7963 Y20.5207
G01 X76.7748 Y20.5608
G01 X76.7364 Y20.6250
G01 X76.7111 Y20.6628
G01 X76.6690 Y20.7196
G01 X76.6690 Y24.0797
G01 X79.3527 Y24.0797
G01 X79.3607 Y24.0629
G01 X79.3840 Y24.0239
G01 X79.4111 Y23.9874
G01 X79.4417 Y23.9537
G01 X79.4754 Y23.9232
G01 X79.5119 Y23.8961
G01 X79.5509 Y23.8727
G01 X79.5920 Y23.8533
G01 X79.6348 Y23.8379
G01 X79.6789 Y23.8269
G01 X79.7239 Y23.8202
G01 X79.7693 Y23.8180
G01 X81.8013 Y23.8180
G01 X81.8468 Y23.8202
G01 X81.8917 Y23.8269
G01 X81.9359 Y23.8379
G01 X81.9787 Y23.8533
G01 X82.0198 Y23.8727
G01 X82.0588 Y23.8961
G01 X82.0953 Y23.9232
G01 X82.1290 Y23.9537
G01 X82.1595 Y23.9874
G01 X82.1866 Y24.0239
G01 X82.2100 Y24.0629
G01 X82.2295 Y24.1041
G01 X82.2448 Y24.1469
G01 X82.2558 Y24.1910
G01 X82.2625 Y24.2360
G01 X82.2647 Y24.2814
G01 X82.2647 Y25.8054
G01 X82.2625 Y25.8508
G01 X82.2558 Y25.8958
G01 X82.2448 Y25.9399
G01 X82.2295 Y25.9827
G01 X82.2100 Y26.0238
G01 X82.1866 Y26.0628
G01 X82.1595 Y26.0994
G01 X82.1290 Y26.1331
G01 X82.0953 Y26.1636
G01 X82.0588 Y26.1907
G01 X82.0198 Y26.2141
G01 X81.9787 Y26.2335
G01 X81.9359 Y26.2488
G01 X81.8917 Y26.2599
G01 X81.8468 Y26.2666
G01 X81.8013 Y26.2688
G01 X79.7693 Y26.2688
G01 X79.7239 Y26.2666
G01 X79.6789 Y26.2599
G01 X79.6348 Y26.2488
G01 X79.5920 Y26.2335
G01 X79.5509 Y26.2141
G01 X79.5119 Y26.1907
G01 X79.4754 Y26.1636
G01 X79.4417 Y26.1331
G01 X79.4111 Y26.0994
G01 X79.3840 Y26.0628
G01 X79.3607 Y26.0238
G01 X79.3527 Y26.0070
G01 X75.7053 Y26.0070
G01 X75.6826 Y26.0065
G01 X75.6336 Y26.0041
G01 X75.5883 Y25.9996
G01 X75.5398 Y25.9924
G01 X75.4951 Y25.9835
G01 X75.4475 Y25.9716
G01 X75.4040 Y25.9584
G01 X75.3578 Y25.9419
G01 X75.3158 Y25.9245
G01 X75.2714 Y25.9035
G01 X75.2313 Y25.8820
G01 X75.1892 Y25.8568
G01 X75.1514 Y25.8315
G01 X75.1119 Y25.8023
G01 X75.0768 Y25.7734
G01 X75.0404 Y25.7405
G01 X75.0083 Y25.7083
G01 X74.9753 Y25.6719
G01 X74.9464 Y25.6368
G01 X74.9172 Y25.5974
G01 X74.8919 Y25.5595
G01 X74.8667 Y25.5174
G01 X74.8453 Y25.4773
G01 X74.8243 Y25.4329
G01 X74.8069 Y25.3909
G01 X74.7903 Y25.3447
G01 X74.7771 Y25.3012
G01 X74.7652 Y25.2536
G01 X74.7563 Y25.2090
G01 X74.7491 Y25.1604
G01 X74.7447 Y25.1152
G01 X74.7423 Y25.0661
G01 X74.7417 Y25.0434
G01 X74.7417 Y20.7196
G00 Z2.0000
G00 X84.9017 Y20.7196
G01 F60.00
G01 Z-0.2001
G01 F320.00
G01 X84.8596 Y20.6628
G01 X84.8343 Y20.6250
G01 X84.7958 Y20.5608
G01 X84.7744 Y20.5207
G01 X84.7424 Y20.4531
G01 X84.7250 Y20.4111
G01 X84.6998 Y20.3407
G01 X84.6866 Y20.2972
G01 X84.6685 Y20.2246
G01 X84.6596 Y20.1800
G01 X84.6486 Y20.1061
G01 X84.6442 Y20.0608
G01 X84.6405 Y19.9861
G01 X84.6405 Y19.9406
G01 X84.6442 Y19.8660
G01 X84.6486 Y19.8207
G01 X84.6596 Y19.7467
G01 X84.6685 Y19.7021
G01 X84.6866 Y19.6296
G01 X84.6998 Y19.5861
G01 X84.7250 Y19.5157
G01 X84.7424 Y19.4737
G01 X84.7744 Y19.4061
G01 X84.7958 Y19.3659
G01 X84.8343 Y19.3018
G01 X84.8596 Y19.2640
G01 X84.9041 Y19.2039
G01 X84.9330 Y19.1688
G01 X84.9832 Y19.1134
G01 X85.0153 Y19.0812
G01 X85.0707 Y19.0310
G01 X85.1059 Y19.0021
G01 X85.1659 Y18.9576
G01 X85.2038 Y18.9323
G01 X85.2679 Y18.8939
G01 X85.3080 Y18.8725
G01 X85.3756 Y18.8405
G01 X85.4176 Y18.8231
G01 X85.4880 Y18.7979
G01 X85.5315 Y18.7847
G01 X85.6041 Y18.7665
G01 X85.6487 Y18.7576
G01 X85.7227 Y18.7467
G01 X85.7679 Y18.7422
G01 X85.8426 Y18.7385
G01 X85.8881 Y18.7385
G01 X85.9628 Y18.7422
G01 X86.0080 Y18.7467
G01 X86.0820 Y18.7576
G01 X86.1266 Y18.7665
G01 X86.1991 Y18.7847
G01 X86.2426 Y18.7979
G01 X86.3131 Y18.8231
G01 X86.3551 Y18.8405
G01 X86.4227 Y18.8725
G01 X86.4628 Y18.8939
G01 X86.5269 Y18.9323
G01 X86.5647 Y18.9576
G01 X86.6248 Y19.0021
G01 X86.6599 Y19.0310
G01 X86.7154 Y19.0812
G01 X86.7475 Y19.1134
G01 X86.7977 Y19.1688
G01 X86.8266 Y19.2039
G01 X86.8711 Y19.2640
G01 X86.8964 Y19.3018
G01 X86.9348 Y19.3659
G01 X86.9563 Y19.4061
G01 X86.9882 Y19.4737
G01 X87.0056 Y19.5157
G01 X87.0308 Y19.5861
G01 X87.0440 Y19.6296
G01 X87.0622 Y19.7021
G01 X87.0711 Y19.7467
G01 X87.0821 Y19.8207
G01 X87.0865 Y19.8660
G01 X87.0902 Y19.9406
G01 X87.0902 Y19.9861
G01 X87.0865 Y20.0608
G01 X87.0821 Y20.1061
G01 X87.0711 Y20.1800
G01 X87.0622 Y20.2246
G01 X87.0440 Y20.2972
G01 X87.0308 Y20.3407
G01 X87.0056 Y20.4111
G01 X86.9882 Y20.4531
G01 X86.9563 Y20.5207
G01 X86.9348 Y20.5608
G01 X86.8964 Y20.6250
G01 X86.8711 Y20.6628
G01 X86.8290 Y20.7196
G01 X86.8290 Y24.0797
G01 X89.5127 Y24.0797
G01 X89.5207 Y24.0629
G01 X89.5440 Y24.0239
G01 X89.5711 Y23.9874
G01 X89.6017 Y23.9537
G01 X89.6354 Y23.9232
G01 X89.6719 Y23.8961
G01 X89.7109 Y23.8727
G01 X89.7520 Y23.8533
G01 X89.7948 Y23.8379
G01 X89.8389 Y23.8269
G01 X89.8839 Y23.8202
G01 X89.9293 Y23.8180
G01 X91.9613 Y23.8180
G01 X92.0068 Y23.8202
G01 X92.0517 Y23.8269
G01 X92.0959 Y23.8379
G01 X92.1387 Y23.8533
G01 X92.1798 Y23.8727
G01 X92.2188 Y23.8961
G01 X92.2553 Y23.9232
G01 X92.2890 Y23.9537
G01 X92.3195 Y23.9874
G01 X92.3466 Y24.0239
G01 X92.3700 Y24.0629
G01 X92.3895 Y24.1041
G01 X92.4048 Y24.1469
G01 X92.4158 Y24.1910
G01 X92.4225 Y24.2360
G01 X92.4247 Y24.2814
G01 X92.4247 Y25.8054
G01 X92.4225 Y25.8508
G01 X92.4158 Y25.8958
G01 X92.4048 Y25.9399
G01 X92.3895 Y25.9827
G01 X92.3700 Y26.0238
G01 X92.3466 Y26.0628
G01 X92.3195 Y26.0994
G01 X92.2890 Y26.1331
G01 X92.2553 Y26.1636
G01 X92.2188 Y26.1907
G01 X92.1798 Y26.2141
G01 X92.1387 Y26.2335
G01 X92.0959 Y26.2488
G01 X92.0517 Y26.2599
G01 X92.0068 Y26.2666
G01 X91.9613 Y26.2688
G01 X89.9293 Y26.2688
G01 X89.8839 Y26.2666
G01 X89.8389 Y26.2599
G01 X89.7948 Y26.2488
G01 X89.7520 Y26.2335
G01 X89.7109 Y26.2141
G01 X89.6719 Y26.1907
G01 X89.6354 Y26.1636
G01 X89.6017 Y26.1331
G01 X89.5711 Y26.0994
G01 X89.5440 Y26.0628
G01 X89.5207 Y26.0238
G01 X89.5127 Y26.0070
G01 X85.8653 Y26.0070
G01 X85.8426 Y26.0065
G01 X85.7936 Y26.0041
G01 X85.7483 Y25.9996
G01 X85.6998 Y25.9924
G01 X85.6551 Y25.9835
G01 X85.6075 Y25.9716
G01 X85.5640 Y25.9584
G01 X85.5178 Y25.9419
G01 X85.4758 Y25.9245
G01 X85.4314 Y25.9035
G01 X85.3913 Y25.8820
G01 X85.3492 Y25.8568
G01 X85.3114 Y25.8315
G01 X85.2719 Y25.8023
G01 X85.2368 Y25.7734
G01 X85.2004 Y25.7405
G01 X85.1683 Y25.7083
G01 X85.1353 Y25.6719
G01 X85.1064 Y25.6368
G01 X85.0772 Y25.5974
G01 X85.0519 Y25.5595
G01 X85.0267 Y25.5174
G01 X85.0053 Y25.4773
G01 X84.9843 Y25.4329
G01 X84.9669 Y25.3909
G01 X84.9503 Y25.3447
G01 X84.9371 Y25.3012
G01 X84.9252 Y25.2536
G01 X84.9163 Y25.2090
G01 X84.9091 Y25.1604
G01 X84.9047 Y25.1152
G01 X84.9023 Y25.0661
G01 X84.9017 Y25.0434
G01 X84.9017 Y20.7196
G00 Z2.0000
G00 X95.0617 Y20.7196
G01 F60.00
G01 Z-0.2001
G01 F320.00
G01 X95.0196 Y20.6628
G01 X94.9943 Y20.6250
G01 X94.9558 Y20.5608
G01 X94.9344 Y20.5207
G01 X94.9024 Y20.4531
G01 X94.8850 Y20.4111
G01 X94.8598 Y20.3407
G01 X94.8466 Y20.2972
G01 X94.8285 Y20.2246
G01 X94.8196 Y20.1800
G01 X94.8086 Y20.1061
G01 X94.8042 Y20.0608
G01 X94.8005 Y19.9861
G01 X94.8005 Y19.9406
G01 X94.8042 Y19.8660
G01 X94.8086 Y19.8207
G01 X94.8196 Y19.7467
G01 X94.8285 Y19.7021
G01 X94.8466 Y19.6296
G01 X94.8598 Y19.5861
G01 X94.8850 Y19.5157
G01 X94.9024 Y19.4737
G01 X94.9344 Y19.4061
G01 X94.9558 Y19.3659
G01 X94.9943 Y19.3018
G01 X95.0196 Y19.2640
G01 X95.0641 Y19.2039
G01 X95.0930 Y19.1688
G01 X95.1432 Y19.1134
G01 X95.1753 Y19.0812
G01 X95.2307 Y19.0310
G01 X95.2659 Y19.0021
G01 X95.3259 Y18.9576
G01 X95.3638 Y18.9323
G01 X95.4279 Y18.8939
G01 X95.4680 Y18.8725
G01 X95.5356 Y18.8405
G01 X95.5776 Y18.8231
G01 X95.6480 Y18.7979
G01 X95.6915 Y18.7847
G01 X95.7641 Y18.7665
G01 X95.8087 Y18.7576
G01 X95.8827 Y18.7467
G01 X95.9279 Y18.7422
G01 X96.0026 Y18.7385
G01 X96.0481 Y18.7385
G01 X96.1228 Y18.7422
G01 X96.1680 Y18.7467
G01 X96.2420 Y18.7576
G01 X96.2866 Y18.7665
G01 X96.3591 Y18.7847
G01 X96.4026 Y18.7979
G01 X96.4731 Y18.8231
G01 X96.5151 Y18.8405
G01 X96.5827 Y18.8725
G01 X96.6228 Y18.8939
G01 X96.6869 Y18.9323
G01 X96.7247 Y18.9576
G01 X96.7848 Y19.0021
G01 X96.8199 Y19.0310
G01 X96.8754 Y19.0812
G01 X96.9075 Y19.1134
G01 X96.9577 Y19.1688
G01 X96.9866 Y19.2039
G01 X97.0311 Y19.2640
G01 X97.0564 Y19.3018
G01 X97.0948 Y19.3659
G01 X97.1163 Y19.4061
G01 X97.1482 Y19.4737
G01 X97.1656 Y19.5157
G01 X97.1908 Y19.5861
G01 X97.2040 Y19.6296
G01 X97.2222 Y19.7021
G01 X97.2311 Y19.7467
G01 X97.2421 Y19.8207
G01 X97.2465 Y19.8660
G01 X97.2502 Y19.9406
G01 X97.2502 Y19.9861
G01 X97.2465 Y20.0608
G01 X97.2421 Y20.1061
G01 X97.2311 Y20.1800
G01 X97.2222 Y20.2246
G01 X97.2040 Y20.2972
G01 X97.1908 Y20.3407
G01 X97.1656 Y20.4111
G01 X97.1482 Y20.4531
G01 X97.1163 Y20.5207
G01 X97.0948 Y20.5608
G01 X97.0564 Y20.6250
G01 X97.0311 Y20.6628
G01 X96.9890 Y20.7196
G01 X96.9890 Y24.0797
G01 X99.6727 Y24.0797
G01 X99.6807 Y24.0629
G01 X99.7040 Y24.0239
G01 X99.7311 Y23.9874
G01 X99.7617 Y23.9537
G01 X99.7954 Y23.9232
G01 X99.8319 Y23.8961
G01 X99.8709 Y23.8727
G01 X99.9120 Y23.8533
G01 X99.9548 Y23.8379
G01 X99.9989 Y23.8269
G01 X100.0439 Y23.8202
G01 X100.0893 Y23.8180
G01 X102.1213 Y23.8180
G01 X102.1668 Y23.8202
G01 X102.2117 Y23.8269
G01 X102.2559 Y23.8379
G01 X102.2987 Y23.8533
G01 X102.3398 Y23.8727
G01 X102.3788 Y23.8961
G01 X102.4153 Y23.9232
G01 X102.4490 Y23.9537
G01 X102.4795 Y23.9874
G01 X102.5066 Y24.0239
G01 X102.5300 Y24.0629
G01 X102.5495 Y24.1041
G01 X102.5648 Y24.1469
G01 X102.5758 Y24.1910
G01 X102.5825 Y24.2360
G01 X102.5847 Y24.2814
G01 X102.5847 Y25.8054
G01 X102.5825 Y25.8508
G01 X102.5758 Y25.8958
G01 X102.5648 Y25.9399
G01 X102.5495 Y25.9827
G01 X102.5300 Y26.0238
G01 X102.5066 Y26.0628
G01 X102.4795 Y26.0994
G01 X102.4490 Y26.1331
G01 X102.4153 Y26.1636
G01 X102.3788 Y26.1907
G01 X102.3398 Y26.2141
G01 X102.2987 Y26.2335
G01 X102.2559 Y26.2488
G01 X102.2117 Y26.2599
G01 X102.1668 Y26.2666
G01 X102.1213 Y26.2688
G01 X100.0893 Y26.2688
G01 X100.0439 Y26.2666
G01 X99.9989 Y26.2599
G01 X99.9548 Y26.2488
G01 X99.9120 Y26.2335
G01 X99.8709 Y26.2141
G01 X99.8319 Y26.1907
G01 X99.7954 Y26.1636
G01 X99.7617 Y26.1331
G01 X99.7311 Y26.0994
G01 X99.7040 Y26.0628
G01 X99.6807 Y26.0238
G01 X99.6727 Y26.0070
G01 X96.0253 Y26.0070
G01 X96.0026 Y26.0065
G01 X95.9536 Y26.0041
G01 X95.9083 Y25.9996
G01 X95.8598 Y25.9924
G01 X95.8151 Y25.9835
G01 X95.7675 Y25.9716
G01 X95.7240 Y25.9584
G01 X95.6778 Y25.9419
G01 X95.6358 Y25.9245
G01 X95.5914 Y25.9035
G01 X95.5513 Y25.8820
G01 X95.5092 Y25.8568
G01 X95.4714 Y25.8315
G01 X95.4319 Y25.8023
G01 X95.3968 Y25.7734
G01 X95.3604 Y25.7405
G01 X95.3283 Y25.7083
G01 X95.2953 Y25.6719
G01 X95.2664 Y25.6368
G01 X95.2372 Y25.5974
G01 X95.2119 Y25.5595
G01 X95.1867 Y25.5174
G01 X95.1653 Y25.4773
G01 X95.1443 Y25.4329
G01 X95.1269 Y25.3909
G01 X95.1103 Y25.3447
G01 X95.0971 Y25.3012
G01 X95.0852 Y25.2536
G01 X95.0763 Y25.2090
G01 X95.0691 Y25.1604
G01 X95.0647 Y25.1152
G01 X95.0623 Y25.0661
G01 X95.0617 Y25.0434
G01 X95.0617 Y20.7196
G00 Z2.0000
G00 X105.2217 Y20.7196
G01 F60.00
G01 Z-0.2001
G01 F320.00
G01 X105.1796 Y20.6628
G01 X105.1543 Y20.6250
G01 X105.1158 Y20.5608
G01 X105.0944 Y20.5207
G01 X105.0624 Y20.4531
G01 X105.0450 Y20.4111
G01 X105.0198 Y20.3407
G01 X105.0066 Y20.2972
G01 X104.9885 Y20.2246
G01 X104.9796 Y20.1800
G01 X104.9686 Y20.1061
G01 X104.9642 Y20.0608
G01 X104.9605 Y19.9861
G01 X104.9605 Y19.9406
G01 X104.9642 Y19.8660
G01 X104.9686 Y19.8207
G01 X104.9796 Y19.7467
G01 X104.9885 Y19.7021
G01 X105.0066 Y19.6296
G01 X105.0198 Y19.5861
G01 X105.0450 Y19.5157
G01 X105.0624 Y19.4737
G01 X105.0944 Y19.4061
G01 X105.1158 Y19.3659
G01 X105.1543 Y19.3018
G01 X105.1796 Y19.2640
G01 X105.2241 Y19.2039
G01 X105.2530 Y19.1688
G01 X105.3032 Y19.1134
G01 X105.3353 Y19.0812
G01 X105.3907 Y19.0310
G01 X105.4259 Y19.0021
G01 X105.4859 Y18.9576
G01 X105.5238 Y18.9323
G01 X105.5879 Y18.8939
G01 X105.6280 Y18.8725
G01 X105.6956 Y18.8405
G01 X105.7376 Y18.8231
G01 X105.8080 Y18.7979
G01 X105.8515 Y18.7847
G01 X105.9241 Y18.7665
G01 X105.9687 Y18.7576
G01 X106.0427 Y18.7467
G01 X106.0879 Y18.7422
G01 X106.1626 Y18.7385
G01 X106.2081 Y18.7385
G01 X106.2828 Y18.7422
G01 X106.3280 Y18.7467
G01 X106.4020 Y18.7576
G01 X106.4466 Y18.7665
G01 X106.5191 Y18.7847
G01 X106.5626 Y18.7979
G01 X106.6331 Y18.8231
G01 X106.6751 Y18.8405
G01 X106.7427 Y18.8725
G01 X106.7828 Y18.8939
G01 X106.8469 Y18.9323
G01 X106.8847 Y18.9576
G01 X106.9448 Y19.0021
G01 X106.9799 Y19.0310
G01 X107.0354 Y19.0812
G01 X107.0675 Y19.1134
G01 X107.1177 Y19.1688
G01 X107.1466 Y19.2039
G01 X107.1911 Y19.2640
G01 X107.2164 Y19.3018
G01 X107.2548 Y19.3659
G01 X107.2763 Y19.4061
G01 X107.3082 Y19.4737
G01 X107.3256 Y19.5157
G01 X107.3508 Y19.5861
G01 X107.3640 Y19.6296
G01 X107.3822 Y19.7021
G01 X107.3911 Y19.7467
G01 X107.4021 Y19.8207
G01 X107.4065 Y19.8660
G01 X107.4102 Y19.9406
G01 X107.4102 Y19.9861
G01 X107.4065 Y20.0608
G01 X107.4021 Y20.1061
G01 X107.3911 Y20.1800
G01 X107.3822 Y20.2246
G01 X107.3640 Y20.2972
G01 X107.3508 Y20.3407
G01 X107.3256 Y20.4111
G01 X107.3082 Y20.4531
G01 X107.2763 Y20.5207
G01 X107.2548 Y20.5608
G01 X107.2164 Y20.6250
G01 X107.1911 Y20.6628
G01 X107.1490 Y20.7196
G01 X107.1490 Y24.0797
G01 X109.8327 Y24.0797
G01 X109.8407 Y24.0629
G01 X109.8640 Y24.0239
G01 X109.8911 Y23.9874
G01 X109.9217 Y23.9537
G01 X109.9554 Y23.9232
G01 X109.9919 Y23.8961
G01 X110.0309 Y23.8727
G01 X110.0720 Y23.8533
G01 X110.1148 Y23.8379
G01 X110.1589 Y23.8269
G01 X110.2039 Y23.8202
G01 X110.2493 Y23.8180
G01 X112.2813 Y23.8180
G01 X112.3268 Y23.8202
G01 X112.3717 Y23.8269
G01 X112.4159 Y23.8379
G01 X112.4587 Y23.8533
G01 X112.4998 Y23.8727
G01 X112.5388 Y23.8961
G01 X112.5753 Y23.9232
G01 X112.6090 Y23.9537
G01 X112.6395 Y23.9874
G01 X112.6666 Y24.0239
G01 X112.6900 Y24.0629
G01 X112.7095 Y24.1041
G01 X112.7248 Y24.1469
G01 X112.7358 Y24.1910
G01 X112.7425 Y24.2360
G01 X112.7447 Y24.2814
G01 X112.7447 Y25.8054
G01 X112.7425 Y25.8508
G01 X112.7358 Y25.8958
G01 X112.7248 Y25.9399
G01 X112.7095 Y25.9827
G01 X112.6900 Y26.0238
G01 X112.6666 Y26.0628
G01 X112.6395 Y26.0994
G01 X112.6090 Y26.1331
G01 X112.5753 Y26.1636
G01 X112.5388 Y26.1907
G01 X112.4998 Y26.2141
G01 X112.4587 Y26.2335
G01 X112.4159 Y26.2488
G01 X112.3717 Y26.2599
G01 X112.3268 Y26.2666
G01 X112.2813 Y26.2688
G01 X110.2493 Y26.2688
G01 X110.2039 Y26.2666
G01 X110.1589 Y26.2599
G01 X110.1148 Y26.2488
G01 X110.0720 Y26.2335
G01 X110.0309 Y26.2141
G01 X109.9919 Y26.1907
G01 X109.9554 Y26.1636
G01 X109.9217 Y26.1331
G01 X109.8911 Y26.0994
G01 X109.8640 Y26.0628
G01 X109.8407 Y26.0238
G01 X109.8327 Y26.0070
G01 X106.1853 Y26.0070
G01 X106.1626 Y26.0065
G01 X106.1136 Y26.0041
G01 X106.0683 Y25.9996
G01 X106.0198 Y25.9924
G01 X105.9751 Y25.9835
G01 X105.9275 Y25.9716
G01 X105.8840 Y25.9584
G01 X105.8378 Y25.9419
G01 X105.7958 Y25.9245
G01 X105.7514 Y25.9035
G01 X105.7113 Y25.8820
G01 X105.6692 Y25.8568
G01 X105.6314 Y25.8315
G01 X105.5919 Y25.8023
G01 X105.5568 Y25.7734
G01 X105.5204 Y25.7405
G01 X105.4883 Y25.7083
G01 X105.4553 Y25.6719
G01 X105.4264 Y25.6368
G01 X105.3972 Y25.5974
G01 X105.3719 Y25.5595
G01 X105.3467 Y25.5174
G01 X105.3253 Y25.4773
G01 X105.3043 Y25.4329
G01 X105.2869 Y25.3909
G01 X105.2703 Y25.3447
G01 X105.2571 Y25.3012
G01 X105.2452 Y25.2536
G01 X105.2363 Y25.2090
G01 X105.2291 Y25.1604
G01 X105.2247 Y25.1152
G01 X105.2223 Y25.0661
G01 X105.2217 Y25.0434
G01 X105.2217 Y20.7196
G00 Z2.0000
G00 X115.3817 Y20.7196
G01 F60.00
G01 Z-0.2001
G01 F320.00
G01 X115.3396 Y20.6628
G01 X115.3143 Y20.6250
G01 X115.2758 Y20.5608
G01 X115.2544 Y20.5207
G01 X115.2224 Y20.4531
G01 X115.2050 Y20.4111
G01 X115.1798 Y20.3407
G01 X115.1666 Y20.2972
G01 X115.1485 Y20.2246
G01 X115.1396 Y20.1800
G01 X115.1286 Y20.1061
G01 X115.1242 Y20.0608
G01 X115.1205 Y19.9861
G01 X115.1205 Y19.9406
G01 X115.1242 Y19.8660
G01 X115.1286 Y19.8207
G01 X115.1396 Y19.7467
G01 X115.1485 Y19.7021
G01 X115.1666 Y19.6296
G01 X115.1798 Y19.5861
G01 X115.2050 Y19.5157
G01 X115.2224 Y19.4737
G01 X115.2544 Y19.4061
G01 X115.2758 Y19.3659
G01 X115.3143 Y19.3018
G01 X115.3396 Y19.2640
G01 X115.3841 Y19.2039
G01 X115.4130 Y19.1688
G01 X115.4632 Y19.1134
G01 X115.4953 Y19.0812
G01 X115.5507 Y19.0310
G01 X115.5859 Y19.0021
G01 X115.6459 Y18.9576
G01 X115.6838 Y18.9323
G01 X115.7479 Y18.8939
G01 X115.7880 Y18.8725
G01 X115.8556 Y18.8405
G01 X115.8976 Y18.8231
G01 X115.9680 Y18.7979
G01 X116.0115 Y18.7847
G01 X116.0841 Y18.7665
G01 X116.1287 Y18.7576
G01 X116.2027 Y18.7467
G01 X116.2479 Y18.7422
G01 X116.3226 Y18.7385
G01 X116.3681 Y18.7385
G01 X116.4428 Y18.7422
G01 X116.4880 Y18.7467
G01 X116.5620 Y18.7576
G01 X116.6066 Y18.7665
G01 X116.6791 Y18.7847
G01 X116.7226 Y18.7979
G01 X116.7931 Y18.8231
G01 X116.8351 Y18.8405
G01 X116.9027 Y18.8725
G01 X116.9428 Y18.8939
G01 X117.0069 Y18.9323
G01 X117.0447 Y18.9576
G01 X117.1048 Y19.0021
G01 X117.1399 Y19.0310
G01 X117.1954 Y19.0812
G01 X117.2275 Y19.1134
G01 X117.2777 Y19.1688
G01 X117.3066 Y19.2039
G01 X117.3511 Y19.2640
G01 X117.3764 Y19.3018
G01 X117.4148 Y19.3659
G01 X117.4363 Y19.4061
G01 X117.4682 Y19.4737
G01 X117.4856 Y19.5157
G01 X117.5108 Y19.5861
G01 X117.5240 Y19.6296
G01 X117.5422 Y19.7021
G01 X117.5511 Y19.7467
G01 X117.5621 Y19.8207
G01 X117.5665 Y19.8660
G01 X117.5702 Y19.9406
G01 X117.5702 Y19.9861
G01 X117.5665 Y20.0608
G01 X117.5621 Y20.1061
G01 X117.5511 Y20.1800
G01 X117.5422 Y20.2246
G01 X117.5240 Y20.2972
G01 X117.5108 Y20.3407
G01 X117.4856 Y20.4111
G01 X117.4682 Y20.4531
G01 X117.4363 Y20.5207
G01 X117.4148 Y20.5608
G01 X117.3764 Y20.6250
G01 X117.3511 Y20.6628
G01 X117.3090 Y20.7196
G01 X117.3090 Y24.0797
G01 X119.9927 Y24.0797
G01 X120.0007 Y24.0629
G01 X120.0240 Y24.0239
G01 X120.0511 Y23.9874
G01 X120.0817 Y23.9537
G01 X120.1154 Y23.9232
G01 X120.1519 Y23.8961
G01 X120.1909 Y23.8727
G01 X120.2320 Y23.8533
G01 X120.2748 Y23.8379
G01 X120.3189 Y23.8269
G01 X120.3639 Y23.8202
G01 X120.4093 Y23.8180
G01 X122.4413 Y23.8180
G01 X122.4868 Y23.8202
G01 X122.5317 Y23.8269
G01 X122.5759 Y23.8379
G01 X122.6187 Y23.8533
G01 X122.6598 Y23.8727
G01 X122.6988 Y23.8961
G01 X122.7353 Y23.9232
G01 X122.7690 Y23.9537
G01 X122.7995 Y23.9874
G01 X122.8266 Y24.0239
G01 X122.8500 Y24.0629
G01 X122.8695 Y24.1041
G01 X122.8848 Y24.1469
G01 X122.8958 Y24.1910
G01 X122.9025 Y24.2360
G01 X122.9047 Y24.2814
G01 X122.9047 Y25.8054
G01 X122.9025 Y25.8508
G01 X122.8958 Y25.8958
G01 X122.8848 Y25.9399
G01 X122.8695 Y25.9827
G01 X122.8500 Y26.0238
G01 X122.8266 Y26.0628
G01 X122.7995 Y26.0994
G01 X122.7690 Y26.1331
G01 X122.7353 Y26.1636
G01 X122.6988 Y26.1907
G01 X122.6598 Y26.2141
G01 X122.6187 Y26.2335
G01 X122.5759 Y26.2488
G01 X122.5317 Y26.2599
G01 X122.4868 Y26.2666
G01 X122.4413 Y26.2688
G01 X120.4093 Y26.2688
G01 X120.3639 Y26.2666
G01 X120.3189 Y26.2599
G01 X120.2748 Y26.2488
G01 X120.2320 Y26.2335
G01 X120.1909 Y26.2141
G01 X120.1519 Y26.1907
G01 X120.1154 Y26.1636
G01 X120.0817 Y26.1331
G01 X120.0511 Y26.0994
G01 X120.0240 Y26.0628
G01 X120.0007 Y26.0238
G01 X119.9927 Y26.0070
G01 X116.3453 Y26.0070
G01 X116.3226 Y26.0065
G01 X116.2736 Y26.0041
G01 X116.2283 Y25.9996
G01 X116.1798 Y25.9924
G01 X116.1351 Y25.9835
G01 X116.0875 Y25.9716
G01 X116.0440 Y25.9584
G01 X115.9978 Y25.9419
G01 X115.9558 Y25.9245
G01 X115.9114 Y25.9035
G01 X115.8713 Y25.8820
G01 X115.8292 Y25.8568
G01 X115.7914 Y25.8315
G01 X115.7519 Y25.8023
G01 X115.7168 Y25.7734
G01 X115.6804 Y25.7405
G01 X115.6483 Y25.7083
G01 X115.6153 Y25.6719
G01 X115.5864 Y25.6368
G01 X115.5572 Y25.5974
G01 X115.5319 Y25.5595
G01 X115.5067 Y25.5174
G01 X115.4853 Y25.4773
G01 X115.4643 Y25.4329
G01 X115.4469 Y25.3909
G01 X115.4303 Y25.3447
G01 X115.4171 Y25.3012
G01 X115.4052 Y25.2536
G01 X115.3963 Y25.2090
G01 X115.3891 Y25.1604
G01 X115.3847 Y25.1152
G01 X115.3823 Y25.0661
G01 X115.3817 Y25.0434
G01 X115.3817 Y20.7196
G00 Z2.0000
G00 X125.5417 Y20.7196
G01 F60.00
G01 Z-0.2001
G01 F320.00
G01 X125.4996 Y20.6628
G01 X125.4743 Y20.6250
G01 X125.4358 Y20.5608
G01 X125.4144 Y20.5207
G01 X125.3824 Y20.4531
G01 X125.3650 Y20.4111
G01 X125.3398 Y20.3407
G01 X125.3266 Y20.2972
G01 X125.3085 Y20.2246
G01 X125.2996 Y20.1800
G01 X125.2886 Y20.1061
G01 X125.2842 Y20.0608
G01 X125.2805 Y19.9861
G01 X125.2805 Y19.9406
G01 X125.2842 Y19.8660
G01 X125.2886 Y19.8207
G01 X125.2996 Y19.7467
G01 X125.3085 Y19.7021
G01 X125.3266 Y19.6296
G01 X125.3398 Y19.5861
G01 X125.3650 Y19.5157
G01 X125.3824 Y19.4737
G01 X125.4144 Y19.4061
G01 X125.4358 Y19.3659
G01 X125.4743 Y19.3018
G01 X125.4996 Y19.2640
G01 X125.5441 Y19.2039
G01 X125.5730 Y19.1688
G01 X125.6232 Y19.1134
G01 X125.6553 Y19.0812
G01 X125.7107 Y19.0310
G01 X125.7459 Y19.0021
G01 X125.8059 Y18.9576
G01 X125.8438 Y18.9323
G01 X125.9079 Y18.8939
G01 X125.9480 Y18.8725
G01 X126.0156 Y18.8405
G01 X126.0576 Y18.8231
G01 X126.1280 Y18.7979
G01 X126.1715 Y18.7847
G01 X126.2441 Y18.7665
G01 X126.2887 Y18.7576
G01 X126.3627 Y18.7467
G01 X126.4079 Y18.7422
G01 X126.4826 Y18.7385
G01 X126.5281 Y18.7385
G01 X126.6028 Y18.7422
G01 X126.6480 Y18.7467
G01 X126.7220 Y18.7576
G01 X126.7666 Y18.7665
G01 X126.8391 Y18.7847
G01 X126.8826 Y18.7979
G01 X126.9531 Y18.8231
G01 X126.9951 Y18.8405
G01 X127.0627 Y18.8725
G01 X127.1028 Y18.8939
G01 X127.1669 Y18.9323
G01 X127.2047 Y18.9576
G01 X127.2648 Y19.0021
G01 X127.2999 Y19.0310
G01 X127.3554 Y19.0812
G01 X127.3875 Y19.1134
G01 X127.4377 Y19.1688
G01 X127.4666 Y19.2039
G01 X127.5111 Y19.2640
G01 X127.5364 Y19.3018
G01 X127.5748 Y19.3659
G01 X127.5963 Y19.4061
G01 X127.6282 Y19.4737
G01 X127.6456 Y19.5157
G01 X127.6708 Y19.5861
G01 X127.6840 Y19.6296
G01 X127.7022 Y19.7021
G01 X127.7111 Y19.7467
G01 X127.7221 Y19.8207
G01 X127.7265 Y19.8660
G01 X127.7302 Y19.9406
G01 X127.7302 Y19.9861
G01 X127.7265 Y20.0608
G01 X127.7221 Y20.1061
G01 X127.7111 Y20.1800
G01 X127.7022 Y20.2246
G01 X127.6840 Y20.2972
G01 X127.6708 Y20.3407
G01 X127.6456 Y20.4111
G01 X127.6282 Y20.4531
G01 X127.5963 Y20.5207
G01 X127.5748 Y20.5608
G01 X127.5364 Y20.6250
G01 X127.5111 Y20.6628
G01 X127.4690 Y20.7196
G01 X127.4690 Y24.0797
G01 X130.1527 Y24.0797
G01 X130.1607 Y24.0629
G01 X130.1840 Y24.0239
G01 X130.2111 Y23.9874
G01 X130.2417 Y23.9537
G01 X130.2754 Y23.9232
G01 X130.3119 Y23.8961
G01 X130.3509 Y23.8727
G01 X130.3920 Y23.8533
G01 X130.4348 Y23.8379
G01 X130.4789 Y23.8269
G01 X130.5239 Y23.8202
G01 X130.5693 Y23.8180
G01 X132.6013 Y23.8180
G01 X132.6468 Y23.8202
G01 X132.6917 Y23.8269
G01 X132.7359 Y23.8379
G01 X132.7787 Y23.8533
G01 X132.8198 Y23.8727
G01 X132.8588 Y23.8961
G01 X132.8953 Y23.9232
G01 X132.9290 Y23.9537
G01 X132.9595 Y23.9874
G01 X132.9866 Y24.0239
G01 X133.0100 Y24.0629
G01 X133.0295 Y24.1041
G01 X133.0448 Y24.1469
G01 X133.0558 Y24.1910
G01 X133.0625 Y24.2360
G01 X133.0647 Y24.2814
G01 X133.0647 Y25.8054
G01 X133.0625 Y25.8508
G01 X133.0558 Y25.8958
G01 X133.0448 Y25.9399
G01 X133.0295 Y25.9827
G01 X133.0100 Y26.0238
G01 X132.9866 Y26.0628
G01 X132.9595 Y26.0994
G01 X132.9290 Y26.1331
G01 X132.8953 Y26.1636
G01 X132.8588 Y26.1907
G01 X132.8198 Y26.2141
G01 X132.7787 Y26.2335
G01 X132.7359 Y26.2488
G01 X132.6917 Y26.2599
G01 X132.6468 Y26.2666
G01 X132.6013 Y26.2688
G01 X130.5693 Y26.2688
G01 X130.5239 Y26.2666
G01 X130.4789 Y26.2599
G01 X130.4348 Y26.2488
G01 X130.3920 Y26.2335
G01 X130.3509 Y26.2141
G01 X130.3119 Y26.1907
G01 X130.2754 Y26.1636
G01 X130.2417 Y26.1331
G01 X130.2111 Y26.0994
G01 X130.1840 Y26.0628
G01 X130.1607 Y26.0238
G01 X130.1527 Y26.0070
G01 X126.5053 Y26.0070
G01 X126.4826 Y26.0065
G01 X126.4336 Y26.0041
G01 X126.3883 Y25.9996
G01 X126.3398 Y25.9924
G01 X126.2951 Y25.9835
G01 X126.2475 Y25.9716
G01 X126.2040 Y25.9584
G01 X126.1578 Y25.9419
G01 X126.1158 Y25.9245
G01 X126.0714 Y25.9035
G01 X126.0313 Y25.8820
G01 X125.9892 Y25.8568
G01 X125.9514 Y25.8315
G01 X125.9119 Y25.8023
G01 X125.8768 Y25.7734
G01 X125.8404 Y25.7405
G01 X125.8083 Y25.7083
G01 X125.7753 Y25.6719
G01 X125.7464 Y25.6368
G01 X125.7172 Y25.5974
G01 X125.6919 Y25.5595
G01 X125.6667 Y25.5174
G01 X125.6453 Y25.4773
G01 X125.6243 Y25.4329
G01 X125.6069 Y25.3909
G01 X125.5903 Y25.3447
G01 X125.5771 Y25.3012
G01 X125.5652 Y25.2536
G01 X125.5563 Y25.2090
G01 X125.5491 Y25.1604
G01 X125.5447 Y25.1152
G01 X125.5423 Y25.0661
G01 X125.5417 Y25.0434
G01 X125.5417 Y20.7196
G00 Z2.0000
G00 X135.7017 Y20.7196
G01 F60.00
G01 Z-0.2001
G01 F320.00
G01 X135.6596 Y20.6628
G01 X135.6343 Y20.6250
G01 X135.5958 Y20.5608
G01 X135.5744 Y20.5207
G01 X135.5424 Y20.4531
G01 X135.5250 Y20.4111
G01 X135.4998 Y20.3407
G01 X135.4866 Y20.2972
G01 X135.4685 Y20.2246
G01 X135.4596 Y20.1800
G01 X135.4486 Y20.1061
G01 X135.4442 Y20.0608
G01 X135.4405 Y19.9861
G01 X135.4405 Y19.9406
G01 X135.4442 Y19.8660
G01 X135.4486 Y19.8207
G01 X135.4596 Y19.7467
G01 X135.4685 Y19.7021
G01 X135.4866 Y19.6296
G01 X135.4998 Y19.5861
G01 X135.5250 Y19.5157
G01 X135.5424 Y19.4737
G01 X135.5744 Y19.4061
G01 X135.5958 Y19.3659
G01 X135.6343 Y19.3018
G01 X135.6596 Y19.2640
G01 X135.7041 Y19.2039
G01 X135.7330 Y19.1688
G01 X135.7832 Y19.1134
G01 X135.8153 Y19.0812
G01 X135.8707 Y19.0310
G01 X135.9059 Y19.0021
G01 X135.9659 Y18.9576
G01 X136.0038 Y18.9323
G01 X136.0679 Y18.8939
G01 X136.1080 Y18.8725
G01 X136.1756 Y18.8405
G01 X136.2176 Y18.8231
G01 X136.2880 Y18.7979
G01 X136.3315 Y18.7847
G01 X136.4041 Y18.7665
G01 X136.4487 Y18.7576
G01 X136.5227 Y18.7467
G01 X136.5679 Y18.7422
G01 X136.6426 Y18.7385
G01 X136.6881 Y18.7385
G01 X136.7628 Y18.7422
G01 X136.8080 Y18.7467
G01 X136.8820 Y18.7576
G01 X136.9266 Y18.7665
G01 X136.9991 Y18.7847
G01 X137.0426 Y18.7979
G01 X137.1131 Y18.8231
G01 X137.1551 Y18.8405
G01 X137.2227 Y18.8725
G01 X137.2628 Y18.8939
G01 X137.3269 Y18.9323
G01 X137.3647 Y18.9576
G01 X137.4248 Y19.0021
G01 X137.4599 Y19.0310
G01 X137.5154 Y19.0812
G01 X137.5475 Y19.1134
G01 X137.5977 Y19.1688
G01 X137.6266 Y19.2039
G01 X137.6711 Y19.2640
G01 X137.6964 Y19.3018
G01 X137.7348 Y19.3659
G01 X137.7563 Y19.4061
G01 X137.7882 Y19.4737
G01 X137.8056 Y19.5157
G01 X137.8308 Y19.5861
G01 X137.8440 Y19.6296
G01 X137.8622 Y19.7021
G01 X137.8711 Y19.7467
G01 X137.8821 Y19.8207
G01 X137.8865 Y19.8660
G01 X137.8902 Y19.9406
G01 X137.8902 Y19.9861
G01 X137.8865 Y20.0608
G01 X137.8821 Y20.1061
G01 X137.8711 Y20.1800
G01 X137.8622 Y20.2246
G01 X137.8440 Y20.2972
G01 X137.8308 Y20.3407
G01 X137.8056 Y20.4111
G01 X137.7882 Y20.4531
G01 X137.7563 Y20.5207
G01 X137.7348 Y20.5608
G01 X137.6964 Y20.6250
G01 X137.6711 Y20.6628
G01 X137.6290 Y20.7196
G01 X137.6290 Y24.0797
G01 X140.3127 Y24.0797
G01 X140.3207 Y24.0629
G01 X140.3440 Y24.0239
G01 X140.3711 Y23.9874
G01 X140.4017 Y23.9537
G01 X140.4354 Y23.9232
G01 X140.4719 Y23.8961
G01 X140.5109 Y23.8727
G01 X140.5520 Y23.8533
G01 X140.5948 Y23.8379
G01 X140.6389 Y23.8269
G01 X140.6839 Y23.8202
G01 X140.7293 Y23.8180
G01 X142.7613 Y23.8180
G01 X142.8068 Y23.8202
G01 X142.8517 Y23.8269
G01 X142.8959 Y23.8379
G01 X142.9387 Y23.8533
G01 X142.9798 Y23.8727
G01 X143.0188 Y23.8961
G01 X143.0553 Y23.9232
G01 X143.0890 Y23.9537
G01 X143.1195 Y23.9874
G01 X143.1466 Y24.0239
G01 X143.1700 Y24.0629
G01 X143.1895 Y24.1041
G01 X143.2048 Y24.1469
G01 X143.2158 Y24.1910
G01 X143.2225 Y24.2360
G01 X143.2247 Y24.2814
G01 X143.2247 Y25.8054
G01 X143.2225 Y25.8508
G01 X143.2158 Y25.8958
G01 X143.2048 Y25.9399
G01 X143.1895 Y25.9827
G01 X143.1700 Y26.0238
G01 X143.1466 Y26.0628
G01 X143.1195 Y26.0994
G01 X143.0890 Y26.1331
G01 X143.0553 Y26.1636
G01 X143.0188 Y26.1907
G01 X142.9798 Y26.2141
G01 X142.9387 Y26.2335
G01 X142.8959 Y26.2488
G01 X142.8517 Y26.2599
G01 X142.8068 Y26.2666
G01 X142.7613 Y26.2688
G01 X140.7293 Y26.2688
G01 X140.6839 Y26.2666
G01 X140.6389 Y26.2599
G01 X140.5948 Y26.2488
G01 X140.5520 Y26.2335
G01 X140.5109 Y26.2141
G01 X140.4719 Y26.1907
G01 X140.4354 Y26.1636
G01 X140.4017 Y26.1331
G01 X140.3711 Y26.0994
G01 X140.3440 Y26.0628
G01 X140.3207 Y26.0238
G01 X140.3127 Y26.0070
G01 X136.6653 Y26.0070
G01 X136.6426 Y26.0065
G01 X136.5936 Y26.0041
G01 X136.5483 Y25.9996
G01 X136.4998 Y25.9924
G01 X136.4551 Y25.9835
G01 X136.4075 Y25.9716
G01 X136.3640 Y25.9584
G01 X136.3178 Y25.9419
G01 X136.2758 Y25.9245
G01 X136.2314 Y25.9035
G01 X136.1913 Y25.8820
G01 X136.1492 Y25.8568
G01 X136.1114 Y25.8315
G01 X136.0719 Y25.8023
G01 X136.0368 Y25.7734
G01 X136.0004 Y25.7405
G01 X135.9683 Y25.7083
G01 X135.9353 Y25.6719
G01 X135.9064 Y25.6368
G01 X135.8772 Y25.5974
G01 X135.8519 Y25.5595
G01 X135.8267 Y25.5174
G01 X135.8053 Y25.4773
G01 X135.7843 Y25.4329
G01 X135.7669 Y25.3909
G01 X135.7503 Y25.3447
G01 X135.7371 Y25.3012
G01 X135.7252 Y25.2536
G01 X135.7163 Y25.2090
G01 X135.7091 Y25.1604
G01 X135.7047 Y25.1152
G01 X135.7023 Y25.0661
G01 X135.7017 Y25.0434
G01 X135.7017 Y20.7196
G00 Z2.0000
G00 X132.3415 Y39.3197
G01 F60.00
G01 Z-0.2001
G01 F320.00
G01 X133.3691 Y39.3197
G01 X133.4259 Y39.2776
G01 X133.4638 Y39.2523
G01 X133.5279 Y39.2139
G01 X133.5680 Y39.1925
G01 X133.6356 Y39.1605
G01 X133.6776 Y39.1431
G01 X133.7480 Y39.1179
G01 X133.7915 Y39.1047
G01 X133.8641 Y39.0865
G01 X133.9087 Y39.0776
G01 X133.9827 Y39.0667
G01 X134.0279 Y39.0622
G01 X134.1026 Y39.0585
G01 X134.1481 Y39.0585
G01 X134.2228 Y39.0622
G01 X134.2680 Y39.0667
G01 X134.3420 Y39.0776
G01 X134.3866 Y39.0865
G01 X134.4591 Y39.1047
G01 X134.5026 Y39.1179
G01 X134.5731 Y39.1431
G01 X134.6151 Y39.1605
G01 X134.6827 Y39.1925
G01 X134.7228 Y39.2139
G01 X134.7869 Y39.2523
G01 X134.8247 Y39.2776
G01 X134.8848 Y39.3221
G01 X134.9199 Y39.3510
G01 X134.9754 Y39.4012
G01 X135.0075 Y39.4334
G01 X135.0577 Y39.4888
G01 X135.0866 Y39.5239
G01 X135.1311 Y39.5840
G01 X135.1564 Y39.6218
G01 X135.1948 Y39.6859
G01 X135.2163 Y39.7261
G01 X135.2482 Y39.7937
G01 X135.2656 Y39.8357
G01 X135.2908 Y39.9061
G01 X135.3040 Y39.9496
G01 X135.3222 Y40.0221
G01 X135.3311 Y40.0667
G01 X135.3421 Y40.1407
G01 X135.3465 Y40.1860
G01 X135.3502 Y40.2606
G01 X135.3502 Y40.3061
G01 X135.3465 Y40.3808
G01 X135.3421 Y40.4261
G01 X135.3311 Y40.5000
G01 X135.3222 Y40.5446
G01 X135.3040 Y40.6172
G01 X135.2908 Y40.6607
G01 X135.2656 Y40.7311
G01 X135.2482 Y40.7731
G01 X135.2163 Y40.8407
G01 X135.1948 Y40.8808
G01 X135.1564 Y40.9450
G01 X135.1311 Y40.9828
G01 X135.0866 Y41.0428
G01 X135.0577 Y41.0780
G01 X135.0075 Y41.1334
G01 X134.9754 Y41.1656
G01 X134.9199 Y41.2158
G01 X134.8848 Y41.2446
G01 X134.8247 Y41.2892
G01 X134.7869 Y41.3144
G01 X134.7228 Y41.3529
G01 X134.6827 Y41.3743
G01 X134.6151 Y41.4063
G01 X134.5731 Y41.4237
G01 X134.5026 Y41.4489
G01 X134.4591 Y41.4621
G01 X134.3866 Y41.4803
G01 X134.3420 Y41.4891
G01 X134.2680 Y41.5001
G01 X134.2228 Y41.5046
G01 X134.1481 Y41.5082
G01 X134.1026 Y41.5082
G01 X134.0279 Y41.5046
G01 X133.9827 Y41.5001
G01 X133.9087 Y41.4891
G01 X133.8641 Y41.4803
G01 X133.7915 Y41.4621
G01 X133.7480 Y41.4489
G01 X133.6776 Y41.4237
G01 X133.6356 Y41.4063
G01 X133.5680 Y41.3743
G01 X133.5279 Y41.3529
G01 X133.4638 Y41.3144
G01 X133.4259 Y41.2892
G01 X133.3691 Y41.2470
G01 X132.3415 Y41.2470
G01 X132.2847 Y41.2892
G01 X132.2469 Y41.3144
G01 X132.1828 Y41.3529
G01 X132.1427 Y41.3743
G01 X132.0751 Y41.4063
G01 X132.0331 Y41.4237
G01 X131.9626 Y41.4489
G01 X131.9191 Y41.4621
G01 X131.8466 Y41.4803
G01 X131.8020 Y41.4891
G01 X131.7280 Y41.5001
G01 X131.6828 Y41.5046
G01 X131.6081 Y41.5082
G01 X131.5626 Y41.5082
G01 X131.4879 Y41.5046
G01 X131.4427 Y41.5001
G01 X131.3687 Y41.4891
G01 X131.3241 Y41.4803
G01 X131.2515 Y41.4621
G01 X131.2080 Y41.4489
G01 X131.1376 Y41.4237
G01 X131.0956 Y41.4063
G01 X131.0280 Y41.3743
G01 X130.9879 Y41.3529
G01 X130.9238 Y41.3144
G01 X130.8859 Y41.2892
G01 X130.8259 Y41.2446
G01 X130.7907 Y41.2158
G01 X130.7353 Y41.1656
G01 X130.7032 Y41.1334
G01 X130.6530 Y41.0780
G01 X130.6241 Y41.0428
G01 X130.5796 Y40.9828
G01 X130.5543 Y40.9450
G01 X130.5158 Y40.8808
G01 X130.4944 Y40.8407
G01 X130.4624 Y40.7731
G01 X130.4450 Y40.7311
G01 X130.4198 Y40.6607
G01 X130.4066 Y40.6172
G01 X130.3885 Y40.5446
G01 X130.3796 Y40.5000
G01 X130.3686 Y40.4261
G01 X130.3642 Y40.3808
G01 X130.3605 Y40.3061
G01 X130.3605 Y40.2606
G01 X130.3642 Y40.1860
G01 X130.3686 Y40.1407
G01 X130.3796 Y40.0667
G01 X130.3885 Y40.0221
G01 X130.4066 Y39.9496
G01 X130.4198 Y39.9061
G01 X130.4450 Y39.8357
G01 X130.4624 Y39.7937
G01 X130.4944 Y39.7261
G01 X130.5158 Y39.6859
G01 X130.5543 Y39.6218
G01 X130.5796 Y39.5840
G01 X130.6241 Y39.5239
G01 X130.6530 Y39.4888
G01 X130.7032 Y39.4334
G01 X130.7353 Y39.4012
G01 X130.7907 Y39.3510
G01 X130.8259 Y39.3221
G01 X130.8859 Y39.2776
G01 X130.9238 Y39.2523
G01 X130.9879 Y39.2139
G01 X131.0280 Y39.1925
G01 X131.0956 Y39.1605
G01 X131.1376 Y39.1431
G01 X131.2080 Y39.1179
G01 X131.2515 Y39.1047
G01 X131.3241 Y39.0865
G01 X131.3687 Y39.0776
G01 X131.4427 Y39.0667
G01 X131.4879 Y39.0622
G01 X131.5626 Y39.0585
G01 X131.6081 Y39.0585
G01 X131.6828 Y39.0622
G01 X131.7280 Y39.0667
G01 X131.8020 Y39.0776
G01 X131.8466 Y39.0865
G01 X131.9191 Y39.1047
G01 X131.9626 Y39.1179
G01 X132.0331 Y39.1431
G01 X132.0751 Y39.1605
G01 X132.1427 Y39.1925
G01 X132.1828 Y39.2139
G01 X132.2469 Y39.2523
G01 X132.2847 Y39.2776
G01 X132.3415 Y39.3197
G00 Z2.0000
G00 X127.8205 Y45.3861
G01 F60.00
G01 Z-0.2001
G01 F320.00
G01 X127.8205 Y45.3406
G01 X127.8242 Y45.2660
G01 X127.8286 Y45.2207
G01 X127.8396 Y45.1467
G01 X127.8485 Y45.1021
G01 X127.8666 Y45.0296
G01 X127.8798 Y44.9861
G01 X127.9050 Y44.9157
G01 X127.9224 Y44.8737
G01 X127.9544 Y44.8061
G01 X127.9758 Y44.7659
G01 X128.0143 Y44.7018
G01 X128.0396 Y44.6640
G01 X128.0841 Y44.6039
G01 X128.1130 Y44.5688
G01 X128.1632 Y44.5134
G01 X128.1953 Y44.4812
G01 X128.2507 Y44.4310
G01 X128.2859 Y44.4021
G01 X128.3459 Y44.3576
G01 X128.3838 Y44.3323
G01 X128.4479 Y44.2939
G01 X128.4880 Y44.2725
G01 X128.5556 Y44.2405
G01 X128.5976 Y44.2231
G01 X128.6680 Y44.1979
G01 X128.7115 Y44.1847
G01 X128.7841 Y44.1665
G01 X128.8287 Y44.1576
G01 X128.9027 Y44.1467
G01 X128.9479 Y44.1422
G01 X129.0226 Y44.1385
G01 X129.0681 Y44.1385
G01 X129.1428 Y44.1422
G01 X129.1880 Y44.1467
G01 X129.2620 Y44.1576
G01 X129.3066 Y44.1665
G01 X129.3791 Y44.1847
G01 X129.4226 Y44.1979
G01 X129.4931 Y44.2231
G01 X129.5351 Y44.2405
G01 X129.6027 Y44.2725
G01 X129.6428 Y44.2939
G01 X129.7069 Y44.3323
G01 X129.7447 Y44.3576
G01 X129.8048 Y44.4021
G01 X129.8399 Y44.4310
G01 X129.8954 Y44.4812
G01 X129.9275 Y44.5134
G01 X129.9777 Y44.5688
G01 X130.0066 Y44.6039
G01 X130.0511 Y44.6640
G01 X130.0764 Y44.7018
G01 X130.1148 Y44.7659
G01 X130.1363 Y44.8061
G01 X130.1682 Y44.8737
G01 X130.1856 Y44.9157
G01 X130.2108 Y44.9861
G01 X130.2240 Y45.0296
G01 X130.2422 Y45.1021
G01 X130.2511 Y45.1467
G01 X130.2621 Y45.2207
G01 X130.2665 Y45.2660
G01 X130.2702 Y45.3406
G01 X130.2702 Y45.3861
G01 X130.2665 Y45.4608
G01 X130.2621 Y45.5061
G01 X130.2511 Y45.5800
G01 X130.2422 Y45.6246
G01 X130.2240 Y45.6972
G01 X130.2108 Y45.7407
G01 X130.1856 Y45.8111
G01 X130.1682 Y45.8531
G01 X130.1363 Y45.9207
G01 X130.1148 Y45.9608
G01 X130.0764 Y46.0250
G01 X130.0511 Y46.0628
G01 X130.0066 Y46.1228
G01 X129.9777 Y46.1580
G01 X129.9275 Y46.2134
G01 X129.8954 Y46.2456
G01 X129.8399 Y46.2958
G01 X129.8048 Y46.3246
G01 X129.7447 Y46.3692
G01 X129.7069 Y46.3944
G01 X129.6428 Y46.4329
G01 X129.6027 Y46.4543
G01 X129.5351 Y46.4863
G01 X129.4931 Y46.5037
G01 X129.4226 Y46.5289
G01 X129.3791 Y46.5421
G01 X129.3066 Y46.5603
G01 X129.2620 Y46.5691
G01 X129.1880 Y46.5801
G01 X129.1428 Y46.5846
G01 X129.0681 Y46.5882
G01 X129.0226 Y46.5882
G01 X128.9479 Y46.5846
G01 X128.9027 Y46.5801
G01 X128.8287 Y46.5691
G01 X128.7841 Y46.5603
G01 X128.7115 Y46.5421
G01 X128.6680 Y46.5289
G01 X128.5976 Y46.5037
G01 X128.5556 Y46.4863
G01 X128.4880 Y46.4543
G01 X128.4479 Y46.4329
G01 X128.3838 Y46.3944
G01 X128.3459 Y46.3692
G01 X128.2859 Y46.3246
G01 X128.2507 Y46.2958
G01 X128.1953 Y46.2456
G01 X128.1632 Y46.2134
G01 X128.1130 Y46.1580
G01 X128.0841 Y46.1228
G01 X128.0396 Y46.0628
G01 X128.0143 Y46.0250
G01 X127.9758 Y45.9608
G01 X127.9544 Y45.9207
G01 X127.9224 Y45.8531
G01 X127.9050 Y45.8111
G01 X127.8798 Y45.7407
G01 X127.8666 Y45.6972
G01 X127.8485 Y45.6246
G01 X127.8396 Y45.5800
G01 X127.8286 Y45.5061
G01 X127.8242 Y45.4608
G01 X127.8205 Y45.3861
G00 Z2.0000
G00 X129.8015 Y49.4797
G01 F60.00
G01 Z-0.2001
G01 F320.00
G01 X131.5853 Y49.4797
G01 X131.6081 Y49.4803
G01 X131.6571 Y49.4827
G01 X131.7024 Y49.4872
G01 X131.7509 Y49.4944
G01 X131.7955 Y49.5032
G01 X131.8431 Y49.5152
G01 X131.8867 Y49.5284
G01 X131.9329 Y49.5449
G01 X131.9749 Y49.5623
G01 X132.0193 Y49.5833
G01 X132.0594 Y49.6047
G01 X132.1015 Y49.6300
G01 X132.1393 Y49.6552
G01 X132.1787 Y49.6845
G01 X132.2139 Y49.7133
G01 X132.2503 Y49.7463
G01 X132.2824 Y49.7785
G01 X132.3154 Y49.8148
G01 X132.3442 Y49.8500
G01 X132.3735 Y49.8894
G01 X132.3988 Y49.9272
G01 X132.4240 Y49.9693
G01 X132.4454 Y50.0094
G01 X132.4664 Y50.0538
G01 X132.4838 Y50.0958
G01 X132.5004 Y50.1421
G01 X132.5136 Y50.1856
G01 X132.5255 Y50.2332
G01 X132.5344 Y50.2778
G01 X132.5416 Y50.3264
G01 X132.5460 Y50.3716
G01 X132.5484 Y50.4206
G01 X132.5490 Y50.4434
G01 X132.5490 Y54.0908
G01 X132.5658 Y54.0987
G01 X132.6048 Y54.1221
G01 X132.6413 Y54.1492
G01 X132.6750 Y54.1797
G01 X132.7056 Y54.2134
G01 X132.7326 Y54.2499
G01 X132.7560 Y54.2889
G01 X132.7755 Y54.3301
G01 X132.7908 Y54.3729
G01 X132.8018 Y54.4170
G01 X132.8085 Y54.4620
G01 X132.8107 Y54.5074
G01 X132.8107 Y56.5394
G01 X132.8085 Y56.5848
G01 X132.8018 Y56.6298
G01 X132.7908 Y56.6739
G01 X132.7755 Y56.7167
G01 X132.7560 Y56.7578
G01 X132.7326 Y56.7968
G01 X132.7055 Y56.8334
G01 X132.6750 Y56.8671
G01 X132.6413 Y56.8976
G01 X132.6048 Y56.9247
G01 X132.5658 Y56.9481
G01 X132.5490 Y56.9560
G01 X132.5490 Y59.8472
G01 X132.5911 Y59.9040
G01 X132.6164 Y59.9418
G01 X132.6548 Y60.0059
G01 X132.6763 Y60.0461
G01 X132.7082 Y60.1137
G01 X132.7256 Y60.1557
G01 X132.7508 Y60.2261
G01 X132.7640 Y60.2696
G01 X132.7822 Y60.3421
G01 X132.7911 Y60.3867
G01 X132.8021 Y60.4607
G01 X132.8065 Y60.5060
G01 X132.8102 Y60.5806
G01 X132.8102 Y60.6261
G01 X132.8065 Y60.7008
G01 X132.8021 Y60.7461
G01 X132.7911 Y60.8200
G01 X132.7822 Y60.8646
G01 X132.7640 Y60.9372
G01 X132.7508 Y60.9807
G01 X132.7256 Y61.0511
G01 X132.7082 Y61.0931
G01 X132.6763 Y61.1607
G01 X132.6548 Y61.2008
G01 X132.6164 Y61.2650
G01 X132.5911 Y61.3028
G01 X132.5466 Y61.3628
G01 X132.5177 Y61.3980
G01 X132.4675 Y61.4534
G01 X132.4354 Y61.4856
G01 X132.3799 Y61.5358
G01 X132.3448 Y61.5646
G01 X132.2847 Y61.6092
G01 X132.2469 Y61.6344
G01 X132.1828 Y61.6729
G01 X132.1427 Y61.6943
G01 X132.0751 Y61.7263
G01 X132.0331 Y61.7437
G01 X131.9626 Y61.7689
G01 X131.9191 Y61.7821
G01 X131.8466 Y61.8003
G01 X131.8020 Y61.8091
G01 X131.7280 Y61.8201
G01 X131.6828 Y61.8246
G01 X131.6081 Y61.8282
G01 X131.5626 Y61.8282
G01 X131.4879 Y61.8246
G01 X131.4427 Y61.8201
G01 X131.3687 Y61.8091
G01 X131.3241 Y61.8003
G01 X131.2515 Y61.7821
G01 X131.2080 Y61.7689
G01 X131.1376 Y61.7437
G01 X131.0956 Y61.7263
G01 X131.0280 Y61.6943
G01 X130.9879 Y61.6729
G01 X130.9238 Y61.6344
G01 X130.8859 Y61.6092
G01 X130.8259 Y61.5646
G01 X130.7907 Y61.5358
G01 X130.7353 Y61.4856
G01 X130.7032 Y61.4534
G01 X130.6530 Y61.3980
G01 X130.6241 Y61.3628
G01 X130.5796 Y61.3028
G01 X130.5543 Y61.2650
G01 X130.5158 Y61.2008
G01 X130.4944 Y61.1607
G01 X130.4624 Y61.0931
G01 X130.4450 Y61.0511
G01 X130.4198 Y60.9807
G01 X130.4066 Y60.9372
G01 X130.3885 Y60.8646
G01 X130.3796 Y60.8200
G01 X130.3686 Y60.7461
G01 X130.3642 Y60.7008
G01 X130.3605 Y60.6261
G01 X130.3605 Y60.5806
G01 X130.3642 Y60.5060
G01 X130.3686 Y60.4607
G01 X130.3796 Y60.3867
G01 X130.3885 Y60.3421
G01 X130.4066 Y60.2696
G01 X130.4198 Y60.2261
G01 X130.4450 Y60.1557
G01 X130.4624 Y60.1137
G01 X130.4944 Y60.0461
G01 X130.5158 Y60.0059
G01 X130.5543 Y59.9418
G01 X130.5796 Y59.9040
G01 X130.6217 Y59.8472
G01 X130.6217 Y56.9560
G01 X130.6049 Y56.9481
G01 X130.5659 Y56.9247
G01 X130.5294 Y56.8976
G01 X130.4957 Y56.8671
G01 X130.4651 Y56.8334
G01 X130.4380 Y56.7968
G01 X130.4147 Y56.7578
G01 X130.3952 Y56.7167
G01 X130.3799 Y56.6739
G01 X130.3688 Y56.6298
G01 X130.3622 Y56.5848
G01 X130.3599 Y56.5394
G01 X130.3599 Y54.5074
G01 X130.3622 Y54.4620
G01 X130.3688 Y54.4170
G01 X130.3799 Y54.3729
G01 X130.3952 Y54.3301
G01 X130.4147 Y54.2889
G01 X130.4380 Y54.2499
G01 X130.4651 Y54.2134
G01 X130.4957 Y54.1797
G01 X130.5294 Y54.1492
G01 X130.5659 Y54.1221
G01 X130.6049 Y54.0987
G01 X130.6217 Y54.0908
G01 X130.6217 Y51.4070
G01 X129.8015 Y51.4070
G01 X129.7447 Y51.4492
G01 X129.7069 Y51.4744
G01 X129.6428 Y51.5129
G01 X129.6027 Y51.5343
G01 X129.5351 Y51.5663
G01 X129.4931 Y51.5837
G01 X129.4226 Y51.6089
G01 X129.3791 Y51.6221
G01 X129.3066 Y51.6403
G01 X129.2620 Y51.6491
G01 X129.1880 Y51.6601
G01 X129.1428 Y51.6646
G01 X129.0681 Y51.6682
G01 X129.0226 Y51.6682
G01 X128.9479 Y51.6646
G01 X128.9027 Y51.6601
G01 X128.8287 Y51.6491
G01 X128.7841 Y51.6403
G01 X128.7115 Y51.6221
G01 X128.6680 Y51.6089
G01 X128.5976 Y51.5837
G01 X128.5556 Y51.5663
G01 X128.4880 Y51.5343
G01 X128.4479 Y51.5129
G01 X128.3838 Y51.4744
G01 X128.3459 Y51.4492
G01 X128.2859 Y51.4046
G01 X128.2507 Y51.3758
G01 X128.1953 Y51.3256
G01 X128.1632 Y51.2934
G01 X128.1130 Y51.2380
G01 X128.0841 Y51.2028
G01 X128.0396 Y51.1428
G01 X128.0143 Y51.1050
G01 X127.9758 Y51.0408
G01 X127.9544 Y51.0007
G01 X127.9224 Y50.9331
G01 X127.9050 Y50.8911
G01 X127.8798 Y50.8207
G01 X127.8666 Y50.7772
G01 X127.8485 Y50.7046
G01 X127.8396 Y50.6600
G01 X127.8286 Y50.5861
G01 X127.8242 Y50.5408
G01 X127.8205 Y50.4661
G01 X127.8205 Y50.4206
G01 X127.8242 Y50.3460
G01 X127.8286 Y50.3007
G01 X127.8396 Y50.2267
G01 X127.8485 Y50.1821
G01 X127.8666 Y50.1096
G01 X127.8798 Y50.0661
G01 X127.9050 Y49.9957
G01 X127.9224 Y49.9537
G01 X127.9544 Y49.8861
G01 X127.9758 Y49.8459
G01 X128.0143 Y49.7818
G01 X128.0396 Y49.7440
G01 X128.0841 Y49.6839
G01 X128.1130 Y49.6488
G01 X128.1632 Y49.5934
G01 X128.1953 Y49.5612
G01 X128.2507 Y49.5110
G01 X128.2859 Y49.4821
G01 X128.3459 Y49.4376
G01 X128.3838 Y49.4123
G01 X128.4479 Y49.3739
G01 X128.4880 Y49.3525
G01 X128.5556 Y49.3205
G01 X128.5976 Y49.3031
G01 X128.6680 Y49.2779
G01 X128.7115 Y49.2647
G01 X128.7841 Y49.2465
G01 X128.8287 Y49.2376
G01 X128.9027 Y49.2267
G01 X128.9479 Y49.2222
G01 X129.0226 Y49.2185
G01 X129.0681 Y49.2185
G01 X129.1428 Y49.2222
G01 X129.1880 Y49.2267
G01 X129.2620 Y49.2376
G01 X129.3066 Y49.2465
G01 X129.3791 Y49.2647
G01 X129.4226 Y49.2779
G01 X129.4931 Y49.3031
G01 X129.5351 Y49.3205
G01 X129.6027 Y49.3525
G01 X129.6428 Y49.3739
G01 X129.7069 Y49.4123
G01 X129.7447 Y49.4376
G01 X129.8015 Y49.4797
G00 Z2.0000
G00 X124.7215 Y54.5597
G01 F60.00
G01 Z-0.2001
G01 F320.00
G01 X127.8199 Y54.5597
G01 X127.8199 Y54.5074
G01 X127.8222 Y54.4620
G01 X127.8288 Y54.4170
G01 X127.8399 Y54.3729
G01 X127.8552 Y54.3300
G01 X127.8747 Y54.2889
G01 X127.8980 Y54.2499
G01 X127.9251 Y54.2134
G01 X127.9557 Y54.1797
G01 X127.9894 Y54.1492
G01 X128.0259 Y54.1221
G01 X128.0649 Y54.0987
G01 X128.1060 Y54.0793
G01 X128.1488 Y54.0639
G01 X128.1929 Y54.0529
G01 X128.2379 Y54.0462
G01 X128.2833 Y54.0440
G01 X129.8073 Y54.0440
G01 X129.8528 Y54.0462
G01 X129.8977 Y54.0529
G01 X129.9419 Y54.0639
G01 X129.9847 Y54.0793
G01 X130.0258 Y54.0987
G01 X130.0648 Y54.1221
G01 X130.1013 Y54.1492
G01 X130.1350 Y54.1797
G01 X130.1655 Y54.2134
G01 X130.1926 Y54.2499
G01 X130.2160 Y54.2889
G01 X130.2355 Y54.3301
G01 X130.2508 Y54.3729
G01 X130.2618 Y54.4170
G01 X130.2685 Y54.4620
G01 X130.2707 Y54.5074
G01 X130.2707 Y56.5394
G01 X130.2685 Y56.5848
G01 X130.2618 Y56.6298
G01 X130.2508 Y56.6739
G01 X130.2355 Y56.7167
G01 X130.2160 Y56.7578
G01 X130.1926 Y56.7968
G01 X130.1655 Y56.8334
G01 X130.1350 Y56.8671
G01 X130.1013 Y56.8976
G01 X130.0648 Y56.9247
G01 X130.0258 Y56.9481
G01 X129.9847 Y56.9675
G01 X129.9419 Y56.9828
G01 X129.8977 Y56.9939
G01 X129.8528 Y57.0006
G01 X129.8073 Y57.0028
G01 X128.2833 Y57.0028
G01 X128.2379 Y57.0006
G01 X128.1929 Y56.9939
G01 X128.1488 Y56.9828
G01 X128.1060 Y56.9675
G01 X128.0649 Y56.9481
G01 X128.0259 Y56.9247
G01 X127.9894 Y56.8976
G01 X127.9557 Y56.8671
G01 X127.9251 Y56.8334
G01 X127.8980 Y56.7968
G01 X127.8747 Y56.7578
G01 X127.8552 Y56.7167
G01 X127.8399 Y56.6739
G01 X127.8288 Y56.6298
G01 X127.8222 Y56.5848
G01 X127.8199 Y56.5394
G01 X127.8199 Y56.4870
G01 X124.7215 Y56.4870
G01 X124.6647 Y56.5292
G01 X124.6269 Y56.5544
G01 X124.5628 Y56.5929
G01 X124.5227 Y56.6143
G01 X124.4551 Y56.6463
G01 X124.4131 Y56.6637
G01 X124.3426 Y56.6889
G01 X124.2991 Y56.7021
G01 X124.2266 Y56.7203
G01 X124.1820 Y56.7291
G01 X124.1080 Y56.7401
G01 X124.0628 Y56.7446
G01 X123.9881 Y56.7482
G01 X123.9426 Y56.7482
G01 X123.8679 Y56.7446
G01 X123.8227 Y56.7401
G01 X123.7487 Y56.7291
G01 X123.7041 Y56.7203
G01 X123.6315 Y56.7021
G01 X123.5880 Y56.6889
G01 X123.5176 Y56.6637
G01 X123.4756 Y56.6463
G01 X123.4080 Y56.6143
G01 X123.3679 Y56.5929
G01 X123.3038 Y56.5544
G01 X123.2659 Y56.5292
G01 X123.2059 Y56.4846
G01 X123.1707 Y56.4558
G01 X123.1153 Y56.4056
G01 X123.0832 Y56.3734
G01 X123.0330 Y56.3180
G01 X123.0041 Y56.2828
G01 X122.9596 Y56.2228
G01 X122.9343 Y56.1850
G01 X122.8958 Y56.1208
G01 X122.8744 Y56.0807
G01 X122.8424 Y56.0131
G01 X122.8250 Y55.9711
G01 X122.7998 Y55.9007
G01 X122.7866 Y55.8572
G01 X122.7685 Y55.7846
G01 X122.7596 Y55.7400
G01 X122.7486 Y55.6661
G01 X122.7442 Y55.6208
G01 X122.7405 Y55.5461
G01 X122.7405 Y55.5006
G01 X122.7442 Y55.4260
G01 X122.7486 Y55.3807
G01 X122.7596 Y55.3067
G01 X122.7685 Y55.2621
G01 X122.7866 Y55.1896
G01 X122.7998 Y55.1461
G01 X122.8250 Y55.0757
G01 X122.8424 Y55.0337
G01 X122.8744 Y54.9661
G01 X122.8958 Y54.9259
G01 X122.9343 Y54.8618
G01 X122.9596 Y54.8240
G01 X123.0041 Y54.7639
G01 X123.0330 Y54.7288
G01 X123.0832 Y54.6734
G01 X123.1153 Y54.6412
G01 X123.1707 Y54.5910
G01 X123.2059 Y54.5621
G01 X123.2659 Y54.5176
G01 X123.3038 Y54.4923
G01 X123.3679 Y54.4539
G01 X123.4080 Y54.4325
G01 X123.4756 Y54.4005
G01 X123.5176 Y54.3831
G01 X123.5880 Y54.3579
G01 X123.6315 Y54.3447
G01 X123.7041 Y54.3265
G01 X123.7487 Y54.3176
G01 X123.8227 Y54.3067
G01 X123.8679 Y54.3022
G01 X123.9426 Y54.2985
G01 X123.9881 Y54.2985
G01 X124.0628 Y54.3022
G01 X124.1080 Y54.3067
G01 X124.1820 Y54.3176
G01 X124.2266 Y54.3265
G01 X124.2991 Y54.3447
G01 X124.3426 Y54.3579
G01 X124.4131 Y54.3831
G01 X124.4551 Y54.4005
G01 X124.5227 Y54.4325
G01 X124.5628 Y54.4539
G01 X124.6269 Y54.4923
G01 X124.6647 Y54.5176
G01 X124.7215 Y54.5597
G00 Z2.0000
G00 X123.0017 Y59.8472
G01 F60.00
G01 Z-0.2001
G01 F320.00
G01 X123.0017 Y58.8196
G01 X122.9596 Y58.7628
G01 X122.9343 Y58.7250
G01 X122.8958 Y58.6608
G01 X122.8744 Y58.6207
G01 X122.8424 Y58.5531
G01 X122.8250 Y58.5111
G01 X122.7998 Y58.4407
G01 X122.7866 Y58.3972
G01 X122.7685 Y58.3246
G01 X122.7596 Y58.2800
G01 X122.7486 Y58.2061
G01 X122.7442 Y58.1608
G01 X122.7405 Y58.0861
G01 X122.7405 Y58.0406
G01 X122.7442 Y57.9660
G01 X122.7486 Y57.9207
G01 X122.7596 Y57.8467
G01 X122.7685 Y57.8021
G01 X122.7866 Y57.7296
G01 X122.7998 Y57.6861
G01 X122.8250 Y57.6157
G01 X122.8424 Y57.5737
G01 X122.8744 Y57.5061
G01 X122.8958 Y57.4659
G01 X122.9343 Y57.4018
G01 X122.9596 Y57.3640
G01 X123.0041 Y57.3039
G01 X123.0330 Y57.2688
G01 X123.0832 Y57.2134
G01 X123.1153 Y57.1812
G01 X123.1707 Y57.1310
G01 X123.2059 Y57.1021
G01 X123.2659 Y57.0576
G01 X123.3038 Y57.0323
G01 X123.3679 Y56.9939
G01 X123.4080 Y56.9725
G01 X123.4756 Y56.9405
G01 X123.5176 Y56.9231
G01 X123.5880 Y56.8979
G01 X123.6315 Y56.8847
G01 X123.7041 Y56.8665
G01 X123.7487 Y56.8576
G01 X123.8227 Y56.8467
G01 X123.8679 Y56.8422
G01 X123.9426 Y56.8385
G01 X123.9881 Y56.8385
G01 X124.0628 Y56.8422
G01 X124.1080 Y56.8467
G01 X124.1820 Y56.8576
G01 X124.2266 Y56.8665
G01 X124.2991 Y56.8847
G01 X124.3426 Y56.8979
G01 X124.4131 Y56.9231
G01 X124.4551 Y56.9405
G01 X124.5227 Y56.9725
G01 X124.5628 Y56.9939
G01 X124.6269 Y57.0323
G01 X124.6647 Y57.0576
G01 X124.7215 Y57.0997
G01 X125.7491 Y57.0997
G01 X125.8059 Y57.0576
G01 X125.8438 Y57.0323
G01 X125.9079 Y56.9939
G01 X125.9480 Y56.9725
G01 X126.0156 Y56.9405
G01 X126.0576 Y56.9231
G01 X126.1280 Y56.8979
G01 X126.1715 Y56.8847
G01 X126.2441 Y56.8665
G01 X126.2887 Y56.8576
G01 X126.3627 Y56.8467
G01 X126.4079 Y56.8422
G01 X126.4826 Y56.8385
G01 X126.5281 Y56.8385
G01 X126.6028 Y56.8422
G01 X126.6480 Y56.8467
G01 X126.7220 Y56.8576
G01 X126.7666 Y56.8665
G01 X126.8391 Y56.8847
G01 X126.8826 Y56.8979
G01 X126.9531 Y56.9231
G01 X126.9951 Y56.9405
G01 X127.0627 Y56.9725
G01 X127.1028 Y56.9939
G01 X127.1669 Y57.0323
G01 X127.2047 Y57.0576
G01 X127.2648 Y57.1021
G01 X127.2999 Y57.1310
G01 X127.3554 Y57.1812
G01 X127.3875 Y57.2134
G01 X127.4377 Y57.2688
G01 X127.4666 Y57.3039
G01 X127.5111 Y57.3640
G01 X127.5364 Y57.4018
G01 X127.5748 Y57.4659
G01 X127.5963 Y57.5061
G01 X127.6282 Y57.5737
G01 X127.6456 Y57.6157
G01 X127.6708 Y57.6861
G01 X127.6840 Y57.7296
G01 X127.7022 Y57.8021
G01 X127.7111 Y57.8467
G01 X127.7221 Y57.9207
G01 X127.7265 Y57.9660
G01 X127.7302 Y58.0406
G01 X127.7302 Y58.0861
G01 X127.7265 Y58.1608
G01 X127.7221 Y58.2061
G01 X127.7111 Y58.2800
G01 X127.7022 Y58.3246
G01 X127.6840 Y58.3972
G01 X127.6708 Y58.4407
G01 X127.6456 Y58.5111
G01 X127.6282 Y58.5531
G01 X127.5963 Y58.6207
G01 X127.5748 Y58.6608
G01 X127.5364 Y58.7250
G01 X127.5111 Y58.7628
G01 X127.4666 Y58.8228
G01 X127.4377 Y58.8580
G01 X127.3875 Y58.9134
G01 X127.3554 Y58.9456
G01 X127.2999 Y58.9958
G01 X127.2648 Y59.0246
G01 X127.2047 Y59.0692
G01 X127.1669 Y59.0944
G01 X127.1028 Y59.1329
G01 X127.0627 Y59.1543
G01 X126.9951 Y59.1863
G01 X126.9531 Y59.2037
G01 X126.8826 Y59.2289
G01 X126.8391 Y59.2421
G01 X126.7666 Y59.2603
G01 X126.7220 Y59.2691
G01 X126.6480 Y59.2801
G01 X126.6028 Y59.2846
G01 X126.5281 Y59.2882
G01 X126.4826 Y59.2882
G01 X126.4079 Y59.2846
G01 X126.3627 Y59.2801
G01 X126.2887 Y59.2691
G01 X126.2441 Y59.2603
G01 X126.1715 Y59.2421
G01 X126.1280 Y59.2289
G01 X126.0576 Y59.2037
G01 X126.0156 Y59.1863
G01 X125.9480 Y59.1543
G01 X125.9079 Y59.1329
G01 X125.8438 Y59.0944
G01 X125.8059 Y59.0692
G01 X125.7491 Y59.0270
G01 X124.9290 Y59.0270
G01 X124.9290 Y59.8472
G01 X124.9711 Y59.9040
G01 X124.9964 Y59.9418
G01 X125.0348 Y60.0059
G01 X125.0563 Y60.0461
G01 X125.0882 Y60.1137
G01 X125.1056 Y60.1557
G01 X125.1308 Y60.2261
G01 X125.1440 Y60.2696
G01 X125.1622 Y60.3421
G01 X125.1711 Y60.3867
G01 X125.1821 Y60.4607
G01 X125.1865 Y60.5060
G01 X125.1902 Y60.5806
G01 X125.1902 Y60.6261
G01 X125.1865 Y60.7008
G01 X125.1821 Y60.7461
G01 X125.1711 Y60.8200
G01 X125.1622 Y60.8646
G01 X125.1440 Y60.9372
G01 X125.1308 Y60.9807
G01 X125.1056 Y61.0511
G01 X125.0882 Y61.0931
G01 X125.0563 Y61.1607
G01 X125.0348 Y61.2008
G01 X124.9964 Y61.2650
G01 X124.9711 Y61.3028
G01 X124.9266 Y61.3628
G01 X124.8977 Y61.3980
G01 X124.8475 Y61.4534
G01 X124.8154 Y61.4856
G01 X124.7599 Y61.5358
G01 X124.7248 Y61.5646
G01 X124.6647 Y61.6092
G01 X124.6269 Y61.6344
G01 X124.5628 Y61.6729
G01 X124.5227 Y61.6943
G01 X124.4551 Y61.7263
G01 X124.4131 Y61.7437
G01 X124.3426 Y61.7689
G01 X124.2991 Y61.7821
G01 X124.2266 Y61.8003
G01 X124.1820 Y61.8091
G01 X124.1080 Y61.8201
G01 X124.0628 Y61.8246
G01 X123.9881 Y61.8282
G01 X123.9426 Y61.8282
G01 X123.8679 Y61.8246
G01 X123.8227 Y61.8201
G01 X123.7487 Y61.8091
G01 X123.7041 Y61.8003
G01 X123.6315 Y61.7821
G01 X123.5880 Y61.7689
G01 X123.5176 Y61.7437
G01 X123.4756 Y61.7263
G01 X123.4080 Y61.6943
G01 X123.3679 Y61.6729
G01 X123.3038 Y61.6344
G01 X123.2659 Y61.6092
G01 X123.2059 Y61.5646
G01 X123.1707 Y61.5358
G01 X123.1153 Y61.4856
G01 X123.0832 Y61.4534
G01 X123.0330 Y61.3980
G01 X123.0041 Y61.3628
G01 X122.9596 Y61.3028
G01 X122.9343 Y61.2650
G01 X122.8958 Y61.2008
G01 X122.8744 Y61.1607
G01 X122.8424 Y61.0931
G01 X122.8250 Y61.0511
G01 X122.7998 Y60.9807
G01 X122.7866 Y60.9372
G01 X122.7685 Y60.8646
G01 X122.7596 Y60.8200
G01 X122.7486 Y60.7461
G01 X122.7442 Y60.7008
G01 X122.7405 Y60.6261
G01 X122.7405 Y60.5806
G01 X122.7442 Y60.5060
G01 X122.7486 Y60.4607
G01 X122.7596 Y60.3867
G01 X122.7685 Y60.3421
G01 X122.7866 Y60.2696
G01 X122.7998 Y60.2261
G01 X122.8250 Y60.1557
G01 X122.8424 Y60.1137
G01 X122.8744 Y60.0461
G01 X122.8958 Y60.0059
G01 X122.9343 Y59.9418
G01 X122.9596 Y59.9040
G01 X123.0017 Y59.8472
G00 Z2.0000
G00 X117.1015 Y64.7197
G01 F60.00
G01 Z-0.2001
G01 F320.00
G01 X123.2091 Y64.7197
G01 X123.2659 Y64.6776
G01 X123.3038 Y64.6523
G01 X123.3679 Y64.6139
G01 X123.4080 Y64.5925
G01 X123.4756 Y64.5605
G01 X123.5176 Y64.5431
G01 X123.5880 Y64.5179
G01 X123.6315 Y64.5047
G01 X123.7041 Y64.4865
G01 X123.7487 Y64.4776
G01 X123.8227 Y64.4667
G01 X123.8679 Y64.4622
G01 X123.9426 Y64.4585
G01 X123.9881 Y64.4585
G01 X124.0628 Y64.4622
G01 X124.1080 Y64.4667
G01 X124.1820 Y64.4776
G01 X124.2266 Y64.4865
G01 X124.2991 Y64.5047
G01 X124.3426 Y64.5179
G01 X124.4131 Y64.5431
G01 X124.4551 Y64.5605
G01 X124.5227 Y64.5925
G01 X124.5628 Y64.6139
G01 X124.6269 Y64.6523
G01 X124.6647 Y64.6776
G01 X124.7248 Y64.7221
G01 X124.7599 Y64.7510
G01 X124.8154 Y64.8012
G01 X124.8475 Y64.8334
G01 X124.8977 Y64.8888
G01 X124.9266 Y64.9239
G01 X124.9711 Y64.9840
G01 X124.9964 Y65.0218
G01 X125.0348 Y65.0859
G01 X125.0563 Y65.1261
G01 X125.0882 Y65.1937
G01 X125.1056 Y65.2357
G01 X125.1308 Y65.3061
G01 X125.1440 Y65.3496
G01 X125.1622 Y65.4221
G01 X125.1711 Y65.4667
G01 X125.1821 Y65.5407
G01 X125.1865 Y65.5860
G01 X125.1902 Y65.6606
G01 X125.1902 Y65.7061
G01 X125.1865 Y65.7808
G01 X125.1821 Y65.8261
G01 X125.1711 Y65.9000
G01 X125.1622 Y65.9446
G01 X125.1440 Y66.0172
G01 X125.1308 Y66.0607
G01 X125.1056 Y66.1311
G01 X125.0882 Y66.1731
G01 X125.0563 Y66.2407
G01 X125.0348 Y66.2808
G01 X124.9964 Y66.3450
G01 X124.9711 Y66.3828
G01 X124.9290 Y66.4396
G01 X124.9290 Y67.4672
G01 X124.9711 Y67.5240
G01 X124.9964 Y67.5618
G01 X125.0348 Y67.6259
G01 X125.0563 Y67.6661
G01 X125.0882 Y67.7337
G01 X125.1056 Y67.7757
G01 X125.1308 Y67.8461
G01 X125.1440 Y67.8896
G01 X125.1622 Y67.9621
G01 X125.1711 Y68.0067
G01 X125.1821 Y68.0807
G01 X125.1865 Y68.1260
G01 X125.1902 Y68.2006
G01 X125.1902 Y68.2461
G01 X125.1865 Y68.3208
G01 X125.1821 Y68.3661
G01 X125.1711 Y68.4400
G01 X125.1622 Y68.4846
G01 X125.1440 Y68.5572
G01 X125.1308 Y68.6007
G01 X125.1056 Y68.6711
G01 X125.0882 Y68.7131
G01 X125.0563 Y68.7807
G01 X125.0348 Y68.8208
G01 X124.9964 Y68.8850
G01 X124.9711 Y68.9228
G01 X124.9266 Y68.9828
G01 X124.8977 Y69.0180
G01 X124.8475 Y69.0734
G01 X124.8154 Y69.1056
G01 X124.7599 Y69.1558
G01 X124.7248 Y69.1846
G01 X124.6647 Y69.2292
G01 X124.6269 Y69.2544
G01 X124.5628 Y69.2929
G01 X124.5227 Y69.3143
G01 X124.4551 Y69.3463
G01 X124.4131 Y69.3637
G01 X124.3426 Y69.3889
G01 X124.2991 Y69.4021
G01 X124.2266 Y69.4203
G01 X124.1820 Y69.4291
G01 X124.1080 Y69.4401
G01 X124.0628 Y69.4446
G01 X123.9881 Y69.4482
G01 X123.9426 Y69.4482
G01 X123.8679 Y69.4446
G01 X123.8227 Y69.4401
G01 X123.7487 Y69.4291
G01 X123.7041 Y69.4203
G01 X123.6315 Y69.4021
G01 X123.5880 Y69.3889
G01 X123.5176 Y69.3637
G01 X123.4756 Y69.3463
G01 X123.4080 Y69.3143
G01 X123.3679 Y69.2929
G01 X123.3038 Y69.2544
G01 X123.2659 Y69.2292
G01 X123.2059 Y69.1846
G01 X123.1707 Y69.1558
G01 X123.1153 Y69.1056
G01 X123.0832 Y69.0734
G01 X123.0330 Y69.0180
G01 X123.0041 Y68.9828
G01 X122.9596 Y68.9228
G01 X122.9343 Y68.8850
G01 X122.8958 Y68.8208
G01 X122.8744 Y68.7807
G01 X122.8424 Y68.7131
G01 X122.8250 Y68.6711
G01 X122.7998 Y68.6007
G01 X122.7866 Y68.5572
G01 X122.7685 Y68.4846
G01 X122.7596 Y68.4400
G01 X122.7486 Y68.3661
G01 X122.7442 Y68.3208
G01 X122.7405 Y68.2461
G01 X122.7405 Y68.2006
G01 X122.7442 Y68.1260
G01 X122.7486 Y68.0807
G01 X122.7596 Y68.0067
G01 X122.7685 Y67.9621
G01 X122.7866 Y67.8896
G01 X122.7998 Y67.8461
G01 X122.8250 Y67.7757
G01 X122.8424 Y67.7337
G01 X122.8744 Y67.6661
G01 X122.8958 Y67.6259
G01 X122.9343 Y67.5618
G01 X122.9596 Y67.5240
G01 X123.0017 Y67.4672
G01 X123.0017 Y66.6470
G01 X117.1015 Y66.6470
G01 X117.0447 Y66.6892
G01 X117.0069 Y66.7144
G01 X116.9428 Y66.7529
G01 X116.9027 Y66.7743
G01 X116.8351 Y66.8063
G01 X116.7931 Y66.8237
G01 X116.7226 Y66.8489
G01 X116.6791 Y66.8621
G01 X116.6066 Y66.8803
G01 X116.5620 Y66.8891
G01 X116.4880 Y66.9001
G01 X116.4428 Y66.9046
G01 X116.3681 Y66.9082
G01 X116.3226 Y66.9082
G01 X116.2479 Y66.9046
G01 X116.2027 Y66.9001
G01 X116.1287 Y66.8891
G01 X116.0841 Y66.8803
G01 X116.0115 Y66.8621
G01 X115.9680 Y66.8489
G01 X115.8976 Y66.8237
G01 X115.8556 Y66.8063
G01 X115.7880 Y66.7743
G01 X115.7479 Y66.7529
G01 X115.6838 Y66.7144
G01 X115.6459 Y66.6892
G01 X115.5859 Y66.6446
G01 X115.5507 Y66.6158
G01 X115.4953 Y66.5656
G01 X115.4632 Y66.5334
G01 X115.4130 Y66.4780
G01 X115.3841 Y66.4428
G01 X115.3396 Y66.3828
G01 X115.3143 Y66.3450
G01 X115.2758 Y66.2808
G01 X115.2544 Y66.2407
G01 X115.2224 Y66.1731
G01 X115.2050 Y66.1311
G01 X115.1798 Y66.0607
G01 X115.1666 Y66.0172
G01 X115.1485 Y65.9446
G01 X115.1396 Y65.9000
G01 X115.1286 Y65.8261
G01 X115.1242 Y65.7808
G01 X115.1205 Y65.7061
G01 X115.1205 Y65.6606
G01 X115.1242 Y65.5860
G01 X115.1286 Y65.5407
G01 X115.1396 Y65.4667
G01 X115.1485 Y65.4221
G01 X115.1666 Y65.3496
G01 X115.1798 Y65.3061
G01 X115.2050 Y65.2357
G01 X115.2224 Y65.1937
G01 X115.2544 Y65.1261
G01 X115.2758 Y65.0859
G01 X115.3143 Y65.0218
G01 X115.3396 Y64.9840
G01 X115.3841 Y64.9239
G01 X115.4130 Y64.8888
G01 X115.4632 Y64.8334
G01 X115.4953 Y64.8012
G01 X115.5507 Y64.7510
G01 X115.5859 Y64.7221
G01 X115.6459 Y64.6776
G01 X115.6838 Y64.6523
G01 X115.7479 Y64.6139
G01 X115.7880 Y64.5925
G01 X115.8556 Y64.5605
G01 X115.8976 Y64.5431
G01 X115.9680 Y64.5179
G01 X116.0115 Y64.5047
G01 X116.0841 Y64.4865
G01 X116.1287 Y64.4776
G01 X116.2027 Y64.4667
G01 X116.2479 Y64.4622
G01 X116.3226 Y64.4585
G01 X116.3681 Y64.4585
G01 X116.4428 Y64.4622
G01 X116.4880 Y64.4667
G01 X116.5620 Y64.4776
G01 X116.6066 Y64.4865
G01 X116.6791 Y64.5047
G01 X116.7226 Y64.5179
G01 X116.7931 Y64.5431
G01 X116.8351 Y64.5605
G01 X116.9027 Y64.5925
G01 X116.9428 Y64.6139
G01 X117.0069 Y64.6523
G01 X117.0447 Y64.6776
G01 X117.1015 Y64.7197
G00 Z2.0000
G00 X115.1205 Y68.2461
G01 F60.00
G01 Z-0.2001
G01 F320.00
G01 X115.1205 Y68.2006
G01 X115.1242 Y68.1260
G01 X115.1286 Y68.0807
G01 X115.1396 Y68.0067
G01 X115.1485 Y67.9621
G01 X115.1666 Y67.8896
G01 X115.1798 Y67.8461
G01 X115.2050 Y67.7757
G01 X115.2224 Y67.7337
G01 X115.2544 Y67.6661
G01 X115.2758 Y67.6259
G01 X115.3143 Y67.5618
G01 X115.3396 Y67.5240
G01 X115.3841 Y67.4639
G01 X115.4130 Y67.4288
G01 X115.4632 Y67.3734
G01 X115.4953 Y67.3412
G01 X115.5507 Y67.2910
G01 X115.5859 Y67.2621
G01 X115.6459 Y67.2176
G01 X115.6838 Y67.1923
G01 X115.7479 Y67.1539
G01 X115.7880 Y67.1325
G01 X115.8556 Y67.1005
G01 X115.8976 Y67.0831
G01 X115.9680 Y67.0579
G01 X116.0115 Y67.0447
G01 X116.0841 Y67.0265
G01 X116.1287 Y67.0176
G01 X116.2027 Y67.0067
G01 X116.2479 Y67.0022
G01 X116.3226 Y66.9985
G01 X116.3681 Y66.9985
G01 X116.4428 Y67.0022
G01 X116.4880 Y67.0067
G01 X116.5620 Y67.0176
G01 X116.6066 Y67.0265
G01 X116.6791 Y67.0447
G01 X116.7226 Y67.0579
G01 X116.7931 Y67.0831
G01 X116.8351 Y67.1005
G01 X116.9027 Y67.1325
G01 X116.9428 Y67.1539
G01 X117.0069 Y67.1923
G01 X117.0447 Y67.2176
G01 X117.1048 Y67.2621
G01 X117.1399 Y67.2910
G01 X117.1954 Y67.3412
G01 X117.2275 Y67.3734
G01 X117.2777 Y67.4288
G01 X117.3066 Y67.4639
G01 X117.3511 Y67.5240
G01 X117.3764 Y67.5618
G01 X117.4148 Y67.6259
G01 X117.4363 Y67.6661
G01 X117.4682 Y67.7337
G01 X117.4856 Y67.7757
G01 X117.5108 Y67.8461
G01 X117.5240 Y67.8896
G01 X117.5422 Y67.9621
G01 X117.5511 Y68.0067
G01 X117.5621 Y68.0807
G01 X117.5665 Y68.1260
G01 X117.5702 Y68.2006
G01 X117.5702 Y68.2461
G01 X117.5665 Y68.3208
G01 X117.5621 Y68.3661
G01 X117.5511 Y68.4400
G01 X117.5422 Y68.4846
G01 X117.5240 Y68.5572
G01 X117.5108 Y68.6007
G01 X117.4856 Y68.6711
G01 X117.4682 Y68.7131
G01 X117.4363 Y68.7807
G01 X117.4148 Y68.8208
G01 X117.3764 Y68.8850
G01 X117.3511 Y68.9228
G01 X117.3066 Y68.9828
G01 X117.2777 Y69.0180
G01 X117.2275 Y69.0734
G01 X117.1954 Y69.1056
G01 X117.1399 Y69.1558
G01 X117.1048 Y69.1846
G01 X117.0447 Y69.2292
G01 X117.0069 Y69.2544
G01 X116.9428 Y69.2929
G01 X116.9027 Y69.3143
G01 X116.8351 Y69.3463
G01 X116.7931 Y69.3637
G01 X116.7226 Y69.3889
G01 X116.6791 Y69.4021
G01 X116.6066 Y69.4203
G01 X116.5620 Y69.4291
G01 X116.4880 Y69.4401
G01 X116.4428 Y69.4446
G01 X116.3681 Y69.4482
G01 X116.3226 Y69.4482
G01 X116.2479 Y69.4446
G01 X116.2027 Y69.4401
G01 X116.1287 Y69.4291
G01 X116.0841 Y69.4203
G01 X116.0115 Y69.4021
G01 X115.9680 Y69.3889
G01 X115.8976 Y69.3637
G01 X115.8556 Y69.3463
G01 X115.7880 Y69.3143
G01 X115.7479 Y69.2929
G01 X115.6838 Y69.2544
G01 X115.6459 Y69.2292
G01 X115.5859 Y69.1846
G01 X115.5507 Y69.1558
G01 X115.4953 Y69.1056
G01 X115.4632 Y69.0734
G01 X115.4130 Y69.0180
G01 X115.3841 Y68.9828
G01 X115.3396 Y68.9228
G01 X115.3143 Y68.8850
G01 X115.2758 Y68.8208
G01 X115.2544 Y68.7807
G01 X115.2224 Y68.7131
G01 X115.2050 Y68.6711
G01 X115.1798 Y68.6007
G01 X115.1666 Y68.5572
G01 X115.1485 Y68.4846
G01 X115.1396 Y68.4400
G01 X115.1286 Y68.3661
G01 X115.1242 Y68.3208
G01 X115.1205 Y68.2461
G00 Z2.0000
G00 X117.1015 Y72.3397
G01 F60.00
G01 Z-0.2001
G01 F320.00
G01 X118.8853 Y72.3397
G01 X118.9081 Y72.3403
G01 X118.9571 Y72.3427
G01 X119.0024 Y72.3472
G01 X119.0509 Y72.3544
G01 X119.0955 Y72.3632
G01 X119.1431 Y72.3752
G01 X119.1867 Y72.3884
G01 X119.2329 Y72.4049
G01 X119.2749 Y72.4223
G01 X119.3193 Y72.4433
G01 X119.3594 Y72.4647
G01 X119.4015 Y72.4900
G01 X119.4393 Y72.5152
G01 X119.4787 Y72.5445
G01 X119.5139 Y72.5733
G01 X119.5503 Y72.6063
G01 X119.5824 Y72.6385
G01 X119.6154 Y72.6748
G01 X119.6442 Y72.7100
G01 X119.6735 Y72.7494
G01 X119.6988 Y72.7872
G01 X119.7240 Y72.8293
G01 X119.7454 Y72.8694
G01 X119.7664 Y72.9138
G01 X119.7838 Y72.9558
G01 X119.8004 Y73.0021
G01 X119.8136 Y73.0456
G01 X119.8255 Y73.0932
G01 X119.8344 Y73.1378
G01 X119.8416 Y73.1864
G01 X119.8460 Y73.2316
G01 X119.8484 Y73.2806
G01 X119.8490 Y73.3034
G01 X119.8490 Y76.9508
G01 X119.8658 Y76.9587
G01 X119.9048 Y76.9821
G01 X119.9413 Y77.0092
G01 X119.9750 Y77.0397
G01 X120.0056 Y77.0734
G01 X120.0326 Y77.1099
G01 X120.0560 Y77.1489
G01 X120.0755 Y77.1901
G01 X120.0908 Y77.2329
G01 X120.1018 Y77.2770
G01 X120.1085 Y77.3220
G01 X120.1107 Y77.3674
G01 X120.1107 Y79.3994
G01 X120.1085 Y79.4448
G01 X120.1018 Y79.4898
G01 X120.0908 Y79.5339
G01 X120.0755 Y79.5767
G01 X120.0560 Y79.6178
G01 X120.0326 Y79.6568
G01 X120.0055 Y79.6934
G01 X119.9750 Y79.7271
G01 X119.9413 Y79.7576
G01 X119.9048 Y79.7847
G01 X119.8658 Y79.8081
G01 X119.8490 Y79.8160
G01 X119.8490 Y82.7072
G01 X119.8911 Y82.7640
G01 X119.9164 Y82.8018
G01 X119.9548 Y82.8659
G01 X119.9763 Y82.9061
G01 X120.0082 Y82.9737
G01 X120.0256 Y83.0157
G01 X120.0508 Y83.0861
G01 X120.0640 Y83.1296
G01 X120.0822 Y83.2021
G01 X120.0911 Y83.2467
G01 X120.1021 Y83.3207
G01 X120.1065 Y83.3660
G01 X120.1102 Y83.4406
G01 X120.1102 Y83.4861
G01 X120.1065 Y83.5608
G01 X120.1021 Y83.6061
G01 X120.0911 Y83.6800
G01 X120.0822 Y83.7246
G01 X120.0640 Y83.7972
G01 X120.0508 Y83.8407
G01 X120.0256 Y83.9111
G01 X120.0082 Y83.9531
