(G-CODE GENERATED BY FLATCAM v8.991 - www.flatcam.org - Version Date: 2019/12/27)

(Name: 003_Display_iso3)
(Type: G-code from Geometry)
(Units: MM)

(Created on Sunday, 01 March 2020 at 13:26)

(TOOL DIAMETER: 0.331 mm)
(Feedrate: 320.0 mm/min)
(Feedrate_Z: 60.0 mm/min)
(Feedrate rapids 1500.0 mm/min)

(Z_Cut: -0.2001 mm)
(Z_Move: 2.0 mm)
(Z Toolchange: 15.0 mm)
(X,Y Toolchange: 0.0000, 0.0000 mm)
(Z Start: None mm)
(Z End: 15.0 mm)
(Steps per circle: 64)
(Preprocessor Geometry: default)

(X range:    3.0630 ...  148.0869  mm)
(Y range:    3.2010 ...   97.6858  mm)

(Spindle Speed: None RPM)
G21
G90
G94

M03 S3000


G01 F320.00
G00 Z2.0000

M03
G00 X5.8553 Y5.5629
G01 F60.00
G01 Z-0.2001
G01 F320.00
G01 X5.8638 Y5.5756
G01 X5.8638 Y29.2965
G01 X5.8469 Y29.2712
G01 X5.8469 Y5.5756
G01 X5.8553 Y5.5629
G00 Z2.0000
G00 X24.6850 Y9.8407
G01 F60.00
G01 Z-0.2001
G01 F320.00
G01 X24.6850 Y9.7660
G01 X24.6946 Y9.5700
G01 X24.7019 Y9.4956
G01 X24.7307 Y9.3015
G01 X24.7453 Y9.2282
G01 X24.7930 Y9.0378
G01 X24.8147 Y8.9663
G01 X24.8808 Y8.7815
G01 X24.9094 Y8.7125
G01 X24.9933 Y8.5351
G01 X25.0285 Y8.4692
G01 X25.1294 Y8.3009
G01 X25.1709 Y8.2387
G01 X25.2878 Y8.0811
G01 X25.3352 Y8.0233
G01 X25.4670 Y7.8779
G01 X25.5199 Y7.8251
G01 X25.6653 Y7.6933
G01 X25.7231 Y7.6459
G01 X25.8807 Y7.5290
G01 X25.9428 Y7.4875
G01 X26.1112 Y7.3866
G01 X26.1771 Y7.3513
G01 X26.3545 Y7.2674
G01 X26.4235 Y7.2388
G01 X26.6083 Y7.1727
G01 X26.6798 Y7.1510
G01 X26.8702 Y7.1033
G01 X26.9435 Y7.0888
G01 X27.1376 Y7.0600
G01 X27.2120 Y7.0526
G01 X27.4080 Y7.0430
G01 X27.4827 Y7.0430
G01 X27.6787 Y7.0526
G01 X27.7531 Y7.0600
G01 X27.9472 Y7.0888
G01 X28.0205 Y7.1033
G01 X28.2109 Y7.1510
G01 X28.2824 Y7.1727
G01 X28.4672 Y7.2388
G01 X28.5362 Y7.2674
G01 X28.7136 Y7.3513
G01 X28.7795 Y7.3866
G01 X28.9479 Y7.4875
G01 X29.0100 Y7.5290
G01 X29.1676 Y7.6459
G01 X29.2254 Y7.6933
G01 X29.3708 Y7.8251
G01 X29.4236 Y7.8779
G01 X29.5554 Y8.0233
G01 X29.6028 Y8.0811
G01 X29.7198 Y8.2387
G01 X29.7613 Y8.3009
G01 X29.8622 Y8.4692
G01 X29.8974 Y8.5351
G01 X29.9813 Y8.7125
G01 X30.0099 Y8.7815
G01 X30.0760 Y8.9663
G01 X30.0977 Y9.0378
G01 X30.1454 Y9.2282
G01 X30.1600 Y9.3015
G01 X30.1888 Y9.4956
G01 X30.1961 Y9.5700
G01 X30.2057 Y9.7660
G01 X30.2057 Y9.8407
G01 X30.1961 Y10.0368
G01 X30.1888 Y10.1111
G01 X30.1600 Y10.3053
G01 X30.1454 Y10.3785
G01 X30.0977 Y10.5689
G01 X30.0760 Y10.6404
G01 X30.0099 Y10.8252
G01 X29.9813 Y10.8942
G01 X29.8974 Y11.0717
G01 X29.8622 Y11.1376
G01 X29.7613 Y11.3059
G01 X29.7198 Y11.3680
G01 X29.6028 Y11.5257
G01 X29.5554 Y11.5834
G01 X29.4236 Y11.7289
G01 X29.3708 Y11.7817
G01 X29.2254 Y11.9135
G01 X29.1676 Y11.9609
G01 X29.0100 Y12.0778
G01 X28.9479 Y12.1193
G01 X28.7795 Y12.2202
G01 X28.7136 Y12.2554
G01 X28.5362 Y12.3393
G01 X28.4672 Y12.3679
G01 X28.2824 Y12.4341
G01 X28.2109 Y12.4557
G01 X28.0205 Y12.5034
G01 X27.9472 Y12.5180
G01 X27.7531 Y12.5468
G01 X27.6787 Y12.5541
G01 X27.4827 Y12.5638
G01 X27.4080 Y12.5638
G01 X27.2120 Y12.5541
G01 X27.1376 Y12.5468
G01 X26.9435 Y12.5180
G01 X26.8702 Y12.5034
G01 X26.6798 Y12.4557
G01 X26.6083 Y12.4341
G01 X26.4235 Y12.3679
G01 X26.3545 Y12.3393
G01 X26.1771 Y12.2554
G01 X26.1112 Y12.2202
G01 X25.9428 Y12.1193
G01 X25.8807 Y12.0778
G01 X25.7231 Y11.9609
G01 X25.6653 Y11.9135
G01 X25.5199 Y11.7817
G01 X25.4670 Y11.7289
G01 X25.3352 Y11.5834
G01 X25.2878 Y11.5257
G01 X25.1709 Y11.3680
G01 X25.1294 Y11.3059
G01 X25.0285 Y11.1376
G01 X24.9933 Y11.0717
G01 X24.9094 Y10.8942
G01 X24.8808 Y10.8252
G01 X24.8147 Y10.6404
G01 X24.7930 Y10.5689
G01 X24.7453 Y10.3785
G01 X24.7307 Y10.3053
G01 X24.7019 Y10.1111
G01 X24.6946 Y10.0368
G01 X24.6850 Y9.8407
G00 Z2.0000
G00 X33.3775 Y31.4018
G01 F60.00
G01 Z-0.2001
G01 F320.00
G01 X33.3522 Y31.3849
G01 X34.2132 Y31.3849
G01 X34.2385 Y31.4018
G01 X33.3775 Y31.4018
G00 Z2.0000
G00 X28.7153 Y36.0429
G01 F60.00
G01 Z-0.2001
G01 F320.00
G01 X28.7403 Y36.0802
G01 X28.7848 Y36.1403
G01 X28.8322 Y36.1980
G01 X28.8824 Y36.2535
G01 X28.9353 Y36.3063
G01 X28.9907 Y36.3565
G01 X29.0484 Y36.4039
G01 X29.1085 Y36.4484
G01 X29.1706 Y36.4900
G01 X29.2347 Y36.5284
G01 X29.3006 Y36.5636
G01 X29.3682 Y36.5956
G01 X29.4373 Y36.6242
G01 X29.5077 Y36.6494
G01 X29.5792 Y36.6711
G01 X29.6517 Y36.6892
G01 X29.7250 Y36.7038
G01 X29.7989 Y36.7148
G01 X29.8733 Y36.7221
G01 X29.9480 Y36.7258
G01 X30.0227 Y36.7258
G01 X30.0974 Y36.7221
G01 X30.1717 Y36.7148
G01 X30.2457 Y36.7038
G01 X30.3190 Y36.6892
G01 X30.3915 Y36.6711
G01 X30.4630 Y36.6494
G01 X30.5334 Y36.6242
G01 X30.6024 Y36.5956
G01 X30.6700 Y36.5636
G01 X30.7359 Y36.5284
G01 X30.8001 Y36.4900
G01 X30.8622 Y36.4484
G01 X30.9223 Y36.4039
G01 X30.9800 Y36.3565
G01 X31.0354 Y36.3063
G01 X31.0882 Y36.2535
G01 X31.1385 Y36.1980
G01 X31.1859 Y36.1403
G01 X31.2304 Y36.0802
G01 X31.2719 Y36.0181
G01 X31.3103 Y35.9540
G01 X31.3456 Y35.8881
G01 X31.3775 Y35.8205
G01 X31.4061 Y35.7515
G01 X31.4313 Y35.6811
G01 X31.4530 Y35.6096
G01 X31.4712 Y35.5370
G01 X31.4858 Y35.4637
G01 X31.4967 Y35.3898
G01 X31.5041 Y35.3154
G01 X31.5077 Y35.2407
G01 X31.5077 Y35.1660
G01 X31.5041 Y35.0913
G01 X31.4967 Y35.0170
G01 X31.4858 Y34.9430
G01 X31.4712 Y34.8697
G01 X31.4530 Y34.7972
G01 X31.4313 Y34.7257
G01 X31.4061 Y34.6553
G01 X31.3775 Y34.5863
G01 X31.3456 Y34.5187
G01 X31.3103 Y34.4528
G01 X31.2719 Y34.3887
G01 X31.2304 Y34.3265
G01 X31.1859 Y34.2665
G01 X31.1385 Y34.2087
G01 X31.0882 Y34.1533
G01 X31.0354 Y34.1005
G01 X30.9800 Y34.0503
G01 X30.9223 Y34.0029
G01 X30.8622 Y33.9583
G01 X30.8001 Y33.9168
G01 X30.7359 Y33.8784
G01 X30.6700 Y33.8432
G01 X30.6024 Y33.8112
G01 X30.5334 Y33.7826
G01 X30.4630 Y33.7574
G01 X30.3915 Y33.7357
G01 X30.3190 Y33.7175
G01 X30.2457 Y33.7030
G01 X30.1717 Y33.6920
G01 X30.0974 Y33.6847
G01 X30.0227 Y33.6810
G01 X29.9480 Y33.6810
G01 X29.8733 Y33.6847
G01 X29.7989 Y33.6920
G01 X29.7250 Y33.7030
G01 X29.6517 Y33.7175
G01 X29.5792 Y33.7357
G01 X29.5077 Y33.7574
G01 X29.4373 Y33.7826
G01 X29.3682 Y33.8112
G01 X29.3006 Y33.8432
G01 X29.2347 Y33.8784
G01 X29.1706 Y33.9168
G01 X29.1085 Y33.9583
G01 X29.0484 Y34.0029
G01 X28.9907 Y34.0503
G01 X28.9353 Y34.1005
G01 X28.8824 Y34.1533
G01 X28.8322 Y34.2087
G01 X28.7848 Y34.2665
G01 X28.7403 Y34.3265
G01 X28.7153 Y34.3639
G01 X28.7069 Y34.3512
G01 X28.7069 Y32.6634
G01 X28.7060 Y32.6260
G01 X28.7036 Y32.5770
G01 X28.6962 Y32.5026
G01 X28.6890 Y32.4541
G01 X28.6745 Y32.3808
G01 X28.6625 Y32.3332
G01 X28.6408 Y32.2617
G01 X28.6243 Y32.2155
G01 X28.5957 Y32.1465
G01 X28.5747 Y32.1021
G01 X28.5395 Y32.0362
G01 X28.5143 Y31.9941
G01 X28.4728 Y31.9320
G01 X28.4435 Y31.8925
G01 X28.3961 Y31.8348
G01 X28.3632 Y31.7984
G01 X28.3103 Y31.7456
G01 X28.2739 Y31.7126
G01 X28.2162 Y31.6652
G01 X28.1768 Y31.6360
G01 X28.1146 Y31.5945
G01 X28.0725 Y31.5692
G01 X28.0067 Y31.5340
G01 X27.9623 Y31.5130
G01 X27.8932 Y31.4844
G01 X27.8470 Y31.4679
G01 X27.7755 Y31.4462
G01 X27.7279 Y31.4343
G01 X27.6546 Y31.4197
G01 X27.6061 Y31.4125
G01 X27.5317 Y31.4052
G01 X27.4827 Y31.4028
G01 X27.4453 Y31.4018
G01 X13.0322 Y31.4018
G01 X13.0575 Y31.3849
G01 X31.6985 Y31.3849
G01 X31.6485 Y31.4183
G01 X31.5884 Y31.4629
G01 X31.5307 Y31.5103
G01 X31.4753 Y31.5605
G01 X31.4224 Y31.6133
G01 X31.3722 Y31.6687
G01 X31.3248 Y31.7265
G01 X31.2803 Y31.7865
G01 X31.2388 Y31.8487
G01 X31.2003 Y31.9128
G01 X31.1651 Y31.9787
G01 X31.1331 Y32.0463
G01 X31.1045 Y32.1153
G01 X31.0794 Y32.1857
G01 X31.0577 Y32.2572
G01 X31.0395 Y32.3297
G01 X31.0249 Y32.4030
G01 X31.0140 Y32.4770
G01 X31.0066 Y32.5513
G01 X31.0030 Y32.6260
G01 X31.0030 Y32.7007
G01 X31.0066 Y32.7754
G01 X31.0140 Y32.8498
G01 X31.0249 Y32.9237
G01 X31.0395 Y32.9970
G01 X31.0577 Y33.0696
G01 X31.0794 Y33.1411
G01 X31.1045 Y33.2115
G01 X31.1331 Y33.2805
G01 X31.1651 Y33.3481
G01 X31.2003 Y33.4140
G01 X31.2388 Y33.4781
G01 X31.2803 Y33.5402
G01 X31.3248 Y33.6003
G01 X31.3722 Y33.6580
G01 X31.4224 Y33.7135
G01 X31.4753 Y33.7663
G01 X31.5307 Y33.8165
G01 X31.5884 Y33.8639
G01 X31.6485 Y33.9084
G01 X31.7106 Y33.9500
G01 X31.7747 Y33.9884
G01 X31.8406 Y34.0236
G01 X31.9082 Y34.0556
G01 X31.9773 Y34.0842
G01 X32.0477 Y34.1094
G01 X32.1192 Y34.1311
G01 X32.1917 Y34.1492
G01 X32.2650 Y34.1638
G01 X32.3389 Y34.1748
G01 X32.4133 Y34.1821
G01 X32.4880 Y34.1858
G01 X32.5627 Y34.1858
G01 X32.6374 Y34.1821
G01 X32.7117 Y34.1748
G01 X32.7857 Y34.1638
G01 X32.8590 Y34.1492
G01 X32.9315 Y34.1311
G01 X33.0030 Y34.1094
G01 X33.0734 Y34.0842
G01 X33.1424 Y34.0556
G01 X33.2100 Y34.0236
G01 X33.2759 Y33.9884
G01 X33.3401 Y33.9500
G01 X33.3775 Y33.9249
G01 X38.8838 Y33.9249
G01 X38.8838 Y39.4312
G01 X38.8588 Y39.4687
G01 X38.8203 Y39.5328
G01 X38.7851 Y39.5987
G01 X38.7531 Y39.6663
G01 X38.7245 Y39.7353
G01 X38.6994 Y39.8057
G01 X38.6777 Y39.8772
G01 X38.6595 Y39.9497
G01 X38.6449 Y40.0230
G01 X38.6340 Y40.0970
G01 X38.6266 Y40.1713
G01 X38.6230 Y40.2460
G01 X38.6230 Y40.3207
G01 X38.6266 Y40.3954
G01 X38.6340 Y40.4698
G01 X38.6449 Y40.5437
G01 X38.6595 Y40.6170
G01 X38.6777 Y40.6896
G01 X38.6994 Y40.7611
G01 X38.7245 Y40.8315
G01 X38.7531 Y40.9005
G01 X38.7851 Y40.9681
G01 X38.8203 Y41.0340
G01 X38.8588 Y41.0981
G01 X38.9003 Y41.1602
G01 X38.9448 Y41.2203
G01 X38.9922 Y41.2780
G01 X39.0424 Y41.3335
G01 X39.0953 Y41.3863
G01 X39.1507 Y41.4365
G01 X39.2084 Y41.4839
G01 X39.2685 Y41.5284
G01 X39.3185 Y41.5618
G01 X33.3522 Y41.5618
G01 X33.4022 Y41.5284
G01 X33.4623 Y41.4839
G01 X33.5200 Y41.4365
G01 X33.5754 Y41.3863
G01 X33.6282 Y41.3335
G01 X33.6785 Y41.2780
G01 X33.7259 Y41.2203
G01 X33.7704 Y41.1602
G01 X33.8119 Y41.0981
G01 X33.8503 Y41.0340
G01 X33.8856 Y40.9681
G01 X33.9175 Y40.9005
G01 X33.9461 Y40.8315
G01 X33.9713 Y40.7611
G01 X33.9930 Y40.6896
G01 X34.0112 Y40.6170
G01 X34.0258 Y40.5437
G01 X34.0367 Y40.4698
G01 X34.0441 Y40.3954
G01 X34.0477 Y40.3207
G01 X34.0477 Y40.2460
G01 X34.0441 Y40.1713
G01 X34.0367 Y40.0970
G01 X34.0258 Y40.0230
G01 X34.0112 Y39.9497
G01 X33.9930 Y39.8772
G01 X33.9713 Y39.8057
G01 X33.9461 Y39.7353
G01 X33.9175 Y39.6663
G01 X33.8856 Y39.5987
G01 X33.8503 Y39.5328
G01 X33.8119 Y39.4687
G01 X33.7704 Y39.4065
G01 X33.7259 Y39.3465
G01 X33.6785 Y39.2887
G01 X33.6282 Y39.2333
G01 X33.5754 Y39.1805
G01 X33.5200 Y39.1303
G01 X33.4623 Y39.0829
G01 X33.4022 Y39.0383
G01 X33.3401 Y38.9968
G01 X33.2759 Y38.9584
G01 X33.2100 Y38.9232
G01 X33.1424 Y38.8912
G01 X33.0734 Y38.8626
G01 X33.0030 Y38.8374
G01 X32.9315 Y38.8157
G01 X32.8590 Y38.7975
G01 X32.7857 Y38.7830
G01 X32.7117 Y38.7720
G01 X32.6374 Y38.7647
G01 X32.5627 Y38.7610
G01 X32.4880 Y38.7610
G01 X32.4133 Y38.7647
G01 X32.3389 Y38.7720
G01 X32.2650 Y38.7830
G01 X32.1917 Y38.7975
G01 X32.1192 Y38.8157
G01 X32.0477 Y38.8374
G01 X31.9773 Y38.8626
G01 X31.9082 Y38.8912
G01 X31.8406 Y38.9232
G01 X31.7747 Y38.9584
G01 X31.7106 Y38.9968
G01 X31.6732 Y39.0218
G01 X30.8375 Y39.0218
G01 X30.8001 Y38.9968
G01 X30.7359 Y38.9584
G01 X30.6700 Y38.9232
G01 X30.6024 Y38.8912
G01 X30.5334 Y38.8626
G01 X30.4630 Y38.8374
G01 X30.3915 Y38.8157
G01 X30.3190 Y38.7975
G01 X30.2457 Y38.7830
G01 X30.1717 Y38.7720
G01 X30.0974 Y38.7647
G01 X30.0227 Y38.7610
G01 X29.9480 Y38.7610
G01 X29.8733 Y38.7647
G01 X29.7989 Y38.7720
G01 X29.7250 Y38.7830
G01 X29.6517 Y38.7975
G01 X29.5792 Y38.8157
G01 X29.5077 Y38.8374
G01 X29.4373 Y38.8626
G01 X29.3682 Y38.8912
G01 X29.3006 Y38.9232
G01 X29.2347 Y38.9584
G01 X29.1706 Y38.9968
G01 X29.1085 Y39.0383
G01 X29.0484 Y39.0829
G01 X28.9907 Y39.1303
G01 X28.9353 Y39.1805
G01 X28.8824 Y39.2333
G01 X28.8322 Y39.2887
G01 X28.7848 Y39.3465
G01 X28.7403 Y39.4065
G01 X28.6988 Y39.4687
G01 X28.6603 Y39.5328
G01 X28.6251 Y39.5987
G01 X28.5931 Y39.6663
G01 X28.5645 Y39.7353
G01 X28.5394 Y39.8057
G01 X28.5177 Y39.8772
G01 X28.4995 Y39.9497
G01 X28.4849 Y40.0230
G01 X28.4740 Y40.0970
G01 X28.4666 Y40.1713
G01 X28.4630 Y40.2460
G01 X28.4630 Y40.3207
G01 X28.4666 Y40.3954
G01 X28.4740 Y40.4698
G01 X28.4849 Y40.5437
G01 X28.4995 Y40.6170
G01 X28.5177 Y40.6896
G01 X28.5394 Y40.7611
G01 X28.5645 Y40.8315
G01 X28.5931 Y40.9005
G01 X28.6251 Y40.9681
G01 X28.6603 Y41.0340
G01 X28.6988 Y41.0981
G01 X28.7403 Y41.1602
G01 X28.7848 Y41.2203
G01 X28.8322 Y41.2780
G01 X28.8824 Y41.3335
G01 X28.9353 Y41.3863
G01 X28.9907 Y41.4365
G01 X29.0484 Y41.4839
G01 X29.1085 Y41.5284
G01 X29.1585 Y41.5618
G01 X15.5722 Y41.5618
G01 X15.5975 Y41.5449
G01 X19.8253 Y41.5449
G01 X19.8627 Y41.5440
G01 X19.9117 Y41.5416
G01 X19.9861 Y41.5343
G01 X20.0346 Y41.5271
G01 X20.1079 Y41.5125
G01 X20.1555 Y41.5006
G01 X20.2270 Y41.4789
G01 X20.2732 Y41.4623
G01 X20.3423 Y41.4338
G01 X20.3867 Y41.4128
G01 X20.4525 Y41.3776
G01 X20.4946 Y41.3523
G01 X20.5568 Y41.3108
G01 X20.5962 Y41.2816
G01 X20.6539 Y41.2342
G01 X20.6903 Y41.2012
G01 X20.7432 Y41.1484
G01 X20.7761 Y41.1120
G01 X20.8235 Y41.0542
G01 X20.8528 Y41.0148
G01 X20.8943 Y40.9527
G01 X20.9195 Y40.9106
G01 X20.9547 Y40.8447
G01 X20.9757 Y40.8003
G01 X21.0043 Y40.7313
G01 X21.0208 Y40.6851
G01 X21.0425 Y40.6136
G01 X21.0545 Y40.5660
G01 X21.0690 Y40.4927
G01 X21.0762 Y40.4441
G01 X21.0836 Y40.3698
G01 X21.0860 Y40.3207
G01 X21.0869 Y40.2834
G01 X21.0869 Y36.7928
G01 X21.1257 Y36.7577
G01 X21.1758 Y36.7023
G01 X21.2203 Y36.6423
G01 X21.2587 Y36.5783
G01 X21.2907 Y36.5107
G01 X21.3071 Y36.4649
G01 X24.0532 Y36.4649
G01 X24.0906 Y36.4900
G01 X24.1547 Y36.5284
G01 X24.2206 Y36.5636
G01 X24.2882 Y36.5956
G01 X24.3573 Y36.6242
G01 X24.4277 Y36.6494
G01 X24.4992 Y36.6711
G01 X24.5717 Y36.6892
G01 X24.6450 Y36.7038
G01 X24.7189 Y36.7148
G01 X24.7933 Y36.7221
G01 X24.8680 Y36.7258
G01 X24.9427 Y36.7258
G01 X25.0174 Y36.7221
G01 X25.0917 Y36.7148
G01 X25.1657 Y36.7038
G01 X25.2390 Y36.6892
G01 X25.3115 Y36.6711
G01 X25.3830 Y36.6494
G01 X25.4534 Y36.6242
G01 X25.5224 Y36.5956
G01 X25.5900 Y36.5636
G01 X25.6559 Y36.5284
G01 X25.7201 Y36.4900
G01 X25.7822 Y36.4484
G01 X25.8423 Y36.4039
G01 X25.9000 Y36.3565
G01 X25.9554 Y36.3063
G01 X26.0082 Y36.2535
G01 X26.0585 Y36.1980
G01 X26.1059 Y36.1403
G01 X26.1504 Y36.0802
G01 X26.1753 Y36.0429
G01 X26.2003 Y36.0802
G01 X26.2448 Y36.1403
G01 X26.2922 Y36.1980
G01 X26.3424 Y36.2535
G01 X26.3953 Y36.3063
G01 X26.4507 Y36.3565
G01 X26.5084 Y36.4039
G01 X26.5685 Y36.4484
G01 X26.6306 Y36.4900
G01 X26.6947 Y36.5284
G01 X26.7606 Y36.5636
G01 X26.8282 Y36.5956
G01 X26.8973 Y36.6242
G01 X26.9677 Y36.6494
G01 X27.0392 Y36.6711
G01 X27.1117 Y36.6892
G01 X27.1850 Y36.7038
G01 X27.2589 Y36.7148
G01 X27.3333 Y36.7221
G01 X27.4080 Y36.7258
G01 X27.4827 Y36.7258
G01 X27.5574 Y36.7221
G01 X27.6317 Y36.7148
G01 X27.7057 Y36.7038
G01 X27.7790 Y36.6892
G01 X27.8515 Y36.6711
G01 X27.9230 Y36.6494
G01 X27.9934 Y36.6242
G01 X28.0624 Y36.5956
G01 X28.1300 Y36.5636
G01 X28.1959 Y36.5284
G01 X28.2601 Y36.4900
G01 X28.3222 Y36.4484
G01 X28.3823 Y36.4039
G01 X28.4400 Y36.3565
G01 X28.4954 Y36.3063
G01 X28.5482 Y36.2535
G01 X28.5985 Y36.1980
G01 X28.6459 Y36.1403
G01 X28.6904 Y36.0802
G01 X28.7153 Y36.0429
G00 Z2.0000
G00 X26.1753 Y34.3639
G01 F60.00
G01 Z-0.2001
G01 F320.00
G01 X26.1504 Y34.3265
G01 X26.1059 Y34.2665
G01 X26.0585 Y34.2087
G01 X26.0082 Y34.1533
G01 X25.9554 Y34.1005
G01 X25.9000 Y34.0503
G01 X25.8423 Y34.0029
G01 X25.7822 Y33.9583
G01 X25.7322 Y33.9249
G01 X26.1838 Y33.9249
G01 X26.1838 Y34.3512
G01 X26.1753 Y34.3639
G00 Z2.0000
G00 X24.0785 Y33.9249
G01 F60.00
G01 Z-0.2001
G01 F320.00
G01 X24.0532 Y33.9418
G01 X21.3071 Y33.9418
G01 X21.3010 Y33.9249
G01 X24.0785 Y33.9249
G00 Z2.0000
G00 X30.8122 Y41.5618
G01 F60.00
G01 Z-0.2001
G01 F320.00
G01 X30.8375 Y41.5449
G01 X31.6732 Y41.5449
G01 X31.6985 Y41.5618
G01 X30.8122 Y41.5618
G00 Z2.0000
G00 X30.8122 Y44.0849
G01 F60.00
G01 Z-0.2001
G01 F320.00
G01 X33.8038 Y44.0849
G01 X33.8038 Y44.5112
G01 X33.7788 Y44.5487
G01 X33.7403 Y44.6128
G01 X33.7051 Y44.6787
G01 X33.6731 Y44.7463
G01 X33.6445 Y44.8153
G01 X33.6194 Y44.8857
G01 X33.5977 Y44.9572
G01 X33.5795 Y45.0297
G01 X33.5649 Y45.1030
G01 X33.5540 Y45.1770
G01 X33.5466 Y45.2513
G01 X33.5430 Y45.3260
G01 X33.5430 Y45.4007
G01 X33.5466 Y45.4754
G01 X33.5540 Y45.5498
G01 X33.5649 Y45.6237
G01 X33.5795 Y45.6970
G01 X33.5977 Y45.7696
G01 X33.6194 Y45.8411
G01 X33.6445 Y45.9115
G01 X33.6731 Y45.9805
G01 X33.7051 Y46.0481
G01 X33.7403 Y46.1140
G01 X33.7788 Y46.1781
G01 X33.8203 Y46.2402
G01 X33.8648 Y46.3003
G01 X33.9122 Y46.3580
G01 X33.9624 Y46.4135
G01 X34.0153 Y46.4663
G01 X34.0707 Y46.5165
G01 X34.1284 Y46.5639
G01 X34.1885 Y46.6084
G01 X34.2385 Y46.6418
G01 X32.5253 Y46.6418
G01 X32.4880 Y46.6428
G01 X32.4390 Y46.6452
G01 X32.3646 Y46.6525
G01 X32.3160 Y46.6597
G01 X32.2428 Y46.6743
G01 X32.1951 Y46.6862
G01 X32.1237 Y46.7079
G01 X32.0774 Y46.7244
G01 X32.0084 Y46.7530
G01 X31.9640 Y46.7740
G01 X31.8981 Y46.8092
G01 X31.8560 Y46.8345
G01 X31.7939 Y46.8760
G01 X31.7545 Y46.9052
G01 X31.6967 Y46.9526
G01 X31.6604 Y46.9856
G01 X31.6075 Y47.0384
G01 X31.5746 Y47.0748
G01 X31.5272 Y47.1325
G01 X31.4979 Y47.1720
G01 X31.4564 Y47.2341
G01 X31.4312 Y47.2762
G01 X31.3960 Y47.3421
G01 X31.3750 Y47.3865
G01 X31.3464 Y47.4555
G01 X31.3298 Y47.5017
G01 X31.3081 Y47.5732
G01 X31.2962 Y47.6208
G01 X31.2816 Y47.6941
G01 X31.2744 Y47.7426
G01 X31.2671 Y47.8170
G01 X31.2647 Y47.8660
G01 X31.2638 Y47.9034
G01 X31.2638 Y53.9492
G01 X31.2469 Y53.9339
G01 X31.2469 Y50.4434
G01 X31.2460 Y50.4060
G01 X31.2436 Y50.3570
G01 X31.2362 Y50.2826
G01 X31.2290 Y50.2341
G01 X31.2145 Y50.1608
G01 X31.2025 Y50.1132
G01 X31.1808 Y50.0417
G01 X31.1643 Y49.9955
G01 X31.1357 Y49.9265
G01 X31.1147 Y49.8821
G01 X31.0795 Y49.8162
G01 X31.0543 Y49.7741
G01 X31.0128 Y49.7120
G01 X30.9835 Y49.6725
G01 X30.9361 Y49.6148
G01 X30.9032 Y49.5784
G01 X30.8503 Y49.5256
G01 X30.8139 Y49.4926
G01 X30.7562 Y49.4452
G01 X30.7168 Y49.4160
G01 X30.6546 Y49.3745
G01 X30.6125 Y49.3492
G01 X30.5467 Y49.3140
G01 X30.5023 Y49.2930
G01 X30.4332 Y49.2644
G01 X30.3870 Y49.2479
G01 X30.3155 Y49.2262
G01 X30.2679 Y49.2143
G01 X30.1946 Y49.1997
G01 X30.1461 Y49.1925
G01 X30.0717 Y49.1852
G01 X30.0227 Y49.1828
G01 X29.9853 Y49.1818
G01 X28.2975 Y49.1818
G01 X28.2849 Y49.1734
G01 X28.2975 Y49.1649
G01 X29.9853 Y49.1649
G01 X30.0227 Y49.1640
G01 X30.0717 Y49.1616
G01 X30.1461 Y49.1543
G01 X30.1946 Y49.1471
G01 X30.2679 Y49.1325
G01 X30.3155 Y49.1206
G01 X30.3870 Y49.0989
G01 X30.4332 Y49.0823
G01 X30.5023 Y49.0538
G01 X30.5467 Y49.0328
G01 X30.6125 Y48.9976
G01 X30.6546 Y48.9723
G01 X30.7168 Y48.9308
G01 X30.7562 Y48.9016
G01 X30.8139 Y48.8542
G01 X30.8503 Y48.8212
G01 X30.9032 Y48.7684
G01 X30.9361 Y48.7320
G01 X30.9835 Y48.6742
G01 X31.0128 Y48.6348
G01 X31.0543 Y48.5727
G01 X31.0795 Y48.5306
G01 X31.1147 Y48.4647
G01 X31.1357 Y48.4203
G01 X31.1643 Y48.3513
G01 X31.1808 Y48.3051
G01 X31.2025 Y48.2336
G01 X31.2145 Y48.1860
G01 X31.2290 Y48.1127
G01 X31.2362 Y48.0641
G01 X31.2436 Y47.9898
G01 X31.2460 Y47.9407
G01 X31.2469 Y47.9034
G01 X31.2469 Y46.2156
G01 X31.2719 Y46.1781
G01 X31.3103 Y46.1140
G01 X31.3456 Y46.0481
G01 X31.3775 Y45.9805
G01 X31.4061 Y45.9115
G01 X31.4313 Y45.8411
G01 X31.4530 Y45.7696
G01 X31.4712 Y45.6970
G01 X31.4858 Y45.6237
G01 X31.4967 Y45.5498
G01 X31.5041 Y45.4754
G01 X31.5077 Y45.4007
G01 X31.5077 Y45.3260
G01 X31.5041 Y45.2513
G01 X31.4967 Y45.1770
G01 X31.4858 Y45.1030
G01 X31.4712 Y45.0297
G01 X31.4530 Y44.9572
G01 X31.4313 Y44.8857
G01 X31.4061 Y44.8153
G01 X31.3775 Y44.7463
G01 X31.3456 Y44.6787
G01 X31.3103 Y44.6128
G01 X31.2719 Y44.5487
G01 X31.2304 Y44.4865
G01 X31.1859 Y44.4265
G01 X31.1385 Y44.3687
G01 X31.0882 Y44.3133
G01 X31.0354 Y44.2605
G01 X30.9800 Y44.2103
G01 X30.9223 Y44.1629
G01 X30.8622 Y44.1183
G01 X30.8122 Y44.0849
G00 Z2.0000
G00 X28.7153 Y44.5239
G01 F60.00
G01 Z-0.2001
G01 F320.00
G01 X28.6904 Y44.4865
G01 X28.6459 Y44.4265
G01 X28.5985 Y44.3687
G01 X28.5482 Y44.3133
G01 X28.4954 Y44.2605
G01 X28.4400 Y44.2103
G01 X28.3823 Y44.1629
G01 X28.3222 Y44.1183
G01 X28.2722 Y44.0849
G01 X29.1585 Y44.0849
G01 X29.1085 Y44.1183
G01 X29.0484 Y44.1629
G01 X28.9907 Y44.2103
G01 X28.9353 Y44.2605
G01 X28.8824 Y44.3133
G01 X28.8322 Y44.3687
G01 X28.7848 Y44.4265
G01 X28.7403 Y44.4865
G01 X28.7153 Y44.5239
G00 Z2.0000
G00 X28.2849 Y46.6334
G01 F60.00
G01 Z-0.2001
G01 F320.00
G01 X28.3222 Y46.6084
G01 X28.3823 Y46.5639
G01 X28.4400 Y46.5165
G01 X28.4954 Y46.4663
G01 X28.5482 Y46.4135
G01 X28.5985 Y46.3580
G01 X28.6459 Y46.3003
G01 X28.6904 Y46.2402
G01 X28.7153 Y46.2029
G01 X28.7238 Y46.2156
G01 X28.7238 Y46.6418
G01 X28.2975 Y46.6418
G01 X28.2849 Y46.6334
G00 Z2.0000
G00 X23.1922 Y46.6418
G01 F60.00
G01 Z-0.2001
G01 F320.00
G01 X23.2422 Y46.6084
G01 X23.3023 Y46.5639
G01 X23.3600 Y46.5165
G01 X23.4154 Y46.4663
G01 X23.4682 Y46.4135
G01 X23.5185 Y46.3580
G01 X23.5659 Y46.3003
G01 X23.6104 Y46.2402
G01 X23.6519 Y46.1781
G01 X23.6903 Y46.1140
G01 X23.7256 Y46.0481
G01 X23.7575 Y45.9805
G01 X23.7861 Y45.9115
G01 X23.8113 Y45.8411
G01 X23.8330 Y45.7696
G01 X23.8512 Y45.6970
G01 X23.8658 Y45.6237
G01 X23.8767 Y45.5498
G01 X23.8841 Y45.4754
G01 X23.8877 Y45.4007
G01 X23.8877 Y45.3260
G01 X23.8841 Y45.2513
G01 X23.8767 Y45.1770
G01 X23.8658 Y45.1030
G01 X23.8512 Y45.0297
G01 X23.8330 Y44.9572
G01 X23.8113 Y44.8857
G01 X23.7861 Y44.8153
G01 X23.7575 Y44.7463
G01 X23.7256 Y44.6787
G01 X23.6903 Y44.6128
G01 X23.6519 Y44.5487
G01 X23.6269 Y44.5112
G01 X23.6269 Y44.0849
G01 X26.6185 Y44.0849
G01 X26.5685 Y44.1183
G01 X26.5084 Y44.1629
G01 X26.4507 Y44.2103
G01 X26.3953 Y44.2605
G01 X26.3424 Y44.3133
G01 X26.2922 Y44.3687
G01 X26.2448 Y44.4265
G01 X26.2003 Y44.4865
G01 X26.1588 Y44.5487
G01 X26.1203 Y44.6128
G01 X26.0851 Y44.6787
G01 X26.0531 Y44.7463
G01 X26.0245 Y44.8153
G01 X25.9994 Y44.8857
G01 X25.9777 Y44.9572
G01 X25.9595 Y45.0297
G01 X25.9449 Y45.1030
G01 X25.9340 Y45.1770
G01 X25.9266 Y45.2513
G01 X25.9230 Y45.3260
G01 X25.9230 Y45.4007
G01 X25.9266 Y45.4754
G01 X25.9340 Y45.5498
G01 X25.9449 Y45.6237
G01 X25.9595 Y45.6970
G01 X25.9777 Y45.7696
G01 X25.9994 Y45.8411
G01 X26.0245 Y45.9115
G01 X26.0531 Y45.9805
G01 X26.0851 Y46.0481
G01 X26.1203 Y46.1140
G01 X26.1588 Y46.1781
G01 X26.2003 Y46.2402
G01 X26.2448 Y46.3003
G01 X26.2922 Y46.3580
G01 X26.3424 Y46.4135
G01 X26.3953 Y46.4663
G01 X26.4507 Y46.5165
G01 X26.5084 Y46.5639
G01 X26.5685 Y46.6084
G01 X26.6058 Y46.6334
G01 X26.5932 Y46.6418
G01 X23.1922 Y46.6418
G00 Z2.0000
G00 X23.2175 Y54.2618
G01 F60.00
G01 Z-0.2001
G01 F320.00
G01 X23.1801 Y54.2368
G01 X23.1159 Y54.1984
G01 X23.0500 Y54.1632
G01 X22.9824 Y54.1312
G01 X22.9134 Y54.1026
G01 X22.8430 Y54.0774
G01 X22.7715 Y54.0557
G01 X22.6990 Y54.0375
G01 X22.6257 Y54.0230
G01 X22.5517 Y54.0120
G01 X22.4774 Y54.0047
G01 X22.4027 Y54.0010
G01 X22.3280 Y54.0010
G01 X22.2533 Y54.0047
G01 X22.1789 Y54.0120
G01 X22.1050 Y54.0230
G01 X22.0317 Y54.0375
G01 X21.9592 Y54.0557
G01 X21.8877 Y54.0774
G01 X21.8173 Y54.1026
G01 X21.7482 Y54.1312
G01 X21.6806 Y54.1632
G01 X21.6147 Y54.1984
G01 X21.5506 Y54.2368
G01 X21.4885 Y54.2783
G01 X21.4284 Y54.3229
G01 X21.3707 Y54.3703
G01 X21.3153 Y54.4205
G01 X21.2624 Y54.4733
G01 X21.2122 Y54.5287
G01 X21.1648 Y54.5865
G01 X21.1203 Y54.6465
G01 X21.0869 Y54.6965
G01 X21.0869 Y49.1649
G01 X26.5932 Y49.1649
G01 X26.6058 Y49.1734
G01 X26.5685 Y49.1983
G01 X26.5084 Y49.2429
G01 X26.4507 Y49.2903
G01 X26.3953 Y49.3405
G01 X26.3424 Y49.3933
G01 X26.2922 Y49.4487
G01 X26.2448 Y49.5065
G01 X26.2003 Y49.5665
G01 X26.1588 Y49.6287
G01 X26.1203 Y49.6928
G01 X26.0851 Y49.7587
G01 X26.0531 Y49.8263
G01 X26.0245 Y49.8953
G01 X25.9994 Y49.9657
G01 X25.9777 Y50.0372
G01 X25.9595 Y50.1097
G01 X25.9449 Y50.1830
G01 X25.9340 Y50.2570
G01 X25.9266 Y50.3313
G01 X25.9230 Y50.4060
G01 X25.9230 Y50.4807
G01 X25.9266 Y50.5554
G01 X25.9340 Y50.6298
G01 X25.9449 Y50.7037
G01 X25.9595 Y50.7770
G01 X25.9777 Y50.8496
G01 X25.9994 Y50.9211
G01 X26.0245 Y50.9915
G01 X26.0531 Y51.0605
G01 X26.0851 Y51.1281
G01 X26.1203 Y51.1940
G01 X26.1588 Y51.2581
G01 X26.2003 Y51.3202
G01 X26.2448 Y51.3803
G01 X26.2922 Y51.4380
G01 X26.3424 Y51.4935
G01 X26.3953 Y51.5463
G01 X26.4507 Y51.5965
G01 X26.5084 Y51.6439
G01 X26.5685 Y51.6884
G01 X26.6306 Y51.7300
G01 X26.6947 Y51.7684
G01 X26.7606 Y51.8036
G01 X26.8282 Y51.8356
G01 X26.8973 Y51.8642
G01 X26.9677 Y51.8894
G01 X27.0392 Y51.9111
G01 X27.1117 Y51.9292
G01 X27.1850 Y51.9438
G01 X27.2589 Y51.9548
G01 X27.3333 Y51.9621
G01 X27.4080 Y51.9658
G01 X27.4827 Y51.9658
G01 X27.5574 Y51.9621
G01 X27.6317 Y51.9548
G01 X27.7057 Y51.9438
G01 X27.7790 Y51.9292
G01 X27.8515 Y51.9111
G01 X27.9230 Y51.8894
G01 X27.9934 Y51.8642
G01 X28.0624 Y51.8356
G01 X28.1300 Y51.8036
G01 X28.1959 Y51.7684
G01 X28.2601 Y51.7300
G01 X28.2975 Y51.7049
G01 X28.7238 Y51.7049
G01 X28.7238 Y53.9339
G01 X28.7153 Y53.9416
G01 X28.6903 Y53.9189
G01 X28.6303 Y53.8744
G01 X28.5662 Y53.8360
G01 X28.4987 Y53.8040
G01 X28.4283 Y53.7789
G01 X28.3559 Y53.7607
G01 X28.2820 Y53.7498
G01 X28.2073 Y53.7461
G01 X26.6833 Y53.7461
G01 X26.6087 Y53.7498
G01 X26.5348 Y53.7607
G01 X26.4623 Y53.7789
G01 X26.3920 Y53.8040
G01 X26.3245 Y53.8360
G01 X26.2604 Y53.8744
G01 X26.2004 Y53.9189
G01 X26.1450 Y53.9691
G01 X26.0949 Y54.0244
G01 X26.0503 Y54.0844
G01 X26.0119 Y54.1485
G01 X25.9800 Y54.2160
G01 X25.9636 Y54.2618
G01 X23.2175 Y54.2618
G00 Z2.0000
G00 X23.2049 Y56.7934
G01 F60.00
G01 Z-0.2001
G01 F320.00
G01 X23.2175 Y56.7849
G01 X24.0785 Y56.7849
G01 X24.0532 Y56.8018
G01 X23.2175 Y56.8018
G01 X23.2049 Y56.7934
G00 Z2.0000
G00 X21.0869 Y56.3503
G01 F60.00
G01 Z-0.2001
G01 F320.00
G01 X21.1203 Y56.4002
G01 X21.1648 Y56.4603
G01 X21.2122 Y56.5180
G01 X21.2624 Y56.5735
G01 X21.3153 Y56.6263
G01 X21.3707 Y56.6765
G01 X21.4284 Y56.7239
G01 X21.4885 Y56.7684
G01 X21.5258 Y56.7934
G01 X21.4885 Y56.8183
G01 X21.4284 Y56.8629
G01 X21.3707 Y56.9103
G01 X21.3153 Y56.9605
G01 X21.2624 Y57.0133
G01 X21.2122 Y57.0687
G01 X21.1648 Y57.1265
G01 X21.1203 Y57.1865
G01 X21.0869 Y57.2365
G01 X21.0869 Y56.3503
G00 Z2.0000
G00 X21.0869 Y58.8903
G01 F60.00
G01 Z-0.2001
G01 F320.00
G01 X21.1038 Y58.9156
G01 X21.1038 Y59.7512
G01 X21.0869 Y59.7765
G01 X21.0869 Y58.8903
G00 Z2.0000
G00 X21.0869 Y61.4303
G01 F60.00
G01 Z-0.2001
G01 F320.00
G01 X21.1203 Y61.4802
G01 X21.1648 Y61.5403
G01 X21.2122 Y61.5980
G01 X21.2624 Y61.6535
G01 X21.3153 Y61.7063
G01 X21.3707 Y61.7565
G01 X21.4284 Y61.8039
G01 X21.4885 Y61.8484
G01 X21.5385 Y61.8818
G01 X21.0869 Y61.8818
G01 X21.0869 Y61.4303
G00 Z2.0000
G00 X23.1922 Y61.8818
G01 F60.00
G01 Z-0.2001
G01 F320.00
G01 X23.2422 Y61.8484
G01 X23.3023 Y61.8039
G01 X23.3600 Y61.7565
G01 X23.4154 Y61.7063
G01 X23.4682 Y61.6535
G01 X23.5185 Y61.5980
G01 X23.5659 Y61.5403
G01 X23.6104 Y61.4802
G01 X23.6519 Y61.4181
G01 X23.6903 Y61.3540
G01 X23.7256 Y61.2881
G01 X23.7575 Y61.2205
G01 X23.7861 Y61.1515
G01 X23.8113 Y61.0811
G01 X23.8330 Y61.0096
G01 X23.8512 Y60.9370
G01 X23.8658 Y60.8637
G01 X23.8767 Y60.7898
G01 X23.8841 Y60.7154
G01 X23.8877 Y60.6407
G01 X23.8877 Y60.5660
G01 X23.8841 Y60.4913
G01 X23.8767 Y60.4170
G01 X23.8658 Y60.3430
G01 X23.8512 Y60.2697
G01 X23.8330 Y60.1972
G01 X23.8113 Y60.1257
G01 X23.7861 Y60.0553
G01 X23.7575 Y59.9863
G01 X23.7256 Y59.9187
G01 X23.6903 Y59.8528
G01 X23.6519 Y59.7887
G01 X23.6269 Y59.7512
G01 X23.6269 Y59.3249
G01 X24.0532 Y59.3249
G01 X24.0906 Y59.3500
G01 X24.1547 Y59.3884
G01 X24.2206 Y59.4236
G01 X24.2882 Y59.4556
G01 X24.3573 Y59.4842
G01 X24.4277 Y59.5094
G01 X24.4992 Y59.5311
G01 X24.5717 Y59.5492
G01 X24.6450 Y59.5638
G01 X24.7189 Y59.5748
G01 X24.7933 Y59.5821
G01 X24.8680 Y59.5858
G01 X24.9427 Y59.5858
G01 X25.0174 Y59.5821
G01 X25.0917 Y59.5748
G01 X25.1657 Y59.5638
G01 X25.2390 Y59.5492
G01 X25.3115 Y59.5311
G01 X25.3830 Y59.5094
G01 X25.4534 Y59.4842
G01 X25.5224 Y59.4556
G01 X25.5900 Y59.4236
G01 X25.6559 Y59.3884
G01 X25.7201 Y59.3500
G01 X25.7822 Y59.3084
G01 X25.8423 Y59.2639
G01 X25.9000 Y59.2165
G01 X25.9554 Y59.1663
G01 X26.0082 Y59.1135
G01 X26.0585 Y59.0580
G01 X26.1059 Y59.0003
G01 X26.1504 Y58.9402
G01 X26.1919 Y58.8781
G01 X26.2303 Y58.8140
G01 X26.2656 Y58.7481
G01 X26.2975 Y58.6805
G01 X26.3261 Y58.6115
G01 X26.3513 Y58.5411
G01 X26.3730 Y58.4696
G01 X26.3912 Y58.3970
G01 X26.4058 Y58.3237
G01 X26.4167 Y58.2498
G01 X26.4241 Y58.1754
G01 X26.4277 Y58.1007
G01 X26.4277 Y58.0260
G01 X26.4241 Y57.9513
G01 X26.4167 Y57.8770
G01 X26.4058 Y57.8030
G01 X26.3912 Y57.7297
G01 X26.3730 Y57.6572
G01 X26.3513 Y57.5857
G01 X26.3261 Y57.5153
G01 X26.2975 Y57.4463
G01 X26.2656 Y57.3787
G01 X26.2303 Y57.3128
G01 X26.1919 Y57.2487
G01 X26.1504 Y57.1865
G01 X26.1059 Y57.1265
G01 X26.0585 Y57.0687
G01 X26.0082 Y57.0133
G01 X25.9554 Y56.9605
G01 X25.9000 Y56.9103
G01 X25.8423 Y56.8629
G01 X25.7822 Y56.8183
G01 X25.7322 Y56.7849
G01 X25.9636 Y56.7849
G01 X25.9800 Y56.8307
G01 X26.0119 Y56.8983
G01 X26.0503 Y56.9623
G01 X26.0948 Y57.0223
G01 X26.1450 Y57.0777
G01 X26.2004 Y57.1279
G01 X26.2604 Y57.1724
G01 X26.3245 Y57.2108
G01 X26.3920 Y57.2427
G01 X26.4623 Y57.2679
G01 X26.5348 Y57.2861
G01 X26.6087 Y57.2970
G01 X26.6833 Y57.3007
G01 X28.2073 Y57.3007
G01 X28.2820 Y57.2970
G01 X28.3559 Y57.2861
G01 X28.4283 Y57.2679
G01 X28.4987 Y57.2427
G01 X28.5662 Y57.2108
G01 X28.6303 Y57.1724
G01 X28.6903 Y57.1279
G01 X28.7153 Y57.1052
G01 X28.7238 Y57.1128
G01 X28.7238 Y59.7512
G01 X28.6988 Y59.7887
G01 X28.6603 Y59.8528
G01 X28.6251 Y59.9187
G01 X28.5931 Y59.9863
G01 X28.5645 Y60.0553
G01 X28.5394 Y60.1257
G01 X28.5177 Y60.1972
G01 X28.4995 Y60.2697
G01 X28.4849 Y60.3430
G01 X28.4740 Y60.4170
G01 X28.4666 Y60.4913
G01 X28.4630 Y60.5660
G01 X28.4630 Y60.6407
G01 X28.4666 Y60.7154
G01 X28.4740 Y60.7898
G01 X28.4849 Y60.8637
G01 X28.4995 Y60.9370
G01 X28.5177 Y61.0096
G01 X28.5394 Y61.0811
G01 X28.5645 Y61.1515
G01 X28.5931 Y61.2205
G01 X28.6251 Y61.2881
G01 X28.6603 Y61.3540
G01 X28.6988 Y61.4181
G01 X28.7403 Y61.4802
G01 X28.7848 Y61.5403
G01 X28.8322 Y61.5980
G01 X28.8824 Y61.6535
G01 X28.9353 Y61.7063
G01 X28.9907 Y61.7565
G01 X29.0484 Y61.8039
G01 X29.1085 Y61.8484
G01 X29.1706 Y61.8900
G01 X29.2347 Y61.9284
G01 X29.3006 Y61.9636
G01 X29.3682 Y61.9956
G01 X29.4373 Y62.0242
G01 X29.5077 Y62.0494
G01 X29.5792 Y62.0711
G01 X29.6517 Y62.0892
G01 X29.7250 Y62.1038
G01 X29.7989 Y62.1148
G01 X29.8733 Y62.1221
G01 X29.9480 Y62.1258
G01 X30.0227 Y62.1258
G01 X30.0974 Y62.1221
G01 X30.1717 Y62.1148
G01 X30.2457 Y62.1038
G01 X30.3190 Y62.0892
G01 X30.3915 Y62.0711
G01 X30.4630 Y62.0494
G01 X30.5334 Y62.0242
G01 X30.6024 Y61.9956
G01 X30.6700 Y61.9636
G01 X30.7359 Y61.9284
G01 X30.8001 Y61.8900
G01 X30.8622 Y61.8484
G01 X30.9223 Y61.8039
G01 X30.9800 Y61.7565
G01 X31.0354 Y61.7063
G01 X31.0882 Y61.6535
G01 X31.1385 Y61.5980
G01 X31.1859 Y61.5403
G01 X31.2304 Y61.4802
G01 X31.2638 Y61.4303
G01 X31.2638 Y63.1434
G01 X31.2647 Y63.1807
G01 X31.2671 Y63.2298
G01 X31.2744 Y63.3041
G01 X31.2816 Y63.3527
G01 X31.2962 Y63.4260
G01 X31.3081 Y63.4736
G01 X31.3298 Y63.5451
G01 X31.3464 Y63.5913
G01 X31.3750 Y63.6603
G01 X31.3960 Y63.7047
G01 X31.4312 Y63.7706
G01 X31.4564 Y63.8127
G01 X31.4979 Y63.8748
G01 X31.5272 Y63.9142
G01 X31.5746 Y63.9720
G01 X31.6075 Y64.0084
G01 X31.6604 Y64.0612
G01 X31.6967 Y64.0942
G01 X31.7545 Y64.1416
G01 X31.7939 Y64.1708
G01 X31.8560 Y64.2123
G01 X31.8981 Y64.2376
G01 X31.9640 Y64.2728
G01 X32.0084 Y64.2938
G01 X32.0774 Y64.3223
G01 X32.1237 Y64.3389
G01 X32.1951 Y64.3606
G01 X32.2428 Y64.3725
G01 X32.3160 Y64.3871
G01 X32.3646 Y64.3943
G01 X32.4390 Y64.4016
G01 X32.4880 Y64.4040
G01 X32.5253 Y64.4049
G01 X34.2385 Y64.4049
G01 X34.2132 Y64.4218
G01 X28.2975 Y64.4218
G01 X28.2601 Y64.3968
G01 X28.1959 Y64.3584
G01 X28.1300 Y64.3232
G01 X28.0624 Y64.2912
G01 X27.9934 Y64.2626
G01 X27.9230 Y64.2374
G01 X27.8515 Y64.2157
G01 X27.7790 Y64.1975
G01 X27.7057 Y64.1830
G01 X27.6317 Y64.1720
G01 X27.5574 Y64.1647
G01 X27.4827 Y64.1610
G01 X27.4080 Y64.1610
G01 X27.3333 Y64.1647
G01 X27.2589 Y64.1720
G01 X27.1850 Y64.1830
G01 X27.1117 Y64.1975
G01 X27.0392 Y64.2157
G01 X26.9677 Y64.2374
G01 X26.8973 Y64.2626
G01 X26.8282 Y64.2912
G01 X26.7606 Y64.3232
G01 X26.6947 Y64.3584
G01 X26.6306 Y64.3968
G01 X26.5685 Y64.4383
G01 X26.5084 Y64.4829
G01 X26.4507 Y64.5303
G01 X26.3953 Y64.5805
G01 X26.3424 Y64.6333
G01 X26.2922 Y64.6887
G01 X26.2448 Y64.7465
G01 X26.2003 Y64.8065
G01 X26.1669 Y64.8565
G01 X26.1669 Y63.1434
G01 X26.1660 Y63.1060
G01 X26.1636 Y63.0570
G01 X26.1562 Y62.9826
G01 X26.1490 Y62.9341
G01 X26.1345 Y62.8608
G01 X26.1225 Y62.8132
G01 X26.1008 Y62.7417
G01 X26.0843 Y62.6955
G01 X26.0557 Y62.6265
G01 X26.0347 Y62.5821
G01 X25.9995 Y62.5162
G01 X25.9743 Y62.4741
G01 X25.9328 Y62.4120
G01 X25.9035 Y62.3725
G01 X25.8561 Y62.3148
G01 X25.8232 Y62.2784
G01 X25.7703 Y62.2256
G01 X25.7339 Y62.1926
G01 X25.6762 Y62.1452
G01 X25.6368 Y62.1160
G01 X25.5746 Y62.0745
G01 X25.5325 Y62.0492
G01 X25.4667 Y62.0140
G01 X25.4223 Y61.9930
G01 X25.3532 Y61.9644
G01 X25.3070 Y61.9479
G01 X25.2355 Y61.9262
G01 X25.1879 Y61.9143
G01 X25.1146 Y61.8997
G01 X25.0661 Y61.8925
G01 X24.9917 Y61.8852
G01 X24.9427 Y61.8828
G01 X24.9053 Y61.8818
G01 X23.1922 Y61.8818
G00 Z2.0000
G00 X23.6438 Y64.8565
G01 F60.00
G01 Z-0.2001
G01 F320.00
G01 X23.6104 Y64.8065
G01 X23.5659 Y64.7465
G01 X23.5185 Y64.6887
G01 X23.4682 Y64.6333
G01 X23.4154 Y64.5805
G01 X23.3600 Y64.5303
G01 X23.3023 Y64.4829
G01 X23.2422 Y64.4383
G01 X23.1922 Y64.4049
G01 X23.6438 Y64.4049
G01 X23.6438 Y64.8565
G00 Z2.0000
G00 X23.6438 Y67.3965
G01 F60.00
G01 Z-0.2001
G01 F320.00
G01 X23.6269 Y67.3712
G01 X23.6269 Y66.5356
G01 X23.6438 Y66.5103
G01 X23.6438 Y67.3965
G00 Z2.0000
G00 X26.1669 Y66.5103
G01 F60.00
G01 Z-0.2001
G01 F320.00
G01 X26.2003 Y66.5602
G01 X26.2448 Y66.6203
G01 X26.2922 Y66.6780
G01 X26.3424 Y66.7335
G01 X26.3953 Y66.7863
G01 X26.4507 Y66.8365
G01 X26.5084 Y66.8839
G01 X26.5685 Y66.9284
G01 X26.6058 Y66.9534
G01 X26.5685 Y66.9783
G01 X26.5084 Y67.0229
G01 X26.4507 Y67.0703
G01 X26.3953 Y67.1205
G01 X26.3424 Y67.1733
G01 X26.2922 Y67.2287
G01 X26.2448 Y67.2865
G01 X26.2003 Y67.3465
G01 X26.1669 Y67.3965
G01 X26.1669 Y66.5103
G00 Z2.0000
G00 X26.1669 Y69.0503
G01 F60.00
G01 Z-0.2001
G01 F320.00
G01 X26.2003 Y69.1002
G01 X26.2448 Y69.1603
G01 X26.2922 Y69.2180
G01 X26.3424 Y69.2735
G01 X26.3953 Y69.3263
G01 X26.4507 Y69.3765
G01 X26.5084 Y69.4239
G01 X26.5685 Y69.4684
G01 X26.6058 Y69.4934
G01 X26.5932 Y69.5018
G01 X26.1669 Y69.5018
G01 X26.1669 Y69.0503
G00 Z2.0000
G00 X28.2849 Y69.4934
G01 F60.00
G01 Z-0.2001
G01 F320.00
G01 X28.3222 Y69.4684
G01 X28.3823 Y69.4239
G01 X28.4400 Y69.3765
G01 X28.4954 Y69.3263
G01 X28.5482 Y69.2735
G01 X28.5985 Y69.2180
G01 X28.6459 Y69.1603
G01 X28.6904 Y69.1002
G01 X28.7319 Y69.0381
G01 X28.7703 Y68.9740
G01 X28.8056 Y68.9081
G01 X28.8375 Y68.8405
G01 X28.8661 Y68.7715
G01 X28.8913 Y68.7011
G01 X28.9130 Y68.6296
G01 X28.9312 Y68.5570
G01 X28.9458 Y68.4837
G01 X28.9567 Y68.4098
G01 X28.9641 Y68.3354
G01 X28.9677 Y68.2607
G01 X28.9677 Y68.1860
G01 X28.9641 Y68.1113
G01 X28.9567 Y68.0370
G01 X28.9458 Y67.9630
G01 X28.9312 Y67.8897
G01 X28.9130 Y67.8172
G01 X28.8913 Y67.7457
G01 X28.8661 Y67.6753
G01 X28.8375 Y67.6063
G01 X28.8056 Y67.5387
G01 X28.7703 Y67.4728
G01 X28.7319 Y67.4087
G01 X28.6904 Y67.3465
G01 X28.6459 Y67.2865
G01 X28.5985 Y67.2287
G01 X28.5482 Y67.1733
G01 X28.4954 Y67.1205
G01 X28.4400 Y67.0703
G01 X28.3823 Y67.0229
G01 X28.3222 Y66.9783
G01 X28.2849 Y66.9534
G01 X28.2975 Y66.9449
G01 X33.8038 Y66.9449
G01 X33.8038 Y67.3712
G01 X33.7788 Y67.4087
G01 X33.7403 Y67.4728
G01 X33.7051 Y67.5387
G01 X33.6731 Y67.6063
G01 X33.6445 Y67.6753
G01 X33.6194 Y67.7457
G01 X33.5977 Y67.8172
G01 X33.5795 Y67.8897
G01 X33.5649 Y67.9630
G01 X33.5540 Y68.0370
G01 X33.5466 Y68.1113
G01 X33.5430 Y68.1860
G01 X33.5430 Y68.2607
G01 X33.5466 Y68.3354
G01 X33.5540 Y68.4098
G01 X33.5649 Y68.4837
G01 X33.5795 Y68.5570
G01 X33.5977 Y68.6296
G01 X33.6194 Y68.7011
G01 X33.6445 Y68.7715
G01 X33.6731 Y68.8405
G01 X33.7051 Y68.9081
G01 X33.7403 Y68.9740
G01 X33.7788 Y69.0381
G01 X33.8203 Y69.1002
G01 X33.8648 Y69.1603
G01 X33.9122 Y69.2180
G01 X33.9624 Y69.2735
G01 X34.0153 Y69.3263
G01 X34.0707 Y69.3765
G01 X34.1284 Y69.4239
G01 X34.1885 Y69.4684
G01 X34.2506 Y69.5100
G01 X34.3147 Y69.5484
G01 X34.3806 Y69.5836
G01 X34.4482 Y69.6156
G01 X34.5173 Y69.6442
G01 X34.5877 Y69.6694
G01 X34.6592 Y69.6911
G01 X34.7317 Y69.7092
G01 X34.8050 Y69.7238
G01 X34.8789 Y69.7348
G01 X34.9533 Y69.7421
G01 X35.0280 Y69.7458
G01 X35.1027 Y69.7458
G01 X35.1774 Y69.7421
G01 X35.2517 Y69.7348
G01 X35.3257 Y69.7238
G01 X35.3990 Y69.7092
G01 X35.4715 Y69.6911
G01 X35.5430 Y69.6694
G01 X35.6134 Y69.6442
G01 X35.6824 Y69.6156
G01 X35.7500 Y69.5836
G01 X35.8159 Y69.5484
G01 X35.8801 Y69.5100
G01 X35.9422 Y69.4684
G01 X36.0023 Y69.4239
G01 X36.0600 Y69.3765
G01 X36.1154 Y69.3263
G01 X36.1682 Y69.2735
G01 X36.2185 Y69.2180
G01 X36.2659 Y69.1603
G01 X36.3104 Y69.1002
G01 X36.3438 Y69.0503
G01 X36.3438 Y70.7634
G01 X36.3447 Y70.8007
G01 X36.3471 Y70.8498
G01 X36.3544 Y70.9241
G01 X36.3616 Y70.9727
G01 X36.3762 Y71.0460
G01 X36.3881 Y71.0936
G01 X36.4098 Y71.1651
G01 X36.4264 Y71.2113
G01 X36.4550 Y71.2803
G01 X36.4760 Y71.3247
G01 X36.5112 Y71.3906
G01 X36.5364 Y71.4327
G01 X36.5779 Y71.4948
G01 X36.6072 Y71.5342
G01 X36.6546 Y71.5920
G01 X36.6875 Y71.6284
G01 X36.7404 Y71.6812
G01 X36.7767 Y71.7142
G01 X36.8345 Y71.7616
G01 X36.8739 Y71.7908
G01 X36.9360 Y71.8323
G01 X36.9781 Y71.8576
G01 X37.0440 Y71.8928
G01 X37.0884 Y71.9138
G01 X37.1574 Y71.9423
G01 X37.2037 Y71.9589
G01 X37.2751 Y71.9806
G01 X37.3228 Y71.9925
G01 X37.3960 Y72.0071
G01 X37.4446 Y72.0143
G01 X37.5190 Y72.0216
G01 X37.5680 Y72.0240
G01 X37.6053 Y72.0249
G01 X39.2932 Y72.0249
G01 X39.3058 Y72.0334
G01 X39.2685 Y72.0583
G01 X39.2084 Y72.1029
G01 X39.1507 Y72.1503
G01 X39.0953 Y72.2005
G01 X39.0424 Y72.2533
G01 X38.9922 Y72.3087
G01 X38.9448 Y72.3665
G01 X38.9003 Y72.4265
G01 X38.8588 Y72.4887
G01 X38.8203 Y72.5528
G01 X38.7851 Y72.6187
G01 X38.7531 Y72.6863
G01 X38.7245 Y72.7553
G01 X38.6994 Y72.8257
G01 X38.6777 Y72.8972
G01 X38.6595 Y72.9697
G01 X38.6449 Y73.0430
G01 X38.6340 Y73.1170
G01 X38.6266 Y73.1913
G01 X38.6230 Y73.2660
G01 X38.6230 Y73.3407
G01 X38.6266 Y73.4154
G01 X38.6340 Y73.4898
G01 X38.6449 Y73.5637
G01 X38.6595 Y73.6370
G01 X38.6777 Y73.7096
G01 X38.6994 Y73.7811
G01 X38.7245 Y73.8515
G01 X38.7531 Y73.9205
G01 X38.7851 Y73.9881
G01 X38.8203 Y74.0540
G01 X38.8588 Y74.1181
G01 X38.9003 Y74.1802
G01 X38.9448 Y74.2403
G01 X38.9922 Y74.2980
G01 X39.0424 Y74.3535
G01 X39.0953 Y74.4063
G01 X39.1507 Y74.4565
G01 X39.2084 Y74.5039
G01 X39.2685 Y74.5484
G01 X39.3306 Y74.5900
G01 X39.3947 Y74.6284
G01 X39.4606 Y74.6636
G01 X39.5282 Y74.6956
G01 X39.5973 Y74.7242
G01 X39.6677 Y74.7494
G01 X39.7392 Y74.7711
G01 X39.8117 Y74.7892
G01 X39.8850 Y74.8038
G01 X39.9589 Y74.8148
G01 X40.0333 Y74.8221
G01 X40.1080 Y74.8258
G01 X40.1827 Y74.8258
G01 X40.2574 Y74.8221
G01 X40.3317 Y74.8148
G01 X40.4057 Y74.8038
G01 X40.4790 Y74.7892
G01 X40.5515 Y74.7711
G01 X40.6230 Y74.7494
G01 X40.6934 Y74.7242
G01 X40.7624 Y74.6956
G01 X40.8300 Y74.6636
G01 X40.8959 Y74.6284
G01 X40.9601 Y74.5900
G01 X40.9975 Y74.5649
G01 X41.4238 Y74.5649
G01 X41.4238 Y76.7939
G01 X41.4153 Y76.8016
G01 X41.3903 Y76.7789
G01 X41.3303 Y76.7344
G01 X41.2662 Y76.6960
G01 X41.1987 Y76.6640
G01 X41.1283 Y76.6389
G01 X41.0559 Y76.6207
G01 X40.9820 Y76.6098
G01 X40.9073 Y76.6061
G01 X39.3833 Y76.6061
G01 X39.3087 Y76.6098
G01 X39.2348 Y76.6207
G01 X39.1623 Y76.6389
G01 X39.0920 Y76.6640
G01 X39.0245 Y76.6960
G01 X38.9604 Y76.7344
G01 X38.9004 Y76.7789
G01 X38.8450 Y76.8291
G01 X38.7949 Y76.8844
G01 X38.7503 Y76.9444
G01 X38.7119 Y77.0085
G01 X38.6800 Y77.0760
G01 X38.6636 Y77.1218
G01 X35.9175 Y77.1218
G01 X35.8801 Y77.0968
G01 X35.8159 Y77.0584
G01 X35.7500 Y77.0232
G01 X35.6824 Y76.9912
G01 X35.6134 Y76.9626
G01 X35.5430 Y76.9374
G01 X35.4715 Y76.9157
G01 X35.3990 Y76.8975
G01 X35.3257 Y76.8830
G01 X35.2517 Y76.8720
G01 X35.1774 Y76.8647
G01 X35.1027 Y76.8610
G01 X35.0280 Y76.8610
G01 X34.9533 Y76.8647
G01 X34.8789 Y76.8720
G01 X34.8050 Y76.8830
G01 X34.7317 Y76.8975
G01 X34.6592 Y76.9157
G01 X34.5877 Y76.9374
G01 X34.5173 Y76.9626
G01 X34.4482 Y76.9912
G01 X34.3806 Y77.0232
G01 X34.3147 Y77.0584
G01 X34.2506 Y77.0968
G01 X34.1885 Y77.1383
G01 X34.1284 Y77.1829
G01 X34.0707 Y77.2303
G01 X34.0153 Y77.2805
G01 X33.9624 Y77.3333
G01 X33.9122 Y77.3887
G01 X33.8648 Y77.4465
G01 X33.8203 Y77.5065
G01 X33.7869 Y77.5565
G01 X33.7869 Y70.7634
G01 X33.7860 Y70.7260
G01 X33.7836 Y70.6770
G01 X33.7762 Y70.6026
G01 X33.7690 Y70.5541
G01 X33.7545 Y70.4808
G01 X33.7425 Y70.4332
G01 X33.7208 Y70.3617
G01 X33.7043 Y70.3155
G01 X33.6757 Y70.2465
G01 X33.6547 Y70.2021
G01 X33.6195 Y70.1362
G01 X33.5943 Y70.0941
G01 X33.5528 Y70.0320
G01 X33.5235 Y69.9925
G01 X33.4761 Y69.9348
G01 X33.4432 Y69.8984
G01 X33.3903 Y69.8456
G01 X33.3539 Y69.8126
G01 X33.2962 Y69.7652
G01 X33.2568 Y69.7360
G01 X33.1946 Y69.6945
G01 X33.1525 Y69.6692
G01 X33.0867 Y69.6340
G01 X33.0423 Y69.6130
G01 X32.9732 Y69.5844
G01 X32.9270 Y69.5679
G01 X32.8555 Y69.5462
G01 X32.8079 Y69.5343
G01 X32.7346 Y69.5197
G01 X32.6861 Y69.5125
G01 X32.6117 Y69.5052
G01 X32.5627 Y69.5028
G01 X32.5253 Y69.5018
G01 X28.2975 Y69.5018
G01 X28.2849 Y69.4934
G00 Z2.0000
G00 X28.2849 Y72.0334
G01 F60.00
G01 Z-0.2001
G01 F320.00
G01 X28.2975 Y72.0249
G01 X31.2638 Y72.0249
G01 X31.2638 Y76.8092
G01 X31.2469 Y76.7939
G01 X31.2469 Y73.3034
G01 X31.2460 Y73.2660
G01 X31.2436 Y73.2170
G01 X31.2362 Y73.1426
G01 X31.2290 Y73.0941
G01 X31.2145 Y73.0208
G01 X31.2025 Y72.9732
G01 X31.1808 Y72.9017
G01 X31.1643 Y72.8555
G01 X31.1357 Y72.7865
G01 X31.1147 Y72.7421
G01 X31.0795 Y72.6762
G01 X31.0543 Y72.6341
G01 X31.0128 Y72.5720
G01 X30.9835 Y72.5325
G01 X30.9361 Y72.4748
G01 X30.9032 Y72.4384
G01 X30.8503 Y72.3856
G01 X30.8139 Y72.3526
G01 X30.7562 Y72.3052
G01 X30.7168 Y72.2760
G01 X30.6546 Y72.2345
G01 X30.6125 Y72.2092
G01 X30.5467 Y72.1740
G01 X30.5023 Y72.1530
G01 X30.4332 Y72.1244
G01 X30.3870 Y72.1079
G01 X30.3155 Y72.0862
G01 X30.2679 Y72.0743
G01 X30.1946 Y72.0597
G01 X30.1461 Y72.0525
G01 X30.0717 Y72.0452
G01 X30.0227 Y72.0428
G01 X29.9853 Y72.0418
G01 X28.2975 Y72.0418
G01 X28.2849 Y72.0334
G00 Z2.0000
G00 X31.2638 Y79.9575
G01 F60.00
G01 Z-0.2001
G01 F320.00
G01 X31.2638 Y82.6365
G01 X31.2469 Y82.6112
G01 X31.2469 Y79.9728
G01 X31.2638 Y79.9575
G00 Z2.0000
G00 X33.7869 Y80.0965
G01 F60.00
G01 Z-0.2001
G01 F320.00
G01 X33.7869 Y79.2103
G01 X33.8203 Y79.2602
G01 X33.8648 Y79.3203
G01 X33.9122 Y79.3780
G01 X33.9624 Y79.4335
G01 X34.0153 Y79.4863
G01 X34.0707 Y79.5365
G01 X34.1284 Y79.5839
G01 X34.1885 Y79.6284
G01 X34.2258 Y79.6534
G01 X34.1885 Y79.6783
G01 X34.1284 Y79.7229
G01 X34.0707 Y79.7703
G01 X34.0153 Y79.8205
G01 X33.9624 Y79.8733
G01 X33.9122 Y79.9287
G01 X33.8648 Y79.9865
G01 X33.8203 Y80.0465
G01 X33.7869 Y80.0965
G00 Z2.0000
G00 X35.9049 Y79.6534
G01 F60.00
G01 Z-0.2001
G01 F320.00
G01 X35.9175 Y79.6449
G01 X36.7785 Y79.6449
G01 X36.7532 Y79.6618
G01 X35.9175 Y79.6618
G01 X35.9049 Y79.6534
G00 Z2.0000
G00 X33.7869 Y82.6365
G01 F60.00
G01 Z-0.2001
G01 F320.00
G01 X33.7869 Y81.7503
G01 X33.8038 Y81.7756
G01 X33.8038 Y82.6112
G01 X33.7869 Y82.6365
G00 Z2.0000
G00 X43.9638 Y84.2903
G01 F60.00
G01 Z-0.2001
G01 F320.00
G01 X43.9638 Y93.6234
G01 X43.9647 Y93.6607
G01 X43.9671 Y93.7098
G01 X43.9744 Y93.7841
G01 X43.9816 Y93.8327
G01 X43.9962 Y93.9060
G01 X44.0081 Y93.9536
G01 X44.0298 Y94.0251
G01 X44.0464 Y94.0713
G01 X44.0750 Y94.1403
G01 X44.0960 Y94.1847
G01 X44.1312 Y94.2506
G01 X44.1564 Y94.2927
G01 X44.1979 Y94.3548
G01 X44.2272 Y94.3942
G01 X44.2746 Y94.4520
G01 X44.3075 Y94.4884
G01 X44.3604 Y94.5412
G01 X44.3967 Y94.5742
G01 X44.4545 Y94.6216
G01 X44.4939 Y94.6508
G01 X44.5560 Y94.6923
G01 X44.5981 Y94.7176
G01 X44.6640 Y94.7528
G01 X44.7084 Y94.7738
G01 X44.7774 Y94.8023
G01 X44.8237 Y94.8189
G01 X44.8951 Y94.8406
G01 X44.9428 Y94.8525
G01 X45.0160 Y94.8671
G01 X45.0646 Y94.8743
G01 X45.1390 Y94.8816
G01 X45.1880 Y94.8840
G01 X45.2253 Y94.8849
G01 X54.5585 Y94.8849
G01 X54.5332 Y94.9018
G01 X33.7869 Y94.9018
G01 X33.7869 Y84.2903
G01 X33.8203 Y84.3402
G01 X33.8648 Y84.4003
G01 X33.9122 Y84.4580
G01 X33.9624 Y84.5135
G01 X34.0153 Y84.5663
G01 X34.0707 Y84.6165
G01 X34.1284 Y84.6639
G01 X34.1885 Y84.7084
G01 X34.2506 Y84.7500
G01 X34.3147 Y84.7884
G01 X34.3806 Y84.8236
G01 X34.4482 Y84.8556
G01 X34.5173 Y84.8842
G01 X34.5877 Y84.9094
G01 X34.6592 Y84.9311
G01 X34.7317 Y84.9492
G01 X34.8050 Y84.9638
G01 X34.8789 Y84.9748
G01 X34.9533 Y84.9821
G01 X35.0280 Y84.9858
G01 X35.1027 Y84.9858
G01 X35.1774 Y84.9821
G01 X35.2517 Y84.9748
G01 X35.3257 Y84.9638
G01 X35.3990 Y84.9492
G01 X35.4715 Y84.9311
G01 X35.5430 Y84.9094
G01 X35.6134 Y84.8842
G01 X35.6824 Y84.8556
G01 X35.7500 Y84.8236
G01 X35.8159 Y84.7884
G01 X35.8801 Y84.7500
G01 X35.9422 Y84.7084
G01 X36.0023 Y84.6639
G01 X36.0600 Y84.6165
G01 X36.1154 Y84.5663
G01 X36.1682 Y84.5135
G01 X36.2185 Y84.4580
G01 X36.2659 Y84.4003
G01 X36.3104 Y84.3402
G01 X36.3519 Y84.2781
G01 X36.3903 Y84.2140
G01 X36.4256 Y84.1481
G01 X36.4575 Y84.0805
G01 X36.4861 Y84.0115
G01 X36.5113 Y83.9411
G01 X36.5330 Y83.8696
G01 X36.5512 Y83.7970
G01 X36.5658 Y83.7237
G01 X36.5767 Y83.6498
G01 X36.5841 Y83.5754
G01 X36.5877 Y83.5007
G01 X36.5877 Y83.4260
G01 X36.5841 Y83.3513
G01 X36.5767 Y83.2770
G01 X36.5658 Y83.2030
G01 X36.5512 Y83.1297
G01 X36.5330 Y83.0572
G01 X36.5113 Y82.9857
G01 X36.4861 Y82.9153
G01 X36.4575 Y82.8463
G01 X36.4256 Y82.7787
G01 X36.3903 Y82.7128
G01 X36.3519 Y82.6487
G01 X36.3269 Y82.6112
G01 X36.3269 Y82.1849
G01 X36.7532 Y82.1849
G01 X36.7906 Y82.2100
G01 X36.8547 Y82.2484
G01 X36.9206 Y82.2836
G01 X36.9882 Y82.3156
G01 X37.0573 Y82.3442
G01 X37.1277 Y82.3694
G01 X37.1992 Y82.3911
G01 X37.2717 Y82.4092
G01 X37.3450 Y82.4238
G01 X37.4189 Y82.4348
G01 X37.4933 Y82.4421
G01 X37.5680 Y82.4458
G01 X37.6427 Y82.4458
G01 X37.7174 Y82.4421
G01 X37.7917 Y82.4348
G01 X37.8657 Y82.4238
G01 X37.9390 Y82.4092
G01 X38.0115 Y82.3911
G01 X38.0830 Y82.3694
G01 X38.1534 Y82.3442
G01 X38.2224 Y82.3156
G01 X38.2900 Y82.2836
G01 X38.3559 Y82.2484
G01 X38.4201 Y82.2100
G01 X38.4822 Y82.1684
G01 X38.5423 Y82.1239
G01 X38.6000 Y82.0765
G01 X38.6554 Y82.0263
G01 X38.7082 Y81.9735
G01 X38.7585 Y81.9180
G01 X38.8059 Y81.8603
G01 X38.8504 Y81.8002
G01 X38.8919 Y81.7381
G01 X38.9303 Y81.6740
G01 X38.9656 Y81.6081
G01 X38.9975 Y81.5405
G01 X39.0261 Y81.4715
G01 X39.0513 Y81.4011
G01 X39.0730 Y81.3296
G01 X39.0912 Y81.2570
G01 X39.1058 Y81.1837
G01 X39.1167 Y81.1098
G01 X39.1241 Y81.0354
G01 X39.1277 Y80.9607
G01 X39.1277 Y80.8860
G01 X39.1241 Y80.8113
G01 X39.1167 Y80.7370
G01 X39.1058 Y80.6630
G01 X39.0912 Y80.5897
G01 X39.0730 Y80.5172
G01 X39.0513 Y80.4457
G01 X39.0261 Y80.3753
G01 X38.9975 Y80.3063
G01 X38.9656 Y80.2387
G01 X38.9303 Y80.1728
G01 X38.8919 Y80.1087
G01 X38.8504 Y80.0465
G01 X38.8059 Y79.9865
G01 X38.7585 Y79.9287
G01 X38.7082 Y79.8733
G01 X38.6554 Y79.8205
G01 X38.6000 Y79.7703
G01 X38.5423 Y79.7229
G01 X38.4822 Y79.6783
G01 X38.4322 Y79.6449
G01 X38.6636 Y79.6449
G01 X38.6800 Y79.6907
G01 X38.7119 Y79.7583
G01 X38.7503 Y79.8223
G01 X38.7948 Y79.8823
G01 X38.8450 Y79.9377
G01 X38.9004 Y79.9879
G01 X38.9604 Y80.0324
G01 X39.0245 Y80.0708
G01 X39.0920 Y80.1027
G01 X39.1623 Y80.1279
G01 X39.2348 Y80.1461
G01 X39.3087 Y80.1570
G01 X39.3833 Y80.1607
G01 X40.9073 Y80.1607
G01 X40.9820 Y80.1570
G01 X41.0559 Y80.1461
G01 X41.1283 Y80.1279
G01 X41.1987 Y80.1027
G01 X41.2662 Y80.0708
G01 X41.3303 Y80.0324
G01 X41.3903 Y79.9879
G01 X41.4153 Y79.9652
G01 X41.4238 Y79.9728
G01 X41.4238 Y82.6112
G01 X41.3988 Y82.6487
G01 X41.3603 Y82.7128
G01 X41.3251 Y82.7787
G01 X41.2931 Y82.8463
G01 X41.2645 Y82.9153
G01 X41.2394 Y82.9857
G01 X41.2177 Y83.0572
G01 X41.1995 Y83.1297
G01 X41.1849 Y83.2030
G01 X41.1740 Y83.2770
G01 X41.1666 Y83.3513
G01 X41.1630 Y83.4260
G01 X41.1630 Y83.5007
G01 X41.1666 Y83.5754
G01 X41.1740 Y83.6498
G01 X41.1849 Y83.7237
G01 X41.1995 Y83.7970
G01 X41.2177 Y83.8696
G01 X41.2394 Y83.9411
G01 X41.2645 Y84.0115
G01 X41.2931 Y84.0805
G01 X41.3251 Y84.1481
G01 X41.3603 Y84.2140
G01 X41.3988 Y84.2781
G01 X41.4403 Y84.3402
G01 X41.4848 Y84.4003
G01 X41.5322 Y84.4580
G01 X41.5824 Y84.5135
G01 X41.6353 Y84.5663
G01 X41.6907 Y84.6165
G01 X41.7484 Y84.6639
G01 X41.8085 Y84.7084
G01 X41.8706 Y84.7500
G01 X41.9347 Y84.7884
G01 X42.0006 Y84.8236
G01 X42.0682 Y84.8556
G01 X42.1373 Y84.8842
G01 X42.2077 Y84.9094
G01 X42.2792 Y84.9311
G01 X42.3517 Y84.9492
G01 X42.4250 Y84.9638
G01 X42.4989 Y84.9748
G01 X42.5733 Y84.9821
G01 X42.6480 Y84.9858
G01 X42.7227 Y84.9858
G01 X42.7974 Y84.9821
G01 X42.8717 Y84.9748
G01 X42.9457 Y84.9638
G01 X43.0190 Y84.9492
G01 X43.0915 Y84.9311
G01 X43.1630 Y84.9094
G01 X43.2334 Y84.8842
G01 X43.3024 Y84.8556
G01 X43.3700 Y84.8236
G01 X43.4359 Y84.7884
G01 X43.5001 Y84.7500
G01 X43.5622 Y84.7084
G01 X43.6223 Y84.6639
G01 X43.6800 Y84.6165
G01 X43.7354 Y84.5663
G01 X43.7882 Y84.5135
G01 X43.8385 Y84.4580
G01 X43.8859 Y84.4003
G01 X43.9304 Y84.3402
G01 X43.9638 Y84.2903
G00 Z2.0000
G00 X46.4869 Y82.6365
G01 F60.00
G01 Z-0.2001
G01 F320.00
G01 X46.4869 Y81.7503
G01 X46.5038 Y81.7756
G01 X46.5038 Y82.6112
G01 X46.4869 Y82.6365
G00 Z2.0000
G00 X46.4869 Y80.0965
G01 F60.00
G01 Z-0.2001
G01 F320.00
G01 X46.4869 Y79.2103
G01 X46.5203 Y79.2602
G01 X46.5648 Y79.3203
G01 X46.6122 Y79.3780
G01 X46.6624 Y79.4335
G01 X46.7153 Y79.4863
G01 X46.7707 Y79.5365
G01 X46.8284 Y79.5839
G01 X46.8885 Y79.6284
G01 X46.9258 Y79.6534
G01 X46.8885 Y79.6783
G01 X46.8284 Y79.7229
G01 X46.7707 Y79.7703
G01 X46.7153 Y79.8205
G01 X46.6624 Y79.8733
G01 X46.6122 Y79.9287
G01 X46.5648 Y79.9865
G01 X46.5203 Y80.0465
G01 X46.4869 Y80.0965
G00 Z2.0000
G00 X48.6049 Y79.6534
G01 F60.00
G01 Z-0.2001
G01 F320.00
G01 X48.6175 Y79.6449
G01 X49.4785 Y79.6449
G01 X49.4532 Y79.6618
G01 X48.6175 Y79.6618
G01 X48.6049 Y79.6534
G00 Z2.0000
G00 X43.9638 Y79.9575
G01 F60.00
G01 Z-0.2001
G01 F320.00
G01 X43.9638 Y82.6365
G01 X43.9469 Y82.6112
G01 X43.9469 Y79.9728
G01 X43.9638 Y79.9575
G00 Z2.0000
G00 X40.9849 Y72.0334
G01 F60.00
G01 Z-0.2001
G01 F320.00
G01 X40.9975 Y72.0249
G01 X43.9638 Y72.0249
G01 X43.9638 Y76.8092
G01 X43.9469 Y76.7939
G01 X43.9469 Y73.3034
G01 X43.9460 Y73.2660
G01 X43.9436 Y73.2170
G01 X43.9362 Y73.1426
G01 X43.9290 Y73.0941
G01 X43.9145 Y73.0208
G01 X43.9025 Y72.9732
G01 X43.8808 Y72.9017
G01 X43.8643 Y72.8555
G01 X43.8357 Y72.7865
G01 X43.8147 Y72.7421
G01 X43.7795 Y72.6762
G01 X43.7543 Y72.6341
G01 X43.7128 Y72.5720
G01 X43.6835 Y72.5325
G01 X43.6361 Y72.4748
G01 X43.6032 Y72.4384
G01 X43.5503 Y72.3856
G01 X43.5139 Y72.3526
G01 X43.4562 Y72.3052
G01 X43.4168 Y72.2760
G01 X43.3546 Y72.2345
G01 X43.3125 Y72.2092
G01 X43.2467 Y72.1740
G01 X43.2023 Y72.1530
G01 X43.1332 Y72.1244
G01 X43.0870 Y72.1079
G01 X43.0155 Y72.0862
G01 X42.9679 Y72.0743
G01 X42.8946 Y72.0597
G01 X42.8461 Y72.0525
G01 X42.7717 Y72.0452
G01 X42.7227 Y72.0428
G01 X42.6853 Y72.0418
G01 X40.9975 Y72.0418
G01 X40.9849 Y72.0334
G00 Z2.0000
G00 X38.8669 Y69.0503
G01 F60.00
G01 Z-0.2001
G01 F320.00
G01 X38.9003 Y69.1002
G01 X38.9448 Y69.1603
G01 X38.9922 Y69.2180
G01 X39.0424 Y69.2735
G01 X39.0953 Y69.3263
G01 X39.1507 Y69.3765
G01 X39.2084 Y69.4239
G01 X39.2685 Y69.4684
G01 X39.3058 Y69.4934
G01 X39.2932 Y69.5018
G01 X38.8669 Y69.5018
G01 X38.8669 Y69.0503
G00 Z2.0000
G00 X38.8669 Y66.5103
G01 F60.00
G01 Z-0.2001
G01 F320.00
G01 X38.9003 Y66.5602
G01 X38.9448 Y66.6203
G01 X38.9922 Y66.6780
G01 X39.0424 Y66.7335
G01 X39.0953 Y66.7863
G01 X39.1507 Y66.8365
G01 X39.2084 Y66.8839
G01 X39.2685 Y66.9284
G01 X39.3058 Y66.9534
G01 X39.2685 Y66.9783
G01 X39.2084 Y67.0229
G01 X39.1507 Y67.0703
G01 X39.0953 Y67.1205
G01 X39.0424 Y67.1733
G01 X38.9922 Y67.2287
G01 X38.9448 Y67.2865
G01 X38.9003 Y67.3465
G01 X38.8669 Y67.3965
G01 X38.8669 Y66.5103
G00 Z2.0000
G00 X40.9849 Y66.9534
G01 F60.00
G01 Z-0.2001
G01 F320.00
G01 X40.9975 Y66.9449
G01 X46.5038 Y66.9449
G01 X46.5038 Y67.3712
G01 X46.4788 Y67.4087
G01 X46.4403 Y67.4728
G01 X46.4051 Y67.5387
G01 X46.3731 Y67.6063
G01 X46.3445 Y67.6753
G01 X46.3194 Y67.7457
G01 X46.2977 Y67.8172
G01 X46.2795 Y67.8897
G01 X46.2649 Y67.9630
G01 X46.2540 Y68.0370
G01 X46.2466 Y68.1113
G01 X46.2430 Y68.1860
G01 X46.2430 Y68.2607
G01 X46.2466 Y68.3354
G01 X46.2540 Y68.4098
G01 X46.2649 Y68.4837
G01 X46.2795 Y68.5570
G01 X46.2977 Y68.6296
G01 X46.3194 Y68.7011
G01 X46.3445 Y68.7715
G01 X46.3731 Y68.8405
G01 X46.4051 Y68.9081
G01 X46.4403 Y68.9740
G01 X46.4788 Y69.0381
G01 X46.5203 Y69.1002
G01 X46.5648 Y69.1603
G01 X46.6122 Y69.2180
G01 X46.6624 Y69.2735
G01 X46.7153 Y69.3263
G01 X46.7707 Y69.3765
G01 X46.8284 Y69.4239
G01 X46.8885 Y69.4684
G01 X46.9506 Y69.5100
G01 X47.0147 Y69.5484
G01 X47.0806 Y69.5836
G01 X47.1482 Y69.6156
G01 X47.2173 Y69.6442
G01 X47.2877 Y69.6694
G01 X47.3592 Y69.6911
G01 X47.4317 Y69.7092
G01 X47.5050 Y69.7238
G01 X47.5789 Y69.7348
G01 X47.6533 Y69.7421
G01 X47.7280 Y69.7458
G01 X47.8027 Y69.7458
G01 X47.8774 Y69.7421
G01 X47.9517 Y69.7348
G01 X48.0257 Y69.7238
G01 X48.0990 Y69.7092
G01 X48.1715 Y69.6911
G01 X48.2430 Y69.6694
G01 X48.3134 Y69.6442
G01 X48.3824 Y69.6156
G01 X48.4500 Y69.5836
G01 X48.5159 Y69.5484
G01 X48.5801 Y69.5100
G01 X48.6422 Y69.4684
G01 X48.7023 Y69.4239
G01 X48.7600 Y69.3765
G01 X48.8154 Y69.3263
G01 X48.8682 Y69.2735
G01 X48.9185 Y69.2180
G01 X48.9659 Y69.1603
G01 X49.0104 Y69.1002
G01 X49.0438 Y69.0503
G01 X49.0438 Y70.7634
G01 X49.0447 Y70.8007
G01 X49.0471 Y70.8498
G01 X49.0544 Y70.9241
G01 X49.0616 Y70.9727
G01 X49.0762 Y71.0460
G01 X49.0881 Y71.0936
G01 X49.1098 Y71.1651
G01 X49.1264 Y71.2113
G01 X49.1550 Y71.2803
G01 X49.1760 Y71.3247
G01 X49.2112 Y71.3906
G01 X49.2364 Y71.4327
G01 X49.2779 Y71.4948
G01 X49.3072 Y71.5342
G01 X49.3546 Y71.5920
G01 X49.3875 Y71.6284
G01 X49.4404 Y71.6812
G01 X49.4767 Y71.7142
G01 X49.5345 Y71.7616
G01 X49.5739 Y71.7908
G01 X49.6360 Y71.8323
G01 X49.6781 Y71.8576
G01 X49.7440 Y71.8928
G01 X49.7884 Y71.9138
G01 X49.8574 Y71.9423
G01 X49.9037 Y71.9589
G01 X49.9751 Y71.9806
G01 X50.0228 Y71.9925
G01 X50.0960 Y72.0071
G01 X50.1446 Y72.0143
G01 X50.2190 Y72.0216
G01 X50.2680 Y72.0240
G01 X50.3053 Y72.0249
G01 X51.9932 Y72.0249
G01 X52.0058 Y72.0334
G01 X51.9685 Y72.0583
G01 X51.9084 Y72.1029
G01 X51.8507 Y72.1503
G01 X51.7953 Y72.2005
G01 X51.7424 Y72.2533
G01 X51.6922 Y72.3087
G01 X51.6448 Y72.3665
G01 X51.6003 Y72.4265
G01 X51.5588 Y72.4887
G01 X51.5203 Y72.5528
G01 X51.4851 Y72.6187
G01 X51.4531 Y72.6863
G01 X51.4245 Y72.7553
G01 X51.3994 Y72.8257
G01 X51.3777 Y72.8972
G01 X51.3595 Y72.9697
G01 X51.3449 Y73.0430
G01 X51.3340 Y73.1170
G01 X51.3266 Y73.1913
G01 X51.3230 Y73.2660
G01 X51.3230 Y73.3407
G01 X51.3266 Y73.4154
G01 X51.3340 Y73.4898
G01 X51.3449 Y73.5637
G01 X51.3595 Y73.6370
G01 X51.3777 Y73.7096
G01 X51.3994 Y73.7811
G01 X51.4245 Y73.8515
G01 X51.4531 Y73.9205
G01 X51.4851 Y73.9881
G01 X51.5203 Y74.0540
G01 X51.5588 Y74.1181
G01 X51.6003 Y74.1802
G01 X51.6448 Y74.2403
G01 X51.6922 Y74.2980
G01 X51.7424 Y74.3535
G01 X51.7953 Y74.4063
G01 X51.8507 Y74.4565
G01 X51.9084 Y74.5039
G01 X51.9685 Y74.5484
G01 X52.0306 Y74.5900
G01 X52.0947 Y74.6284
G01 X52.1606 Y74.6636
G01 X52.2282 Y74.6956
G01 X52.2973 Y74.7242
G01 X52.3677 Y74.7494
G01 X52.4392 Y74.7711
G01 X52.5117 Y74.7892
G01 X52.5850 Y74.8038
G01 X52.6589 Y74.8148
G01 X52.7333 Y74.8221
G01 X52.8080 Y74.8258
G01 X52.8827 Y74.8258
G01 X52.9574 Y74.8221
G01 X53.0317 Y74.8148
G01 X53.1057 Y74.8038
G01 X53.1790 Y74.7892
G01 X53.2515 Y74.7711
G01 X53.3230 Y74.7494
G01 X53.3934 Y74.7242
G01 X53.4624 Y74.6956
G01 X53.5300 Y74.6636
G01 X53.5959 Y74.6284
G01 X53.6601 Y74.5900
G01 X53.6975 Y74.5649
G01 X54.1238 Y74.5649
G01 X54.1238 Y76.7939
G01 X54.1153 Y76.8016
G01 X54.0903 Y76.7789
G01 X54.0303 Y76.7344
G01 X53.9662 Y76.6960
G01 X53.8987 Y76.6640
G01 X53.8283 Y76.6389
G01 X53.7559 Y76.6207
G01 X53.6820 Y76.6098
G01 X53.6073 Y76.6061
G01 X52.0833 Y76.6061
G01 X52.0087 Y76.6098
G01 X51.9348 Y76.6207
G01 X51.8623 Y76.6389
G01 X51.7920 Y76.6640
G01 X51.7245 Y76.6960
G01 X51.6604 Y76.7344
G01 X51.6004 Y76.7789
G01 X51.5450 Y76.8291
G01 X51.4949 Y76.8844
G01 X51.4503 Y76.9444
G01 X51.4119 Y77.0085
G01 X51.3800 Y77.0760
G01 X51.3636 Y77.1218
G01 X48.6175 Y77.1218
G01 X48.5801 Y77.0968
G01 X48.5159 Y77.0584
G01 X48.4500 Y77.0232
G01 X48.3824 Y76.9912
G01 X48.3134 Y76.9626
G01 X48.2430 Y76.9374
G01 X48.1715 Y76.9157
G01 X48.0990 Y76.8975
G01 X48.0257 Y76.8830
G01 X47.9517 Y76.8720
G01 X47.8774 Y76.8647
G01 X47.8027 Y76.8610
G01 X47.7280 Y76.8610
G01 X47.6533 Y76.8647
G01 X47.5789 Y76.8720
G01 X47.5050 Y76.8830
G01 X47.4317 Y76.8975
G01 X47.3592 Y76.9157
G01 X47.2877 Y76.9374
G01 X47.2173 Y76.9626
G01 X47.1482 Y76.9912
G01 X47.0806 Y77.0232
G01 X47.0147 Y77.0584
G01 X46.9506 Y77.0968
G01 X46.8885 Y77.1383
G01 X46.8284 Y77.1829
G01 X46.7707 Y77.2303
G01 X46.7153 Y77.2805
G01 X46.6624 Y77.3333
G01 X46.6122 Y77.3887
G01 X46.5648 Y77.4465
G01 X46.5203 Y77.5065
G01 X46.4869 Y77.5565
G01 X46.4869 Y70.7634
G01 X46.4860 Y70.7260
G01 X46.4836 Y70.6770
G01 X46.4762 Y70.6026
G01 X46.4690 Y70.5541
G01 X46.4545 Y70.4808
G01 X46.4425 Y70.4332
G01 X46.4208 Y70.3617
G01 X46.4043 Y70.3155
G01 X46.3757 Y70.2465
G01 X46.3547 Y70.2021
G01 X46.3195 Y70.1362
G01 X46.2943 Y70.0941
G01 X46.2528 Y70.0320
G01 X46.2235 Y69.9925
G01 X46.1761 Y69.9348
G01 X46.1432 Y69.8984
G01 X46.0903 Y69.8456
G01 X46.0539 Y69.8126
G01 X45.9962 Y69.7652
G01 X45.9568 Y69.7360
G01 X45.8946 Y69.6945
G01 X45.8525 Y69.6692
G01 X45.7867 Y69.6340
G01 X45.7423 Y69.6130
G01 X45.6732 Y69.5844
G01 X45.6270 Y69.5679
G01 X45.5555 Y69.5462
G01 X45.5079 Y69.5343
G01 X45.4346 Y69.5197
G01 X45.3861 Y69.5125
G01 X45.3117 Y69.5052
G01 X45.2627 Y69.5028
G01 X45.2253 Y69.5018
G01 X40.9975 Y69.5018
G01 X40.9849 Y69.4934
G01 X41.0222 Y69.4684
G01 X41.0823 Y69.4239
G01 X41.1400 Y69.3765
G01 X41.1954 Y69.3263
G01 X41.2482 Y69.2735
G01 X41.2985 Y69.2180
G01 X41.3459 Y69.1603
G01 X41.3904 Y69.1002
G01 X41.4319 Y69.0381
G01 X41.4703 Y68.9740
G01 X41.5056 Y68.9081
G01 X41.5375 Y68.8405
G01 X41.5661 Y68.7715
G01 X41.5913 Y68.7011
G01 X41.6130 Y68.6296
G01 X41.6312 Y68.5570
G01 X41.6458 Y68.4837
G01 X41.6567 Y68.4098
G01 X41.6641 Y68.3354
G01 X41.6677 Y68.2607
G01 X41.6677 Y68.1860
G01 X41.6641 Y68.1113
G01 X41.6567 Y68.0370
G01 X41.6458 Y67.9630
G01 X41.6312 Y67.8897
G01 X41.6130 Y67.8172
G01 X41.5913 Y67.7457
G01 X41.5661 Y67.6753
G01 X41.5375 Y67.6063
G01 X41.5056 Y67.5387
G01 X41.4703 Y67.4728
G01 X41.4319 Y67.4087
G01 X41.3904 Y67.3465
G01 X41.3459 Y67.2865
G01 X41.2985 Y67.2287
G01 X41.2482 Y67.1733
G01 X41.1954 Y67.1205
G01 X41.1400 Y67.0703
G01 X41.0823 Y67.0229
G01 X41.0222 Y66.9783
G01 X40.9849 Y66.9534
G00 Z2.0000
G00 X36.3438 Y67.3965
G01 F60.00
G01 Z-0.2001
G01 F320.00
G01 X36.3269 Y67.3712
G01 X36.3269 Y66.5356
G01 X36.3438 Y66.5103
G01 X36.3438 Y67.3965
G00 Z2.0000
G00 X36.3438 Y64.8565
G01 F60.00
G01 Z-0.2001
G01 F320.00
G01 X36.3104 Y64.8065
G01 X36.2659 Y64.7465
G01 X36.2185 Y64.6887
G01 X36.1682 Y64.6333
G01 X36.1154 Y64.5805
G01 X36.0600 Y64.5303
G01 X36.0023 Y64.4829
G01 X35.9422 Y64.4383
G01 X35.8922 Y64.4049
G01 X36.3438 Y64.4049
G01 X36.3438 Y64.8565
G00 Z2.0000
G00 X35.8922 Y61.8818
G01 F60.00
G01 Z-0.2001
G01 F320.00
G01 X35.9422 Y61.8484
G01 X36.0023 Y61.8039
G01 X36.0600 Y61.7565
G01 X36.1154 Y61.7063
G01 X36.1682 Y61.6535
G01 X36.2185 Y61.5980
G01 X36.2659 Y61.5403
G01 X36.3104 Y61.4802
G01 X36.3519 Y61.4181
G01 X36.3903 Y61.3540
G01 X36.4256 Y61.2881
G01 X36.4575 Y61.2205
G01 X36.4861 Y61.1515
G01 X36.5113 Y61.0811
G01 X36.5330 Y61.0096
G01 X36.5512 Y60.9370
G01 X36.5658 Y60.8637
G01 X36.5767 Y60.7898
G01 X36.5841 Y60.7154
G01 X36.5877 Y60.6407
G01 X36.5877 Y60.5660
G01 X36.5841 Y60.4913
G01 X36.5767 Y60.4170
G01 X36.5658 Y60.3430
G01 X36.5512 Y60.2697
G01 X36.5330 Y60.1972
G01 X36.5113 Y60.1257
G01 X36.4861 Y60.0553
G01 X36.4575 Y59.9863
G01 X36.4256 Y59.9187
G01 X36.3903 Y59.8528
G01 X36.3519 Y59.7887
G01 X36.3269 Y59.7512
G01 X36.3269 Y59.3249
G01 X36.7532 Y59.3249
G01 X36.7906 Y59.3500
G01 X36.8547 Y59.3884
G01 X36.9206 Y59.4236
G01 X36.9882 Y59.4556
G01 X37.0573 Y59.4842
G01 X37.1277 Y59.5094
G01 X37.1992 Y59.5311
G01 X37.2717 Y59.5492
G01 X37.3450 Y59.5638
G01 X37.4189 Y59.5748
G01 X37.4933 Y59.5821
G01 X37.5680 Y59.5858
G01 X37.6427 Y59.5858
G01 X37.7174 Y59.5821
G01 X37.7917 Y59.5748
G01 X37.8657 Y59.5638
G01 X37.9390 Y59.5492
G01 X38.0115 Y59.5311
G01 X38.0830 Y59.5094
G01 X38.1534 Y59.4842
G01 X38.2224 Y59.4556
G01 X38.2900 Y59.4236
G01 X38.3559 Y59.3884
G01 X38.4201 Y59.3500
G01 X38.4822 Y59.3084
G01 X38.5423 Y59.2639
G01 X38.6000 Y59.2165
G01 X38.6554 Y59.1663
G01 X38.7082 Y59.1135
G01 X38.7585 Y59.0580
G01 X38.8059 Y59.0003
G01 X38.8504 Y58.9402
G01 X38.8919 Y58.8781
G01 X38.9303 Y58.8140
G01 X38.9656 Y58.7481
G01 X38.9975 Y58.6805
G01 X39.0261 Y58.6115
G01 X39.0513 Y58.5411
G01 X39.0730 Y58.4696
G01 X39.0912 Y58.3970
G01 X39.1058 Y58.3237
G01 X39.1167 Y58.2498
G01 X39.1241 Y58.1754
G01 X39.1277 Y58.1007
G01 X39.1277 Y58.0260
G01 X39.1241 Y57.9513
G01 X39.1167 Y57.8770
G01 X39.1058 Y57.8030
G01 X39.0912 Y57.7297
G01 X39.0730 Y57.6572
G01 X39.0513 Y57.5857
G01 X39.0261 Y57.5153
G01 X38.9975 Y57.4463
G01 X38.9656 Y57.3787
G01 X38.9303 Y57.3128
G01 X38.8919 Y57.2487
G01 X38.8504 Y57.1865
G01 X38.8059 Y57.1265
G01 X38.7585 Y57.0687
G01 X38.7082 Y57.0133
G01 X38.6554 Y56.9605
G01 X38.6000 Y56.9103
G01 X38.5423 Y56.8629
G01 X38.4822 Y56.8183
G01 X38.4322 Y56.7849
G01 X38.6636 Y56.7849
G01 X38.6800 Y56.8307
G01 X38.7119 Y56.8983
G01 X38.7503 Y56.9623
G01 X38.7948 Y57.0223
G01 X38.8450 Y57.0777
G01 X38.9004 Y57.1279
G01 X38.9604 Y57.1724
G01 X39.0245 Y57.2108
G01 X39.0920 Y57.2427
G01 X39.1623 Y57.2679
G01 X39.2348 Y57.2861
G01 X39.3087 Y57.2970
G01 X39.3833 Y57.3007
G01 X40.9073 Y57.3007
G01 X40.9820 Y57.2970
G01 X41.0559 Y57.2861
G01 X41.1283 Y57.2679
G01 X41.1987 Y57.2427
G01 X41.2662 Y57.2108
G01 X41.3303 Y57.1724
G01 X41.3903 Y57.1279
G01 X41.4153 Y57.1052
G01 X41.4238 Y57.1128
G01 X41.4238 Y59.7512
G01 X41.3988 Y59.7887
G01 X41.3603 Y59.8528
G01 X41.3251 Y59.9187
G01 X41.2931 Y59.9863
G01 X41.2645 Y60.0553
G01 X41.2394 Y60.1257
G01 X41.2177 Y60.1972
G01 X41.1995 Y60.2697
G01 X41.1849 Y60.3430
G01 X41.1740 Y60.4170
G01 X41.1666 Y60.4913
G01 X41.1630 Y60.5660
G01 X41.1630 Y60.6407
G01 X41.1666 Y60.7154
G01 X41.1740 Y60.7898
G01 X41.1849 Y60.8637
G01 X41.1995 Y60.9370
G01 X41.2177 Y61.0096
G01 X41.2394 Y61.0811
G01 X41.2645 Y61.1515
G01 X41.2931 Y61.2205
G01 X41.3251 Y61.2881
G01 X41.3603 Y61.3540
G01 X41.3988 Y61.4181
G01 X41.4403 Y61.4802
G01 X41.4848 Y61.5403
G01 X41.5322 Y61.5980
G01 X41.5824 Y61.6535
G01 X41.6353 Y61.7063
G01 X41.6907 Y61.7565
G01 X41.7484 Y61.8039
G01 X41.8085 Y61.8484
G01 X41.8706 Y61.8900
G01 X41.9347 Y61.9284
G01 X42.0006 Y61.9636
G01 X42.0682 Y61.9956
G01 X42.1373 Y62.0242
G01 X42.2077 Y62.0494
G01 X42.2792 Y62.0711
G01 X42.3517 Y62.0892
G01 X42.4250 Y62.1038
G01 X42.4989 Y62.1148
G01 X42.5733 Y62.1221
G01 X42.6480 Y62.1258
G01 X42.7227 Y62.1258
G01 X42.7974 Y62.1221
G01 X42.8717 Y62.1148
G01 X42.9457 Y62.1038
G01 X43.0190 Y62.0892
G01 X43.0915 Y62.0711
G01 X43.1630 Y62.0494
G01 X43.2334 Y62.0242
G01 X43.3024 Y61.9956
G01 X43.3700 Y61.9636
G01 X43.4359 Y61.9284
G01 X43.5001 Y61.8900
G01 X43.5622 Y61.8484
G01 X43.6223 Y61.8039
G01 X43.6800 Y61.7565
G01 X43.7354 Y61.7063
G01 X43.7882 Y61.6535
G01 X43.8385 Y61.5980
G01 X43.8859 Y61.5403
G01 X43.9304 Y61.4802
G01 X43.9638 Y61.4303
G01 X43.9638 Y63.1434
G01 X43.9647 Y63.1807
G01 X43.9671 Y63.2298
G01 X43.9744 Y63.3041
G01 X43.9816 Y63.3527
G01 X43.9962 Y63.4260
G01 X44.0081 Y63.4736
G01 X44.0298 Y63.5451
G01 X44.0464 Y63.5913
G01 X44.0750 Y63.6603
G01 X44.0960 Y63.7047
G01 X44.1312 Y63.7706
G01 X44.1564 Y63.8127
G01 X44.1979 Y63.8748
G01 X44.2272 Y63.9142
G01 X44.2746 Y63.9720
G01 X44.3075 Y64.0084
G01 X44.3604 Y64.0612
G01 X44.3967 Y64.0942
G01 X44.4545 Y64.1416
G01 X44.4939 Y64.1708
G01 X44.5560 Y64.2123
G01 X44.5981 Y64.2376
G01 X44.6640 Y64.2728
G01 X44.7084 Y64.2938
G01 X44.7774 Y64.3223
G01 X44.8237 Y64.3389
G01 X44.8951 Y64.3606
G01 X44.9428 Y64.3725
G01 X45.0160 Y64.3871
G01 X45.0646 Y64.3943
G01 X45.1390 Y64.4016
G01 X45.1880 Y64.4040
G01 X45.2253 Y64.4049
G01 X46.9385 Y64.4049
G01 X46.9132 Y64.4218
G01 X40.9975 Y64.4218
G01 X40.9601 Y64.3968
G01 X40.8959 Y64.3584
G01 X40.8300 Y64.3232
G01 X40.7624 Y64.2912
G01 X40.6934 Y64.2626
G01 X40.6230 Y64.2374
G01 X40.5515 Y64.2157
G01 X40.4790 Y64.1975
G01 X40.4057 Y64.1830
G01 X40.3317 Y64.1720
G01 X40.2574 Y64.1647
G01 X40.1827 Y64.1610
G01 X40.1080 Y64.1610
G01 X40.0333 Y64.1647
G01 X39.9589 Y64.1720
G01 X39.8850 Y64.1830
G01 X39.8117 Y64.1975
G01 X39.7392 Y64.2157
G01 X39.6677 Y64.2374
G01 X39.5973 Y64.2626
G01 X39.5282 Y64.2912
G01 X39.4606 Y64.3232
G01 X39.3947 Y64.3584
G01 X39.3306 Y64.3968
G01 X39.2685 Y64.4383
G01 X39.2084 Y64.4829
G01 X39.1507 Y64.5303
G01 X39.0953 Y64.5805
G01 X39.0424 Y64.6333
G01 X38.9922 Y64.6887
G01 X38.9448 Y64.7465
G01 X38.9003 Y64.8065
G01 X38.8669 Y64.8565
G01 X38.8669 Y63.1434
G01 X38.8660 Y63.1060
G01 X38.8636 Y63.0570
G01 X38.8562 Y62.9826
G01 X38.8490 Y62.9341
G01 X38.8345 Y62.8608
G01 X38.8225 Y62.8132
G01 X38.8008 Y62.7417
G01 X38.7843 Y62.6955
G01 X38.7557 Y62.6265
G01 X38.7347 Y62.5821
G01 X38.6995 Y62.5162
G01 X38.6743 Y62.4741
G01 X38.6328 Y62.4120
G01 X38.6035 Y62.3725
G01 X38.5561 Y62.3148
G01 X38.5232 Y62.2784
G01 X38.4703 Y62.2256
G01 X38.4339 Y62.1926
G01 X38.3762 Y62.1452
G01 X38.3368 Y62.1160
G01 X38.2746 Y62.0745
G01 X38.2325 Y62.0492
G01 X38.1667 Y62.0140
G01 X38.1223 Y61.9930
G01 X38.0532 Y61.9644
G01 X38.0070 Y61.9479
G01 X37.9355 Y61.9262
G01 X37.8879 Y61.9143
G01 X37.8146 Y61.8997
G01 X37.7661 Y61.8925
G01 X37.6917 Y61.8852
G01 X37.6427 Y61.8828
G01 X37.6053 Y61.8818
G01 X35.8922 Y61.8818
G00 Z2.0000
G00 X33.7869 Y61.4303
G01 F60.00
G01 Z-0.2001
G01 F320.00
G01 X33.8203 Y61.4802
G01 X33.8648 Y61.5403
G01 X33.9122 Y61.5980
G01 X33.9624 Y61.6535
G01 X34.0153 Y61.7063
G01 X34.0707 Y61.7565
G01 X34.1284 Y61.8039
G01 X34.1885 Y61.8484
G01 X34.2385 Y61.8818
G01 X33.7869 Y61.8818
G01 X33.7869 Y61.4303
G00 Z2.0000
G00 X33.7869 Y58.8903
G01 F60.00
G01 Z-0.2001
G01 F320.00
G01 X33.8038 Y58.9156
G01 X33.8038 Y59.7512
G01 X33.7869 Y59.7765
G01 X33.7869 Y58.8903
G00 Z2.0000
G00 X33.7869 Y56.3503
G01 F60.00
G01 Z-0.2001
G01 F320.00
G01 X33.8203 Y56.4002
G01 X33.8648 Y56.4603
G01 X33.9122 Y56.5180
G01 X33.9624 Y56.5735
G01 X34.0153 Y56.6263
G01 X34.0707 Y56.6765
G01 X34.1284 Y56.7239
G01 X34.1885 Y56.7684
G01 X34.2258 Y56.7934
G01 X34.1885 Y56.8183
G01 X34.1284 Y56.8629
G01 X34.0707 Y56.9103
G01 X34.0153 Y56.9605
G01 X33.9624 Y57.0133
G01 X33.9122 Y57.0687
G01 X33.8648 Y57.1265
G01 X33.8203 Y57.1865
G01 X33.7869 Y57.2365
G01 X33.7869 Y56.3503
G00 Z2.0000
G00 X35.9049 Y56.7934
G01 F60.00
G01 Z-0.2001
G01 F320.00
G01 X35.9175 Y56.7849
G01 X36.7785 Y56.7849
G01 X36.7532 Y56.8018
G01 X35.9175 Y56.8018
G01 X35.9049 Y56.7934
G00 Z2.0000
G00 X35.9175 Y54.2618
G01 F60.00
G01 Z-0.2001
G01 F320.00
G01 X35.8801 Y54.2368
G01 X35.8159 Y54.1984
G01 X35.7500 Y54.1632
G01 X35.6824 Y54.1312
G01 X35.6134 Y54.1026
G01 X35.5430 Y54.0774
G01 X35.4715 Y54.0557
G01 X35.3990 Y54.0375
G01 X35.3257 Y54.0230
G01 X35.2517 Y54.0120
G01 X35.1774 Y54.0047
G01 X35.1027 Y54.0010
G01 X35.0280 Y54.0010
G01 X34.9533 Y54.0047
G01 X34.8789 Y54.0120
G01 X34.8050 Y54.0230
G01 X34.7317 Y54.0375
G01 X34.6592 Y54.0557
G01 X34.5877 Y54.0774
G01 X34.5173 Y54.1026
G01 X34.4482 Y54.1312
G01 X34.3806 Y54.1632
G01 X34.3147 Y54.1984
G01 X34.2506 Y54.2368
G01 X34.1885 Y54.2783
G01 X34.1284 Y54.3229
G01 X34.0707 Y54.3703
G01 X34.0153 Y54.4205
G01 X33.9624 Y54.4733
G01 X33.9122 Y54.5287
G01 X33.8648 Y54.5865
G01 X33.8203 Y54.6465
G01 X33.7869 Y54.6965
G01 X33.7869 Y49.1649
G01 X39.2932 Y49.1649
G01 X39.3058 Y49.1734
G01 X39.2685 Y49.1983
G01 X39.2084 Y49.2429
G01 X39.1507 Y49.2903
G01 X39.0953 Y49.3405
G01 X39.0424 Y49.3933
G01 X38.9922 Y49.4487
G01 X38.9448 Y49.5065
G01 X38.9003 Y49.5665
G01 X38.8588 Y49.6287
G01 X38.8203 Y49.6928
G01 X38.7851 Y49.7587
G01 X38.7531 Y49.8263
G01 X38.7245 Y49.8953
G01 X38.6994 Y49.9657
G01 X38.6777 Y50.0372
G01 X38.6595 Y50.1097
G01 X38.6449 Y50.1830
G01 X38.6340 Y50.2570
G01 X38.6266 Y50.3313
G01 X38.6230 Y50.4060
G01 X38.6230 Y50.4807
G01 X38.6266 Y50.5554
G01 X38.6340 Y50.6298
G01 X38.6449 Y50.7037
G01 X38.6595 Y50.7770
G01 X38.6777 Y50.8496
G01 X38.6994 Y50.9211
G01 X38.7245 Y50.9915
G01 X38.7531 Y51.0605
G01 X38.7851 Y51.1281
G01 X38.8203 Y51.1940
G01 X38.8588 Y51.2581
G01 X38.9003 Y51.3202
G01 X38.9448 Y51.3803
G01 X38.9922 Y51.4380
G01 X39.0424 Y51.4935
G01 X39.0953 Y51.5463
G01 X39.1507 Y51.5965
G01 X39.2084 Y51.6439
G01 X39.2685 Y51.6884
G01 X39.3306 Y51.7300
G01 X39.3947 Y51.7684
G01 X39.4606 Y51.8036
G01 X39.5282 Y51.8356
G01 X39.5973 Y51.8642
G01 X39.6677 Y51.8894
G01 X39.7392 Y51.9111
G01 X39.8117 Y51.9292
G01 X39.8850 Y51.9438
G01 X39.9589 Y51.9548
G01 X40.0333 Y51.9621
G01 X40.1080 Y51.9658
G01 X40.1827 Y51.9658
G01 X40.2574 Y51.9621
G01 X40.3317 Y51.9548
G01 X40.4057 Y51.9438
G01 X40.4790 Y51.9292
G01 X40.5515 Y51.9111
G01 X40.6230 Y51.8894
G01 X40.6934 Y51.8642
G01 X40.7624 Y51.8356
G01 X40.8300 Y51.8036
G01 X40.8959 Y51.7684
G01 X40.9601 Y51.7300
G01 X40.9975 Y51.7049
G01 X41.4238 Y51.7049
G01 X41.4238 Y53.9339
G01 X41.4153 Y53.9416
G01 X41.3903 Y53.9189
G01 X41.3303 Y53.8744
G01 X41.2662 Y53.8360
G01 X41.1987 Y53.8040
G01 X41.1283 Y53.7789
G01 X41.0559 Y53.7607
G01 X40.9820 Y53.7498
G01 X40.9073 Y53.7461
G01 X39.3833 Y53.7461
G01 X39.3087 Y53.7498
G01 X39.2348 Y53.7607
G01 X39.1623 Y53.7789
G01 X39.0920 Y53.8040
G01 X39.0245 Y53.8360
G01 X38.9604 Y53.8744
G01 X38.9004 Y53.9189
G01 X38.8450 Y53.9691
G01 X38.7949 Y54.0244
G01 X38.7503 Y54.0844
G01 X38.7119 Y54.1485
G01 X38.6800 Y54.2160
G01 X38.6636 Y54.2618
G01 X35.9175 Y54.2618
G00 Z2.0000
G00 X31.2638 Y59.7765
G01 F60.00
G01 Z-0.2001
G01 F320.00
G01 X31.2469 Y59.7512
G01 X31.2469 Y57.1128
G01 X31.2638 Y57.0975
G01 X31.2638 Y59.7765
G00 Z2.0000
G00 X43.9638 Y59.7765
G01 F60.00
G01 Z-0.2001
G01 F320.00
G01 X43.9469 Y59.7512
G01 X43.9469 Y57.1128
G01 X43.9638 Y57.0975
G01 X43.9638 Y59.7765
G00 Z2.0000
G00 X46.4869 Y58.8903
G01 F60.00
G01 Z-0.2001
G01 F320.00
G01 X46.5038 Y58.9156
G01 X46.5038 Y59.7512
G01 X46.4869 Y59.7765
G01 X46.4869 Y58.8903
G00 Z2.0000
G00 X46.4869 Y61.4303
G01 F60.00
G01 Z-0.2001
G01 F320.00
G01 X46.5203 Y61.4802
G01 X46.5648 Y61.5403
G01 X46.6122 Y61.5980
G01 X46.6624 Y61.6535
G01 X46.7153 Y61.7063
G01 X46.7707 Y61.7565
G01 X46.8284 Y61.8039
G01 X46.8885 Y61.8484
G01 X46.9385 Y61.8818
G01 X46.4869 Y61.8818
G01 X46.4869 Y61.4303
G00 Z2.0000
G00 X48.5922 Y61.8818
G01 F60.00
G01 Z-0.2001
G01 F320.00
G01 X48.6422 Y61.8484
G01 X48.7023 Y61.8039
G01 X48.7600 Y61.7565
G01 X48.8154 Y61.7063
G01 X48.8682 Y61.6535
G01 X48.9185 Y61.5980
G01 X48.9659 Y61.5403
G01 X49.0104 Y61.4802
G01 X49.0519 Y61.4181
G01 X49.0903 Y61.3540
G01 X49.1256 Y61.2881
G01 X49.1575 Y61.2205
G01 X49.1861 Y61.1515
G01 X49.2113 Y61.0811
G01 X49.2330 Y61.0096
G01 X49.2512 Y60.9370
G01 X49.2658 Y60.8637
G01 X49.2767 Y60.7898
G01 X49.2841 Y60.7154
G01 X49.2877 Y60.6407
G01 X49.2877 Y60.5660
G01 X49.2841 Y60.4913
G01 X49.2767 Y60.4170
G01 X49.2658 Y60.3430
G01 X49.2512 Y60.2697
G01 X49.2330 Y60.1972
G01 X49.2113 Y60.1257
G01 X49.1861 Y60.0553
G01 X49.1575 Y59.9863
G01 X49.1256 Y59.9187
G01 X49.0903 Y59.8528
G01 X49.0519 Y59.7887
G01 X49.0269 Y59.7512
G01 X49.0269 Y59.3249
G01 X49.4532 Y59.3249
G01 X49.4906 Y59.3500
G01 X49.5547 Y59.3884
G01 X49.6206 Y59.4236
G01 X49.6882 Y59.4556
G01 X49.7573 Y59.4842
G01 X49.8277 Y59.5094
G01 X49.8992 Y59.5311
G01 X49.9717 Y59.5492
G01 X50.0450 Y59.5638
G01 X50.1189 Y59.5748
G01 X50.1933 Y59.5821
G01 X50.2680 Y59.5858
G01 X50.3427 Y59.5858
G01 X50.4174 Y59.5821
G01 X50.4917 Y59.5748
G01 X50.5657 Y59.5638
G01 X50.6390 Y59.5492
G01 X50.7115 Y59.5311
G01 X50.7830 Y59.5094
G01 X50.8534 Y59.4842
G01 X50.9224 Y59.4556
G01 X50.9900 Y59.4236
G01 X51.0559 Y59.3884
G01 X51.1201 Y59.3500
G01 X51.1822 Y59.3084
G01 X51.2423 Y59.2639
G01 X51.3000 Y59.2165
G01 X51.3554 Y59.1663
G01 X51.4082 Y59.1135
G01 X51.4585 Y59.0580
G01 X51.5059 Y59.0003
G01 X51.5504 Y58.9402
G01 X51.5919 Y58.8781
G01 X51.6303 Y58.8140
G01 X51.6656 Y58.7481
G01 X51.6975 Y58.6805
G01 X51.7261 Y58.6115
G01 X51.7513 Y58.5411
G01 X51.7730 Y58.4696
G01 X51.7912 Y58.3970
G01 X51.8058 Y58.3237
G01 X51.8167 Y58.2498
G01 X51.8241 Y58.1754
G01 X51.8277 Y58.1007
G01 X51.8277 Y58.0260
G01 X51.8241 Y57.9513
G01 X51.8167 Y57.8770
G01 X51.8058 Y57.8030
G01 X51.7912 Y57.7297
G01 X51.7730 Y57.6572
G01 X51.7513 Y57.5857
G01 X51.7261 Y57.5153
G01 X51.6975 Y57.4463
G01 X51.6656 Y57.3787
G01 X51.6303 Y57.3128
G01 X51.5919 Y57.2487
G01 X51.5504 Y57.1865
G01 X51.5059 Y57.1265
G01 X51.4585 Y57.0687
G01 X51.4082 Y57.0133
G01 X51.3554 Y56.9605
G01 X51.3000 Y56.9103
G01 X51.2423 Y56.8629
G01 X51.1822 Y56.8183
G01 X51.1322 Y56.7849
G01 X51.3636 Y56.7849
G01 X51.3800 Y56.8307
G01 X51.4119 Y56.8983
G01 X51.4503 Y56.9623
G01 X51.4948 Y57.0223
G01 X51.5450 Y57.0777
G01 X51.6004 Y57.1279
G01 X51.6604 Y57.1724
G01 X51.7245 Y57.2108
G01 X51.7920 Y57.2427
G01 X51.8623 Y57.2679
G01 X51.9348 Y57.2861
G01 X52.0087 Y57.2970
G01 X52.0833 Y57.3007
G01 X53.6073 Y57.3007
G01 X53.6820 Y57.2970
G01 X53.7559 Y57.2861
G01 X53.8283 Y57.2679
G01 X53.8987 Y57.2427
G01 X53.9662 Y57.2108
G01 X54.0303 Y57.1724
G01 X54.0903 Y57.1279
G01 X54.1153 Y57.1052
G01 X54.1238 Y57.1128
G01 X54.1238 Y59.7512
G01 X54.0988 Y59.7887
G01 X54.0603 Y59.8528
G01 X54.0251 Y59.9187
G01 X53.9931 Y59.9863
G01 X53.9645 Y60.0553
G01 X53.9394 Y60.1257
G01 X53.9177 Y60.1972
G01 X53.8995 Y60.2697
G01 X53.8849 Y60.3430
G01 X53.8740 Y60.4170
G01 X53.8666 Y60.4913
G01 X53.8630 Y60.5660
G01 X53.8630 Y60.6407
G01 X53.8666 Y60.7154
G01 X53.8740 Y60.7898
G01 X53.8849 Y60.8637
G01 X53.8995 Y60.9370
G01 X53.9177 Y61.0096
G01 X53.9394 Y61.0811
G01 X53.9645 Y61.1515
G01 X53.9931 Y61.2205
G01 X54.0251 Y61.2881
G01 X54.0603 Y61.3540
G01 X54.0988 Y61.4181
G01 X54.1403 Y61.4802
G01 X54.1848 Y61.5403
G01 X54.2322 Y61.5980
G01 X54.2824 Y61.6535
G01 X54.3353 Y61.7063
G01 X54.3907 Y61.7565
G01 X54.4484 Y61.8039
G01 X54.5085 Y61.8484
G01 X54.5706 Y61.8900
G01 X54.6347 Y61.9284
G01 X54.7006 Y61.9636
G01 X54.7682 Y61.9956
G01 X54.8373 Y62.0242
G01 X54.9077 Y62.0494
G01 X54.9792 Y62.0711
G01 X55.0517 Y62.0892
G01 X55.1250 Y62.1038
G01 X55.1989 Y62.1148
G01 X55.2733 Y62.1221
G01 X55.3480 Y62.1258
G01 X55.4227 Y62.1258
G01 X55.4974 Y62.1221
G01 X55.5717 Y62.1148
G01 X55.6457 Y62.1038
G01 X55.7190 Y62.0892
G01 X55.7915 Y62.0711
G01 X55.8630 Y62.0494
G01 X55.9334 Y62.0242
G01 X56.0024 Y61.9956
G01 X56.0700 Y61.9636
G01 X56.1359 Y61.9284
G01 X56.2001 Y61.8900
G01 X56.2622 Y61.8484
G01 X56.3223 Y61.8039
G01 X56.3800 Y61.7565
G01 X56.4354 Y61.7063
G01 X56.4882 Y61.6535
G01 X56.5385 Y61.5980
G01 X56.5859 Y61.5403
G01 X56.6304 Y61.4802
G01 X56.6638 Y61.4303
G01 X56.6638 Y63.1434
G01 X56.6647 Y63.1807
G01 X56.6671 Y63.2298
G01 X56.6744 Y63.3041
G01 X56.6816 Y63.3527
G01 X56.6962 Y63.4260
G01 X56.7081 Y63.4736
G01 X56.7298 Y63.5451
G01 X56.7464 Y63.5913
G01 X56.7750 Y63.6603
G01 X56.7960 Y63.7047
G01 X56.8312 Y63.7706
G01 X56.8564 Y63.8127
G01 X56.8979 Y63.8748
G01 X56.9272 Y63.9142
G01 X56.9746 Y63.9720
G01 X57.0075 Y64.0084
G01 X57.0604 Y64.0612
G01 X57.0967 Y64.0942
G01 X57.1545 Y64.1416
G01 X57.1939 Y64.1708
G01 X57.2560 Y64.2123
G01 X57.2981 Y64.2376
G01 X57.3640 Y64.2728
G01 X57.4084 Y64.2938
G01 X57.4774 Y64.3223
G01 X57.5237 Y64.3389
G01 X57.5951 Y64.3606
G01 X57.6428 Y64.3725
G01 X57.7160 Y64.3871
G01 X57.7646 Y64.3943
G01 X57.8390 Y64.4016
G01 X57.8880 Y64.4040
G01 X57.9253 Y64.4049
G01 X59.6385 Y64.4049
G01 X59.6132 Y64.4218
G01 X53.6975 Y64.4218
G01 X53.6601 Y64.3968
G01 X53.5959 Y64.3584
G01 X53.5300 Y64.3232
G01 X53.4624 Y64.2912
G01 X53.3934 Y64.2626
G01 X53.3230 Y64.2374
G01 X53.2515 Y64.2157
G01 X53.1790 Y64.1975
G01 X53.1057 Y64.1830
G01 X53.0317 Y64.1720
G01 X52.9574 Y64.1647
G01 X52.8827 Y64.1610
G01 X52.8080 Y64.1610
G01 X52.7333 Y64.1647
G01 X52.6589 Y64.1720
G01 X52.5850 Y64.1830
G01 X52.5117 Y64.1975
G01 X52.4392 Y64.2157
G01 X52.3677 Y64.2374
G01 X52.2973 Y64.2626
G01 X52.2282 Y64.2912
G01 X52.1606 Y64.3232
G01 X52.0947 Y64.3584
G01 X52.0306 Y64.3968
G01 X51.9685 Y64.4383
G01 X51.9084 Y64.4829
G01 X51.8507 Y64.5303
G01 X51.7953 Y64.5805
G01 X51.7424 Y64.6333
G01 X51.6922 Y64.6887
G01 X51.6448 Y64.7465
G01 X51.6003 Y64.8065
G01 X51.5669 Y64.8565
G01 X51.5669 Y63.1434
G01 X51.5660 Y63.1060
G01 X51.5636 Y63.0570
G01 X51.5562 Y62.9826
G01 X51.5490 Y62.9341
G01 X51.5345 Y62.8608
G01 X51.5225 Y62.8132
G01 X51.5008 Y62.7417
G01 X51.4843 Y62.6955
G01 X51.4557 Y62.6265
G01 X51.4347 Y62.5821
G01 X51.3995 Y62.5162
G01 X51.3743 Y62.4741
G01 X51.3328 Y62.4120
G01 X51.3035 Y62.3725
G01 X51.2561 Y62.3148
G01 X51.2232 Y62.2784
G01 X51.1703 Y62.2256
G01 X51.1339 Y62.1926
G01 X51.0762 Y62.1452
G01 X51.0368 Y62.1160
G01 X50.9746 Y62.0745
G01 X50.9325 Y62.0492
G01 X50.8667 Y62.0140
G01 X50.8223 Y61.9930
G01 X50.7532 Y61.9644
G01 X50.7070 Y61.9479
G01 X50.6355 Y61.9262
G01 X50.5879 Y61.9143
G01 X50.5146 Y61.8997
G01 X50.4661 Y61.8925
G01 X50.3917 Y61.8852
G01 X50.3427 Y61.8828
G01 X50.3053 Y61.8818
G01 X48.5922 Y61.8818
G00 Z2.0000
G00 X49.0438 Y64.8565
G01 F60.00
G01 Z-0.2001
G01 F320.00
G01 X49.0104 Y64.8065
G01 X48.9659 Y64.7465
G01 X48.9185 Y64.6887
G01 X48.8682 Y64.6333
G01 X48.8154 Y64.5805
G01 X48.7600 Y64.5303
G01 X48.7023 Y64.4829
G01 X48.6422 Y64.4383
G01 X48.5922 Y64.4049
G01 X49.0438 Y64.4049
G01 X49.0438 Y64.8565
G00 Z2.0000
G00 X49.0438 Y67.3965
G01 F60.00
G01 Z-0.2001
G01 F320.00
G01 X49.0269 Y67.3712
G01 X49.0269 Y66.5356
G01 X49.0438 Y66.5103
G01 X49.0438 Y67.3965
G00 Z2.0000
G00 X51.5669 Y66.5103
G01 F60.00
G01 Z-0.2001
G01 F320.00
G01 X51.6003 Y66.5602
G01 X51.6448 Y66.6203
G01 X51.6922 Y66.6780
G01 X51.7424 Y66.7335
G01 X51.7953 Y66.7863
G01 X51.8507 Y66.8365
G01 X51.9084 Y66.8839
G01 X51.9685 Y66.9284
G01 X52.0058 Y66.9534
G01 X51.9685 Y66.9783
G01 X51.9084 Y67.0229
G01 X51.8507 Y67.0703
G01 X51.7953 Y67.1205
G01 X51.7424 Y67.1733
G01 X51.6922 Y67.2287
G01 X51.6448 Y67.2865
G01 X51.6003 Y67.3465
G01 X51.5669 Y67.3965
G01 X51.5669 Y66.5103
G00 Z2.0000
G00 X53.6849 Y66.9534
G01 F60.00
G01 Z-0.2001
G01 F320.00
G01 X53.6975 Y66.9449
G01 X59.2038 Y66.9449
G01 X59.2038 Y67.3712
G01 X59.1788 Y67.4087
G01 X59.1403 Y67.4728
G01 X59.1051 Y67.5387
G01 X59.0731 Y67.6063
G01 X59.0445 Y67.6753
G01 X59.0194 Y67.7457
G01 X58.9977 Y67.8172
G01 X58.9795 Y67.8897
G01 X58.9649 Y67.9630
G01 X58.9540 Y68.0370
G01 X58.9466 Y68.1113
G01 X58.9430 Y68.1860
G01 X58.9430 Y68.2607
G01 X58.9466 Y68.3354
G01 X58.9540 Y68.4098
G01 X58.9649 Y68.4837
G01 X58.9795 Y68.5570
G01 X58.9977 Y68.6296
G01 X59.0194 Y68.7011
G01 X59.0445 Y68.7715
G01 X59.0731 Y68.8405
G01 X59.1051 Y68.9081
G01 X59.1403 Y68.9740
G01 X59.1788 Y69.0381
G01 X59.2203 Y69.1002
G01 X59.2648 Y69.1603
G01 X59.3122 Y69.2180
G01 X59.3624 Y69.2735
G01 X59.4153 Y69.3263
G01 X59.4707 Y69.3765
G01 X59.5284 Y69.4239
G01 X59.5885 Y69.4684
G01 X59.6506 Y69.5100
G01 X59.7147 Y69.5484
G01 X59.7806 Y69.5836
G01 X59.8482 Y69.6156
G01 X59.9173 Y69.6442
G01 X59.9877 Y69.6694
G01 X60.0592 Y69.6911
G01 X60.1317 Y69.7092
G01 X60.2050 Y69.7238
G01 X60.2789 Y69.7348
G01 X60.3533 Y69.7421
G01 X60.4280 Y69.7458
G01 X60.5027 Y69.7458
G01 X60.5774 Y69.7421
G01 X60.6517 Y69.7348
G01 X60.7257 Y69.7238
G01 X60.7990 Y69.7092
G01 X60.8715 Y69.6911
G01 X60.9430 Y69.6694
G01 X61.0134 Y69.6442
G01 X61.0824 Y69.6156
G01 X61.1500 Y69.5836
G01 X61.2159 Y69.5484
G01 X61.2801 Y69.5100
G01 X61.3422 Y69.4684
G01 X61.4023 Y69.4239
G01 X61.4600 Y69.3765
G01 X61.5154 Y69.3263
G01 X61.5682 Y69.2735
G01 X61.6185 Y69.2180
G01 X61.6659 Y69.1603
G01 X61.7104 Y69.1002
G01 X61.7438 Y69.0503
G01 X61.7438 Y70.7634
G01 X61.7447 Y70.8007
G01 X61.7471 Y70.8498
G01 X61.7544 Y70.9241
G01 X61.7616 Y70.9727
G01 X61.7762 Y71.0460
G01 X61.7881 Y71.0936
G01 X61.8098 Y71.1651
G01 X61.8264 Y71.2113
G01 X61.8550 Y71.2803
G01 X61.8760 Y71.3247
G01 X61.9112 Y71.3906
G01 X61.9364 Y71.4327
G01 X61.9779 Y71.4948
G01 X62.0072 Y71.5342
G01 X62.0546 Y71.5920
G01 X62.0875 Y71.6284
G01 X62.1404 Y71.6812
G01 X62.1767 Y71.7142
G01 X62.2345 Y71.7616
G01 X62.2739 Y71.7908
G01 X62.3360 Y71.8323
G01 X62.3781 Y71.8576
G01 X62.4440 Y71.8928
G01 X62.4884 Y71.9138
G01 X62.5574 Y71.9423
G01 X62.6037 Y71.9589
G01 X62.6751 Y71.9806
G01 X62.7228 Y71.9925
G01 X62.7960 Y72.0071
G01 X62.8446 Y72.0143
G01 X62.9190 Y72.0216
G01 X62.9680 Y72.0240
G01 X63.0053 Y72.0249
G01 X64.6932 Y72.0249
G01 X64.7058 Y72.0334
G01 X64.6685 Y72.0583
G01 X64.6084 Y72.1029
G01 X64.5507 Y72.1503
G01 X64.4953 Y72.2005
G01 X64.4424 Y72.2533
G01 X64.3922 Y72.3087
G01 X64.3448 Y72.3665
G01 X64.3003 Y72.4265
G01 X64.2588 Y72.4887
G01 X64.2203 Y72.5528
G01 X64.1851 Y72.6187
G01 X64.1531 Y72.6863
G01 X64.1245 Y72.7553
G01 X64.0994 Y72.8257
G01 X64.0777 Y72.8972
G01 X64.0595 Y72.9697
G01 X64.0449 Y73.0430
G01 X64.0340 Y73.1170
G01 X64.0266 Y73.1913
G01 X64.0230 Y73.2660
G01 X64.0230 Y73.3407
G01 X64.0266 Y73.4154
G01 X64.0340 Y73.4898
G01 X64.0449 Y73.5637
G01 X64.0595 Y73.6370
G01 X64.0777 Y73.7096
G01 X64.0994 Y73.7811
G01 X64.1245 Y73.8515
G01 X64.1531 Y73.9205
G01 X64.1851 Y73.9881
G01 X64.2203 Y74.0540
G01 X64.2588 Y74.1181
G01 X64.3003 Y74.1802
G01 X64.3448 Y74.2403
G01 X64.3922 Y74.2980
G01 X64.4424 Y74.3535
G01 X64.4953 Y74.4063
G01 X64.5507 Y74.4565
G01 X64.6084 Y74.5039
G01 X64.6685 Y74.5484
G01 X64.7306 Y74.5900
G01 X64.7947 Y74.6284
G01 X64.8606 Y74.6636
G01 X64.9282 Y74.6956
G01 X64.9973 Y74.7242
G01 X65.0677 Y74.7494
G01 X65.1392 Y74.7711
G01 X65.2117 Y74.7892
G01 X65.2850 Y74.8038
G01 X65.3589 Y74.8148
G01 X65.4333 Y74.8221
G01 X65.5080 Y74.8258
G01 X65.5827 Y74.8258
G01 X65.6574 Y74.8221
G01 X65.7317 Y74.8148
G01 X65.8057 Y74.8038
G01 X65.8790 Y74.7892
G01 X65.9515 Y74.7711
G01 X66.0230 Y74.7494
G01 X66.0934 Y74.7242
G01 X66.1624 Y74.6956
G01 X66.2300 Y74.6636
G01 X66.2959 Y74.6284
G01 X66.3601 Y74.5900
G01 X66.3975 Y74.5649
G01 X66.8238 Y74.5649
G01 X66.8238 Y76.7939
G01 X66.8153 Y76.8016
G01 X66.7903 Y76.7789
G01 X66.7303 Y76.7344
G01 X66.6662 Y76.6960
G01 X66.5987 Y76.6640
G01 X66.5283 Y76.6389
G01 X66.4559 Y76.6207
G01 X66.3820 Y76.6098
G01 X66.3073 Y76.6061
G01 X64.7833 Y76.6061
G01 X64.7087 Y76.6098
G01 X64.6348 Y76.6207
G01 X64.5623 Y76.6389
G01 X64.4920 Y76.6640
G01 X64.4245 Y76.6960
G01 X64.3604 Y76.7344
G01 X64.3004 Y76.7789
G01 X64.2450 Y76.8291
G01 X64.1949 Y76.8844
G01 X64.1503 Y76.9444
G01 X64.1119 Y77.0085
G01 X64.0800 Y77.0760
G01 X64.0636 Y77.1218
G01 X61.3175 Y77.1218
G01 X61.2801 Y77.0968
G01 X61.2159 Y77.0584
G01 X61.1500 Y77.0232
G01 X61.0824 Y76.9912
G01 X61.0134 Y76.9626
G01 X60.9430 Y76.9374
G01 X60.8715 Y76.9157
G01 X60.7990 Y76.8975
G01 X60.7257 Y76.8830
G01 X60.6517 Y76.8720
G01 X60.5774 Y76.8647
G01 X60.5027 Y76.8610
G01 X60.4280 Y76.8610
G01 X60.3533 Y76.8647
G01 X60.2789 Y76.8720
G01 X60.2050 Y76.8830
G01 X60.1317 Y76.8975
G01 X60.0592 Y76.9157
G01 X59.9877 Y76.9374
G01 X59.9173 Y76.9626
G01 X59.8482 Y76.9912
G01 X59.7806 Y77.0232
G01 X59.7147 Y77.0584
G01 X59.6506 Y77.0968
G01 X59.5885 Y77.1383
G01 X59.5284 Y77.1829
G01 X59.4707 Y77.2303
G01 X59.4153 Y77.2805
G01 X59.3624 Y77.3333
G01 X59.3122 Y77.3887
G01 X59.2648 Y77.4465
G01 X59.2203 Y77.5065
G01 X59.1869 Y77.5565
G01 X59.1869 Y70.7634
G01 X59.1860 Y70.7260
G01 X59.1836 Y70.6770
G01 X59.1762 Y70.6026
G01 X59.1690 Y70.5541
G01 X59.1545 Y70.4808
G01 X59.1425 Y70.4332
G01 X59.1208 Y70.3617
G01 X59.1043 Y70.3155
G01 X59.0757 Y70.2465
G01 X59.0547 Y70.2021
G01 X59.0195 Y70.1362
G01 X58.9943 Y70.0941
G01 X58.9528 Y70.0320
G01 X58.9235 Y69.9925
G01 X58.8761 Y69.9348
G01 X58.8432 Y69.8984
G01 X58.7903 Y69.8456
G01 X58.7539 Y69.8126
G01 X58.6962 Y69.7652
G01 X58.6568 Y69.7360
G01 X58.5946 Y69.6945
G01 X58.5525 Y69.6692
G01 X58.4867 Y69.6340
G01 X58.4423 Y69.6130
G01 X58.3732 Y69.5844
G01 X58.3270 Y69.5679
G01 X58.2555 Y69.5462
G01 X58.2079 Y69.5343
G01 X58.1346 Y69.5197
G01 X58.0861 Y69.5125
G01 X58.0117 Y69.5052
G01 X57.9627 Y69.5028
G01 X57.9253 Y69.5018
G01 X53.6975 Y69.5018
G01 X53.6849 Y69.4934
G01 X53.7222 Y69.4684
G01 X53.7823 Y69.4239
G01 X53.8400 Y69.3765
G01 X53.8954 Y69.3263
G01 X53.9482 Y69.2735
G01 X53.9985 Y69.2180
G01 X54.0459 Y69.1603
G01 X54.0904 Y69.1002
G01 X54.1319 Y69.0381
G01 X54.1703 Y68.9740
G01 X54.2056 Y68.9081
G01 X54.2375 Y68.8405
G01 X54.2661 Y68.7715
G01 X54.2913 Y68.7011
G01 X54.3130 Y68.6296
G01 X54.3312 Y68.5570
G01 X54.3458 Y68.4837
G01 X54.3567 Y68.4098
G01 X54.3641 Y68.3354
G01 X54.3677 Y68.2607
G01 X54.3677 Y68.1860
G01 X54.3641 Y68.1113
G01 X54.3567 Y68.0370
G01 X54.3458 Y67.9630
G01 X54.3312 Y67.8897
G01 X54.3130 Y67.8172
G01 X54.2913 Y67.7457
G01 X54.2661 Y67.6753
G01 X54.2375 Y67.6063
G01 X54.2056 Y67.5387
G01 X54.1703 Y67.4728
G01 X54.1319 Y67.4087
G01 X54.0904 Y67.3465
G01 X54.0459 Y67.2865
G01 X53.9985 Y67.2287
G01 X53.9482 Y67.1733
G01 X53.8954 Y67.1205
G01 X53.8400 Y67.0703
G01 X53.7823 Y67.0229
G01 X53.7222 Y66.9783
G01 X53.6849 Y66.9534
G00 Z2.0000
G00 X51.5669 Y69.0503
G01 F60.00
G01 Z-0.2001
G01 F320.00
G01 X51.6003 Y69.1002
G01 X51.6448 Y69.1603
G01 X51.6922 Y69.2180
G01 X51.7424 Y69.2735
G01 X51.7953 Y69.3263
G01 X51.8507 Y69.3765
G01 X51.9084 Y69.4239
G01 X51.9685 Y69.4684
G01 X52.0058 Y69.4934
G01 X51.9932 Y69.5018
G01 X51.5669 Y69.5018
G01 X51.5669 Y69.0503
G00 Z2.0000
G00 X53.6849 Y72.0334
G01 F60.00
G01 Z-0.2001
G01 F320.00
G01 X53.6975 Y72.0249
G01 X56.6638 Y72.0249
G01 X56.6638 Y76.8092
G01 X56.6469 Y76.7939
G01 X56.6469 Y73.3034
G01 X56.6460 Y73.2660
G01 X56.6436 Y73.2170
G01 X56.6362 Y73.1426
G01 X56.6290 Y73.0941
G01 X56.6145 Y73.0208
G01 X56.6025 Y72.9732
G01 X56.5808 Y72.9017
G01 X56.5643 Y72.8555
G01 X56.5357 Y72.7865
G01 X56.5147 Y72.7421
G01 X56.4795 Y72.6762
G01 X56.4543 Y72.6341
G01 X56.4128 Y72.5720
G01 X56.3835 Y72.5325
G01 X56.3361 Y72.4748
G01 X56.3032 Y72.4384
G01 X56.2503 Y72.3856
G01 X56.2139 Y72.3526
G01 X56.1562 Y72.3052
G01 X56.1168 Y72.2760
G01 X56.0546 Y72.2345
G01 X56.0125 Y72.2092
G01 X55.9467 Y72.1740
G01 X55.9023 Y72.1530
G01 X55.8332 Y72.1244
G01 X55.7870 Y72.1079
G01 X55.7155 Y72.0862
G01 X55.6679 Y72.0743
G01 X55.5946 Y72.0597
G01 X55.5461 Y72.0525
G01 X55.4717 Y72.0452
G01 X55.4227 Y72.0428
G01 X55.3853 Y72.0418
G01 X53.6975 Y72.0418
G01 X53.6849 Y72.0334
G00 Z2.0000
G00 X56.6638 Y79.9575
G01 F60.00
G01 Z-0.2001
G01 F320.00
G01 X56.6638 Y82.6365
G01 X56.6469 Y82.6112
G01 X56.6469 Y79.9728
G01 X56.6638 Y79.9575
G00 Z2.0000
G00 X59.1869 Y80.0965
G01 F60.00
G01 Z-0.2001
G01 F320.00
G01 X59.1869 Y79.2103
G01 X59.2203 Y79.2602
G01 X59.2648 Y79.3203
G01 X59.3122 Y79.3780
G01 X59.3624 Y79.4335
G01 X59.4153 Y79.4863
G01 X59.4707 Y79.5365
G01 X59.5284 Y79.5839
G01 X59.5885 Y79.6284
G01 X59.6258 Y79.6534
G01 X59.5885 Y79.6783
G01 X59.5284 Y79.7229
G01 X59.4707 Y79.7703
G01 X59.4153 Y79.8205
G01 X59.3624 Y79.8733
G01 X59.3122 Y79.9287
G01 X59.2648 Y79.9865
G01 X59.2203 Y80.0465
G01 X59.1869 Y80.0965
G00 Z2.0000
G00 X61.3049 Y79.6534
G01 F60.00
G01 Z-0.2001
G01 F320.00
G01 X61.3175 Y79.6449
G01 X62.1785 Y79.6449
G01 X62.1532 Y79.6618
G01 X61.3175 Y79.6618
G01 X61.3049 Y79.6534
G00 Z2.0000
G00 X59.1869 Y82.6365
G01 F60.00
G01 Z-0.2001
G01 F320.00
G01 X59.1869 Y81.7503
G01 X59.2038 Y81.7756
G01 X59.2038 Y82.6112
G01 X59.1869 Y82.6365
G00 Z2.0000
G00 X56.6638 Y84.2903
G01 F60.00
G01 Z-0.2001
G01 F320.00
G01 X56.6638 Y91.0834
G01 X56.6647 Y91.1207
G01 X56.6671 Y91.1698
G01 X56.6744 Y91.2441
G01 X56.6816 Y91.2927
G01 X56.6962 Y91.3660
G01 X56.7081 Y91.4136
G01 X56.7298 Y91.4851
G01 X56.7464 Y91.5313
G01 X56.7750 Y91.6003
G01 X56.7960 Y91.6447
G01 X56.8312 Y91.7106
G01 X56.8564 Y91.7527
G01 X56.8979 Y91.8148
G01 X56.9272 Y91.8542
G01 X56.9746 Y91.9120
G01 X57.0075 Y91.9484
G01 X57.0604 Y92.0012
G01 X57.0967 Y92.0342
G01 X57.1545 Y92.0816
G01 X57.1939 Y92.1108
G01 X57.2560 Y92.1523
G01 X57.2981 Y92.1776
G01 X57.3640 Y92.2128
G01 X57.4084 Y92.2338
G01 X57.4774 Y92.2623
G01 X57.5237 Y92.2789
G01 X57.5951 Y92.3006
G01 X57.6428 Y92.3125
G01 X57.7160 Y92.3271
G01 X57.7646 Y92.3343
G01 X57.8390 Y92.3416
G01 X57.8880 Y92.3440
G01 X57.9253 Y92.3449
G01 X62.1785 Y92.3449
G01 X62.1532 Y92.3618
G01 X46.4869 Y92.3618
G01 X46.4869 Y84.2903
G01 X46.5203 Y84.3402
G01 X46.5648 Y84.4003
G01 X46.6122 Y84.4580
G01 X46.6624 Y84.5135
G01 X46.7153 Y84.5663
G01 X46.7707 Y84.6165
G01 X46.8284 Y84.6639
G01 X46.8885 Y84.7084
G01 X46.9506 Y84.7500
G01 X47.0147 Y84.7884
G01 X47.0806 Y84.8236
G01 X47.1482 Y84.8556
G01 X47.2173 Y84.8842
G01 X47.2877 Y84.9094
G01 X47.3592 Y84.9311
G01 X47.4317 Y84.9492
G01 X47.5050 Y84.9638
G01 X47.5789 Y84.9748
G01 X47.6533 Y84.9821
G01 X47.7280 Y84.9858
G01 X47.8027 Y84.9858
G01 X47.8774 Y84.9821
G01 X47.9517 Y84.9748
G01 X48.0257 Y84.9638
G01 X48.0990 Y84.9492
G01 X48.1715 Y84.9311
G01 X48.2430 Y84.9094
G01 X48.3134 Y84.8842
G01 X48.3824 Y84.8556
G01 X48.4500 Y84.8236
G01 X48.5159 Y84.7884
G01 X48.5801 Y84.7500
G01 X48.6422 Y84.7084
G01 X48.7023 Y84.6639
G01 X48.7600 Y84.6165
G01 X48.8154 Y84.5663
G01 X48.8682 Y84.5135
G01 X48.9185 Y84.4580
G01 X48.9659 Y84.4003
G01 X49.0104 Y84.3402
G01 X49.0519 Y84.2781
G01 X49.0903 Y84.2140
G01 X49.1256 Y84.1481
G01 X49.1575 Y84.0805
G01 X49.1861 Y84.0115
G01 X49.2113 Y83.9411
G01 X49.2330 Y83.8696
G01 X49.2512 Y83.7970
G01 X49.2658 Y83.7237
G01 X49.2767 Y83.6498
G01 X49.2841 Y83.5754
G01 X49.2877 Y83.5007
G01 X49.2877 Y83.4260
G01 X49.2841 Y83.3513
G01 X49.2767 Y83.2770
G01 X49.2658 Y83.2030
G01 X49.2512 Y83.1297
G01 X49.2330 Y83.0572
G01 X49.2113 Y82.9857
G01 X49.1861 Y82.9153
G01 X49.1575 Y82.8463
G01 X49.1256 Y82.7787
G01 X49.0903 Y82.7128
G01 X49.0519 Y82.6487
G01 X49.0269 Y82.6112
G01 X49.0269 Y82.1849
G01 X49.4532 Y82.1849
G01 X49.4906 Y82.2100
G01 X49.5547 Y82.2484
G01 X49.6206 Y82.2836
G01 X49.6882 Y82.3156
G01 X49.7573 Y82.3442
G01 X49.8277 Y82.3694
G01 X49.8992 Y82.3911
G01 X49.9717 Y82.4092
G01 X50.0450 Y82.4238
G01 X50.1189 Y82.4348
G01 X50.1933 Y82.4421
G01 X50.2680 Y82.4458
G01 X50.3427 Y82.4458
G01 X50.4174 Y82.4421
G01 X50.4917 Y82.4348
G01 X50.5657 Y82.4238
G01 X50.6390 Y82.4092
G01 X50.7115 Y82.3911
G01 X50.7830 Y82.3694
G01 X50.8534 Y82.3442
G01 X50.9224 Y82.3156
G01 X50.9900 Y82.2836
G01 X51.0559 Y82.2484
G01 X51.1201 Y82.2100
G01 X51.1822 Y82.1684
G01 X51.2423 Y82.1239
G01 X51.3000 Y82.0765
G01 X51.3554 Y82.0263
G01 X51.4082 Y81.9735
G01 X51.4585 Y81.9180
G01 X51.5059 Y81.8603
G01 X51.5504 Y81.8002
G01 X51.5919 Y81.7381
G01 X51.6303 Y81.6740
G01 X51.6656 Y81.6081
G01 X51.6975 Y81.5405
G01 X51.7261 Y81.4715
G01 X51.7513 Y81.4011
G01 X51.7730 Y81.3296
G01 X51.7912 Y81.2570
G01 X51.8058 Y81.1837
G01 X51.8167 Y81.1098
G01 X51.8241 Y81.0354
G01 X51.8277 Y80.9607
G01 X51.8277 Y80.8860
G01 X51.8241 Y80.8113
G01 X51.8167 Y80.7370
G01 X51.8058 Y80.6630
G01 X51.7912 Y80.5897
G01 X51.7730 Y80.5172
G01 X51.7513 Y80.4457
G01 X51.7261 Y80.3753
G01 X51.6975 Y80.3063
G01 X51.6656 Y80.2387
G01 X51.6303 Y80.1728
G01 X51.5919 Y80.1087
G01 X51.5504 Y80.0465
G01 X51.5059 Y79.9865
G01 X51.4585 Y79.9287
G01 X51.4082 Y79.8733
G01 X51.3554 Y79.8205
G01 X51.3000 Y79.7703
G01 X51.2423 Y79.7229
G01 X51.1822 Y79.6783
G01 X51.1322 Y79.6449
G01 X51.3636 Y79.6449
G01 X51.3800 Y79.6907
G01 X51.4119 Y79.7583
G01 X51.4503 Y79.8223
G01 X51.4948 Y79.8823
G01 X51.5450 Y79.9377
G01 X51.6004 Y79.9879
G01 X51.6604 Y80.0324
G01 X51.7245 Y80.0708
G01 X51.7920 Y80.1027
G01 X51.8623 Y80.1279
G01 X51.9348 Y80.1461
G01 X52.0087 Y80.1570
G01 X52.0833 Y80.1607
G01 X53.6073 Y80.1607
G01 X53.6820 Y80.1570
G01 X53.7559 Y80.1461
G01 X53.8283 Y80.1279
G01 X53.8987 Y80.1027
G01 X53.9662 Y80.0708
G01 X54.0303 Y80.0324
G01 X54.0903 Y79.9879
G01 X54.1153 Y79.9652
G01 X54.1238 Y79.9728
G01 X54.1238 Y82.6112
G01 X54.0988 Y82.6487
G01 X54.0603 Y82.7128
G01 X54.0251 Y82.7787
G01 X53.9931 Y82.8463
G01 X53.9645 Y82.9153
G01 X53.9394 Y82.9857
G01 X53.9177 Y83.0572
G01 X53.8995 Y83.1297
G01 X53.8849 Y83.2030
G01 X53.8740 Y83.2770
G01 X53.8666 Y83.3513
G01 X53.8630 Y83.4260
G01 X53.8630 Y83.5007
G01 X53.8666 Y83.5754
G01 X53.8740 Y83.6498
G01 X53.8849 Y83.7237
G01 X53.8995 Y83.7970
G01 X53.9177 Y83.8696
G01 X53.9394 Y83.9411
G01 X53.9645 Y84.0115
G01 X53.9931 Y84.0805
G01 X54.0251 Y84.1481
G01 X54.0603 Y84.2140
G01 X54.0988 Y84.2781
G01 X54.1403 Y84.3402
G01 X54.1848 Y84.4003
G01 X54.2322 Y84.4580
G01 X54.2824 Y84.5135
G01 X54.3353 Y84.5663
G01 X54.3907 Y84.6165
G01 X54.4484 Y84.6639
G01 X54.5085 Y84.7084
G01 X54.5706 Y84.7500
G01 X54.6347 Y84.7884
G01 X54.7006 Y84.8236
G01 X54.7682 Y84.8556
G01 X54.8373 Y84.8842
G01 X54.9077 Y84.9094
G01 X54.9792 Y84.9311
G01 X55.0517 Y84.9492
G01 X55.1250 Y84.9638
G01 X55.1989 Y84.9748
G01 X55.2733 Y84.9821
G01 X55.3480 Y84.9858
G01 X55.4227 Y84.9858
G01 X55.4974 Y84.9821
G01 X55.5717 Y84.9748
G01 X55.6457 Y84.9638
G01 X55.7190 Y84.9492
G01 X55.7915 Y84.9311
G01 X55.8630 Y84.9094
G01 X55.9334 Y84.8842
G01 X56.0024 Y84.8556
G01 X56.0700 Y84.8236
G01 X56.1359 Y84.7884
G01 X56.2001 Y84.7500
G01 X56.2622 Y84.7084
G01 X56.3223 Y84.6639
G01 X56.3800 Y84.6165
G01 X56.4354 Y84.5663
G01 X56.4882 Y84.5135
G01 X56.5385 Y84.4580
G01 X56.5859 Y84.4003
G01 X56.6304 Y84.3402
G01 X56.6638 Y84.2903
G00 Z2.0000
G00 X69.3638 Y84.2903
G01 F60.00
G01 Z-0.2001
G01 F320.00
G01 X69.3638 Y88.5434
G01 X69.3647 Y88.5807
G01 X69.3671 Y88.6298
G01 X69.3744 Y88.7041
G01 X69.3816 Y88.7527
G01 X69.3962 Y88.8260
G01 X69.4081 Y88.8736
G01 X69.4298 Y88.9451
G01 X69.4464 Y88.9913
G01 X69.4750 Y89.0603
G01 X69.4960 Y89.1047
G01 X69.5312 Y89.1706
G01 X69.5564 Y89.2127
G01 X69.5979 Y89.2748
G01 X69.6272 Y89.3142
G01 X69.6746 Y89.3720
G01 X69.7075 Y89.4084
G01 X69.7604 Y89.4612
G01 X69.7967 Y89.4942
G01 X69.8545 Y89.5416
G01 X69.8939 Y89.5708
G01 X69.9560 Y89.6123
G01 X69.9981 Y89.6376
G01 X70.0591 Y89.6701
G01 X70.0082 Y89.6912
G01 X69.9406 Y89.7232
G01 X69.8747 Y89.7584
G01 X69.8106 Y89.7968
G01 X69.7732 Y89.8218
G01 X59.1869 Y89.8218
G01 X59.1869 Y84.2903
G01 X59.2203 Y84.3402
G01 X59.2648 Y84.4003
G01 X59.3122 Y84.4580
G01 X59.3624 Y84.5135
G01 X59.4153 Y84.5663
G01 X59.4707 Y84.6165
G01 X59.5284 Y84.6639
G01 X59.5885 Y84.7084
G01 X59.6506 Y84.7500
G01 X59.7147 Y84.7884
G01 X59.7806 Y84.8236
G01 X59.8482 Y84.8556
G01 X59.9173 Y84.8842
G01 X59.9877 Y84.9094
G01 X60.0592 Y84.9311
G01 X60.1317 Y84.9492
G01 X60.2050 Y84.9638
G01 X60.2789 Y84.9748
G01 X60.3533 Y84.9821
G01 X60.4280 Y84.9858
G01 X60.5027 Y84.9858
G01 X60.5774 Y84.9821
G01 X60.6517 Y84.9748
G01 X60.7257 Y84.9638
G01 X60.7990 Y84.9492
G01 X60.8715 Y84.9311
G01 X60.9430 Y84.9094
G01 X61.0134 Y84.8842
G01 X61.0824 Y84.8556
G01 X61.1500 Y84.8236
G01 X61.2159 Y84.7884
G01 X61.2801 Y84.7500
G01 X61.3422 Y84.7084
G01 X61.4023 Y84.6639
G01 X61.4600 Y84.6165
G01 X61.5154 Y84.5663
G01 X61.5682 Y84.5135
G01 X61.6185 Y84.4580
G01 X61.6659 Y84.4003
G01 X61.7104 Y84.3402
G01 X61.7519 Y84.2781
G01 X61.7903 Y84.2140
G01 X61.8256 Y84.1481
G01 X61.8575 Y84.0805
G01 X61.8861 Y84.0115
G01 X61.9113 Y83.9411
G01 X61.9330 Y83.8696
G01 X61.9512 Y83.7970
G01 X61.9658 Y83.7237
G01 X61.9767 Y83.6498
G01 X61.9841 Y83.5754
G01 X61.9877 Y83.5007
G01 X61.9877 Y83.4260
G01 X61.9841 Y83.3513
G01 X61.9767 Y83.2770
G01 X61.9658 Y83.2030
G01 X61.9512 Y83.1297
G01 X61.9330 Y83.0572
G01 X61.9113 Y82.9857
G01 X61.8861 Y82.9153
G01 X61.8575 Y82.8463
G01 X61.8256 Y82.7787
G01 X61.7903 Y82.7128
G01 X61.7519 Y82.6487
G01 X61.7269 Y82.6112
G01 X61.7269 Y82.1849
G01 X62.1532 Y82.1849
G01 X62.1906 Y82.2100
G01 X62.2547 Y82.2484
G01 X62.3206 Y82.2836
G01 X62.3882 Y82.3156
G01 X62.4573 Y82.3442
G01 X62.5277 Y82.3694
G01 X62.5992 Y82.3911
G01 X62.6717 Y82.4092
G01 X62.7450 Y82.4238
G01 X62.8189 Y82.4348
G01 X62.8933 Y82.4421
G01 X62.9680 Y82.4458
G01 X63.0427 Y82.4458
G01 X63.1174 Y82.4421
G01 X63.1917 Y82.4348
G01 X63.2657 Y82.4238
G01 X63.3390 Y82.4092
G01 X63.4115 Y82.3911
G01 X63.4830 Y82.3694
G01 X63.5534 Y82.3442
G01 X63.6224 Y82.3156
G01 X63.6900 Y82.2836
G01 X63.7559 Y82.2484
G01 X63.8201 Y82.2100
G01 X63.8822 Y82.1684
G01 X63.9423 Y82.1239
G01 X64.0000 Y82.0765
G01 X64.0554 Y82.0263
G01 X64.1082 Y81.9735
G01 X64.1585 Y81.9180
G01 X64.2059 Y81.8603
G01 X64.2504 Y81.8002
G01 X64.2919 Y81.7381
G01 X64.3303 Y81.6740
G01 X64.3656 Y81.6081
G01 X64.3975 Y81.5405
G01 X64.4261 Y81.4715
G01 X64.4513 Y81.4011
G01 X64.4730 Y81.3296
G01 X64.4912 Y81.2570
G01 X64.5058 Y81.1837
G01 X64.5167 Y81.1098
G01 X64.5241 Y81.0354
G01 X64.5277 Y80.9607
G01 X64.5277 Y80.8860
G01 X64.5241 Y80.8113
G01 X64.5167 Y80.7370
G01 X64.5058 Y80.6630
G01 X64.4912 Y80.5897
G01 X64.4730 Y80.5172
G01 X64.4513 Y80.4457
G01 X64.4261 Y80.3753
G01 X64.3975 Y80.3063
G01 X64.3656 Y80.2387
G01 X64.3303 Y80.1728
G01 X64.2919 Y80.1087
G01 X64.2504 Y80.0465
G01 X64.2059 Y79.9865
G01 X64.1585 Y79.9287
