(G-CODE GENERATED BY FLATCAM v8.991 - www.flatcam.org - Version Date: 2019/12/27)

(Name: 004_Display_drill)
(Type: G-code from Excellon)
(Units: MM)

(Created on Sunday, 01 March 2020 at 13:26)

(Feedrate: 300.0 mm/min)
(Feedrate rapids 1500.0 mm/min)

(Z_Cut: -1.9000000000000001 mm)
(Z_Move: 2.0 mm)
(Z Toolchange: 15.0 mm)
(X,Y Toolchange: 0.0000, 0.0000 mm)
(Z Start: None mm)
(Z End: 0.5 mm)
(Steps per circle: 64)
(Preprocessor Excellon: default)

(X range:    4.1408 ...  144.7298  mm)
(Y range:    4.2789 ...   96.6079  mm)

(Spindle Speed: None RPM)
G21
G90
G94

M03 S3000


G01 F300.00
G00 Z2.0000

M03
G00 X144.2853 Y55.5234
G01 Z-1.9000
G01 Z0
G00 Z2.0000
G00 X144.2853 Y78.3834
G01 Z-1.9000
G01 Z0
G00 Z2.0000
G00 X141.7453 Y78.3834
G01 Z-1.9000
G01 Z0
G00 Z2.0000
G00 X131.5853 Y78.3834
G01 Z-1.9000
G01 Z0
G00 Z2.0000
G00 X129.0453 Y78.3834
G01 Z-1.9000
G01 Z0
G00 Z2.0000
G00 X118.8853 Y78.3834
G01 Z-1.9000
G01 Z0
G00 Z2.0000
G00 X116.3453 Y78.3834
G01 Z-1.9000
G01 Z0
G00 Z2.0000
G00 X106.1853 Y78.3834
G01 Z-1.9000
G01 Z0
G00 Z2.0000
G00 X103.6453 Y78.3834
G01 Z-1.9000
G01 Z0
G00 Z2.0000
G00 X118.8853 Y55.5234
G01 Z-1.9000
G01 Z0
G00 Z2.0000
G00 X116.3453 Y55.5234
G01 Z-1.9000
G01 Z0
G00 Z2.0000
G00 X106.1853 Y55.5234
G01 Z-1.9000
G01 Z0
G00 Z2.0000
G00 X103.6453 Y55.5234
G01 Z-1.9000
G01 Z0
G00 Z2.0000
G00 X93.4853 Y55.5234
G01 Z-1.9000
G01 Z0
G00 Z2.0000
G00 X90.9453 Y55.5234
G01 Z-1.9000
G01 Z0
G00 Z2.0000
G00 X80.7853 Y55.5234
G01 Z-1.9000
G01 Z0
G00 Z2.0000
G00 X78.2453 Y55.5234
G01 Z-1.9000
G01 Z0
G00 Z2.0000
G00 X68.0853 Y55.5234
G01 Z-1.9000
G01 Z0
G00 Z2.0000
G00 X65.5453 Y55.5234
G01 Z-1.9000
G01 Z0
G00 Z2.0000
G00 X93.4853 Y78.3834
G01 Z-1.9000
G01 Z0
G00 Z2.0000
G00 X90.9453 Y78.3834
G01 Z-1.9000
G01 Z0
G00 Z2.0000
G00 X80.7853 Y78.3834
G01 Z-1.9000
G01 Z0
G00 Z2.0000
G00 X78.2453 Y78.3834
G01 Z-1.9000
G01 Z0
G00 Z2.0000
G00 X68.0853 Y78.3834
G01 Z-1.9000
G01 Z0
G00 Z2.0000
G00 X65.5453 Y78.3834
G01 Z-1.9000
G01 Z0
G00 Z2.0000
G00 X55.3853 Y78.3834
G01 Z-1.9000
G01 Z0
G00 Z2.0000
G00 X52.8453 Y78.3834
G01 Z-1.9000
G01 Z0
G00 Z2.0000
G00 X42.6853 Y78.3834
G01 Z-1.9000
G01 Z0
G00 Z2.0000
G00 X40.1453 Y78.3834
G01 Z-1.9000
G01 Z0
G00 Z2.0000
G00 X29.9853 Y78.3834
G01 Z-1.9000
G01 Z0
G00 Z2.0000
G00 X27.4453 Y78.3834
G01 Z-1.9000
G01 Z0
G00 Z2.0000
G00 X55.3853 Y55.5234
G01 Z-1.9000
G01 Z0
G00 Z2.0000
G00 X52.8453 Y55.5234
G01 Z-1.9000
G01 Z0
G00 Z2.0000
G00 X42.6853 Y55.5234
G01 Z-1.9000
G01 Z0
G00 Z2.0000
G00 X40.1453 Y55.5234
G01 Z-1.9000
G01 Z0
G00 Z2.0000
G00 X29.9853 Y55.5234
G01 Z-1.9000
G01 Z0
G00 Z2.0000
G00 X27.4453 Y55.5234
G01 Z-1.9000
G01 Z0
G00 Z2.0000
G00 X17.2853 Y35.2034
G01 Z-1.9000
G01 Z0
G00 Z2.0000
G00 X19.8253 Y35.2034
G01 Z-1.9000
G01 Z0
G00 Z2.0000
G00 X40.1453 Y25.0434
G01 Z-1.9000
G01 Z0
G00 Z2.0000
G00 X40.1453 Y22.5034
G01 Z-1.9000
G01 Z0
G00 Z2.0000
G00 X50.3053 Y25.0434
G01 Z-1.9000
G01 Z0
G00 Z2.0000
G00 X50.3053 Y22.5034
G01 Z-1.9000
G01 Z0
G00 Z2.0000
G00 X60.4653 Y25.0434
G01 Z-1.9000
G01 Z0
G00 Z2.0000
G00 X60.4653 Y22.5034
G01 Z-1.9000
G01 Z0
G00 Z2.0000
G00 X70.6253 Y25.0434
G01 Z-1.9000
G01 Z0
G00 Z2.0000
G00 X70.6253 Y22.5034
G01 Z-1.9000
G01 Z0
G00 Z2.0000
G00 X80.7853 Y25.0434
G01 Z-1.9000
G01 Z0
G00 Z2.0000
G00 X80.7853 Y22.5034
G01 Z-1.9000
G01 Z0
G00 Z2.0000
G00 X90.9453 Y25.0434
G01 Z-1.9000
G01 Z0
G00 Z2.0000
G00 X90.9453 Y22.5034
G01 Z-1.9000
G01 Z0
G00 Z2.0000
G00 X101.1053 Y25.0434
G01 Z-1.9000
G01 Z0
G00 Z2.0000
G00 X101.1053 Y22.5034
G01 Z-1.9000
G01 Z0
G00 Z2.0000
G00 X111.2653 Y25.0434
G01 Z-1.9000
G01 Z0
G00 Z2.0000
G00 X111.2653 Y22.5034
G01 Z-1.9000
G01 Z0
G00 Z2.0000
G00 X121.4253 Y25.0434
G01 Z-1.9000
G01 Z0
G00 Z2.0000
G00 X121.4253 Y22.5034
G01 Z-1.9000
G01 Z0
G00 Z2.0000
G00 X131.5853 Y25.0434
G01 Z-1.9000
G01 Z0
G00 Z2.0000
G00 X131.5853 Y22.5034
G01 Z-1.9000
G01 Z0
G00 Z2.0000
G00 X141.7453 Y22.5034
G01 Z-1.9000
G01 Z0
G00 Z2.0000
G00 X141.7453 Y25.0434
G01 Z-1.9000
G01 Z0
G00 Z2.0000
G00 X129.0453 Y55.5234
G01 Z-1.9000
G01 Z0
G00 Z2.0000
G00 X131.5853 Y55.5234
G01 Z-1.9000
G01 Z0
G00 Z2.0000
G00 X141.7453 Y55.5234
G01 Z-1.9000
G01 Z0
G00 Z2.0000
M03
G00 X144.2853 Y60.6034
G01 Z-1.9000
G01 Z0
G00 Z2.0000
G00 X136.6653 Y60.6034
G01 Z-1.9000
G01 Z0
G00 Z2.0000
G00 X131.5853 Y60.6034
G01 Z-1.9000
G01 Z0
G00 Z2.0000
G00 X123.9653 Y60.6034
G01 Z-1.9000
G01 Z0
G00 Z2.0000
G00 X118.8853 Y60.6034
G01 Z-1.9000
G01 Z0
G00 Z2.0000
G00 X111.2653 Y68.2234
G01 Z-1.9000
G01 Z0
G00 Z2.0000
G00 X111.2653 Y78.3834
G01 Z-1.9000
G01 Z0
G00 Z2.0000
G00 X111.2653 Y83.4634
G01 Z-1.9000
G01 Z0
G00 Z2.0000
G00 X118.8853 Y83.4634
G01 Z-1.9000
G01 Z0
G00 Z2.0000
G00 X123.9653 Y83.4634
G01 Z-1.9000
G01 Z0
G00 Z2.0000
G00 X123.9653 Y78.3834
G01 Z-1.9000
G01 Z0
G00 Z2.0000
G00 X123.9653 Y68.2234
G01 Z-1.9000
G01 Z0
G00 Z2.0000
G00 X136.6653 Y68.2234
G01 Z-1.9000
G01 Z0
G00 Z2.0000
G00 X136.6653 Y78.3834
G01 Z-1.9000
G01 Z0
G00 Z2.0000
G00 X144.2853 Y83.4634
G01 Z-1.9000
G01 Z0
G00 Z2.0000
G00 X136.6653 Y83.4634
G01 Z-1.9000
G01 Z0
G00 Z2.0000
G00 X131.5853 Y83.4634
G01 Z-1.9000
G01 Z0
G00 Z2.0000
G00 X131.5853 Y96.1634
G01 Z-1.9000
G01 Z0
G00 Z2.0000
G00 X123.9653 Y96.1634
G01 Z-1.9000
G01 Z0
G00 Z2.0000
G00 X123.9653 Y93.6234
G01 Z-1.9000
G01 Z0
G00 Z2.0000
G00 X116.3453 Y93.6234
G01 Z-1.9000
G01 Z0
G00 Z2.0000
G00 X116.3453 Y91.0834
G01 Z-1.9000
G01 Z0
G00 Z2.0000
G00 X108.7253 Y91.0834
G01 Z-1.9000
G01 Z0
G00 Z2.0000
G00 X108.7253 Y88.5434
G01 Z-1.9000
G01 Z0
G00 Z2.0000
G00 X106.1853 Y83.4634
G01 Z-1.9000
G01 Z0
G00 Z2.0000
G00 X101.1053 Y88.5434
G01 Z-1.9000
G01 Z0
G00 Z2.0000
G00 X96.0253 Y93.6234
G01 Z-1.9000
G01 Z0
G00 Z2.0000
G00 X93.4853 Y93.6234
G01 Z-1.9000
G01 Z0
G00 Z2.0000
G00 X93.4853 Y86.0034
G01 Z-1.9000
G01 Z0
G00 Z2.0000
G00 X96.0253 Y86.0034
G01 Z-1.9000
G01 Z0
G00 Z2.0000
G00 X98.5653 Y83.4634
G01 Z-1.9000
G01 Z0
G00 Z2.0000
G00 X98.5653 Y78.3834
G01 Z-1.9000
G01 Z0
G00 Z2.0000
G00 X93.4853 Y83.4634
G01 Z-1.9000
G01 Z0
G00 Z2.0000
G00 X85.8653 Y88.5434
G01 Z-1.9000
G01 Z0
G00 Z2.0000
G00 X85.8653 Y83.4634
G01 Z-1.9000
G01 Z0
G00 Z2.0000
G00 X85.8653 Y78.3834
G01 Z-1.9000
G01 Z0
G00 Z2.0000
G00 X80.7853 Y83.4634
G01 Z-1.9000
G01 Z0
G00 Z2.0000
G00 X78.2453 Y88.5434
G01 Z-1.9000
G01 Z0
G00 Z2.0000
G00 X78.2453 Y91.0834
G01 Z-1.9000
G01 Z0
G00 Z2.0000
G00 X70.6253 Y91.0834
G01 Z-1.9000
G01 Z0
G00 Z2.0000
G00 X70.6253 Y93.6234
G01 Z-1.9000
G01 Z0
G00 Z2.0000
G00 X63.0053 Y93.6234
G01 Z-1.9000
G01 Z0
G00 Z2.0000
G00 X63.0053 Y96.1634
G01 Z-1.9000
G01 Z0
G00 Z2.0000
G00 X55.3853 Y96.1634
G01 Z-1.9000
G01 Z0
G00 Z2.0000
G00 X68.0853 Y83.4634
G01 Z-1.9000
G01 Z0
G00 Z2.0000
G00 X73.1653 Y83.4634
G01 Z-1.9000
G01 Z0
G00 Z2.0000
G00 X73.1653 Y78.3834
G01 Z-1.9000
G01 Z0
G00 Z2.0000
G00 X73.1653 Y68.2234
G01 Z-1.9000
G01 Z0
G00 Z2.0000
G00 X85.8653 Y68.2234
G01 Z-1.9000
G01 Z0
G00 Z2.0000
G00 X85.8653 Y60.6034
G01 Z-1.9000
G01 Z0
G00 Z2.0000
G00 X80.7853 Y60.6034
G01 Z-1.9000
G01 Z0
G00 Z2.0000
G00 X85.8653 Y55.5234
G01 Z-1.9000
G01 Z0
G00 Z2.0000
G00 X85.8653 Y45.3634
G01 Z-1.9000
G01 Z0
G00 Z2.0000
G00 X83.3253 Y40.2834
G01 Z-1.9000
G01 Z0
G00 Z2.0000
G00 X70.6253 Y40.2834
G01 Z-1.9000
G01 Z0
G00 Z2.0000
G00 X73.1653 Y45.3634
G01 Z-1.9000
G01 Z0
G00 Z2.0000
G00 X73.1653 Y55.5234
G01 Z-1.9000
G01 Z0
G00 Z2.0000
G00 X73.1653 Y60.6034
G01 Z-1.9000
G01 Z0
G00 Z2.0000
G00 X68.0853 Y60.6034
G01 Z-1.9000
G01 Z0
G00 Z2.0000
G00 X60.4653 Y68.2234
G01 Z-1.9000
G01 Z0
G00 Z2.0000
G00 X60.4653 Y78.3834
G01 Z-1.9000
G01 Z0
G00 Z2.0000
G00 X60.4653 Y83.4634
G01 Z-1.9000
G01 Z0
G00 Z2.0000
G00 X55.3853 Y83.4634
G01 Z-1.9000
G01 Z0
G00 Z2.0000
G00 X47.7653 Y78.3834
G01 Z-1.9000
G01 Z0
G00 Z2.0000
G00 X47.7653 Y83.4634
G01 Z-1.9000
G01 Z0
G00 Z2.0000
G00 X42.6853 Y83.4634
G01 Z-1.9000
G01 Z0
G00 Z2.0000
G00 X35.0653 Y83.4634
G01 Z-1.9000
G01 Z0
G00 Z2.0000
G00 X29.9853 Y83.4634
G01 Z-1.9000
G01 Z0
G00 Z2.0000
G00 X22.3653 Y83.4634
G01 Z-1.9000
G01 Z0
G00 Z2.0000
G00 X22.3653 Y78.3834
G01 Z-1.9000
G01 Z0
G00 Z2.0000
G00 X35.0653 Y78.3834
G01 Z-1.9000
G01 Z0
G00 Z2.0000
G00 X35.0653 Y68.2234
G01 Z-1.9000
G01 Z0
G00 Z2.0000
G00 X35.0653 Y60.6034
G01 Z-1.9000
G01 Z0
G00 Z2.0000
G00 X35.0653 Y55.5234
G01 Z-1.9000
G01 Z0
G00 Z2.0000
G00 X29.9853 Y60.6034
G01 Z-1.9000
G01 Z0
G00 Z2.0000
G00 X22.3653 Y68.2234
G01 Z-1.9000
G01 Z0
G00 Z2.0000
G00 X22.3653 Y60.6034
G01 Z-1.9000
G01 Z0
G00 Z2.0000
G00 X22.3653 Y55.5234
G01 Z-1.9000
G01 Z0
G00 Z2.0000
G00 X22.3653 Y45.3634
G01 Z-1.9000
G01 Z0
G00 Z2.0000
G00 X12.2053 Y40.2834
G01 Z-1.9000
G01 Z0
G00 Z2.0000
G00 X12.2053 Y30.1234
G01 Z-1.9000
G01 Z0
G00 Z2.0000
G00 X32.5253 Y40.2834
G01 Z-1.9000
G01 Z0
G00 Z2.0000
G00 X35.0653 Y45.3634
G01 Z-1.9000
G01 Z0
G00 Z2.0000
G00 X40.1453 Y40.2834
G01 Z-1.9000
G01 Z0
G00 Z2.0000
G00 X45.2253 Y40.2834
G01 Z-1.9000
G01 Z0
G00 Z2.0000
G00 X47.7653 Y45.3634
G01 Z-1.9000
G01 Z0
G00 Z2.0000
G00 X47.7653 Y55.5234
G01 Z-1.9000
G01 Z0
G00 Z2.0000
G00 X42.6853 Y60.6034
G01 Z-1.9000
G01 Z0
G00 Z2.0000
G00 X47.7653 Y60.6034
G01 Z-1.9000
G01 Z0
G00 Z2.0000
G00 X47.7653 Y68.2234
G01 Z-1.9000
G01 Z0
G00 Z2.0000
G00 X55.3853 Y60.6034
G01 Z-1.9000
G01 Z0
G00 Z2.0000
G00 X60.4653 Y60.6034
G01 Z-1.9000
G01 Z0
G00 Z2.0000
G00 X60.4653 Y55.5234
G01 Z-1.9000
G01 Z0
G00 Z2.0000
G00 X60.4653 Y45.3634
G01 Z-1.9000
G01 Z0
G00 Z2.0000
G00 X57.9253 Y40.2834
G01 Z-1.9000
G01 Z0
G00 Z2.0000
G00 X57.9253 Y32.6634
G01 Z-1.9000
G01 Z0
G00 Z2.0000
G00 X55.3853 Y30.1234
G01 Z-1.9000
G01 Z0
G00 Z2.0000
G00 X45.2253 Y32.6634
G01 Z-1.9000
G01 Z0
G00 Z2.0000
G00 X45.2253 Y30.1234
G01 Z-1.9000
G01 Z0
G00 Z2.0000
G00 X35.0653 Y30.1234
G01 Z-1.9000
G01 Z0
G00 Z2.0000
G00 X35.0653 Y19.9634
G01 Z-1.9000
G01 Z0
G00 Z2.0000
G00 X45.2253 Y19.9634
G01 Z-1.9000
G01 Z0
G00 Z2.0000
G00 X55.3853 Y19.9634
G01 Z-1.9000
G01 Z0
G00 Z2.0000
G00 X65.5453 Y19.9634
G01 Z-1.9000
G01 Z0
G00 Z2.0000
G00 X65.5453 Y30.1234
G01 Z-1.9000
G01 Z0
G00 Z2.0000
G00 X70.6253 Y32.6634
G01 Z-1.9000
G01 Z0
G00 Z2.0000
G00 X75.7053 Y30.1234
G01 Z-1.9000
G01 Z0
G00 Z2.0000
G00 X83.3253 Y32.6634
G01 Z-1.9000
G01 Z0
G00 Z2.0000
G00 X85.8653 Y30.1234
G01 Z-1.9000
G01 Z0
G00 Z2.0000
G00 X75.7053 Y19.9634
G01 Z-1.9000
G01 Z0
G00 Z2.0000
G00 X85.8653 Y19.9634
G01 Z-1.9000
G01 Z0
G00 Z2.0000
G00 X96.0253 Y19.9634
G01 Z-1.9000
G01 Z0
G00 Z2.0000
G00 X96.0253 Y30.1234
G01 Z-1.9000
G01 Z0
G00 Z2.0000
G00 X96.0253 Y32.6634
G01 Z-1.9000
G01 Z0
G00 Z2.0000
G00 X96.0253 Y40.2834
G01 Z-1.9000
G01 Z0
G00 Z2.0000
G00 X98.5653 Y45.3634
G01 Z-1.9000
G01 Z0
G00 Z2.0000
G00 X98.5653 Y55.5234
G01 Z-1.9000
G01 Z0
G00 Z2.0000
G00 X93.4853 Y60.6034
G01 Z-1.9000
G01 Z0
G00 Z2.0000
G00 X98.5653 Y60.6034
G01 Z-1.9000
G01 Z0
G00 Z2.0000
G00 X98.5653 Y68.2234
G01 Z-1.9000
G01 Z0
G00 Z2.0000
G00 X106.1853 Y60.6034
G01 Z-1.9000
G01 Z0
G00 Z2.0000
G00 X111.2653 Y60.6034
G01 Z-1.9000
G01 Z0
G00 Z2.0000
G00 X111.2653 Y55.5234
G01 Z-1.9000
G01 Z0
G00 Z2.0000
G00 X123.9653 Y55.5234
G01 Z-1.9000
G01 Z0
G00 Z2.0000
G00 X123.9653 Y45.3634
G01 Z-1.9000
G01 Z0
G00 Z2.0000
G00 X121.4253 Y40.2834
G01 Z-1.9000
G01 Z0
G00 Z2.0000
G00 X111.2653 Y45.3634
G01 Z-1.9000
G01 Z0
G00 Z2.0000
G00 X108.7253 Y40.2834
G01 Z-1.9000
G01 Z0
G00 Z2.0000
G00 X108.7253 Y32.6634
G01 Z-1.9000
G01 Z0
G00 Z2.0000
G00 X106.1853 Y30.1234
G01 Z-1.9000
G01 Z0
G00 Z2.0000
G00 X106.1853 Y19.9634
G01 Z-1.9000
G01 Z0
G00 Z2.0000
G00 X116.3453 Y19.9634
G01 Z-1.9000
G01 Z0
G00 Z2.0000
G00 X116.3453 Y30.1234
G01 Z-1.9000
G01 Z0
G00 Z2.0000
G00 X121.4253 Y32.6634
G01 Z-1.9000
G01 Z0
G00 Z2.0000
G00 X126.5053 Y30.1234
G01 Z-1.9000
G01 Z0
G00 Z2.0000
G00 X126.5053 Y19.9634
G01 Z-1.9000
G01 Z0
G00 Z2.0000
G00 X136.6653 Y19.9634
G01 Z-1.9000
G01 Z0
G00 Z2.0000
G00 X134.1253 Y32.6634
G01 Z-1.9000
G01 Z0
G00 Z2.0000
G00 X136.6653 Y30.1234
G01 Z-1.9000
G01 Z0
G00 Z2.0000
G00 X139.2053 Y32.6634
G01 Z-1.9000
G01 Z0
G00 Z2.0000
G00 X139.2053 Y40.2834
G01 Z-1.9000
G01 Z0
G00 Z2.0000
G00 X134.1253 Y40.2834
G01 Z-1.9000
G01 Z0
G00 Z2.0000
G00 X136.6653 Y45.3634
G01 Z-1.9000
G01 Z0
G00 Z2.0000
G00 X136.6653 Y55.5234
G01 Z-1.9000
G01 Z0
G00 Z2.0000
M03
G00 X144.2853 Y40.2834
G01 Z-1.9000
G01 Z0
G00 Z2.0000
G00 X144.2853 Y45.3634
G01 Z-1.9000
G01 Z0
G00 Z2.0000
G00 X141.7453 Y45.3634
G01 Z-1.9000
G01 Z0
G00 Z2.0000
G00 X141.7453 Y47.9034
G01 Z-1.9000
G01 Z0
G00 Z2.0000
G00 X141.7453 Y50.4434
G01 Z-1.9000
G01 Z0
G00 Z2.0000
G00 X139.2053 Y58.0634
G01 Z-1.9000
G01 Z0
G00 Z2.0000
G00 X136.6653 Y58.0634
G01 Z-1.9000
G01 Z0
G00 Z2.0000
G00 X136.6653 Y65.6834
G01 Z-1.9000
G01 Z0
G00 Z2.0000
G00 X141.7453 Y65.6834
G01 Z-1.9000
G01 Z0
G00 Z2.0000
G00 X141.7453 Y68.2234
G01 Z-1.9000
G01 Z0
G00 Z2.0000
G00 X141.7453 Y70.7634
G01 Z-1.9000
G01 Z0
G00 Z2.0000
G00 X141.7453 Y73.3034
G01 Z-1.9000
G01 Z0
G00 Z2.0000
G00 X139.2053 Y80.9234
G01 Z-1.9000
G01 Z0
G00 Z2.0000
G00 X136.6653 Y80.9234
G01 Z-1.9000
G01 Z0
G00 Z2.0000
G00 X126.5053 Y80.9234
G01 Z-1.9000
G01 Z0
G00 Z2.0000
G00 X123.9653 Y80.9234
G01 Z-1.9000
G01 Z0
G00 Z2.0000
G00 X129.0453 Y73.3034
G01 Z-1.9000
G01 Z0
G00 Z2.0000
G00 X129.0453 Y70.7634
G01 Z-1.9000
G01 Z0
G00 Z2.0000
G00 X129.0453 Y68.2234
G01 Z-1.9000
G01 Z0
G00 Z2.0000
G00 X129.0453 Y65.6834
G01 Z-1.9000
G01 Z0
G00 Z2.0000
G00 X123.9653 Y65.6834
G01 Z-1.9000
G01 Z0
G00 Z2.0000
G00 X123.9653 Y58.0634
G01 Z-1.9000
G01 Z0
G00 Z2.0000
G00 X126.5053 Y58.0634
G01 Z-1.9000
G01 Z0
G00 Z2.0000
G00 X129.0453 Y50.4434
G01 Z-1.9000
G01 Z0
G00 Z2.0000
G00 X129.0453 Y47.9034
G01 Z-1.9000
G01 Z0
G00 Z2.0000
G00 X131.5853 Y45.3634
G01 Z-1.9000
G01 Z0
G00 Z2.0000
G00 X129.0453 Y45.3634
G01 Z-1.9000
G01 Z0
G00 Z2.0000
G00 X118.8853 Y45.3634
G01 Z-1.9000
G01 Z0
G00 Z2.0000
G00 X116.3453 Y45.3634
G01 Z-1.9000
G01 Z0
G00 Z2.0000
G00 X116.3453 Y47.9034
G01 Z-1.9000
G01 Z0
G00 Z2.0000
G00 X116.3453 Y50.4434
G01 Z-1.9000
G01 Z0
G00 Z2.0000
G00 X113.8053 Y58.0634
G01 Z-1.9000
G01 Z0
G00 Z2.0000
G00 X111.2653 Y58.0634
G01 Z-1.9000
G01 Z0
G00 Z2.0000
G00 X111.2653 Y65.6834
G01 Z-1.9000
G01 Z0
G00 Z2.0000
G00 X116.3453 Y65.6834
G01 Z-1.9000
G01 Z0
G00 Z2.0000
G00 X116.3453 Y68.2234
G01 Z-1.9000
G01 Z0
G00 Z2.0000
G00 X116.3453 Y70.7634
G01 Z-1.9000
G01 Z0
G00 Z2.0000
G00 X116.3453 Y73.3034
G01 Z-1.9000
G01 Z0
G00 Z2.0000
G00 X113.8053 Y80.9234
G01 Z-1.9000
G01 Z0
G00 Z2.0000
G00 X111.2653 Y80.9234
G01 Z-1.9000
G01 Z0
G00 Z2.0000
G00 X103.6453 Y73.3034
G01 Z-1.9000
G01 Z0
G00 Z2.0000
G00 X103.6453 Y70.7634
G01 Z-1.9000
G01 Z0
G00 Z2.0000
G00 X103.6453 Y68.2234
G01 Z-1.9000
G01 Z0
G00 Z2.0000
G00 X103.6453 Y65.6834
G01 Z-1.9000
G01 Z0
G00 Z2.0000
G00 X98.5653 Y65.6834
G01 Z-1.9000
G01 Z0
G00 Z2.0000
G00 X98.5653 Y58.0634
G01 Z-1.9000
G01 Z0
G00 Z2.0000
G00 X101.1053 Y58.0634
G01 Z-1.9000
G01 Z0
G00 Z2.0000
G00 X103.6453 Y50.4434
G01 Z-1.9000
G01 Z0
G00 Z2.0000
G00 X103.6453 Y47.9034
G01 Z-1.9000
G01 Z0
G00 Z2.0000
G00 X103.6453 Y45.3634
G01 Z-1.9000
G01 Z0
G00 Z2.0000
G00 X106.1853 Y45.3634
G01 Z-1.9000
G01 Z0
G00 Z2.0000
G00 X106.1853 Y40.2834
G01 Z-1.9000
G01 Z0
G00 Z2.0000
G00 X93.4853 Y40.2834
G01 Z-1.9000
G01 Z0
G00 Z2.0000
G00 X93.4853 Y45.3634
G01 Z-1.9000
G01 Z0
G00 Z2.0000
G00 X90.9453 Y45.3634
G01 Z-1.9000
G01 Z0
G00 Z2.0000
G00 X90.9453 Y47.9034
G01 Z-1.9000
G01 Z0
G00 Z2.0000
G00 X90.9453 Y50.4434
G01 Z-1.9000
G01 Z0
G00 Z2.0000
G00 X88.4053 Y58.0634
G01 Z-1.9000
G01 Z0
G00 Z2.0000
G00 X85.8653 Y58.0634
G01 Z-1.9000
G01 Z0
G00 Z2.0000
G00 X85.8653 Y65.6834
G01 Z-1.9000
G01 Z0
G00 Z2.0000
G00 X90.9453 Y65.6834
G01 Z-1.9000
G01 Z0
G00 Z2.0000
G00 X90.9453 Y68.2234
G01 Z-1.9000
G01 Z0
G00 Z2.0000
G00 X90.9453 Y70.7634
G01 Z-1.9000
G01 Z0
G00 Z2.0000
G00 X90.9453 Y73.3034
G01 Z-1.9000
G01 Z0
G00 Z2.0000
G00 X78.2453 Y73.3034
G01 Z-1.9000
G01 Z0
G00 Z2.0000
G00 X78.2453 Y70.7634
G01 Z-1.9000
G01 Z0
G00 Z2.0000
G00 X78.2453 Y68.2234
G01 Z-1.9000
G01 Z0
G00 Z2.0000
G00 X78.2453 Y65.6834
G01 Z-1.9000
G01 Z0
G00 Z2.0000
G00 X73.1653 Y65.6834
G01 Z-1.9000
G01 Z0
G00 Z2.0000
G00 X73.1653 Y58.0634
G01 Z-1.9000
G01 Z0
G00 Z2.0000
G00 X75.7053 Y58.0634
G01 Z-1.9000
G01 Z0
G00 Z2.0000
G00 X78.2453 Y50.4434
G01 Z-1.9000
G01 Z0
G00 Z2.0000
G00 X78.2453 Y47.9034
G01 Z-1.9000
G01 Z0
G00 Z2.0000
G00 X78.2453 Y45.3634
G01 Z-1.9000
G01 Z0
G00 Z2.0000
G00 X80.7853 Y45.3634
G01 Z-1.9000
G01 Z0
G00 Z2.0000
G00 X80.7853 Y40.2834
G01 Z-1.9000
G01 Z0
G00 Z2.0000
G00 X68.0853 Y40.2834
G01 Z-1.9000
G01 Z0
G00 Z2.0000
G00 X68.0853 Y45.3634
G01 Z-1.9000
G01 Z0
G00 Z2.0000
G00 X65.5453 Y45.3634
G01 Z-1.9000
G01 Z0
G00 Z2.0000
G00 X65.5453 Y47.9034
G01 Z-1.9000
G01 Z0
G00 Z2.0000
G00 X65.5453 Y50.4434
G01 Z-1.9000
G01 Z0
G00 Z2.0000
G00 X63.0053 Y58.0634
G01 Z-1.9000
G01 Z0
G00 Z2.0000
G00 X60.4653 Y58.0634
G01 Z-1.9000
G01 Z0
G00 Z2.0000
G00 X60.4653 Y65.6834
G01 Z-1.9000
G01 Z0
G00 Z2.0000
G00 X65.5453 Y65.6834
G01 Z-1.9000
G01 Z0
G00 Z2.0000
G00 X65.5453 Y68.2234
G01 Z-1.9000
G01 Z0
G00 Z2.0000
G00 X65.5453 Y70.7634
G01 Z-1.9000
G01 Z0
G00 Z2.0000
G00 X65.5453 Y73.3034
G01 Z-1.9000
G01 Z0
G00 Z2.0000
G00 X73.1653 Y80.9234
G01 Z-1.9000
G01 Z0
G00 Z2.0000
G00 X75.7053 Y80.9234
G01 Z-1.9000
G01 Z0
G00 Z2.0000
G00 X85.8653 Y80.9234
G01 Z-1.9000
G01 Z0
G00 Z2.0000
G00 X88.4053 Y80.9234
G01 Z-1.9000
G01 Z0
G00 Z2.0000
G00 X98.5653 Y80.9234
G01 Z-1.9000
G01 Z0
G00 Z2.0000
G00 X101.1053 Y80.9234
G01 Z-1.9000
G01 Z0
G00 Z2.0000
G00 X106.1853 Y96.1634
G01 Z-1.9000
G01 Z0
G00 Z2.0000
G00 X103.6453 Y96.1634
G01 Z-1.9000
G01 Z0
G00 Z2.0000
G00 X101.1053 Y96.1634
G01 Z-1.9000
G01 Z0
G00 Z2.0000
G00 X98.5653 Y96.1634
G01 Z-1.9000
G01 Z0
G00 Z2.0000
G00 X96.0253 Y96.1634
G01 Z-1.9000
G01 Z0
G00 Z2.0000
G00 X93.4853 Y96.1634
G01 Z-1.9000
G01 Z0
G00 Z2.0000
G00 X90.9453 Y96.1634
G01 Z-1.9000
G01 Z0
G00 Z2.0000
G00 X88.4053 Y96.1634
G01 Z-1.9000
G01 Z0
G00 Z2.0000
G00 X85.8653 Y96.1634
G01 Z-1.9000
G01 Z0
G00 Z2.0000
G00 X83.3253 Y96.1634
G01 Z-1.9000
G01 Z0
G00 Z2.0000
G00 X63.0053 Y80.9234
G01 Z-1.9000
G01 Z0
G00 Z2.0000
G00 X60.4653 Y80.9234
G01 Z-1.9000
G01 Z0
G00 Z2.0000
G00 X50.3053 Y80.9234
G01 Z-1.9000
G01 Z0
G00 Z2.0000
G00 X47.7653 Y80.9234
G01 Z-1.9000
G01 Z0
G00 Z2.0000
G00 X52.8453 Y73.3034
G01 Z-1.9000
G01 Z0
G00 Z2.0000
G00 X52.8453 Y70.7634
G01 Z-1.9000
G01 Z0
G00 Z2.0000
G00 X52.8453 Y68.2234
G01 Z-1.9000
G01 Z0
G00 Z2.0000
G00 X52.8453 Y65.6834
G01 Z-1.9000
G01 Z0
G00 Z2.0000
G00 X47.7653 Y65.6834
G01 Z-1.9000
G01 Z0
G00 Z2.0000
G00 X40.1453 Y65.6834
G01 Z-1.9000
G01 Z0
G00 Z2.0000
G00 X35.0653 Y65.6834
G01 Z-1.9000
G01 Z0
G00 Z2.0000
G00 X40.1453 Y68.2234
G01 Z-1.9000
G01 Z0
G00 Z2.0000
G00 X40.1453 Y70.7634
G01 Z-1.9000
G01 Z0
G00 Z2.0000
G00 X40.1453 Y73.3034
G01 Z-1.9000
G01 Z0
G00 Z2.0000
G00 X37.6053 Y80.9234
G01 Z-1.9000
G01 Z0
G00 Z2.0000
G00 X35.0653 Y80.9234
G01 Z-1.9000
G01 Z0
G00 Z2.0000
G00 X17.2853 Y96.1634
G01 Z-1.9000
G01 Z0
G00 Z2.0000
G00 X14.7453 Y96.1634
G01 Z-1.9000
G01 Z0
G00 Z2.0000
G00 X12.2053 Y96.1634
G01 Z-1.9000
G01 Z0
G00 Z2.0000
G00 X7.1253 Y96.1634
G01 Z-1.9000
G01 Z0
G00 Z2.0000
G00 X4.5853 Y96.1634
G01 Z-1.9000
G01 Z0
G00 Z2.0000
G00 X22.3653 Y80.9234
G01 Z-1.9000
G01 Z0
G00 Z2.0000
G00 X24.9053 Y80.9234
G01 Z-1.9000
G01 Z0
G00 Z2.0000
G00 X27.4453 Y73.3034
G01 Z-1.9000
G01 Z0
G00 Z2.0000
G00 X27.4453 Y70.7634
G01 Z-1.9000
G01 Z0
G00 Z2.0000
G00 X27.4453 Y68.2234
G01 Z-1.9000
G01 Z0
G00 Z2.0000
G00 X27.4453 Y65.6834
G01 Z-1.9000
G01 Z0
G00 Z2.0000
G00 X22.3653 Y65.6834
G01 Z-1.9000
G01 Z0
G00 Z2.0000
G00 X24.9053 Y58.0634
G01 Z-1.9000
G01 Z0
G00 Z2.0000
G00 X22.3653 Y58.0634
G01 Z-1.9000
G01 Z0
G00 Z2.0000
G00 X17.2853 Y58.0634
G01 Z-1.9000
G01 Z0
G00 Z2.0000
G00 X14.7453 Y45.3634
G01 Z-1.9000
G01 Z0
G00 Z2.0000
G00 X14.7453 Y40.2834
G01 Z-1.9000
G01 Z0
G00 Z2.0000
G00 X9.6653 Y42.8234
G01 Z-1.9000
G01 Z0
G00 Z2.0000
G00 X4.5853 Y42.8234
G01 Z-1.9000
G01 Z0
G00 Z2.0000
G00 X4.5853 Y30.1234
G01 Z-1.9000
G01 Z0
G00 Z2.0000
G00 X9.6653 Y30.1234
G01 Z-1.9000
G01 Z0
G00 Z2.0000
G00 X4.5853 Y4.7234
G01 Z-1.9000
G01 Z0
G00 Z2.0000
G00 X7.1253 Y4.7234
G01 Z-1.9000
G01 Z0
G00 Z2.0000
G00 X12.2053 Y4.7234
G01 Z-1.9000
G01 Z0
G00 Z2.0000
G00 X14.7453 Y4.7234
G01 Z-1.9000
G01 Z0
G00 Z2.0000
G00 X27.4453 Y9.8034
G01 Z-1.9000
G01 Z0
G00 Z2.0000
G00 X19.8253 Y19.9634
G01 Z-1.9000
G01 Z0
G00 Z2.0000
G00 X19.8253 Y25.0434
G01 Z-1.9000
G01 Z0
G00 Z2.0000
G00 X32.5253 Y27.5834
G01 Z-1.9000
G01 Z0
G00 Z2.0000
G00 X32.5253 Y32.6634
G01 Z-1.9000
G01 Z0
G00 Z2.0000
G00 X29.9853 Y35.2034
G01 Z-1.9000
G01 Z0
G00 Z2.0000
G00 X27.4453 Y35.2034
G01 Z-1.9000
G01 Z0
G00 Z2.0000
G00 X24.9053 Y35.2034
G01 Z-1.9000
G01 Z0
G00 Z2.0000
G00 X29.9853 Y40.2834
G01 Z-1.9000
G01 Z0
G00 Z2.0000
G00 X29.9853 Y45.3634
G01 Z-1.9000
G01 Z0
G00 Z2.0000
G00 X27.4453 Y45.3634
G01 Z-1.9000
G01 Z0
G00 Z2.0000
G00 X27.4453 Y47.9034
G01 Z-1.9000
G01 Z0
G00 Z2.0000
G00 X27.4453 Y50.4434
G01 Z-1.9000
G01 Z0
G00 Z2.0000
G00 X35.0653 Y58.0634
G01 Z-1.9000
G01 Z0
G00 Z2.0000
G00 X37.6053 Y58.0634
G01 Z-1.9000
G01 Z0
G00 Z2.0000
G00 X47.7653 Y58.0634
G01 Z-1.9000
G01 Z0
G00 Z2.0000
G00 X50.3053 Y58.0634
G01 Z-1.9000
G01 Z0
G00 Z2.0000
G00 X52.8453 Y50.4434
G01 Z-1.9000
G01 Z0
G00 Z2.0000
G00 X52.8453 Y47.9034
G01 Z-1.9000
G01 Z0
G00 Z2.0000
G00 X55.3853 Y45.3634
G01 Z-1.9000
G01 Z0
G00 Z2.0000
G00 X52.8453 Y45.3634
G01 Z-1.9000
G01 Z0
G00 Z2.0000
G00 X42.6853 Y45.3634
G01 Z-1.9000
G01 Z0
G00 Z2.0000
G00 X40.1453 Y50.4434
G01 Z-1.9000
G01 Z0
G00 Z2.0000
G00 X40.1453 Y47.9034
G01 Z-1.9000
G01 Z0
G00 Z2.0000
G00 X40.1453 Y45.3634
G01 Z-1.9000
G01 Z0
G00 Z2.0000
G00 X42.6853 Y40.2834
G01 Z-1.9000
G01 Z0
G00 Z2.0000
G00 X55.3853 Y40.2834
G01 Z-1.9000
G01 Z0
G00 Z2.0000
G00 X65.5453 Y4.7234
G01 Z-1.9000
G01 Z0
G00 Z2.0000
G00 X68.0853 Y4.7234
G01 Z-1.9000
G01 Z0
G00 Z2.0000
G00 X70.6253 Y4.7234
G01 Z-1.9000
G01 Z0
G00 Z2.0000
G00 X78.2453 Y4.7234
G01 Z-1.9000
G01 Z0
G00 Z2.0000
G00 X80.7853 Y4.7234
G01 Z-1.9000
G01 Z0
G00 Z2.0000
G00 X83.3253 Y4.7234
G01 Z-1.9000
G01 Z0
G00 Z2.0000
G00 X85.8653 Y4.7234
G01 Z-1.9000
G01 Z0
G00 Z2.0000
G00 X88.4053 Y4.7234
G01 Z-1.9000
G01 Z0
G00 Z2.0000
G00 X90.9453 Y4.7234
G01 Z-1.9000
G01 Z0
G00 Z2.0000
G00 X93.4853 Y4.7234
G01 Z-1.9000
G01 Z0
G00 Z2.0000
G00 X96.0253 Y4.7234
G01 Z-1.9000
G01 Z0
G00 Z2.0000
G00 X98.5653 Y4.7234
G01 Z-1.9000
G01 Z0
G00 Z2.0000
G00 X101.1053 Y4.7234
G01 Z-1.9000
G01 Z0
G00 Z2.0000
G00 X103.6453 Y4.7234
G01 Z-1.9000
G01 Z0
G00 Z2.0000
G00 X118.8853 Y40.2834
G01 Z-1.9000
G01 Z0
G00 Z2.0000
G00 X131.5853 Y40.2834
G01 Z-1.9000
G01 Z0
G00 Z2.0000
M05
G00 Z0.50
G00 X0.0 Y0.0

